<?xml version="1.0"?>
<VTKFile type="ImageData" version="0.1" byte_order="LittleEndian">
<ImageData WholeExtent="0 199 0 199 0 0" Origin="0 0 0" Spacing="15 15 0">
<Piece Extent="0 199 0 199 0 0">
<PointData Scalars="Amplitude">
<DataArray type="Float32" Name="Amplitude" format="ascii">
0 0 0 0 0 0 0 0 0 0 0 0 0 0 0 0 0 0 0 0 0 0 0 0 0 0 0 0 0 0 0 0 0 0 0 0 0 0 0 0 0 0 0 0 0 0 0 0 0 0 0 0 0 0 0 0 0 0 0 0 0 0 0 0 0 0 0 0 0 0 0 0 0 0 0 0 0 0 0 0 0 0 0 0 0 0 0 0 0 0 0 0 0 0 0 0 0 0 0 0 0 0 0 0 0 0 0 0 0 0 0 0 0 0 0 0 0 0 0 0 0 0 0 0 0 0 0 0 0 0 0 0 0 0 0 0 0 0 0 0 0 0 0 0 0 0 0 0 0 0 0 0 0 0 0 0 0 0 0 0 0 0 0 0 0 0 0 0 0 0 0 0 0 0 0 0 0 0 0 0 0 0 0 0 0 0 0 0 0 0 0 0 0 0 0 0 0 0 0 0 
0 0 0 0 0 0 0 0 0 0 0 0 0 0 0 0 0 0 0 0 0 0 0 0 0 0 0 0 0 0 0 0 0 0 0 0 0 0 0 0 0 0 0 0 0 0 0 0 0 0 0 0 0 0 0 0 0 0 0 0 0 0 0 0 0 0 0 0 0 0 0 0 0 0 0 0 0 0 0 0 0 0 0 0 0 0 0 0 0 0 0 0 0 0 0 0 0 0 0 0 0 0 0 0 0 0 0 0 0 0 0 0 0 0 0 0 0 0 0 0 0 0 0 0 0 0 0 0 0 0 0 0 0 0 0 0 0 0 0 0 0 0 0 0 0 0 0 0 0 0 0 0 0 0 0 0 0 0 0 0 0 0 0 0 0 0 0 0 0 0 0 0 0 0 0 0 0 0 0 0 0 0 0 0 0 0 0 0 0 0 0 0 0 0 0 0 0 0 0 0 
0 0 0 0 0 0 0 0 0 0 0 0 0 0 0 0 0 0 0 0 0 0 0 0 0 0 0 0 0 0 0 0 0 0 0 0 0 0 0 0 0 -0 -0 -0 -5.97151e-44 2.32074e-43 4.36734e-42 1.64447e-41 -8.08732e-42 -3.10301e-40 -1.14338e-39 1.69014e-40 1.80651e-38 7.26206e-38 4.83776e-38 -7.8193e-37 -3.91396e-36 -6.70973e-36 1.85649e-35 1.55463e-34 4.54922e-34 3.01794e-34 -3.25437e-33 -1.66308e-32 -4.0941e-32 -3.05462e-32 2.01694e-31 1.06951e-30 2.96293e-30 4.89778e-30 1.0851e-30 -2.44618e-29 -1.01204e-28 -2.61664e-28 -4.97321e-28 -6.5916e-28 -2.97982e-28 1.51663e-27 6.29254e-27 1.59546e-26 3.22329e-26 5.5473e-26 8.29133e-26 1.06737e-25 1.12461e-25 7.83661e-26 -2.33876e-26 -2.23672e-25 -5.51562e-25 -1.02858e-24 -1.66327e-24 -2.44745e-24 -3.35504e-24 -4.34393e-24 -5.3605e-24 -6.34563e-24 -7.24094e-24 -7.99421e-24 -8.56297e-24 -8.91648e-24 -9.03635e-24 -8.91648e-24 -8.56297e-24 -7.99421e-24 -7.24094e-24 -6.34563e-24 -5.3605e-24 -4.34393e-24 -3.35504e-24 -2.44745e-24 -1.66327e-24 -1.02858e-24 -5.51562e-25 -2.23672e-25 -2.33876e-26 7.83661e-26 1.12461e-25 1.06737e-25 8.29133e-26 5.5473e-26 3.22329e-26 1.59546e-26 6.29254e-27 1.51663e-27 -2.97982e-28 -6.5916e-28 -4.97321e-28 -2.61664e-28 -1.01204e-28 -2.44618e-29 1.0851e-30 4.89778e-30 2.96293e-30 1.06951e-30 2.01694e-31 -3.05462e-32 -4.0941e-32 -1.66308e-32 -3.25437e-33 3.01794e-34 4.54922e-34 1.55463e-34 1.85649e-35 -6.70973e-36 -3.91396e-36 -7.8193e-37 4.83776e-38 7.26206e-38 1.80651e-38 1.69014e-40 -1.14338e-39 -3.10301e-40 -8.08732e-42 1.64447e-41 4.36734e-42 2.32074e-43 -5.97151e-44 -0 -0 -0 0 0 0 0 0 0 0 0 0 0 0 0 0 0 0 0 0 0 0 0 0 0 0 0 0 0 0 0 0 0 0 0 0 0 0 0 0 0 0 0 
0 0 0 0 0 0 0 0 0 0 0 0 0 0 0 0 0 0 0 0 0 0 0 0 0 0 0 0 0 0 0 0 0 0 0 0 0 0 0 0 0 -6.77362e-45 -1.8642e-43 -8.51782e-43 4.41396e-44 1.5976e-41 6.3169e-41 -2.75847e-41 -1.19142e-39 -4.39045e-39 1.08248e-39 7.20793e-38 2.80705e-37 1.28394e-37 -3.33488e-36 -1.55785e-35 -2.25957e-35 9.55563e-35 6.64951e-34 1.72474e-33 1.48418e-34 -1.69536e-32 -7.27291e-32 -1.48983e-31 1.24836e-32 1.28571e-30 5.23221e-30 1.20513e-29 1.28553e-29 -2.65892e-29 -1.84095e-28 -5.69547e-28 -1.2128e-27 -1.75167e-27 -8.57347e-28 4.49731e-27 1.94938e-26 5.08053e-26 1.03689e-25 1.75857e-25 2.47963e-25 2.72065e-25 1.6121e-25 -2.15228e-25 -1.02573e-24 -2.45723e-24 -4.68269e-24 -7.82079e-24 -1.1897e-23 -1.68172e-23 -2.23638e-23 -2.82189e-23 -3.40108e-23 -3.93763e-23 -4.40216e-23 -4.7767e-23 -5.05652e-23 -5.24865e-23 -5.36786e-23 -5.43073e-23 -5.4501e-23 -5.43073e-23 -5.36786e-23 -5.24865e-23 -5.05652e-23 -4.7767e-23 -4.40216e-23 -3.93763e-23 -3.40108e-23 -2.82189e-23 -2.23638e-23 -1.68172e-23 -1.1897e-23 -7.82079e-24 -4.68269e-24 -2.45723e-24 -1.02573e-24 -2.15228e-25 1.6121e-25 2.72065e-25 2.47963e-25 1.75857e-25 1.03689e-25 5.08053e-26 1.94938e-26 4.49731e-27 -8.57347e-28 -1.75167e-27 -1.2128e-27 -5.69547e-28 -1.84095e-28 -2.65892e-29 1.28553e-29 1.20513e-29 5.23221e-30 1.28571e-30 1.24836e-32 -1.48983e-31 -7.27291e-32 -1.69536e-32 1.48418e-34 1.72474e-33 6.64951e-34 9.55563e-35 -2.25957e-35 -1.55785e-35 -3.33488e-36 1.28394e-37 2.80705e-37 7.20793e-38 1.08248e-39 -4.39045e-39 -1.19142e-39 -2.75847e-41 6.3169e-41 1.5976e-41 4.41396e-44 -8.51782e-43 -1.8642e-43 -6.77362e-45 0 0 0 0 0 0 0 0 0 0 0 0 0 0 0 0 0 0 0 0 0 0 0 0 0 0 0 0 0 0 0 0 0 0 0 0 0 0 0 0 
0 0 0 0 0 0 0 0 0 0 0 0 0 0 0 0 0 0 0 0 0 0 0 0 0 0 0 0 0 0 0 0 0 0 0 0 0 0 0 0 -0 -9.14152e-44 -1.127e-42 -2.96212e-42 9.75141e-42 9.34127e-41 1.97312e-40 -8.39341e-40 -6.71856e-39 -1.35072e-38 5.10151e-38 4.13874e-37 9.48121e-37 -1.94806e-36 -2.09374e-35 -6.12653e-35 8.25183e-36 7.71737e-34 3.126e-33 4.56018e-33 -1.38288e-32 -1.03651e-31 -3.01376e-31 -3.17393e-31 1.2727e-30 7.85943e-30 2.25924e-29 3.54184e-29 -1.04842e-29 -2.68373e-28 -9.9714e-28 -2.37487e-27 -3.85991e-27 -2.86982e-27 7.09454e-27 3.79161e-26 1.05746e-25 2.24074e-25 3.87733e-25 5.46549e-25 5.71588e-25 2.22754e-25 -8.68289e-25 -3.18383e-24 -7.26249e-24 -1.35968e-23 -2.24996e-23 -3.39699e-23 -4.75969e-23 -6.25396e-23 -7.76071e-23 -9.14356e-23 -1.02732e-22 -1.10531e-22 -1.14404e-22 -1.14564e-22 -1.11832e-22 -1.0748e-22 -1.02968e-22 -9.96313e-23 -9.84076e-23 -9.96313e-23 -1.02968e-22 -1.0748e-22 -1.11832e-22 -1.14564e-22 -1.14404e-22 -1.10531e-22 -1.02732e-22 -9.14356e-23 -7.76071e-23 -6.25396e-23 -4.75969e-23 -3.39699e-23 -2.24996e-23 -1.35968e-23 -7.26249e-24 -3.18383e-24 -8.68289e-25 2.22754e-25 5.71588e-25 5.46549e-25 3.87733e-25 2.24074e-25 1.05746e-25 3.79161e-26 7.09454e-27 -2.86982e-27 -3.85991e-27 -2.37487e-27 -9.9714e-28 -2.68373e-28 -1.04842e-29 3.54184e-29 2.25924e-29 7.85943e-30 1.2727e-30 -3.17393e-31 -3.01376e-31 -1.03651e-31 -1.38288e-32 4.56018e-33 3.126e-33 7.71737e-34 8.25183e-36 -6.12653e-35 -2.09374e-35 -1.94806e-36 9.48121e-37 4.13874e-37 5.10151e-38 -1.35072e-38 -6.71856e-39 -8.39341e-40 1.97312e-40 9.34127e-41 9.75141e-42 -2.96212e-42 -1.127e-42 -9.14152e-44 -0 0 0 0 0 0 0 0 0 0 0 0 0 0 0 0 0 0 0 0 0 0 0 0 0 0 0 0 0 0 0 0 0 0 0 0 0 0 0 0 
0 0 0 0 0 0 0 0 0 0 0 0 0 0 0 0 0 0 0 0 0 0 0 0 0 0 0 0 0 0 0 0 0 0 0 0 0 0 0 -0 -3.76143e-43 -2.48391e-42 -2.89425e-42 3.68415e-41 2.00783e-40 1.19847e-40 -3.10215e-39 -1.4516e-38 -6.72341e-39 2.06933e-37 9.45601e-37 7.47996e-37 -1.06346e-35 -5.41456e-35 -8.05963e-35 3.64836e-34 2.51142e-33 6.11573e-33 -3.04984e-33 -7.91711e-32 -2.99052e-31 -4.66447e-31 8.66388e-31 7.77557e-30 2.49457e-29 4.08085e-29 -2.10022e-29 -3.76125e-28 -1.37647e-27 -3.12434e-27 -4.18479e-27 1.00552e-27 2.53976e-26 9.01667e-26 2.16465e-25 3.98561e-25 5.50064e-25 4.23825e-25 -4.75944e-25 -2.94729e-24 -8.04816e-24 -1.68934e-23 -3.02524e-23 -4.79662e-23 -6.82843e-23 -8.72976e-23 -9.86895e-23 -9.40063e-23 -6.35455e-23 2.1902e-24 1.10698e-22 2.65694e-22 4.65746e-22 7.03622e-22 9.66581e-22 1.23749e-21 1.49667e-21 1.72403e-21 1.90128e-21 2.01389e-21 2.05249e-21 2.01389e-21 1.90128e-21 1.72403e-21 1.49667e-21 1.23749e-21 9.66581e-22 7.03622e-22 4.65746e-22 2.65694e-22 1.10698e-22 2.1902e-24 -6.35455e-23 -9.40063e-23 -9.86895e-23 -8.72976e-23 -6.82843e-23 -4.79662e-23 -3.02524e-23 -1.68934e-23 -8.04816e-24 -2.94729e-24 -4.75944e-25 4.23825e-25 5.50064e-25 3.98561e-25 2.16465e-25 9.01667e-26 2.53976e-26 1.00552e-27 -4.18479e-27 -3.12434e-27 -1.37647e-27 -3.76125e-28 -2.10022e-29 4.08085e-29 2.49457e-29 7.77557e-30 8.66388e-31 -4.66447e-31 -2.99052e-31 -7.91711e-32 -3.04984e-33 6.11573e-33 2.51142e-33 3.64836e-34 -8.05963e-35 -5.41456e-35 -1.06346e-35 7.47996e-37 9.45601e-37 2.06933e-37 -6.72341e-39 -1.4516e-38 -3.10215e-39 1.19847e-40 2.00783e-40 3.68415e-41 -2.89425e-42 -2.48391e-42 -3.76143e-43 -0 0 0 0 0 0 0 0 0 0 0 0 0 0 0 0 0 0 0 0 0 0 0 0 0 0 0 0 0 0 0 0 0 0 0 0 0 0 0 
0 0 0 0 0 0 0 0 0 0 0 0 0 0 0 0 0 0 0 0 0 0 0 0 0 0 0 0 0 0 0 0 0 0 0 0 0 0 -3.83887e-44 -1.0694e-42 -4.73826e-42 2.26356e-42 1.02746e-40 3.61298e-40 -4.97466e-40 -8.55162e-39 -2.53898e-38 4.39864e-38 5.95897e-37 1.70957e-36 -2.22408e-36 -3.44391e-35 -1.09146e-34 2.58981e-35 1.55224e-33 6.08736e-33 6.28027e-33 -4.51464e-32 -2.5829e-31 -5.93232e-31 1.65101e-31 6.46502e-30 2.5404e-29 4.87523e-29 -9.7079e-30 -4.24111e-28 -1.66458e-27 -3.7908e-27 -4.28543e-27 6.38561e-27 4.98153e-26 1.57591e-25 3.45306e-25 5.39104e-25 4.38096e-25 -6.70191e-25 -4.05769e-24 -1.14975e-23 -2.47625e-23 -4.44513e-23 -6.80429e-23 -8.73593e-23 -8.59727e-23 -3.74492e-23 9.45472e-23 3.53443e-22 7.83973e-22 1.42408e-21 2.29601e-21 3.39883e-21 4.70449e-21 6.15888e-21 7.68826e-21 9.20933e-21 1.06413e-20 1.19162e-20 1.29856e-20 1.38222e-20 1.44163e-20 1.47695e-20 1.48864e-20 1.47695e-20 1.44163e-20 1.38222e-20 1.29856e-20 1.19162e-20 1.06413e-20 9.20933e-21 7.68826e-21 6.15888e-21 4.70449e-21 3.39883e-21 2.29601e-21 1.42408e-21 7.83973e-22 3.53443e-22 9.45472e-23 -3.74492e-23 -8.59727e-23 -8.73593e-23 -6.80429e-23 -4.44513e-23 -2.47625e-23 -1.14975e-23 -4.05769e-24 -6.70191e-25 4.38096e-25 5.39104e-25 3.45306e-25 1.57591e-25 4.98153e-26 6.38561e-27 -4.28543e-27 -3.7908e-27 -1.66458e-27 -4.24111e-28 -9.7079e-30 4.87523e-29 2.5404e-29 6.46502e-30 1.65101e-31 -5.93232e-31 -2.5829e-31 -4.51464e-32 6.28027e-33 6.08736e-33 1.55224e-33 2.58981e-35 -1.09146e-34 -3.44391e-35 -2.22408e-36 1.70957e-36 5.95897e-37 4.39864e-38 -2.53898e-38 -8.55162e-39 -4.97466e-40 3.61298e-40 1.02746e-40 2.26356e-42 -4.73826e-42 -1.0694e-42 -3.83887e-44 0 0 0 0 0 0 0 0 0 0 0 0 0 0 0 0 0 0 0 0 0 0 0 0 0 0 0 0 0 0 0 0 0 0 0 0 0 
0 0 0 0 0 0 0 0 0 0 0 0 0 0 0 0 0 0 0 0 0 0 0 0 0 0 0 0 0 0 0 0 0 0 0 0 -0 -2.11611e-43 -2.5146e-42 -7.47234e-42 2.22769e-41 2.38102e-40 4.94418e-40 -2.60861e-39 -1.9499e-38 -3.06133e-38 2.17275e-37 1.38701e-36 2.04604e-36 -1.35539e-35 -8.61018e-35 -1.5233e-34 5.9224e-34 4.50063e-33 1.07969e-32 -1.18807e-32 -1.79187e-31 -6.06705e-31 -5.44713e-31 4.13199e-30 2.26921e-29 5.48744e-29 2.13473e-29 -3.86178e-28 -1.77103e-27 -4.29032e-27 -4.5776e-27 1.09852e-26 7.36063e-26 2.2464e-25 4.58095e-25 5.63841e-25 -1.53799e-25 -3.20308e-24 -1.0992e-23 -2.61233e-23 -4.91571e-23 -7.42017e-23 -8.22921e-23 -3.36581e-23 1.38518e-22 5.28975e-22 1.25164e-21 2.41836e-21 4.10541e-21 6.3127e-21 8.92553e-21 1.16917e-20 1.42256e-20 1.60467e-20 1.66518e-20 1.56082e-20 1.26506e-20 7.76e-21 1.20405e-21 -6.47258e-21 -1.4508e-20 -2.20236e-20 -2.81498e-20 -3.21531e-20 -3.35447e-20 -3.21531e-20 -2.81498e-20 -2.20236e-20 -1.4508e-20 -6.47258e-21 1.20405e-21 7.76e-21 1.26506e-20 1.56082e-20 1.66518e-20 1.60467e-20 1.42256e-20 1.16917e-20 8.92553e-21 6.3127e-21 4.10541e-21 2.41836e-21 1.25164e-21 5.28975e-22 1.38518e-22 -3.36581e-23 -8.22921e-23 -7.42017e-23 -4.91571e-23 -2.61233e-23 -1.0992e-23 -3.20308e-24 -1.53799e-25 5.63841e-25 4.58095e-25 2.2464e-25 7.36063e-26 1.09852e-26 -4.5776e-27 -4.29032e-27 -1.77103e-27 -3.86178e-28 2.13473e-29 5.48744e-29 2.26921e-29 4.13199e-30 -5.44713e-31 -6.06705e-31 -1.79187e-31 -1.18807e-32 1.07969e-32 4.50063e-33 5.9224e-34 -1.5233e-34 -8.61018e-35 -1.35539e-35 2.04604e-36 1.38701e-36 2.17275e-37 -3.06133e-38 -1.9499e-38 -2.60861e-39 4.94418e-40 2.38102e-40 2.22769e-41 -7.47234e-42 -2.5146e-42 -2.11611e-43 -0 0 0 0 0 0 0 0 0 0 0 0 0 0 0 0 0 0 0 0 0 0 0 0 0 0 0 0 0 0 0 0 0 0 0 0 
0 0 0 0 0 0 0 0 0 0 0 0 0 0 0 0 0 0 0 0 0 0 0 0 0 0 0 0 0 0 0 0 0 0 0 -1.37701e-45 -6.82997e-43 -5.28772e-42 -8.60632e-42 7.67367e-41 4.74109e-40 3.09888e-40 -8.0284e-39 -3.74948e-38 -1.1631e-39 6.61483e-37 2.66046e-36 -3.41355e-37 -4.41643e-35 -1.7319e-34 -4.05988e-35 2.33821e-33 1.01235e-32 1.01912e-32 -8.84789e-32 -4.91216e-31 -9.8259e-31 1.50887e-30 1.69502e-29 5.47996e-29 5.99922e-29 -2.67558e-28 -1.64853e-27 -4.54856e-27 -5.47583e-27 1.21703e-26 8.88649e-26 2.76353e-25 5.38915e-25 4.7774e-25 -1.15418e-24 -6.91963e-24 -2.03855e-23 -4.35749e-23 -7.0308e-23 -7.41414e-23 8.04885e-24 2.91512e-22 9.47335e-22 2.17929e-21 4.1583e-21 6.90614e-21 1.01345e-20 1.3068e-20 1.43002e-20 1.17446e-20 2.73667e-21 -1.56862e-20 -4.63443e-20 -9.13854e-20 -1.51772e-19 -2.26908e-19 -3.14489e-19 -4.10626e-19 -5.10222e-19 -6.07493e-19 -6.96567e-19 -7.72029e-19 -8.29337e-19 -8.65107e-19 -8.77262e-19 -8.65107e-19 -8.29337e-19 -7.72029e-19 -6.96567e-19 -6.07493e-19 -5.10222e-19 -4.10626e-19 -3.14489e-19 -2.26908e-19 -1.51772e-19 -9.13854e-20 -4.63443e-20 -1.56862e-20 2.73667e-21 1.17446e-20 1.43002e-20 1.3068e-20 1.01345e-20 6.90614e-21 4.1583e-21 2.17929e-21 9.47335e-22 2.91512e-22 8.04885e-24 -7.41414e-23 -7.0308e-23 -4.35749e-23 -2.03855e-23 -6.91963e-24 -1.15418e-24 4.7774e-25 5.38915e-25 2.76353e-25 8.88649e-26 1.21703e-26 -5.47583e-27 -4.54856e-27 -1.64853e-27 -2.67558e-28 5.99922e-29 5.47996e-29 1.69502e-29 1.50887e-30 -9.8259e-31 -4.91216e-31 -8.84789e-32 1.01912e-32 1.01235e-32 2.33821e-33 -4.05988e-35 -1.7319e-34 -4.41643e-35 -3.41355e-37 2.66046e-36 6.61483e-37 -1.1631e-39 -3.74948e-38 -8.0284e-39 3.09888e-40 4.74109e-40 7.67367e-41 -8.60632e-42 -5.28772e-42 -6.82997e-43 -1.37701e-45 0 0 0 0 0 0 0 0 0 0 0 0 0 0 0 0 0 0 0 0 0 0 0 0 0 0 0 0 0 0 0 0 0 0 
0 0 0 0 0 0 0 0 0 0 0 0 0 0 0 0 0 0 0 0 0 0 0 0 0 0 0 0 0 0 0 0 0 0 -5.38107e-44 -1.79645e-42 -9.68179e-42 -1.93719e-42 1.98326e-40 8.06566e-40 -9.20971e-40 -1.96092e-38 -5.91727e-38 1.33338e-37 1.59943e-36 4.01621e-36 -1.11361e-35 -1.10597e-34 -2.68215e-34 6.11972e-34 6.44914e-33 1.75261e-32 -1.69634e-32 -3.01081e-31 -1.02256e-30 -5.46232e-31 9.69416e-30 4.62662e-29 8.81496e-29 -1.06959e-28 -1.30337e-27 -4.41666e-27 -6.80742e-27 8.80855e-27 9.01173e-26 3.02709e-25 5.93494e-25 3.78455e-25 -2.19562e-24 -1.08415e-23 -2.99397e-23 -5.8381e-23 -7.45e-23 -1.03842e-23 2.78549e-22 1.02901e-21 2.53351e-21 5.00277e-21 8.28038e-21 1.1394e-20 1.19891e-20 5.77835e-21 -1.37799e-20 -5.532e-20 -1.28716e-19 -2.43485e-19 -4.06627e-19 -6.20345e-19 -8.80257e-19 -1.17473e-18 -1.48574e-18 -1.79134e-18 -2.06921e-18 -2.30073e-18 -2.47433e-18 -2.58749e-18 -2.64675e-18 -2.6658e-18 -2.6619e-18 -2.6516e-18 -2.64673e-18 -2.6516e-18 -2.6619e-18 -2.6658e-18 -2.64675e-18 -2.58749e-18 -2.47433e-18 -2.30073e-18 -2.06921e-18 -1.79134e-18 -1.48574e-18 -1.17473e-18 -8.80257e-19 -6.20345e-19 -4.06627e-19 -2.43485e-19 -1.28716e-19 -5.532e-20 -1.37799e-20 5.77835e-21 1.19891e-20 1.1394e-20 8.28038e-21 5.00277e-21 2.53351e-21 1.02901e-21 2.78549e-22 -1.03842e-23 -7.45e-23 -5.8381e-23 -2.99397e-23 -1.08415e-23 -2.19562e-24 3.78455e-25 5.93494e-25 3.02709e-25 9.01173e-26 8.80855e-27 -6.80742e-27 -4.41666e-27 -1.30337e-27 -1.06959e-28 8.81496e-29 4.62662e-29 9.69416e-30 -5.46232e-31 -1.02256e-30 -3.01081e-31 -1.69634e-32 1.75261e-32 6.44914e-33 6.11972e-34 -2.68215e-34 -1.10597e-34 -1.11361e-35 4.01621e-36 1.59943e-36 1.33338e-37 -5.91727e-38 -1.96092e-38 -9.20971e-40 8.06566e-40 1.98326e-40 -1.93719e-42 -9.68179e-42 -1.79645e-42 -5.38107e-44 0 0 0 0 0 0 0 0 0 0 0 0 0 0 0 0 0 0 0 0 0 0 0 0 0 0 0 0 0 0 0 0 0 
0 0 0 0 0 0 0 0 0 0 0 0 0 0 0 0 0 0 0 0 0 0 0 0 0 0 0 0 0 0 0 0 0 -2.36382e-43 -3.98532e-42 -1.54436e-41 2.56468e-41 4.32604e-40 1.11465e-39 -4.68361e-39 -4.07301e-38 -6.71887e-38 5.11705e-37 3.2558e-36 3.72712e-36 -4.15914e-35 -2.28408e-34 -2.40752e-34 2.60939e-33 1.41774e-32 1.94012e-32 -1.20389e-31 -7.54109e-31 -1.52135e-30 3.18345e-30 3.13803e-29 9.2943e-29 3.87874e-29 -8.18342e-28 -3.78321e-27 -7.84313e-27 2.01307e-27 7.62774e-26 2.97901e-25 6.29582e-25 3.80956e-25 -2.81553e-24 -1.37705e-23 -3.7364e-23 -6.71186e-23 -5.7531e-23 1.20912e-22 7.24758e-22 2.12201e-21 4.61567e-21 7.97502e-21 1.05699e-20 8.12393e-21 -7.66615e-21 -5.00887e-20 -1.37114e-19 -2.88895e-19 -5.22396e-19 -8.43215e-19 -1.23576e-18 -1.65412e-18 -2.01686e-18 -2.20875e-18 -2.09141e-18 -1.52262e-18 -3.81709e-19 1.40395e-18 3.83683e-18 6.83682e-18 1.02415e-17 1.38193e-17 1.72946e-17 2.03785e-17 2.28031e-17 2.43519e-17 2.48844e-17 2.43519e-17 2.28031e-17 2.03785e-17 1.72946e-17 1.38193e-17 1.02415e-17 6.83682e-18 3.83683e-18 1.40395e-18 -3.81709e-19 -1.52262e-18 -2.09141e-18 -2.20875e-18 -2.01686e-18 -1.65412e-18 -1.23576e-18 -8.43215e-19 -5.22396e-19 -2.88895e-19 -1.37114e-19 -5.00887e-20 -7.66615e-21 8.12393e-21 1.05699e-20 7.97502e-21 4.61567e-21 2.12201e-21 7.24758e-22 1.20912e-22 -5.7531e-23 -6.71186e-23 -3.7364e-23 -1.37705e-23 -2.81553e-24 3.80956e-25 6.29582e-25 2.97901e-25 7.62774e-26 2.01307e-27 -7.84313e-27 -3.78321e-27 -8.18342e-28 3.87874e-29 9.2943e-29 3.13803e-29 3.18345e-30 -1.52135e-30 -7.54109e-31 -1.20389e-31 1.94012e-32 1.41774e-32 2.60939e-33 -2.40752e-34 -2.28408e-34 -4.15914e-35 3.72712e-36 3.2558e-36 5.11705e-37 -6.71887e-38 -4.07301e-38 -4.68361e-39 1.11465e-39 4.32604e-40 2.56468e-41 -1.54436e-41 -3.98532e-42 -2.36382e-43 0 0 0 0 0 0 0 0 0 0 0 0 0 0 0 0 0 0 0 0 0 0 0 0 0 0 0 0 0 0 0 0 
0 0 0 0 0 0 0 0 0 0 0 0 0 0 0 0 0 0 0 0 0 0 0 0 0 0 0 0 0 0 0 -0 -7.43627e-43 -7.96525e-42 -2.02898e-41 9.88082e-41 8.24319e-40 1.01043e-39 -1.35349e-38 -7.3162e-38 -1.43593e-38 1.36132e-36 5.60882e-36 -2.71661e-36 -1.09779e-34 -3.89591e-34 2.62044e-34 7.27969e-33 2.52197e-32 -6.76326e-33 -3.90079e-31 -1.49231e-30 -8.85751e-31 1.55137e-29 7.45965e-29 1.23664e-28 -3.34795e-28 -2.72419e-27 -7.80413e-27 -5.3788e-27 5.12558e-26 2.6019e-25 6.37653e-25 5.24227e-25 -2.71948e-24 -1.48398e-23 -4.14186e-23 -7.06857e-23 -3.0471e-23 2.80005e-22 1.2382e-21 3.29583e-21 6.49226e-21 9.30007e-21 6.64028e-21 -1.26795e-20 -6.80909e-20 -1.86954e-19 -3.98945e-19 -7.22114e-19 -1.13879e-18 -1.56246e-18 -1.80131e-18 -1.52864e-18 -2.73881e-19 2.55358e-18 7.60088e-18 1.54729e-17 2.6614e-17 4.11963e-17 5.90413e-17 7.95997e-17 1.01994e-16 1.2512e-16 1.47779e-16 1.68816e-16 1.87232e-16 2.0224e-16 2.13292e-16 2.20042e-16 2.22311e-16 2.20042e-16 2.13292e-16 2.0224e-16 1.87232e-16 1.68816e-16 1.47779e-16 1.2512e-16 1.01994e-16 7.95997e-17 5.90413e-17 4.11963e-17 2.6614e-17 1.54729e-17 7.60088e-18 2.55358e-18 -2.73881e-19 -1.52864e-18 -1.80131e-18 -1.56246e-18 -1.13879e-18 -7.22114e-19 -3.98945e-19 -1.86954e-19 -6.80909e-20 -1.26795e-20 6.64028e-21 9.30007e-21 6.49226e-21 3.29583e-21 1.2382e-21 2.80005e-22 -3.0471e-23 -7.06857e-23 -4.14186e-23 -1.48398e-23 -2.71948e-24 5.24227e-25 6.37653e-25 2.6019e-25 5.12558e-26 -5.3788e-27 -7.80413e-27 -2.72419e-27 -3.34795e-28 1.23664e-28 7.45965e-29 1.55137e-29 -8.85751e-31 -1.49231e-30 -3.90079e-31 -6.76326e-33 2.52197e-32 7.27969e-33 2.62044e-34 -3.89591e-34 -1.09779e-34 -2.71661e-36 5.60882e-36 1.36132e-36 -1.43593e-38 -7.3162e-38 -1.35349e-38 1.01043e-39 8.24319e-40 9.88082e-41 -2.02898e-41 -7.96525e-42 -7.43627e-43 -0 0 0 0 0 0 0 0 0 0 0 0 0 0 0 0 0 0 0 0 0 0 0 0 0 0 0 0 0 0 0 
0 0 0 0 0 0 0 0 0 0 0 0 0 0 0 0 0 0 0 0 0 0 0 0 0 0 0 0 0 0 -2.21927e-44 -1.93354e-42 -1.44072e-41 -1.8259e-41 2.56352e-40 1.38063e-39 -3.90854e-40 -3.11614e-38 -1.1197e-37 1.9884e-37 2.97984e-36 7.83286e-36 -2.45713e-35 -2.37647e-34 -5.11709e-34 1.97619e-33 1.62281e-32 3.38002e-32 -1.11325e-31 -9.45894e-31 -2.25252e-30 3.75825e-30 4.49109e-29 1.36226e-28 1.41766e-29 -1.52611e-27 -6.44719e-27 -1.03461e-26 2.29057e-26 1.95243e-25 5.95077e-25 7.38528e-25 -1.92943e-24 -1.37651e-23 -4.17695e-23 -7.21688e-23 -1.2132e-23 4.0419e-22 1.66354e-21 4.22875e-21 7.55099e-21 7.82296e-21 -5.65568e-21 -5.44382e-20 -1.72015e-19 -3.96107e-19 -7.44044e-19 -1.16336e-18 -1.45448e-18 -1.17316e-18 4.63588e-19 4.62759e-18 1.28357e-17 2.67687e-17 4.79394e-17 7.72446e-17 1.14493e-16 1.58044e-16 2.0469e-16 2.49896e-16 2.884e-16 3.15101e-16 3.26054e-16 3.19352e-16 2.95692e-16 2.58472e-16 2.13358e-16 1.67431e-16 1.28025e-16 1.01493e-16 9.21428e-17 1.01493e-16 1.28025e-16 1.67431e-16 2.13358e-16 2.58472e-16 2.95692e-16 3.19352e-16 3.26054e-16 3.15101e-16 2.884e-16 2.49896e-16 2.0469e-16 1.58044e-16 1.14493e-16 7.72446e-17 4.79394e-17 2.67687e-17 1.28357e-17 4.62759e-18 4.63588e-19 -1.17316e-18 -1.45448e-18 -1.16336e-18 -7.44044e-19 -3.96107e-19 -1.72015e-19 -5.44382e-20 -5.65568e-21 7.82296e-21 7.55099e-21 4.22875e-21 1.66354e-21 4.0419e-22 -1.2132e-23 -7.21688e-23 -4.17695e-23 -1.37651e-23 -1.92943e-24 7.38528e-25 5.95077e-25 1.95243e-25 2.29057e-26 -1.03461e-26 -6.44719e-27 -1.52611e-27 1.41766e-29 1.36226e-28 4.49109e-29 3.75825e-30 -2.25252e-30 -9.45894e-31 -1.11325e-31 3.38002e-32 1.62281e-32 1.97619e-33 -5.11709e-34 -2.37647e-34 -2.45713e-35 7.83286e-36 2.97984e-36 1.9884e-37 -1.1197e-37 -3.11614e-38 -3.90854e-40 1.38063e-39 2.56352e-40 -1.8259e-41 -1.44072e-41 -1.93354e-42 -2.21927e-44 0 0 0 0 0 0 0 0 0 0 0 0 0 0 0 0 0 0 0 0 0 0 0 0 0 0 0 0 0 
0 0 0 0 0 0 0 0 0 0 0 0 0 0 0 0 0 0 0 0 0 0 0 0 0 0 0 0 0 -1.48638e-43 -4.30079e-42 -2.32848e-41 3.42285e-42 5.50477e-40 1.99544e-39 -4.75467e-39 -6.17102e-38 -1.36045e-37 7.48143e-37 5.62275e-36 7.30881e-36 -7.76151e-35 -4.38183e-34 -3.48196e-34 6.15382e-33 3.02232e-32 2.14849e-32 -3.83824e-31 -1.86441e-30 -1.96023e-30 1.80892e-29 9.98091e-29 1.72761e-28 -5.34252e-28 -4.2505e-27 -1.13515e-26 -1.69555e-28 1.18237e-25 4.89747e-25 8.93825e-25 -7.61433e-25 -1.08595e-23 -3.84025e-23 -7.29515e-23 -1.52423e-23 4.43937e-22 1.88078e-21 4.74063e-21 7.73392e-21 4.19148e-21 -2.35288e-20 -1.08678e-19 -2.95803e-19 -6.13174e-19 -1.00328e-18 -1.19589e-18 -5.25283e-19 2.27118e-18 9.18418e-18 2.28513e-17 4.60949e-17 8.09444e-17 1.27133e-16 1.80256e-16 2.30028e-16 2.59217e-16 2.43912e-16 1.55485e-16 -3.5691e-17 -3.55282e-16 -8.19688e-16 -1.43151e-15 -2.17684e-15 -3.02494e-15 -3.93052e-15 -4.83804e-15 -5.6874e-15 -6.41993e-15 -6.98396e-15 -7.33932e-15 -7.46067e-15 -7.33932e-15 -6.98396e-15 -6.41993e-15 -5.6874e-15 -4.83804e-15 -3.93052e-15 -3.02494e-15 -2.17684e-15 -1.43151e-15 -8.19688e-16 -3.55282e-16 -3.5691e-17 1.55485e-16 2.43912e-16 2.59217e-16 2.30028e-16 1.80256e-16 1.27133e-16 8.09444e-17 4.60949e-17 2.28513e-17 9.18418e-18 2.27118e-18 -5.25283e-19 -1.19589e-18 -1.00328e-18 -6.13174e-19 -2.95803e-19 -1.08678e-19 -2.35288e-20 4.19148e-21 7.73392e-21 4.74063e-21 1.88078e-21 4.43937e-22 -1.52423e-23 -7.29515e-23 -3.84025e-23 -1.08595e-23 -7.61433e-25 8.93825e-25 4.89747e-25 1.18237e-25 -1.69555e-28 -1.13515e-26 -4.2505e-27 -5.34252e-28 1.72761e-28 9.98091e-29 1.80892e-29 -1.96023e-30 -1.86441e-30 -3.83824e-31 2.14849e-32 3.02232e-32 6.15382e-33 -3.48196e-34 -4.38183e-34 -7.76151e-35 7.30881e-36 5.62276e-36 7.48144e-37 -1.36045e-37 -6.17102e-38 -4.75467e-39 1.99544e-39 5.50477e-40 3.42285e-42 -2.32848e-41 -4.30079e-42 -1.48638e-43 0 0 0 0 0 0 0 0 0 0 0 0 0 0 0 0 0 0 0 0 0 0 0 0 0 0 0 0 
0 0 0 0 0 0 0 0 0 0 0 0 0 0 0 0 0 0 0 0 0 0 0 0 0 0 0 0 -4.88268e-43 -8.53426e-42 -3.34248e-41 6.72586e-41 1.03604e-39 2.32333e-39 -1.47708e-38 -1.0769e-37 -9.35857e-38 1.89655e-36 9.21892e-36 -1.8081e-36 -1.84031e-34 -6.84969e-34 6.37875e-34 1.44988e-32 4.6511e-32 -5.31088e-32 -9.48979e-31 -2.98303e-30 2.05122e-30 5.08046e-29 1.77315e-28 4.75892e-29 -2.06216e-27 -9.00331e-27 -1.26778e-26 4.91989e-26 3.3882e-25 8.89167e-25 3.36063e-25 -6.94463e-24 -3.16153e-23 -7.12259e-23 -3.80871e-23 3.86615e-22 1.84547e-21 4.82138e-21 7.47212e-21 5.16048e-22 -4.03926e-20 -1.58848e-19 -4.02192e-19 -7.575e-19 -1.00368e-18 -4.58454e-19 2.34833e-18 9.94054e-18 2.58188e-17 5.36114e-17 9.49605e-17 1.45797e-16 1.91092e-16 1.98916e-16 1.15484e-16 -1.3652e-16 -6.54077e-16 -1.54314e-15 -2.90164e-15 -4.79891e-15 -7.25624e-15 -1.02337e-14 -1.36273e-14 -1.72792e-14 -2.09981e-14 -2.45867e-14 -2.7869e-14 -3.07117e-14 -3.30344e-14 -3.48084e-14 -3.60428e-14 -3.67652e-14 -3.70025e-14 -3.67652e-14 -3.60428e-14 -3.48084e-14 -3.30344e-14 -3.07117e-14 -2.7869e-14 -2.45867e-14 -2.09981e-14 -1.72792e-14 -1.36273e-14 -1.02337e-14 -7.25624e-15 -4.79891e-15 -2.90164e-15 -1.54314e-15 -6.54077e-16 -1.3652e-16 1.15484e-16 1.98916e-16 1.91092e-16 1.45797e-16 9.49605e-17 5.36114e-17 2.58188e-17 9.94054e-18 2.34833e-18 -4.58454e-19 -1.00368e-18 -7.575e-19 -4.02192e-19 -1.58848e-19 -4.03926e-20 5.16048e-22 7.47212e-21 4.82138e-21 1.84547e-21 3.86615e-22 -3.80871e-23 -7.12259e-23 -3.16153e-23 -6.94463e-24 3.36063e-25 8.89167e-25 3.3882e-25 4.91989e-26 -1.26778e-26 -9.00331e-27 -2.06216e-27 4.75892e-29 1.77315e-28 5.08046e-29 2.05122e-30 -2.98303e-30 -9.48979e-31 -5.31088e-32 4.6511e-32 1.44988e-32 6.37875e-34 -6.84969e-34 -1.84031e-34 -1.80809e-36 9.21892e-36 1.89656e-36 -9.35857e-38 -1.0769e-37 -1.47708e-38 2.32333e-39 1.03604e-39 6.72586e-41 -3.34248e-41 -8.53426e-42 -4.88268e-43 0 0 0 0 0 0 0 0 0 0 0 0 0 0 0 0 0 0 0 0 0 0 0 0 0 0 0 
0 0 0 0 0 0 0 0 0 0 0 0 0 0 0 0 0 0 0 0 0 0 0 -0 0 0 -0 -1.33435e-42 -1.5267e-41 -4.05123e-41 2.08275e-40 1.743e-39 1.60405e-39 -3.41659e-38 -1.65619e-37 1.1616e-37 3.96654e-36 1.28328e-35 -3.02048e-35 -3.67402e-34 -8.56781e-34 3.40404e-33 2.86065e-32 5.38969e-32 -2.64721e-31 -1.92132e-30 -3.5204e-30 1.49018e-29 1.11064e-28 2.3829e-28 -5.3839e-28 -5.28485e-27 -1.47681e-26 3.24118e-27 1.83519e-25 7.16797e-25 1.00475e-24 -3.10957e-24 -2.24946e-23 -6.40467e-23 -6.67833e-23 2.57868e-22 1.58239e-21 4.5292e-21 7.20501e-21 -1.15007e-21 -4.9825e-20 -1.90017e-19 -4.64349e-19 -7.92812e-19 -7.17811e-19 1.0073e-18 6.86751e-18 2.0698e-17 4.67255e-17 8.64623e-17 1.32293e-16 1.57116e-16 1.00854e-16 -1.42995e-16 -7.3479e-16 -1.88229e-15 -3.81298e-15 -6.72196e-15 -1.07e-14 -1.56554e-14 -2.1252e-14 -2.68866e-14 -3.17253e-14 -3.48024e-14 -3.51746e-14 -3.20992e-14 -2.52028e-14 -1.4601e-14 -9.41892e-16 1.46388e-14 3.0646e-14 4.54172e-14 5.7344e-14 6.50904e-14 6.77755e-14 6.50904e-14 5.7344e-14 4.54172e-14 3.0646e-14 1.46388e-14 -9.41892e-16 -1.4601e-14 -2.52028e-14 -3.20992e-14 -3.51746e-14 -3.48024e-14 -3.17253e-14 -2.68866e-14 -2.1252e-14 -1.56554e-14 -1.07e-14 -6.72196e-15 -3.81298e-15 -1.88229e-15 -7.3479e-16 -1.42995e-16 1.00854e-16 1.57116e-16 1.32293e-16 8.64623e-17 4.67255e-17 2.0698e-17 6.86751e-18 1.0073e-18 -7.17811e-19 -7.92812e-19 -4.64349e-19 -1.90017e-19 -4.9825e-20 -1.15007e-21 7.20501e-21 4.5292e-21 1.58239e-21 2.57868e-22 -6.67833e-23 -6.40467e-23 -2.24946e-23 -3.10957e-24 1.00475e-24 7.16797e-25 1.83519e-25 3.24118e-27 -1.47681e-26 -5.28485e-27 -5.3839e-28 2.3829e-28 1.11064e-28 1.49018e-29 -3.5204e-30 -1.92132e-30 -2.64721e-31 5.38969e-32 2.86065e-32 3.40404e-33 -8.56781e-34 -3.67402e-34 -3.02048e-35 1.28328e-35 3.96654e-36 1.1616e-37 -1.65619e-37 -3.41659e-38 1.60405e-39 1.743e-39 2.08275e-40 -4.05123e-41 -1.5267e-41 -1.31453e-42 -0 0 0 -0 0 0 0 0 0 0 0 0 0 0 0 0 0 0 0 0 0 0 0 0 0 0 
0 0 0 0 0 0 0 0 0 0 0 0 0 0 0 0 0 0 0 0 0 0 -0 0 0 -2.51001e-44 -3.08173e-42 -2.50234e-41 -3.60033e-41 4.72873e-40 2.62423e-39 -1.54079e-39 -6.71856e-38 -2.18755e-37 6.59986e-37 7.2353e-36 1.38287e-35 -9.44966e-35 -6.38659e-34 -6.55132e-34 9.38026e-33 4.84991e-32 2.55067e-32 -7.24128e-31 -3.28169e-30 -1.49806e-30 4.44976e-29 2.00146e-28 1.65664e-28 -2.0967e-27 -1.06755e-26 -1.64504e-26 6.43947e-26 4.56843e-25 1.1385e-24 -2.90871e-25 -1.30096e-23 -5.05838e-23 -8.49516e-23 1.06582e-22 1.16631e-21 3.91495e-21 6.9995e-21 -1.28875e-22 -4.88907e-20 -1.95546e-19 -4.77669e-19 -7.47768e-19 -3.00154e-19 2.70205e-18 1.17082e-17 3.13367e-17 6.44332e-17 1.04414e-16 1.20756e-16 3.72221e-17 -2.93352e-16 -1.10688e-15 -2.71958e-15 -5.46882e-15 -9.58159e-15 -1.49642e-14 -2.09352e-14 -2.59608e-14 -2.74766e-14 -2.18939e-14 -4.85738e-15 2.82313e-14 8.14901e-14 1.57758e-13 2.57891e-13 3.80315e-13 5.20934e-13 6.73429e-13 8.29851e-13 9.81429e-13 1.1194e-12 1.23578e-12 1.3239e-12 1.37879e-12 1.39743e-12 1.37879e-12 1.3239e-12 1.23578e-12 1.1194e-12 9.81429e-13 8.29851e-13 6.73429e-13 5.20934e-13 3.80315e-13 2.57891e-13 1.57758e-13 8.14901e-14 2.82313e-14 -4.85738e-15 -2.18939e-14 -2.74766e-14 -2.59608e-14 -2.09352e-14 -1.49642e-14 -9.58159e-15 -5.46882e-15 -2.71958e-15 -1.10688e-15 -2.93352e-16 3.72221e-17 1.20756e-16 1.04414e-16 6.44332e-17 3.13367e-17 1.17082e-17 2.70205e-18 -3.00154e-19 -7.47768e-19 -4.77669e-19 -1.95546e-19 -4.88907e-20 -1.28875e-22 6.9995e-21 3.91495e-21 1.16631e-21 1.06582e-22 -8.49516e-23 -5.05838e-23 -1.30096e-23 -2.90871e-25 1.1385e-24 4.56843e-25 6.43947e-26 -1.64504e-26 -1.06755e-26 -2.0967e-27 1.65664e-28 2.00146e-28 4.44976e-29 -1.49806e-30 -3.28169e-30 -7.24128e-31 2.55067e-32 4.84991e-32 9.38026e-33 -6.55132e-34 -6.38659e-34 -9.44966e-35 1.38287e-35 7.2353e-36 6.59986e-37 -2.18755e-37 -6.71855e-38 -1.54079e-39 2.62423e-39 4.72873e-40 -3.59614e-41 -2.48974e-41 -3.03414e-42 -2.51001e-44 0 0 -0 0 0 0 0 0 0 0 0 0 0 0 0 0 0 0 0 0 0 0 0 0 
0 0 0 0 0 0 0 0 0 0 0 0 0 0 0 0 0 0 0 0 0 -0 0 8.37327e-45 -1.4935e-43 -6.16701e-42 -3.76358e-41 -4.35795e-42 9.1416e-40 3.47564e-39 -9.27656e-39 -1.17154e-37 -2.26835e-37 1.7768e-36 1.1709e-35 6.79042e-36 -2.16476e-34 -9.68552e-34 4.94526e-34 2.0296e-32 6.98458e-32 -8.95038e-32 -1.55897e-30 -4.6381e-30 6.9312e-30 1.00157e-28 2.9393e-28 -2.8852e-28 -5.29921e-27 -1.74129e-26 -1.04926e-27 2.14701e-25 8.85202e-25 1.11763e-24 -5.27535e-24 -3.34948e-23 -8.36457e-23 -1.77022e-23 7.0312e-22 3.04437e-21 6.58453e-21 2.67694e-21 -3.88709e-20 -1.77092e-19 -4.52097e-19 -6.80119e-19 2.58374e-20 3.97436e-18 1.53129e-17 3.86207e-17 7.2833e-17 9.66803e-17 4.26453e-17 -2.38767e-16 -1.01163e-15 -2.65343e-15 -5.56867e-15 -9.95232e-15 -1.53486e-14 -2.00007e-14 -2.00808e-14 -9.00878e-15 2.28381e-14 8.7703e-14 1.99106e-13 3.69607e-13 6.08018e-13 9.1667e-13 1.2895e-12 1.71157e-12 2.16041e-12 2.60906e-12 3.03019e-12 3.40042e-12 3.70392e-12 3.93437e-12 4.09497e-12 4.19641e-12 4.2534e-12 4.28048e-12 4.28823e-12 4.28048e-12 4.2534e-12 4.19641e-12 4.09497e-12 3.93437e-12 3.70392e-12 3.40042e-12 3.03019e-12 2.60906e-12 2.16041e-12 1.71157e-12 1.2895e-12 9.1667e-13 6.08018e-13 3.69607e-13 1.99106e-13 8.7703e-14 2.28381e-14 -9.00878e-15 -2.00808e-14 -2.00007e-14 -1.53486e-14 -9.95232e-15 -5.56867e-15 -2.65343e-15 -1.01163e-15 -2.38767e-16 4.26453e-17 9.66803e-17 7.2833e-17 3.86207e-17 1.53129e-17 3.97436e-18 2.58374e-20 -6.80119e-19 -4.52097e-19 -1.77092e-19 -3.88709e-20 2.67694e-21 6.58453e-21 3.04437e-21 7.0312e-22 -1.77022e-23 -8.36457e-23 -3.34948e-23 -5.27535e-24 1.11763e-24 8.85202e-25 2.14701e-25 -1.04926e-27 -1.74129e-26 -5.29921e-27 -2.8852e-28 2.9393e-28 1.00157e-28 6.9312e-30 -4.6381e-30 -1.55897e-30 -8.95038e-32 6.98458e-32 2.0296e-32 4.94525e-34 -9.68552e-34 -2.16476e-34 6.79039e-36 1.1709e-35 1.7768e-36 -2.26835e-37 -1.17154e-37 -9.27658e-39 3.47565e-39 9.14439e-40 -3.95637e-42 -3.7346e-41 -6.10001e-42 -1.4935e-43 8.37327e-45 0 -0 0 0 0 0 0 0 0 0 0 0 0 0 0 0 0 0 0 0 0 0 
0 0 0 0 0 0 0 0 0 0 0 0 0 0 0 0 0 0 0 -0 -0 0 6.84231e-44 -4.93075e-43 -1.12087e-41 -5.10826e-41 7.83173e-41 1.57604e-39 3.82718e-39 -2.45883e-38 -1.8372e-37 -1.13952e-37 3.75734e-36 1.67381e-35 -1.75777e-35 -4.18627e-34 -1.24374e-33 3.52622e-33 3.75778e-32 7.96647e-32 -3.71764e-31 -2.85292e-30 -4.85444e-30 2.7931e-29 1.87795e-28 3.14294e-28 -1.54484e-27 -1.06886e-26 -2.1458e-26 5.63114e-26 5.0295e-25 1.3413e-24 -5.18491e-25 -1.73777e-23 -6.52851e-23 -8.56051e-23 3.00977e-22 2.05051e-21 5.67949e-21 5.55737e-21 -2.39533e-20 -1.41357e-19 -3.9872e-19 -6.26357e-19 1.18304e-19 4.39832e-18 1.67469e-17 4.11658e-17 7.13239e-17 6.77608e-17 -8.09828e-17 -6.05307e-16 -1.87716e-15 -4.33675e-15 -8.20653e-15 -1.28495e-14 -1.56667e-14 -1.05763e-14 1.3604e-14 7.41958e-14 1.94153e-13 3.99026e-13 7.10831e-13 1.1392e-12 1.67133e-12 2.26335e-12 2.83623e-12 3.27885e-12 3.45939e-12 3.24415e-12 2.52089e-12 1.22203e-12 -6.56758e-13 -3.04705e-12 -5.809e-12 -8.7436e-12 -1.16142e-11 -1.41732e-11 -1.61911e-11 -1.74823e-11 -1.79266e-11 -1.74823e-11 -1.61911e-11 -1.41732e-11 -1.16142e-11 -8.7436e-12 -5.809e-12 -3.04705e-12 -6.56758e-13 1.22203e-12 2.52089e-12 3.24415e-12 3.45939e-12 3.27885e-12 2.83623e-12 2.26335e-12 1.67133e-12 1.1392e-12 7.10831e-13 3.99026e-13 1.94153e-13 7.41958e-14 1.3604e-14 -1.05763e-14 -1.56667e-14 -1.28495e-14 -8.20653e-15 -4.33675e-15 -1.87716e-15 -6.05307e-16 -8.09828e-17 6.77608e-17 7.13239e-17 4.11658e-17 1.67469e-17 4.39832e-18 1.18304e-19 -6.26357e-19 -3.9872e-19 -1.41357e-19 -2.39533e-20 5.55737e-21 5.67949e-21 2.05051e-21 3.00977e-22 -8.56051e-23 -6.52851e-23 -1.73777e-23 -5.18491e-25 1.3413e-24 5.0295e-25 5.63114e-26 -2.1458e-26 -1.06886e-26 -1.54484e-27 3.14294e-28 1.87795e-28 2.7931e-29 -4.85444e-30 -2.85292e-30 -3.71764e-31 7.96647e-32 3.75778e-32 3.52622e-33 -1.24374e-33 -4.18627e-34 -1.75777e-35 1.67381e-35 3.75734e-36 -1.13953e-37 -1.8372e-37 -2.45881e-38 3.82669e-39 1.5675e-39 7.77788e-41 -5.07221e-41 -1.11612e-41 -4.93075e-43 5.44592e-44 0 -0 -0 0 0 0 0 0 0 0 0 0 0 0 0 0 0 0 0 0 0 
0 0 0 0 0 0 0 0 0 0 0 0 0 0 0 0 0 0 -0 -0 0 1.74612e-43 -1.23678e-42 -1.876e-41 -6.11991e-41 2.44786e-40 2.4668e-39 2.82034e-39 -5.10315e-38 -2.58508e-37 2.42609e-37 6.87789e-36 2.04647e-35 -7.31127e-35 -7.13654e-34 -1.20792e-33 9.74236e-33 6.10892e-32 5.08374e-32 -9.28597e-31 -4.52169e-30 -1.58439e-30 6.96077e-29 2.99714e-28 9.19652e-29 -4.17984e-27 -1.79842e-26 -1.28072e-26 1.9349e-25 9.46161e-25 1.37742e-24 -5.89542e-24 -3.99653e-23 -9.68391e-23 3.24208e-23 1.12373e-21 4.28351e-21 7.06283e-21 -9.16774e-21 -9.74177e-20 -3.24964e-19 -5.82464e-19 -1.52163e-20 3.93712e-18 1.59528e-17 3.95731e-17 6.41008e-17 3.39375e-17 -2.01812e-16 -9.40327e-16 -2.61122e-15 -5.55889e-15 -9.39958e-15 -1.16968e-14 -5.8167e-15 2.17823e-14 9.3827e-14 2.42115e-13 5.02249e-13 9.00455e-13 1.43118e-12 2.02718e-12 2.52788e-12 2.65565e-12 2.0109e-12 9.52052e-14 -3.63462e-12 -9.68657e-12 -1.84415e-11 -3.0068e-11 -4.44631e-11 -6.12335e-11 -7.97214e-11 -9.90686e-11 -1.18307e-10 -1.36455e-10 -1.52599e-10 -1.65963e-10 -1.75936e-10 -1.82088e-10 -1.84166e-10 -1.82088e-10 -1.75936e-10 -1.65963e-10 -1.52599e-10 -1.36455e-10 -1.18307e-10 -9.90686e-11 -7.97214e-11 -6.12335e-11 -4.44631e-11 -3.0068e-11 -1.84415e-11 -9.68657e-12 -3.63462e-12 9.52052e-14 2.0109e-12 2.65565e-12 2.52788e-12 2.02718e-12 1.43118e-12 9.00455e-13 5.02249e-13 2.42115e-13 9.3827e-14 2.17823e-14 -5.8167e-15 -1.16968e-14 -9.39958e-15 -5.55889e-15 -2.61122e-15 -9.40327e-16 -2.01812e-16 3.39375e-17 6.41008e-17 3.95731e-17 1.59528e-17 3.93712e-18 -1.52163e-20 -5.82464e-19 -3.24964e-19 -9.74177e-20 -9.16774e-21 7.06283e-21 4.28351e-21 1.12373e-21 3.24208e-23 -9.68391e-23 -3.99653e-23 -5.89542e-24 1.37742e-24 9.46161e-25 1.9349e-25 -1.28072e-26 -1.79842e-26 -4.17984e-27 9.19652e-29 2.99714e-28 6.96077e-29 -1.58439e-30 -4.52169e-30 -9.28597e-31 5.08374e-32 6.10892e-32 9.74236e-33 -1.20791e-33 -7.13653e-34 -7.31128e-35 2.04647e-35 6.87788e-36 2.42607e-37 -2.5851e-37 -5.10468e-38 2.7814e-39 2.4477e-39 2.42831e-40 -6.09586e-41 -1.86845e-41 -1.27311e-42 1.50865e-43 0 -0 -0 0 0 0 0 0 0 0 0 0 0 0 0 0 0 0 0 0 
0 0 0 0 0 0 0 0 0 0 0 0 0 0 0 0 0 -0 0 1.39614e-44 2.45884e-43 -2.6377e-42 -2.87809e-41 -5.98467e-41 5.34252e-40 3.51721e-39 -9.0465e-40 -9.20275e-38 -3.19196e-37 1.01771e-36 1.12676e-35 1.9141e-35 -1.77703e-34 -1.08599e-33 -3.96538e-34 2.06607e-32 8.70337e-32 -6.33573e-32 -1.87274e-30 -6.11087e-30 9.16099e-30 1.39937e-28 3.97646e-28 -6.68432e-28 -8.77742e-27 -2.48438e-26 2.74155e-26 4.54227e-25 1.45381e-24 -8.72471e-28 -1.80006e-23 -7.28193e-23 -8.99566e-23 4.31126e-22 2.70083e-21 6.71028e-21 1.57888e-21 -5.48806e-20 -2.38608e-19 -5.22151e-19 -2.55069e-19 2.86635e-18 1.34673e-17 3.52396e-17 5.60318e-17 1.13414e-17 -2.74971e-16 -1.13938e-15 -3.00744e-15 -5.97327e-15 -8.67303e-15 -6.07497e-15 1.38869e-14 7.39881e-14 2.09125e-13 4.60575e-13 8.56295e-13 1.37062e-12 1.861e-12 1.98843e-12 1.14106e-12 -1.60839e-12 -7.47623e-12 -1.78459e-11 -3.40468e-11 -5.70616e-11 -8.72238e-11 -1.23982e-10 -1.65809e-10 -2.10304e-10 -2.54488e-10 -2.9525e-10 -3.29852e-10 -3.56388e-10 -3.74091e-10 -3.83427e-10 -3.8597e-10 -3.84036e-10 -3.80216e-10 -3.7684e-10 -3.75522e-10 -3.7684e-10 -3.80216e-10 -3.84036e-10 -3.8597e-10 -3.83427e-10 -3.74091e-10 -3.56388e-10 -3.29852e-10 -2.9525e-10 -2.54488e-10 -2.10304e-10 -1.65809e-10 -1.23982e-10 -8.72238e-11 -5.70616e-11 -3.40468e-11 -1.78459e-11 -7.47623e-12 -1.60839e-12 1.14106e-12 1.98843e-12 1.861e-12 1.37062e-12 8.56295e-13 4.60575e-13 2.09125e-13 7.39881e-14 1.38869e-14 -6.07497e-15 -8.67303e-15 -5.97327e-15 -3.00744e-15 -1.13938e-15 -2.74971e-16 1.13414e-17 5.60318e-17 3.52396e-17 1.34673e-17 2.86635e-18 -2.55069e-19 -5.22151e-19 -2.38608e-19 -5.48806e-20 1.57888e-21 6.71028e-21 2.70083e-21 4.31126e-22 -8.99566e-23 -7.28193e-23 -1.80006e-23 -8.72471e-28 1.45381e-24 4.54227e-25 2.74155e-26 -2.48438e-26 -8.77742e-27 -6.68432e-28 3.97646e-28 1.39937e-28 9.16099e-30 -6.11086e-30 -1.87274e-30 -6.33574e-32 8.70337e-32 2.06607e-32 -3.96539e-34 -1.08599e-33 -1.77703e-34 1.9141e-35 1.12676e-35 1.01769e-36 -3.19189e-37 -9.1562e-38 -9.03967e-40 3.49286e-39 5.30511e-40 -5.95123e-41 -2.86564e-41 -2.64748e-42 2.45884e-43 1.39614e-44 0 -0 0 0 0 0 0 0 0 0 0 0 0 0 0 0 0 0 
0 0 0 0 0 0 0 0 0 0 0 0 0 0 0 0 -0 0 3.90824e-44 2.19313e-43 -5.05175e-42 -4.06723e-41 -3.42911e-41 9.83425e-40 4.51806e-39 -9.26808e-39 -1.49536e-37 -3.22487e-37 2.43101e-36 1.66928e-35 6.43638e-36 -3.50722e-34 -1.4642e-33 1.91601e-33 3.75925e-32 1.05e-31 -3.32318e-31 -3.27186e-30 -6.51936e-30 3.3161e-29 2.41958e-28 3.89467e-28 -2.39895e-27 -1.5557e-26 -2.50808e-26 1.28415e-25 8.655e-25 1.70648e-24 -4.52153e-24 -3.97288e-23 -1.05304e-22 3.74304e-23 1.33014e-21 5.00723e-21 6.74949e-21 -2.16039e-20 -1.51648e-19 -4.27489e-19 -4.57819e-19 1.59417e-18 1.00484e-17 2.93134e-17 4.93428e-17 6.51968e-18 -2.81963e-16 -1.16457e-15 -3.02743e-15 -5.66198e-15 -6.62624e-15 1.86794e-15 3.73594e-14 1.3081e-13 3.24039e-13 6.5065e-13 1.08624e-12 1.45478e-12 1.28937e-12 -3.29367e-13 -4.8991e-12 -1.44946e-11 -3.15376e-11 -5.82657e-11 -9.59077e-11 -1.43685e-10 -1.97874e-10 -2.51224e-10 -2.93021e-10 -3.09958e-10 -2.87786e-10 -2.13537e-10 -7.79087e-11 1.22658e-10 3.8459e-10 6.96829e-10 1.04152e-09 1.39569e-09 1.73353e-09 2.02918e-09 2.25922e-09 2.40518e-09 2.4552e-09 2.40518e-09 2.25922e-09 2.02918e-09 1.73353e-09 1.39569e-09 1.04152e-09 6.96829e-10 3.8459e-10 1.22658e-10 -7.79087e-11 -2.13537e-10 -2.87786e-10 -3.09958e-10 -2.93021e-10 -2.51224e-10 -1.97874e-10 -1.43685e-10 -9.59077e-11 -5.82657e-11 -3.15376e-11 -1.44946e-11 -4.8991e-12 -3.29367e-13 1.28937e-12 1.45478e-12 1.08624e-12 6.5065e-13 3.24039e-13 1.3081e-13 3.73594e-14 1.86794e-15 -6.62624e-15 -5.66198e-15 -3.02743e-15 -1.16457e-15 -2.81963e-16 6.51968e-18 4.93428e-17 2.93134e-17 1.00484e-17 1.59417e-18 -4.57819e-19 -4.27489e-19 -1.51648e-19 -2.16039e-20 6.74949e-21 5.00723e-21 1.33014e-21 3.74304e-23 -1.05304e-22 -3.97288e-23 -4.52153e-24 1.70648e-24 8.655e-25 1.28415e-25 -2.50808e-26 -1.5557e-26 -2.39895e-27 3.89467e-28 2.41958e-28 3.3161e-29 -6.51936e-30 -3.27186e-30 -3.32319e-31 1.05e-31 3.75926e-32 1.91601e-33 -1.4642e-33 -3.50722e-34 6.43642e-36 1.66929e-35 2.43195e-36 -3.19412e-37 -1.48387e-37 -9.18877e-39 4.4887e-39 9.76756e-40 -3.41428e-41 -4.0464e-41 -5.03078e-42 2.41663e-43 3.90824e-44 0 -0 0 0 0 0 0 0 0 0 0 0 0 0 0 0 0 
0 0 0 0 0 0 0 0 0 0 0 0 0 0 0 -0 0 7.67318e-44 2.65314e-44 -8.61971e-42 -5.2561e-41 3.15655e-41 1.61011e-39 5.0445e-39 -2.46886e-38 -2.21985e-37 -1.97062e-37 4.71871e-36 2.2254e-35 -2.70654e-35 -6.07368e-34 -1.68526e-33 6.72725e-33 6.08449e-32 9.43949e-32 -8.45168e-31 -5.05875e-30 -3.68431e-30 7.74687e-29 3.653e-28 1.03245e-28 -5.61981e-27 -2.36937e-26 -6.60433e-27 3.26986e-25 1.39167e-24 1.00083e-24 -1.46133e-23 -7.14307e-23 -1.06094e-22 4.22549e-22 2.92111e-21 7.21274e-21 -1.35742e-21 -7.80267e-20 -3.05479e-19 -5.32991e-19 4.92229e-19 6.45975e-18 2.25332e-17 4.33731e-17 1.53859e-17 -2.32673e-16 -1.04107e-15 -2.76199e-15 -4.97142e-15 -4.40972e-15 8.8613e-15 5.64478e-14 1.73951e-13 4.00765e-13 7.39054e-13 1.0569e-12 9.1459e-13 -6.79316e-13 -5.51467e-12 -1.6273e-11 -3.62251e-11 -6.82629e-11 -1.13089e-10 -1.66624e-10 -2.17059e-10 -2.42332e-10 -2.09016e-10 -7.35306e-11 2.13847e-10 7.02425e-10 1.43294e-09 2.42946e-09 3.69305e-09 5.19867e-09 6.89607e-09 8.7145e-09 1.05702e-08 1.23753e-08 1.40455e-08 1.55072e-08 1.67011e-08 1.75828e-08 1.81229e-08 1.83048e-08 1.81229e-08 1.75828e-08 1.67011e-08 1.55072e-08 1.40455e-08 1.23753e-08 1.05702e-08 8.7145e-09 6.89607e-09 5.19867e-09 3.69305e-09 2.42946e-09 1.43294e-09 7.02425e-10 2.13847e-10 -7.35306e-11 -2.09016e-10 -2.42332e-10 -2.17059e-10 -1.66624e-10 -1.13089e-10 -6.82629e-11 -3.62251e-11 -1.6273e-11 -5.51467e-12 -6.79316e-13 9.1459e-13 1.0569e-12 7.39054e-13 4.00765e-13 1.73951e-13 5.64478e-14 8.8613e-15 -4.40972e-15 -4.97142e-15 -2.76199e-15 -1.04107e-15 -2.32673e-16 1.53859e-17 4.33731e-17 2.25332e-17 6.45975e-18 4.92229e-19 -5.32991e-19 -3.05479e-19 -7.80267e-20 -1.35742e-21 7.21274e-21 2.92111e-21 4.22549e-22 -1.06094e-22 -7.14307e-23 -1.46133e-23 1.00083e-24 1.39167e-24 3.26986e-25 -6.60433e-27 -2.36937e-26 -5.61981e-27 1.03245e-28 3.653e-28 7.74687e-29 -3.6843e-30 -5.05875e-30 -8.45168e-31 9.43951e-32 6.08449e-32 6.72726e-33 -1.68526e-33 -6.07369e-34 -2.70642e-35 2.22552e-35 4.6972e-36 -1.95186e-37 -2.20418e-37 -2.45083e-38 5.01228e-39 1.59923e-39 3.11975e-41 -5.22407e-41 -8.54005e-42 3.63061e-44 6.27805e-44 0 -0 0 0 0 0 0 0 0 0 0 0 0 0 0 0 
0 0 0 0 0 0 0 0 0 0 0 0 0 0 -0 0 6.2735e-44 -4.03313e-43 -1.32977e-41 -6.11041e-41 1.55179e-40 2.39191e-39 4.4163e-39 -4.96701e-38 -3.00882e-37 1.61816e-37 8.07538e-36 2.60056e-35 -9.38805e-35 -9.48954e-34 -1.45429e-33 1.52344e-32 8.84624e-32 2.09066e-32 -1.69701e-30 -6.89602e-30 5.69127e-30 1.4874e-28 4.73629e-28 -7.33063e-28 -1.07863e-26 -3.02908e-26 5.02325e-26 6.56771e-25 1.86052e-24 -1.89559e-24 -3.28746e-23 -1.06403e-22 -1.12349e-23 1.24654e-21 5.15619e-21 6.89466e-21 -2.738e-20 -1.82157e-19 -4.72861e-19 -2.18205e-19 3.35109e-18 1.55838e-17 3.64906e-17 2.84229e-17 -1.53228e-16 -8.24954e-16 -2.33388e-15 -4.22142e-15 -2.92736e-15 1.25148e-14 6.56255e-14 1.92559e-13 4.21995e-13 7.0683e-13 7.69926e-13 -1.63039e-13 -3.71201e-12 -1.26094e-11 -3.05232e-11 -6.08746e-11 -1.04025e-10 -1.52454e-10 -1.84227e-10 -1.56049e-10 1.71414e-12 3.85108e-10 1.10914e-09 2.29179e-09 4.03079e-09 6.37752e-09 9.31399e-09 1.27395e-08 1.64723e-08 2.0268e-08 2.38523e-08 2.6963e-08 2.93926e-08 3.10218e-08 3.18397e-08 3.19438e-08 3.15213e-08 3.08146e-08 3.00791e-08 2.95366e-08 2.93381e-08 2.95366e-08 3.00791e-08 3.08146e-08 3.15213e-08 3.19438e-08 3.18397e-08 3.10218e-08 2.93926e-08 2.6963e-08 2.38523e-08 2.0268e-08 1.64723e-08 1.27395e-08 9.31399e-09 6.37752e-09 4.03079e-09 2.29179e-09 1.10914e-09 3.85108e-10 1.71414e-12 -1.56049e-10 -1.84227e-10 -1.52454e-10 -1.04025e-10 -6.08746e-11 -3.05232e-11 -1.26094e-11 -3.71201e-12 -1.63039e-13 7.69926e-13 7.0683e-13 4.21995e-13 1.92559e-13 6.56255e-14 1.25148e-14 -2.92736e-15 -4.22142e-15 -2.33388e-15 -8.24954e-16 -1.53228e-16 2.84229e-17 3.64906e-17 1.55838e-17 3.35109e-18 -2.18205e-19 -4.72861e-19 -1.82157e-19 -2.738e-20 6.89466e-21 5.15619e-21 1.24654e-21 -1.12349e-23 -1.06403e-22 -3.28746e-23 -1.89559e-24 1.86052e-24 6.56771e-25 5.02325e-26 -3.02908e-26 -1.07863e-26 -7.33063e-28 4.73629e-28 1.48739e-28 5.69126e-30 -6.89602e-30 -1.69701e-30 2.09068e-32 8.84624e-32 1.52344e-32 -1.4543e-33 -9.48956e-34 -9.39314e-35 2.57984e-35 8.01371e-36 1.59872e-37 -2.98882e-37 -4.93232e-38 4.38937e-39 2.37593e-39 1.53944e-40 -6.08329e-41 -1.32488e-41 -4.49366e-43 4.87939e-44 0 -0 0 0 0 0 0 0 0 0 0 0 0 0 0 
0 0 0 0 0 0 0 0 0 0 0 0 0 0 0 -0 -1.21867e-42 -1.88768e-41 -6.20185e-41 3.50513e-40 3.24282e-39 1.71099e-39 -8.59799e-38 -3.66409e-37 8.93582e-37 1.25583e-35 2.45306e-35 -2.08786e-34 -1.34842e-33 -3.06713e-34 2.8631e-32 1.14477e-31 -1.65947e-31 -2.95902e-30 -7.99709e-30 2.62367e-29 2.49867e-28 4.88503e-28 -2.49275e-27 -1.79817e-26 -2.90549e-26 1.72693e-25 1.1252e-24 1.8633e-24 -8.7941e-24 -6.06952e-23 -1.24146e-22 2.84671e-22 2.67631e-21 7.37125e-21 -8.45205e-22 -8.41752e-20 -3.3243e-19 -5.0512e-19 1.13861e-18 9.2912e-18 2.80141e-17 3.69775e-17 -7.18826e-17 -5.75445e-16 -1.83631e-15 -3.54441e-15 -2.41367e-15 1.23128e-14 6.40238e-14 1.86774e-13 3.95977e-13 5.94011e-13 3.60853e-13 -1.39794e-12 -6.86637e-12 -1.94701e-11 -4.30491e-11 -7.89254e-11 -1.19626e-10 -1.38625e-10 -7.71661e-11 1.68148e-10 7.50431e-10 1.86212e-09 3.70217e-09 6.41883e-09 1.00339e-08 1.43634e-08 1.89571e-08 2.30777e-08 2.57389e-08 2.58063e-08 2.21499e-08 1.38255e-08 2.51294e-10 -1.86539e-08 -4.23959e-08 -6.99098e-08 -9.9641e-08 -1.29687e-07 -1.57986e-07 -1.82511e-07 -2.01463e-07 -2.13433e-07 -2.17526e-07 -2.13433e-07 -2.01463e-07 -1.82511e-07 -1.57986e-07 -1.29687e-07 -9.9641e-08 -6.99098e-08 -4.23959e-08 -1.86539e-08 2.51294e-10 1.38255e-08 2.21499e-08 2.58063e-08 2.57389e-08 2.30777e-08 1.89571e-08 1.43634e-08 1.00339e-08 6.41883e-09 3.70217e-09 1.86212e-09 7.50431e-10 1.68148e-10 -7.71661e-11 -1.38625e-10 -1.19626e-10 -7.89254e-11 -4.30491e-11 -1.94701e-11 -6.86637e-12 -1.39794e-12 3.60853e-13 5.94011e-13 3.95977e-13 1.86774e-13 6.40238e-14 1.23128e-14 -2.41367e-15 -3.54441e-15 -1.83631e-15 -5.75445e-16 -7.18826e-17 3.69775e-17 2.80141e-17 9.2912e-18 1.13861e-18 -5.0512e-19 -3.3243e-19 -8.41752e-20 -8.45205e-22 7.37125e-21 2.67631e-21 2.84671e-22 -1.24146e-22 -6.06952e-23 -8.7941e-24 1.8633e-24 1.1252e-24 1.72693e-25 -2.90549e-26 -1.79817e-26 -2.49275e-27 4.88502e-28 2.49867e-28 2.62367e-29 -7.99708e-30 -2.95902e-30 -1.65948e-31 1.14477e-31 2.8631e-32 -3.06785e-34 -1.34857e-33 -2.07983e-34 2.43222e-35 1.24677e-35 8.86664e-37 -3.63998e-37 -8.53884e-38 1.70411e-39 3.22147e-39 3.47898e-40 -6.17796e-41 -1.87679e-41 -1.21728e-42 -0 0 0 0 0 0 0 0 0 0 0 0 0 0 0 
0 0 0 0 0 0 0 0 0 0 0 0 0 0 -4.17323e-45 -2.10598e-42 -2.46748e-41 -5.01722e-41 6.21865e-40 3.99705e-39 -4.13235e-39 -1.3354e-37 -3.84332e-37 2.1578e-36 1.79211e-35 1.25255e-35 -3.86742e-34 -1.73104e-33 2.41681e-33 4.77265e-32 1.26736e-31 -5.32678e-31 -4.62746e-30 -6.9183e-30 6.36574e-29 3.74474e-28 2.71633e-28 -5.61352e-27 -2.64146e-26 -8.87259e-27 3.92432e-25 1.67433e-24 6.43347e-25 -2.19063e-23 -9.56837e-23 -8.2062e-23 9.25561e-22 4.73073e-21 7.74329e-21 -2.3945e-20 -1.83093e-19 -4.83895e-19 -8.25614e-20 4.42078e-18 1.88003e-17 3.71123e-17 -9.29615e-18 -3.41766e-16 -1.32994e-15 -2.91732e-15 -2.54184e-15 9.29555e-15 5.43343e-14 1.63877e-13 3.44094e-13 4.63496e-13 2.97084e-15 -2.35458e-12 -9.14881e-12 -2.40316e-11 -4.99044e-11 -8.33572e-11 -1.03288e-10 -5.29316e-11 1.81653e-10 7.87316e-10 2.01737e-09 4.14245e-09 7.34161e-09 1.15301e-08 1.61445e-08 1.99321e-08 2.08113e-08 1.58738e-08 1.577e-09 -2.58673e-08 -6.99523e-08 -1.33279e-07 -2.17017e-07 -3.20546e-07 -4.4135e-07 -5.75188e-07 -7.16513e-07 -8.59034e-07 -9.96339e-07 -1.12244e-06 -1.23217e-06 -1.32142e-06 -1.38715e-06 -1.42734e-06 -1.44086e-06 -1.42734e-06 -1.38715e-06 -1.32142e-06 -1.23217e-06 -1.12244e-06 -9.96339e-07 -8.59034e-07 -7.16513e-07 -5.75188e-07 -4.4135e-07 -3.20546e-07 -2.17017e-07 -1.33279e-07 -6.99523e-08 -2.58673e-08 1.577e-09 1.58738e-08 2.08113e-08 1.99321e-08 1.61445e-08 1.15301e-08 7.34161e-09 4.14245e-09 2.01737e-09 7.87316e-10 1.81653e-10 -5.29316e-11 -1.03288e-10 -8.33572e-11 -4.99044e-11 -2.40316e-11 -9.14881e-12 -2.35458e-12 2.97084e-15 4.63496e-13 3.44094e-13 1.63877e-13 5.43343e-14 9.29555e-15 -2.54184e-15 -2.91732e-15 -1.32994e-15 -3.41766e-16 -9.29615e-18 3.71123e-17 1.88003e-17 4.42078e-18 -8.25614e-20 -4.83895e-19 -1.83093e-19 -2.3945e-20 7.74329e-21 4.73073e-21 9.25561e-22 -8.2062e-23 -9.56837e-23 -2.19063e-23 6.43347e-25 1.67433e-24 3.92432e-25 -8.87259e-27 -2.64146e-26 -5.61353e-27 2.71632e-28 3.74473e-28 6.36573e-29 -6.9183e-30 -4.62746e-30 -5.32678e-31 1.26735e-31 4.77264e-32 2.41926e-33 -1.71877e-33 -3.83814e-34 1.24763e-35 1.77994e-35 2.14236e-36 -3.81875e-37 -1.32638e-37 -4.09823e-39 3.9715e-39 6.17682e-40 -4.98498e-41 -2.44558e-41 -2.0837e-42 -4.17323e-45 0 0 0 0 0 0 0 0 0 0 0 0 0 
0 0 0 0 0 0 0 0 0 0 0 0 0 -2.50046e-44 -3.25095e-42 -2.95687e-41 -2.10436e-41 9.58113e-40 4.4126e-39 -1.40862e-38 -1.89138e-37 -3.05473e-37 4.09691e-36 2.33746e-35 -1.75247e-35 -6.39081e-34 -1.95138e-33 7.56425e-33 7.23348e-32 1.04551e-31 -1.15676e-30 -6.5476e-30 -1.35989e-30 1.23867e-28 4.98984e-28 -3.89949e-28 -1.04977e-26 -3.3704e-26 4.72815e-26 7.36732e-25 2.12383e-24 -2.99278e-24 -4.32546e-23 -1.27678e-22 9.23337e-23 2.06624e-21 7.04535e-21 2.66294e-21 -7.28777e-20 -3.23435e-19 -5.08316e-19 1.33228e-18 1.051e-17 2.99814e-17 2.58103e-17 -1.57598e-16 -8.62537e-16 -2.28145e-15 -2.7951e-15 5.1248e-15 4.05197e-14 1.32405e-13 2.8532e-13 3.60807e-13 -1.92091e-13 -2.77436e-12 -1.00279e-11 -2.53888e-11 -5.00055e-11 -7.40787e-11 -5.94476e-11 8.71269e-11 5.4285e-10 1.57947e-09 3.51928e-09 6.59052e-09 1.06441e-08 1.47295e-08 1.65898e-08 1.22101e-08 -4.39029e-09 -4.09265e-08 -1.06054e-07 -2.08023e-07 -3.52968e-07 -5.43175e-07 -7.75753e-07 -1.04209e-06 -1.32833e-06 -1.61693e-06 -1.88899e-06 -2.12702e-06 -2.31754e-06 -2.45308e-06 -2.53321e-06 -2.56429e-06 -2.55819e-06 -2.53011e-06 -2.49583e-06 -2.46907e-06 -2.45906e-06 -2.46907e-06 -2.49583e-06 -2.53011e-06 -2.55819e-06 -2.56429e-06 -2.53321e-06 -2.45308e-06 -2.31754e-06 -2.12702e-06 -1.88899e-06 -1.61693e-06 -1.32833e-06 -1.04209e-06 -7.75753e-07 -5.43175e-07 -3.52968e-07 -2.08023e-07 -1.06054e-07 -4.09265e-08 -4.39029e-09 1.22101e-08 1.65898e-08 1.47295e-08 1.06441e-08 6.59052e-09 3.51928e-09 1.57947e-09 5.4285e-10 8.71269e-11 -5.94476e-11 -7.40787e-11 -5.00055e-11 -2.53888e-11 -1.00279e-11 -2.77436e-12 -1.92091e-13 3.60807e-13 2.8532e-13 1.32405e-13 4.05197e-14 5.1248e-15 -2.7951e-15 -2.28145e-15 -8.62537e-16 -1.57598e-16 2.58103e-17 2.99814e-17 1.051e-17 1.33228e-18 -5.08316e-19 -3.23435e-19 -7.28777e-20 2.66294e-21 7.04535e-21 2.06624e-21 9.23337e-23 -1.27678e-22 -4.32546e-23 -2.99278e-24 2.12383e-24 7.36732e-25 4.72815e-26 -3.3704e-26 -1.04977e-26 -3.89952e-28 4.98983e-28 1.23867e-28 -1.3599e-30 -6.54759e-30 -1.15676e-30 1.04555e-31 7.23469e-32 7.54489e-33 -1.93536e-33 -6.34365e-34 -1.73578e-35 2.32178e-35 4.06819e-36 -3.03677e-37 -1.87883e-37 -1.39848e-38 4.38522e-39 9.51941e-40 -2.08554e-41 -2.93737e-41 -3.22869e-42 -2.22263e-44 0 0 0 0 0 0 0 0 0 0 0 0 
0 0 0 0 0 0 0 0 0 0 0 0 -8.73838e-44 -4.5939e-42 -3.24664e-41 2.81174e-41 1.32773e-39 4.19499e-39 -2.87005e-38 -2.45161e-37 -6.89695e-38 6.77814e-36 2.73597e-35 -7.50039e-35 -9.65461e-34 -1.76495e-33 1.61123e-32 1.00318e-31 1.63065e-32 -2.11328e-30 -8.30284e-30 1.1982e-29 2.11121e-28 5.71696e-28 -1.78969e-27 -1.73113e-26 -3.49261e-26 1.6244e-25 1.21095e-24 2.09524e-24 -1.06852e-23 -7.34146e-23 -1.33223e-22 5.04845e-22 3.80134e-21 8.51495e-21 -1.37829e-20 -1.57908e-19 -4.73557e-19 -1.47031e-19 4.46638e-18 1.95977e-17 3.58274e-17 -3.79177e-17 -4.76587e-16 -1.62818e-15 -2.78352e-15 1.28917e-15 2.61455e-14 9.87215e-14 2.28769e-13 2.97308e-13 -2.10753e-13 -2.64679e-12 -9.54997e-12 -2.39192e-11 -4.50704e-11 -5.71224e-11 -5.84633e-12 2.36e-10 9.01171e-10 2.3195e-09 4.79824e-09 8.30002e-09 1.1845e-08 1.26462e-08 5.14073e-09 -1.9731e-08 -7.45001e-08 -1.73888e-07 -3.31965e-07 -5.57867e-07 -8.50706e-07 -1.19482e-06 -1.55674e-06 -1.88512e-06 -2.11429e-06 -2.17153e-06 -1.98693e-06 -1.50437e-06 -6.91618e-07 4.52223e-07 1.89317e-06 3.56342e-06 5.36663e-06 7.1868e-06 8.89917e-06 1.03817e-05 1.15266e-05 1.22494e-05 1.24964e-05 1.22494e-05 1.15266e-05 1.03817e-05 8.89917e-06 7.1868e-06 5.36663e-06 3.56342e-06 1.89317e-06 4.52223e-07 -6.91618e-07 -1.50437e-06 -1.98693e-06 -2.17153e-06 -2.11429e-06 -1.88512e-06 -1.55674e-06 -1.19482e-06 -8.50706e-07 -5.57867e-07 -3.31965e-07 -1.73888e-07 -7.45001e-08 -1.9731e-08 5.14073e-09 1.26462e-08 1.1845e-08 8.30002e-09 4.79824e-09 2.3195e-09 9.01171e-10 2.36e-10 -5.84633e-12 -5.71224e-11 -4.50704e-11 -2.39192e-11 -9.54997e-12 -2.64679e-12 -2.10753e-13 2.97308e-13 2.28769e-13 9.87215e-14 2.61455e-14 1.28917e-15 -2.78352e-15 -1.62818e-15 -4.76587e-16 -3.79177e-17 3.58274e-17 1.95977e-17 4.46638e-18 -1.47031e-19 -4.73557e-19 -1.57908e-19 -1.37829e-20 8.51495e-21 3.80134e-21 5.04845e-22 -1.33223e-22 -7.34146e-23 -1.06852e-23 2.09524e-24 1.21096e-24 1.6244e-25 -3.49261e-26 -1.73113e-26 -1.78969e-27 5.71695e-28 2.11121e-28 1.1982e-29 -8.30284e-30 -2.11327e-30 1.62035e-32 9.96686e-32 1.5992e-32 -1.75406e-33 -9.58773e-34 -7.4443e-35 2.71798e-35 6.73153e-36 -6.88946e-38 -2.43567e-37 -2.85034e-38 4.17007e-39 1.31928e-39 2.78319e-41 -3.22507e-41 -4.54389e-42 -8.73838e-44 0 0 0 0 0 0 0 0 0 0 0 
0 0 0 0 0 0 0 0 0 0 0 -1.64789e-43 -5.888e-42 -3.25796e-41 9.57827e-41 1.67793e-39 3.05339e-39 -4.77012e-38 -2.89e-37 3.87612e-37 1.01131e-35 2.73989e-35 -1.69519e-34 -1.34006e-33 -7.96426e-34 2.90094e-32 1.26255e-31 -1.81956e-31 -3.44825e-30 -9.07279e-30 3.73787e-29 3.24671e-28 4.99834e-28 -4.28373e-27 -2.56421e-26 -2.15493e-26 3.63392e-25 1.76888e-24 9.28773e-25 -2.43413e-23 -1.09314e-22 -6.92311e-23 1.28586e-21 6.02857e-21 6.83919e-21 -4.97652e-20 -2.8248e-19 -5.42792e-19 1.02461e-18 1.00373e-17 2.98798e-17 2.07836e-17 -2.01666e-16 -1.01408e-15 -2.3859e-15 -1.29972e-15 1.37817e-14 6.69302e-14 1.75983e-13 2.59112e-13 -1.11264e-13 -2.13529e-12 -8.12623e-12 -2.06725e-11 -3.79138e-11 -4.01396e-11 3.7567e-11 3.45685e-10 1.15179e-09 2.79987e-09 5.47819e-09 8.63611e-09 9.92506e-09 3.71185e-09 -2.04455e-08 -7.85233e-08 -1.90755e-07 -3.77119e-07 -6.48875e-07 -9.96603e-07 -1.37666e-06 -1.69943e-06 -1.82332e-06 -1.55829e-06 -6.80493e-07 1.04232e-06 3.81844e-06 7.79813e-06 1.30445e-05 1.9515e-05 2.70567e-05 3.54162e-05 4.42628e-05 5.32185e-05 6.18906e-05 6.99039e-05 7.69223e-05 8.26663e-05 8.69202e-05 8.95316e-05 9.0412e-05 8.95316e-05 8.69202e-05 8.26663e-05 7.69223e-05 6.99039e-05 6.18906e-05 5.32185e-05 4.42628e-05 3.54162e-05 2.70567e-05 1.9515e-05 1.30445e-05 7.79813e-06 3.81844e-06 1.04232e-06 -6.80493e-07 -1.55829e-06 -1.82332e-06 -1.69943e-06 -1.37666e-06 -9.96603e-07 -6.48875e-07 -3.77119e-07 -1.90755e-07 -7.85233e-08 -2.04455e-08 3.71185e-09 9.92506e-09 8.63611e-09 5.47819e-09 2.79987e-09 1.15179e-09 3.45685e-10 3.7567e-11 -4.01396e-11 -3.79138e-11 -2.06725e-11 -8.12623e-12 -2.13529e-12 -1.11264e-13 2.59112e-13 1.75983e-13 6.69302e-14 1.37817e-14 -1.29972e-15 -2.3859e-15 -1.01408e-15 -2.01666e-16 2.07836e-17 2.98798e-17 1.00373e-17 1.02461e-18 -5.42792e-19 -2.8248e-19 -4.97652e-20 6.83919e-21 6.02857e-21 1.28586e-21 -6.92311e-23 -1.09314e-22 -2.43413e-23 9.28769e-25 1.76888e-24 3.63392e-25 -2.15492e-26 -2.56421e-26 -4.28374e-27 4.99834e-28 3.24671e-28 3.73787e-29 -9.07297e-30 -3.44904e-30 -1.8221e-31 1.25236e-31 2.87899e-32 -7.93279e-34 -1.33091e-33 -1.683e-34 2.7226e-35 1.00449e-35 3.84517e-37 -2.87166e-37 -4.73838e-38 3.03668e-39 1.6674e-39 9.51455e-41 -3.23962e-41 -5.83391e-42 -1.64789e-43 0 0 0 0 0 0 0 0 0 0 
0 0 0 0 0 0 0 0 0 0 -2.98588e-43 -6.90451e-42 -2.90752e-41 1.76737e-40 1.94248e-39 7.89769e-40 -6.96536e-38 -3.04151e-37 1.10952e-36 1.37781e-35 2.0201e-35 -3.07963e-34 -1.69816e-33 1.45834e-33 4.68214e-32 1.39934e-31 -5.45239e-31 -5.13642e-30 -7.4918e-30 7.9663e-29 4.53874e-28 1.38343e-28 -8.23167e-27 -3.40182e-26 1.93655e-26 6.7447e-25 2.2712e-24 -2.37525e-24 -4.56303e-23 -1.41064e-22 1.31885e-22 2.5589e-21 8.23663e-21 -1.90368e-21 -1.14395e-19 -4.31405e-19 -3.48491e-19 3.58329e-18 1.82695e-17 3.56074e-17 -4.20951e-17 -5.18961e-16 -1.7231e-15 -2.40697e-15 4.88018e-15 3.98832e-14 1.26739e-13 2.25955e-13 2.5458e-14 -1.45972e-12 -6.25521e-12 -1.66953e-11 -3.07584e-11 -2.81697e-11 5.88783e-11 3.89029e-10 1.23977e-09 2.93024e-09 5.46035e-09 7.61774e-09 5.36026e-09 -1.03952e-08 -5.576e-08 -1.53869e-07 -3.30262e-07 -6.00917e-07 -9.51414e-07 -1.30856e-06 -1.50965e-06 -1.27842e-06 -2.18445e-07 2.16653e-06 6.42114e-06 1.30593e-05 2.24696e-05 3.48246e-05 5.00133e-05 6.76156e-05 8.69279e-05 0.000107036 0.000126929 0.000145625 0.000162301 0.000176382 0.000187597 0.000195978 0.000201814 0.000205565 0.000207752 0.000208846 0.000209172 0.000208846 0.000207752 0.000205565 0.000201814 0.000195978 0.000187597 0.000176382 0.000162301 0.000145625 0.000126929 0.000107036 8.69279e-05 6.76156e-05 5.00133e-05 3.48246e-05 2.24696e-05 1.30593e-05 6.42114e-06 2.16653e-06 -2.18445e-07 -1.27842e-06 -1.50965e-06 -1.30856e-06 -9.51414e-07 -6.00917e-07 -3.30262e-07 -1.53869e-07 -5.576e-08 -1.03952e-08 5.36026e-09 7.61774e-09 5.46035e-09 2.93024e-09 1.23977e-09 3.89029e-10 5.88783e-11 -2.81697e-11 -3.07584e-11 -1.66953e-11 -6.25521e-12 -1.45972e-12 2.5458e-14 2.25955e-13 1.26739e-13 3.98832e-14 4.88018e-15 -2.40697e-15 -1.7231e-15 -5.18961e-16 -4.20951e-17 3.56074e-17 1.82695e-17 3.58329e-18 -3.48491e-19 -4.31405e-19 -1.14395e-19 -1.90368e-21 8.23663e-21 2.5589e-21 1.31885e-22 -1.41064e-22 -4.56303e-23 -2.37525e-24 2.2712e-24 6.74469e-25 1.93655e-26 -3.40181e-26 -8.23167e-27 1.38343e-28 4.53874e-28 7.96623e-29 -7.4883e-30 -5.1058e-30 -5.41292e-31 1.38989e-31 4.64898e-32 1.44568e-33 -1.68674e-33 -3.058e-34 2.00858e-35 1.3687e-35 1.10159e-36 -3.02284e-37 -6.9203e-38 7.88125e-40 1.93072e-39 1.75582e-40 -2.88172e-41 -6.83527e-42 -2.98588e-43 0 0 0 0 0 0 0 0 0 
0 0 0 0 0 0 0 0 0 -4.44283e-43 -7.63059e-42 -2.1759e-41 2.61501e-40 2.05558e-39 -2.60909e-39 -9.18792e-38 -2.73175e-37 2.1019e-36 1.71688e-35 2.12464e-36 -4.90355e-34 -1.92606e-33 5.56678e-33 6.90805e-32 1.24458e-31 -1.13456e-30 -7.02171e-30 -1.53087e-30 1.43306e-28 5.71691e-28 -7.16187e-28 -1.388e-26 -3.92959e-26 1.05302e-25 1.10588e-24 2.43403e-24 -9.15207e-24 -7.50217e-23 -1.47969e-22 5.62557e-22 4.37568e-21 9.2225e-21 -2.34531e-20 -2.14313e-19 -5.53326e-19 4.11977e-19 8.14232e-18 2.80276e-17 2.47442e-17 -1.90998e-16 -1.0215e-15 -2.34049e-15 -2.42206e-16 1.94911e-14 8.24689e-14 1.85126e-13 1.34496e-13 -8.08974e-13 -4.34524e-12 -1.26846e-11 -2.45374e-11 -2.2127e-11 5.76025e-11 3.66822e-10 1.17227e-09 2.7509e-09 4.91899e-09 5.84559e-09 -1.26313e-10 -2.53993e-08 -9.13114e-08 -2.26288e-07 -4.54869e-07 -7.72134e-07 -1.10062e-06 -1.23319e-06 -7.74642e-07 8.95564e-07 4.61247e-06 1.13431e-05 2.20232e-05 3.73272e-05 5.74087e-05 8.16696e-05 0.000108621 0.00013589 0.000160389 0.00017865 0.000187275 0.00018342 0.00016525 0.000132283 8.55607e-05 2.76292e-05 -3.76637e-05 -0.000105529 -0.000170701 -0.000227959 -0.000272624 -0.000301 -0.00031073 -0.000301 -0.000272624 -0.000227959 -0.000170701 -0.000105529 -3.76637e-05 2.76292e-05 8.55607e-05 0.000132283 0.00016525 0.00018342 0.000187275 0.00017865 0.000160389 0.00013589 0.000108621 8.16696e-05 5.74087e-05 3.73272e-05 2.20232e-05 1.13431e-05 4.61247e-06 8.95564e-07 -7.74642e-07 -1.23319e-06 -1.10062e-06 -7.72134e-07 -4.54869e-07 -2.26288e-07 -9.13114e-08 -2.53993e-08 -1.26313e-10 5.84559e-09 4.91899e-09 2.7509e-09 1.17227e-09 3.66822e-10 5.76025e-11 -2.2127e-11 -2.45374e-11 -1.26846e-11 -4.34524e-12 -8.08974e-13 1.34496e-13 1.85126e-13 8.24689e-14 1.94911e-14 -2.42206e-16 -2.34049e-15 -1.0215e-15 -1.90998e-16 2.47442e-17 2.80276e-17 8.14232e-18 4.11977e-19 -5.53326e-19 -2.14313e-19 -2.34531e-20 9.2225e-21 4.37568e-21 5.62557e-22 -1.47969e-22 -7.50217e-23 -9.15206e-24 2.43402e-24 1.10588e-24 1.05302e-25 -3.92959e-26 -1.388e-26 -7.16186e-28 5.71699e-28 1.4335e-28 -1.4599e-30 -6.96565e-30 -1.12569e-30 1.23696e-31 6.86001e-32 5.52482e-33 -1.91347e-33 -4.86986e-34 2.14051e-36 1.7058e-35 2.08757e-36 -2.71579e-37 -9.13014e-38 -2.58955e-39 2.04351e-39 2.59957e-40 -2.1633e-41 -7.53382e-42 -4.31866e-43 0 0 0 0 0 0 0 0 
0 0 0 0 0 0 0 -0 -5.65951e-43 -7.7653e-42 -1.16325e-41 3.37975e-40 1.96915e-39 -6.91142e-39 -1.10754e-37 -1.82343e-37 3.30893e-36 1.94287e-35 -2.99268e-35 -7.05229e-34 -1.86054e-33 1.20304e-32 9.35427e-32 5.53204e-32 -2.00363e-30 -8.74144e-30 1.15422e-29 2.30778e-28 6.27071e-28 -2.31982e-27 -2.11714e-26 -3.59937e-26 2.57087e-25 1.6352e-24 1.77531e-24 -2.0944e-23 -1.10253e-22 -9.43821e-23 1.33096e-21 6.60754e-21 6.77825e-21 -6.49934e-20 -3.47319e-19 -5.38826e-19 2.16523e-18 1.50694e-17 3.55383e-17 -2.30268e-17 -4.68484e-16 -1.66551e-15 -2.22734e-15 6.40555e-15 4.62014e-14 1.35902e-13 1.84403e-13 -3.03009e-13 -2.66765e-12 -9.00662e-12 -1.92127e-11 -1.99962e-11 4.13634e-11 2.99479e-10 9.97194e-10 2.37466e-09 4.14104e-09 4.08341e-09 -4.5682e-09 -3.66588e-08 -1.17232e-07 -2.76825e-07 -5.3112e-07 -8.35097e-07 -1.00655e-06 -6.26939e-07 1.0517e-06 5.14319e-06 1.30434e-05 2.61709e-05 4.55135e-05 7.10178e-05 0.000100932 0.000131259 0.000155496 0.0001648 0.000148647 9.59379e-05 -3.59949e-06 -0.000157925 -0.000371376 -0.000643742 -0.00096988 -0.00133987 -0.00173976 -0.00215262 -0.0025599 -0.00294279 -0.00328342 -0.003566 -0.0037775 -0.00390833 -0.0039526 -0.00390833 -0.0037775 -0.003566 -0.00328342 -0.00294279 -0.0025599 -0.00215262 -0.00173976 -0.00133987 -0.00096988 -0.000643742 -0.000371376 -0.000157925 -3.59949e-06 9.59379e-05 0.000148647 0.0001648 0.000155496 0.000131259 0.000100932 7.10178e-05 4.55135e-05 2.61709e-05 1.30434e-05 5.14319e-06 1.0517e-06 -6.26939e-07 -1.00655e-06 -8.35097e-07 -5.3112e-07 -2.76825e-07 -1.17232e-07 -3.66588e-08 -4.5682e-09 4.08341e-09 4.14104e-09 2.37466e-09 9.97194e-10 2.99479e-10 4.13634e-11 -1.99962e-11 -1.92127e-11 -9.00662e-12 -2.66765e-12 -3.03009e-13 1.84403e-13 1.35902e-13 4.62014e-14 6.40555e-15 -2.22734e-15 -1.66551e-15 -4.68484e-16 -2.30268e-17 3.55383e-17 1.50694e-17 2.16523e-18 -5.38826e-19 -3.47319e-19 -6.49934e-20 6.77825e-21 6.60754e-21 1.33096e-21 -9.4382e-23 -1.10253e-22 -2.0944e-23 1.77531e-24 1.6352e-24 2.57087e-25 -3.59937e-26 -2.11713e-26 -2.31977e-27 6.26997e-28 2.2952e-28 1.14683e-29 -8.67959e-30 -1.98908e-30 5.50629e-32 9.29009e-32 1.19434e-32 -1.84894e-33 -7.00487e-34 -2.96902e-35 1.93069e-35 3.28719e-36 -1.8138e-37 -1.10077e-37 -6.86685e-39 1.95786e-39 3.361e-40 -1.15316e-41 -7.71149e-42 -5.65951e-43 -0 0 0 0 0 0 0 
0 0 0 0 0 0 -0 -6.66437e-43 -7.45651e-42 7.45072e-44 3.94454e-40 1.66812e-39 -1.16413e-38 -1.22415e-37 -2.6845e-38 4.60454e-36 1.95815e-35 -7.72894e-35 -9.26231e-34 -1.30612e-33 2.10827e-32 1.15531e-31 -9.75396e-32 -3.17024e-30 -9.62054e-30 3.50578e-29 3.40053e-28 5.3733e-28 -4.95561e-27 -2.94702e-26 -1.57145e-26 4.95525e-25 2.18165e-24 -4.25726e-25 -3.91744e-23 -1.44204e-22 7.33314e-23 2.53644e-21 8.78985e-21 -2.56534e-21 -1.33766e-19 -4.9249e-19 -1.98715e-19 5.41339e-18 2.39769e-17 3.28281e-17 -1.36552e-16 -9.03247e-16 -2.24883e-15 -2.11723e-16 2.04675e-14 8.59952e-14 1.76448e-13 1.18885e-14 -1.37228e-12 -5.85604e-12 -1.44576e-11 -1.89973e-11 2.01234e-11 2.13385e-10 7.72657e-10 1.91691e-09 3.35684e-09 2.84003e-09 -6.7477e-09 -4.13423e-08 -1.277e-07 -2.95575e-07 -5.46439e-07 -7.82607e-07 -6.88183e-07 4.22481e-07 3.73158e-06 1.09148e-05 2.38722e-05 4.40704e-05 7.14545e-05 0.000103028 0.000131372 0.000143498 0.000120497 3.83197e-05 -0.000130159 -0.000411971 -0.00083023 -0.00140033 -0.00212689 -0.00300198 -0.00400512 -0.00510492 -0.00626212 -0.00743351 -0.00857605 -0.00965047 -0.010624 -0.0114717 -0.0121768 -0.0127295 -0.0131251 -0.0133623 -0.0134413 -0.0133623 -0.0131251 -0.0127295 -0.0121768 -0.0114717 -0.010624 -0.00965047 -0.00857605 -0.00743351 -0.00626212 -0.00510492 -0.00400512 -0.00300198 -0.00212689 -0.00140033 -0.00083023 -0.000411971 -0.000130159 3.83197e-05 0.000120497 0.000143498 0.000131372 0.000103028 7.14545e-05 4.40704e-05 2.38722e-05 1.09148e-05 3.73158e-06 4.22481e-07 -6.88183e-07 -7.82607e-07 -5.46439e-07 -2.95575e-07 -1.277e-07 -4.13423e-08 -6.7477e-09 2.84003e-09 3.35684e-09 1.91691e-09 7.72657e-10 2.13385e-10 2.01234e-11 -1.89973e-11 -1.44576e-11 -5.85604e-12 -1.37228e-12 1.18885e-14 1.76448e-13 8.59952e-14 2.04675e-14 -2.11723e-16 -2.24883e-15 -9.03247e-16 -1.36552e-16 3.28281e-17 2.39769e-17 5.41339e-18 -1.98715e-19 -4.9249e-19 -1.33766e-19 -2.56534e-21 8.78986e-21 2.53644e-21 7.33315e-23 -1.44204e-22 -3.91744e-23 -4.25725e-25 2.18165e-24 4.95524e-25 -1.57145e-26 -2.94704e-26 -4.95778e-27 5.31639e-28 3.37361e-28 3.47687e-29 -9.5569e-30 -3.14777e-30 -9.66711e-32 1.14756e-31 2.09345e-32 -1.29891e-33 -9.20155e-34 -7.67419e-35 1.94633e-35 4.5753e-36 -2.68666e-38 -1.21689e-37 -1.15711e-38 1.6587e-39 3.92287e-40 1.40736e-43 -7.37527e-42 -6.59567e-43 -0 0 0 0 0 0 
0 0 0 0 0 -0 -7.34869e-43 -6.49811e-42 1.17968e-41 4.22152e-40 1.17953e-39 -1.61541e-38 -1.23724e-37 1.8522e-37 5.80284e-36 1.67632e-35 -1.3832e-34 -1.11213e-33 -7.51641e-35 3.24416e-32 1.27639e-31 -3.6457e-31 -4.57901e-30 -8.58641e-30 7.25276e-29 4.61217e-28 1.82521e-28 -8.87875e-27 -3.72123e-26 3.31048e-26 8.35014e-25 2.57448e-24 -5.13232e-24 -6.45498e-23 -1.62323e-22 4.26662e-22 4.22332e-21 9.92896e-21 -2.35882e-20 -2.34168e-19 -5.97043e-19 7.48617e-19 1.05977e-17 3.29571e-17 6.25641e-18 -3.4963e-16 -1.47619e-15 -2.30529e-15 5.4831e-15 4.46504e-14 1.32581e-13 1.50535e-13 -5.07583e-13 -3.36176e-12 -1.01316e-11 -1.71924e-11 1.75979e-12 1.30597e-10 5.46338e-10 1.45817e-09 2.66912e-09 2.21142e-09 -6.57518e-09 -3.92703e-08 -1.22479e-07 -2.83816e-07 -5.10874e-07 -6.54965e-07 -2.65634e-07 1.61845e-06 6.62139e-06 1.69288e-05 3.4666e-05 6.05067e-05 9.14212e-05 0.000117786 0.000120466 6.88189e-05 -7.93196e-05 -0.000374841 -0.000871464 -0.00161731 -0.00264522 -0.00396375 -0.00555076 -0.00735144 -0.00928127 -0.0112341 -0.0130941 -0.0147497 -0.0161073 -0.0171029 -0.01771 -0.0179415 -0.0178482 -0.0175108 -0.0170296 -0.0165117 -0.0160579 -0.0157498 -0.015641 -0.0157498 -0.0160579 -0.0165117 -0.0170296 -0.0175108 -0.0178482 -0.0179415 -0.01771 -0.0171029 -0.0161073 -0.0147497 -0.0130941 -0.0112341 -0.00928127 -0.00735144 -0.00555076 -0.00396375 -0.00264522 -0.00161731 -0.000871464 -0.000374841 -7.93196e-05 6.88189e-05 0.000120466 0.000117786 9.14212e-05 6.05067e-05 3.4666e-05 1.69288e-05 6.62139e-06 1.61845e-06 -2.65634e-07 -6.54965e-07 -5.10874e-07 -2.83816e-07 -1.22479e-07 -3.92703e-08 -6.57518e-09 2.21142e-09 2.66912e-09 1.45817e-09 5.46338e-10 1.30597e-10 1.75979e-12 -1.71924e-11 -1.01316e-11 -3.36176e-12 -5.07583e-13 1.50535e-13 1.32581e-13 4.46504e-14 5.4831e-15 -2.30529e-15 -1.47619e-15 -3.4963e-16 6.25641e-18 3.29571e-17 1.05977e-17 7.48617e-19 -5.97043e-19 -2.34168e-19 -2.35881e-20 9.92896e-21 4.22333e-21 4.26662e-22 -1.62323e-22 -6.45498e-23 -5.13233e-24 2.57448e-24 8.35013e-25 3.31022e-26 -3.72134e-26 -8.8358e-27 1.8031e-28 4.57845e-28 7.19828e-29 -8.53173e-30 -4.54697e-30 -3.61784e-31 1.26811e-31 3.22192e-32 -7.68143e-35 -1.10505e-33 -1.37393e-34 1.66669e-35 5.76722e-36 1.83959e-37 -1.23009e-37 -1.60613e-38 1.1729e-39 4.19902e-40 1.17693e-41 -6.48024e-42 -7.34869e-43 -0 0 0 0 0 
0 0 0 0 -0 -7.26299e-43 -5.2853e-42 2.18825e-41 4.17366e-40 5.68486e-40 -1.97751e-38 -1.13192e-37 4.31954e-37 6.69145e-36 1.05042e-35 -2.07658e-34 -1.21204e-33 1.95196e-33 4.50936e-32 1.20229e-31 -7.67564e-31 -6.06399e-30 -4.20682e-30 1.2652e-28 5.71283e-28 -5.95543e-28 -1.42238e-26 -4.15081e-26 1.24789e-25 1.27344e-24 2.51955e-24 -1.34852e-23 -9.61339e-23 -1.39999e-22 1.0489e-21 6.30837e-21 8.30123e-21 -6.20128e-20 -3.62929e-19 -5.61559e-19 2.66702e-18 1.78383e-17 3.76065e-17 -6.41468e-17 -6.91065e-16 -2.06873e-15 -9.99984e-16 1.70935e-14 7.96153e-14 1.65865e-13 -3.54657e-14 -1.59209e-12 -6.37416e-12 -1.40203e-11 -9.72842e-12 6.45921e-11 3.48886e-10 1.04242e-09 2.08191e-09 1.99256e-09 -4.81529e-09 -3.2331e-08 -1.05541e-07 -2.50172e-07 -4.46096e-07 -5.11186e-07 1.0708e-07 2.59825e-06 8.95821e-06 2.17347e-05 4.28744e-05 7.12009e-05 9.83381e-05 0.000103518 4.85503e-05 -0.000124979 -0.000493921 -0.00114528 -0.00216089 -0.00359646 -0.00545843 -0.00768355 -0.0101263 -0.0125583 -0.0146822 -0.0161584 -0.0166426 -0.0158275 -0.0134831 -0.00949106 -0.00386576 0.00323794 0.0115312 0.0206115 0.0299936 0.0391467 0.0475347 0.0546555 0.0600774 0.0634694 0.0646237 0.0634694 0.0600774 0.0546555 0.0475347 0.0391467 0.0299936 0.0206115 0.0115312 0.00323794 -0.00386576 -0.00949106 -0.0134831 -0.0158275 -0.0166426 -0.0161584 -0.0146822 -0.0125583 -0.0101263 -0.00768355 -0.00545843 -0.00359646 -0.00216089 -0.00114528 -0.000493921 -0.000124979 4.85503e-05 0.000103518 9.83381e-05 7.12009e-05 4.28744e-05 2.17347e-05 8.95821e-06 2.59825e-06 1.0708e-07 -5.11186e-07 -4.46096e-07 -2.50172e-07 -1.05541e-07 -3.2331e-08 -4.81529e-09 1.99256e-09 2.08191e-09 1.04242e-09 3.48886e-10 6.45921e-11 -9.72842e-12 -1.40203e-11 -6.37416e-12 -1.59209e-12 -3.54657e-14 1.65865e-13 7.96153e-14 1.70935e-14 -9.99984e-16 -2.06873e-15 -6.91065e-16 -6.41468e-17 3.76065e-17 1.78383e-17 2.66702e-18 -5.61559e-19 -3.62928e-19 -6.20127e-20 8.30126e-21 6.30838e-21 1.0489e-21 -1.39999e-22 -9.61339e-23 -1.34853e-23 2.51954e-24 1.27345e-24 1.24881e-25 -4.11769e-26 -1.41123e-26 -5.89699e-28 5.67345e-28 1.25601e-28 -4.1864e-30 -6.02241e-30 -7.61984e-31 1.1949e-31 4.4793e-32 1.93667e-33 -1.20457e-33 -2.06327e-34 1.04489e-35 6.65172e-36 4.29357e-37 -1.12552e-37 -1.96662e-38 5.64946e-40 4.15122e-40 2.173e-41 -5.2853e-42 -7.26299e-43 -9.72899e-44 -0 0 0 
0 0 -0 -9.80175e-44 -6.91754e-43 -3.91873e-42 2.90493e-41 3.82398e-40 -7.65026e-41 -2.19595e-38 -9.1553e-38 6.80844e-37 7.08132e-36 9.70326e-37 -2.76458e-34 -1.17617e-33 4.76078e-33 5.72195e-32 8.30495e-32 -1.30747e-30 -7.32254e-30 5.13258e-30 1.9696e-28 6.28727e-28 -1.98447e-27 -2.08692e-26 -3.77655e-26 2.74963e-25 1.77808e-24 1.5717e-24 -2.66308e-23 -1.3009e-22 -4.06023e-23 2.0199e-21 8.48156e-21 1.30154e-21 -1.23465e-19 -5.02213e-19 -2.2715e-19 5.95161e-18 2.6526e-17 3.00006e-17 -2.03477e-16 -1.16585e-15 -2.39646e-15 2.92892e-15 3.67854e-14 1.20975e-13 1.44435e-13 -5.17169e-13 -3.43476e-12 -9.99804e-12 -1.39531e-11 2.03696e-11 1.95553e-10 6.91222e-10 1.56675e-09 1.89746e-09 -2.51491e-09 -2.32315e-08 -8.25194e-08 -2.05069e-07 -3.72049e-07 -3.95836e-07 3.19645e-07 3.09858e-06 1.01846e-05 2.43193e-05 4.69448e-05 7.42127e-05 9.04252e-05 5.96659e-05 -8.1946e-05 -0.000429246 -0.00110129 -0.00222078 -0.00387835 -0.00608496 -0.00872049 -0.0114898 -0.0138993 -0.0152633 -0.0147449 -0.0114298 -0.00442235 0.00704805 0.0235277 0.0452594 0.0721337 0.103677 0.139072 0.177213 0.216777 0.256307 0.294305 0.32931 0.359975 0.385123 0.403796 0.415287 0.419166 0.415287 0.403796 0.385123 0.359975 0.32931 0.294305 0.256307 0.216777 0.177213 0.139072 0.103677 0.0721337 0.0452594 0.0235277 0.00704805 -0.00442235 -0.0114298 -0.0147449 -0.0152633 -0.0138993 -0.0114898 -0.00872049 -0.00608496 -0.00387835 -0.00222078 -0.00110129 -0.000429246 -8.1946e-05 5.96659e-05 9.04252e-05 7.42127e-05 4.69448e-05 2.43193e-05 1.01846e-05 3.09858e-06 3.19645e-07 -3.95836e-07 -3.72049e-07 -2.05069e-07 -8.25194e-08 -2.32315e-08 -2.51491e-09 1.89746e-09 1.56675e-09 6.91222e-10 1.95553e-10 2.03696e-11 -1.39531e-11 -9.99804e-12 -3.43476e-12 -5.17169e-13 1.44435e-13 1.20975e-13 3.67854e-14 2.92892e-15 -2.39646e-15 -1.16585e-15 -2.03477e-16 3.00006e-17 2.6526e-17 5.95161e-18 -2.2715e-19 -5.02212e-19 -1.23465e-19 1.30157e-21 8.48157e-21 2.01991e-21 -4.06022e-23 -1.3009e-22 -2.66308e-23 1.57182e-24 1.77832e-24 2.73901e-25 -3.74359e-26 -2.07122e-26 -1.96862e-27 6.24482e-28 1.95552e-28 5.08297e-30 -7.2737e-30 -1.29829e-30 8.26034e-32 5.68497e-32 4.72778e-33 -1.16919e-33 -2.74757e-34 9.71222e-37 7.04056e-36 6.77012e-37 -9.10395e-38 -2.1843e-38 -7.68303e-41 3.80427e-40 2.8919e-41 -4.00353e-42 -1.08331e-42 -3.81041e-44 0 0 
0 0 -8.14296e-45 -8.45884e-43 -2.65786e-42 3.27505e-41 3.24435e-40 -6.63851e-40 -2.24221e-38 -6.17131e-38 8.95587e-37 6.85857e-36 -1.09402e-35 -3.33814e-34 -9.70172e-34 8.154e-33 6.63627e-32 7.98587e-33 -1.95221e-30 -7.92096e-30 2.08621e-29 2.79238e-28 5.72514e-28 -4.16312e-27 -2.82116e-26 -1.94308e-26 4.97597e-25 2.26801e-24 -8.75458e-25 -4.54046e-23 -1.58164e-22 1.84711e-22 3.38857e-21 1.00872e-20 -1.45714e-20 -2.11503e-19 -6.11047e-19 6.29435e-19 1.09172e-17 3.4772e-17 -2.05764e-18 -4.37546e-16 -1.72605e-15 -1.93959e-15 1.11115e-14 6.55657e-14 1.55172e-13 -6.85344e-16 -1.45606e-12 -6.06676e-12 -1.28445e-11 -3.45402e-12 8.99103e-11 4.15012e-10 1.10913e-09 1.72792e-09 -5.1755e-10 -1.43835e-08 -5.85972e-08 -1.57114e-07 -2.99995e-07 -3.22677e-07 3.46301e-07 3.04805e-06 1.01273e-05 2.44001e-05 4.67477e-05 7.0526e-05 7.20613e-05 -1.66663e-06 -0.000243993 -0.000790631 -0.00180313 -0.0034252 -0.00570882 -0.00851637 -0.0114159 -0.0135944 -0.0138171 -0.0104547 -0.00158753 0.0148194 0.0406944 0.0776247 0.126644 0.18808 0.261476 0.345602 0.438536 0.537817 0.640627 0.743971 0.844876 0.940527 1.02837 1.10623 1.17227 1.22504 1.26347 1.28682 1.29465 1.28682 1.26347 1.22504 1.17227 1.10623 1.02837 0.940527 0.844876 0.743971 0.640627 0.537817 0.438536 0.345602 0.261476 0.18808 0.126644 0.0776247 0.0406944 0.0148194 -0.00158753 -0.0104547 -0.0138171 -0.0135944 -0.0114159 -0.00851637 -0.00570882 -0.0034252 -0.00180313 -0.000790631 -0.000243993 -1.66663e-06 7.20613e-05 7.0526e-05 4.67477e-05 2.44001e-05 1.01273e-05 3.04805e-06 3.46301e-07 -3.22677e-07 -2.99995e-07 -1.57114e-07 -5.85972e-08 -1.43835e-08 -5.1755e-10 1.72792e-09 1.10913e-09 4.15012e-10 8.99103e-11 -3.45402e-12 -1.28445e-11 -6.06676e-12 -1.45606e-12 -6.85344e-16 1.55172e-13 6.55657e-14 1.11115e-14 -1.93959e-15 -1.72605e-15 -4.37546e-16 -2.05764e-18 3.4772e-17 1.09172e-17 6.29437e-19 -6.11045e-19 -2.11503e-19 -1.45714e-20 1.00872e-20 3.38857e-21 1.84712e-22 -1.58164e-22 -4.54045e-23 -8.78691e-25 2.2524e-24 4.93744e-25 -1.93411e-26 -2.8011e-26 -4.13186e-27 5.68847e-28 2.77282e-28 2.06997e-29 -7.87014e-30 -1.93895e-30 8.0648e-33 6.59484e-32 8.10113e-33 -9.64647e-34 -3.31841e-34 -1.0875e-35 6.82012e-36 8.90795e-37 -6.13587e-38 -2.23071e-38 -6.61466e-40 3.2268e-40 3.27614e-41 2.6545e-42 -4.02815e-43 0 0 
0 0 -1.27573e-43 3.57303e-42 3.32983e-41 2.53664e-40 -1.11986e-39 -2.11947e-38 -2.81012e-38 1.04458e-36 6.02055e-36 -2.37079e-35 -3.69184e-34 -5.88662e-34 1.17464e-32 6.98893e-32 -1.07624e-31 -2.62961e-30 -7.35129e-30 4.36784e-29 3.62529e-28 3.26811e-28 -7.23204e-27 -3.48802e-26 2.20513e-26 8.00251e-25 2.59494e-24 -5.56681e-24 -6.9842e-23 -1.66121e-22 5.94003e-22 5.13078e-21 1.00028e-20 -4.34769e-20 -3.24538e-19 -6.16257e-19 2.2846e-18 1.76093e-17 3.87707e-17 -7.5024e-17 -7.83889e-16 -2.23215e-15 1.0738e-16 2.52818e-14 1.01518e-13 1.54775e-13 -3.67161e-13 -2.99393e-12 -9.1399e-12 -1.20148e-11 2.71869e-11 2.16527e-10 7.17806e-10 1.42682e-09 7.5387e-10 -7.3137e-09 -3.74593e-08 -1.12158e-07 -2.33503e-07 -2.79798e-07 2.36594e-07 2.55677e-06 8.97828e-06 2.23353e-05 4.32105e-05 6.29513e-05 5.11498e-05 -6.11459e-05 -0.000396211 -0.00112983 -0.0024595 -0.00452401 -0.00726705 -0.0102551 -0.0124825 -0.0122135 -0.00692048 0.00663844 0.0321806 0.0735187 0.134094 0.2165 0.322078 0.450668 0.600529 0.768468 0.95012 1.14036 1.33371 1.52481 1.70879 1.88145 2.03952 2.18064 2.3033 2.40673 2.49073 2.55544 2.60128 2.62857 2.63765 2.62857 2.60128 2.55544 2.49073 2.40673 2.3033 2.18064 2.03952 1.88145 1.70879 1.52481 1.33371 1.14036 0.95012 0.768468 0.600529 0.450668 0.322078 0.2165 0.134094 0.0735187 0.0321806 0.00663844 -0.00692048 -0.0122135 -0.0124825 -0.0102551 -0.00726705 -0.00452401 -0.0024595 -0.00112983 -0.000396211 -6.11459e-05 5.11498e-05 6.29513e-05 4.32105e-05 2.23353e-05 8.97828e-06 2.55677e-06 2.36594e-07 -2.79798e-07 -2.33503e-07 -1.12158e-07 -3.74593e-08 -7.3137e-09 7.5387e-10 1.42682e-09 7.17806e-10 2.16527e-10 2.71869e-11 -1.20148e-11 -9.1399e-12 -2.99393e-12 -3.67161e-13 1.54775e-13 1.01518e-13 2.52818e-14 1.0738e-16 -2.23215e-15 -7.83889e-16 -7.5024e-17 3.87707e-17 1.76093e-17 2.2846e-18 -6.16257e-19 -3.24538e-19 -4.34769e-20 1.00028e-20 5.13077e-21 5.94002e-22 -1.66126e-22 -6.98587e-23 -5.56026e-24 2.57328e-24 7.9405e-25 2.1817e-26 -3.46366e-26 -7.17891e-27 3.25155e-28 3.60055e-28 4.336e-29 -7.30683e-30 -2.6124e-30 -1.06804e-31 6.94685e-32 1.16743e-32 -5.85436e-34 -3.6708e-34 -2.35795e-35 5.98735e-36 1.03923e-36 -2.79138e-38 -2.10892e-38 -1.11529e-39 2.58045e-40 6.16087e-41 3.88798e-42 0 0 
0 0 3.74576e-42 4.98644e-41 1.85368e-40 -1.40242e-39 -1.8597e-38 4.39876e-39 1.10833e-36 4.68188e-36 -3.55031e-35 -3.75097e-34 -6.2612e-35 1.50191e-32 6.56633e-32 -2.58141e-31 -3.23098e-30 -5.14576e-30 7.2926e-29 4.29238e-28 -1.85989e-28 -1.11272e-26 -3.85834e-26 9.62114e-26 1.17547e-24 2.52533e-24 -1.33114e-23 -9.85092e-23 -1.32472e-22 1.24674e-21 7.09292e-21 6.54749e-21 -8.96093e-20 -4.51623e-19 -4.05179e-19 5.03052e-18 2.55314e-17 3.22022e-17 -2.08177e-16 -1.23717e-15 -2.4097e-15 4.8324e-15 4.67155e-14 1.37382e-13 7.44044e-14 -1.07215e-12 -5.16741e-12 -1.16377e-11 -2.65037e-12 9.01363e-11 4.10692e-10 1.04269e-09 1.26875e-09 -2.57989e-09 -2.10675e-08 -7.37923e-08 -1.73113e-07 -2.46402e-07 7.41327e-08 1.83584e-06 7.14943e-06 1.88294e-05 3.76048e-05 5.43278e-05 3.49207e-05 -0.000101 -0.000499574 -0.00137138 -0.00294081 -0.00531592 -0.00826198 -0.0108929 -0.0113363 -0.00646712 0.0081792 0.0382223 0.0899424 0.169517 0.282109 0.430963 0.616714 0.837018 1.08661 1.35773 1.64094 1.92602 2.20298 2.46291 2.69869 2.90535 3.08023 3.22286 3.33468 3.4186 3.47856 3.51906 3.54463 3.55953 3.56739 3.57095 3.57195 3.57095 3.56739 3.55953 3.54463 3.51906 3.47856 3.4186 3.33468 3.22286 3.08023 2.90535 2.69869 2.46291 2.20298 1.92602 1.64094 1.35773 1.08661 0.837018 0.616714 0.430963 0.282109 0.169517 0.0899424 0.0382223 0.0081792 -0.00646712 -0.0113363 -0.0108929 -0.00826198 -0.00531592 -0.00294081 -0.00137138 -0.000499574 -0.000101 3.49207e-05 5.43278e-05 3.76048e-05 1.88294e-05 7.14943e-06 1.83584e-06 7.41327e-08 -2.46402e-07 -1.73113e-07 -7.37923e-08 -2.10675e-08 -2.57989e-09 1.26875e-09 1.04269e-09 4.10692e-10 9.01363e-11 -2.65037e-12 -1.16377e-11 -5.16741e-12 -1.07215e-12 7.44044e-14 1.37382e-13 4.67155e-14 4.8324e-15 -2.4097e-15 -1.23717e-15 -2.08177e-16 3.22021e-17 2.55314e-17 5.03053e-18 -4.05179e-19 -4.51623e-19 -8.96092e-20 6.54752e-21 7.09291e-21 1.24673e-21 -1.32386e-22 -9.7903e-23 -1.32111e-23 2.50803e-24 1.16686e-24 9.54358e-26 -3.83215e-26 -1.10473e-26 -1.83774e-28 4.26407e-28 7.24193e-29 -5.11807e-30 -3.21064e-30 -2.56437e-31 6.52812e-32 1.49312e-32 -6.22417e-35 -3.73029e-34 -3.5322e-35 4.65604e-36 1.10288e-36 4.4346e-39 -1.85031e-38 -1.39838e-39 -6.00893e-41 2.86679e-41 0 0 
0 0 1.89894e-41 -1.25093e-40 -1.5136e-39 -1.51328e-38 3.15691e-38 1.08346e-36 3.04784e-36 -4.46112e-35 -3.49282e-34 5.43188e-34 1.74278e-32 5.27515e-32 -4.28581e-31 -3.62848e-30 -1.0305e-30 1.06129e-28 4.5657e-28 -1.02281e-27 -1.55304e-26 -3.61641e-26 2.11038e-25 1.58794e-24 1.72366e-24 -2.48412e-23 -1.27689e-22 -2.80395e-23 2.18963e-21 8.92475e-21 -2.53538e-21 -1.56063e-19 -5.67409e-19 1.76496e-19 9.10191e-18 3.32999e-17 5.88225e-18 -4.20038e-16 -1.74886e-15 -1.8108e-15 1.35043e-14 7.52996e-14 1.57731e-13 -1.50742e-13 -2.22682e-12 -7.77791e-12 -1.15571e-11 2.21872e-11 1.97397e-10 6.62234e-10 1.23324e-09 -1.52292e-12 -9.88349e-09 -4.38903e-08 -1.19845e-07 -2.07792e-07 -6.70533e-08 1.10186e-06 5.10287e-06 1.46519e-05 3.10102e-05 4.62514e-05 2.67681e-05 -0.000112161 -0.000531546 -0.0014685 -0.00316812 -0.00569672 -0.00860183 -0.0104313 -0.00819793 0.00304823 0.0303393 0.0824221 0.168828 0.298457 0.477911 0.709916 0.992187 1.31701 1.6717 2.03977 2.40273 2.74208 3.04124 3.28704 3.47084 3.58883 3.64196 3.63528 3.57706 3.47781 3.34927 3.20337 3.05171 2.90484 2.77197 2.66078 2.57709 2.52519 2.50763 2.52519 2.57709 2.66078 2.77197 2.90484 3.05171 3.20337 3.34927 3.47781 3.57706 3.63528 3.64196 3.58883 3.47084 3.28704 3.04124 2.74208 2.40273 2.03977 1.6717 1.31701 0.992187 0.709916 0.477911 0.298457 0.168828 0.0824221 0.0303393 0.00304823 -0.00819793 -0.0104313 -0.00860183 -0.00569672 -0.00316812 -0.0014685 -0.000531546 -0.000112161 2.67681e-05 4.62514e-05 3.10102e-05 1.46519e-05 5.10287e-06 1.10186e-06 -6.70533e-08 -2.07792e-07 -1.19845e-07 -4.38903e-08 -9.88349e-09 -1.52292e-12 1.23324e-09 6.62234e-10 1.97397e-10 2.21872e-11 -1.15571e-11 -7.77791e-12 -2.22682e-12 -1.50742e-13 1.57731e-13 7.52996e-14 1.35043e-14 -1.8108e-15 -1.74886e-15 -4.20038e-16 5.88225e-18 3.32999e-17 9.10192e-18 1.765e-19 -5.67407e-19 -1.56063e-19 -2.53538e-21 8.92489e-21 2.19046e-21 -2.68688e-23 -1.26643e-22 -2.46416e-23 1.71393e-24 1.57654e-24 2.0942e-25 -3.59336e-26 -1.5422e-26 -1.01468e-27 4.53691e-28 1.05425e-28 -1.03002e-30 -3.60652e-30 -4.25964e-31 5.24518e-32 1.73303e-32 5.40558e-34 -3.47406e-34 -4.43945e-35 3.03028e-36 1.07833e-36 3.14769e-38 -1.53671e-38 -3.331e-39 -1.69672e-40 0 0 
0 0 -1.73323e-40 -2.77754e-39 -1.16234e-38 5.06766e-38 9.82146e-37 1.36341e-36 -4.98311e-35 -2.95403e-34 1.14306e-33 1.85364e-32 3.18979e-32 -5.96291e-31 -3.70467e-30 4.92512e-30 1.38942e-28 4.20796e-28 -2.19156e-27 -1.98124e-26 -2.39848e-26 3.69479e-25 1.9643e-24 -2.32192e-25 -4.05293e-23 -1.50503e-22 1.82978e-22 3.43491e-21 1.00103e-20 -1.99618e-20 -2.43105e-19 -6.26929e-19 1.3173e-18 1.45595e-17 3.82694e-17 -5.20459e-17 -7.2201e-16 -2.20273e-15 2.03783e-16 2.73251e-14 1.08229e-13 1.36315e-13 -6.01125e-13 -3.88932e-12 -1.02227e-11 -5.64531e-12 7.09767e-11 3.5565e-10 9.21363e-10 9.97167e-10 -3.29661e-09 -2.28408e-08 -7.57436e-08 -1.61017e-07 -1.47686e-07 5.08282e-07 3.22245e-06 1.04739e-05 2.41753e-05 3.89222e-05 2.56307e-05 -9.65465e-05 -0.000491781 -0.00141327 -0.00312577 -0.00566772 -0.00838722 -0.0092502 -0.00403658 0.0143246 0.0559382 0.133321 0.259816 0.447164 0.702659 1.02654 1.41027 1.83626 2.27916 2.70857 3.09271 3.40214 3.61317 3.7103 3.6872 3.54674 3.2997 2.963 2.55741 2.10544 1.62944 1.15005 0.685325 0.250255 -0.143413 -0.48687 -0.77385 -1.00019 -1.16331 -1.2617 -1.29456 -1.2617 -1.16331 -1.00019 -0.77385 -0.48687 -0.143413 0.250255 0.685325 1.15005 1.62944 2.10544 2.55741 2.963 3.2997 3.54674 3.6872 3.7103 3.61317 3.40214 3.09271 2.70857 2.27916 1.83626 1.41027 1.02654 0.702659 0.447164 0.259816 0.133321 0.0559382 0.0143246 -0.00403658 -0.0092502 -0.00838722 -0.00566772 -0.00312577 -0.00141327 -0.000491781 -9.65465e-05 2.56307e-05 3.89222e-05 2.41753e-05 1.04739e-05 3.22245e-06 5.08282e-07 -1.47686e-07 -1.61017e-07 -7.57436e-08 -2.28408e-08 -3.29661e-09 9.97167e-10 9.21363e-10 3.5565e-10 7.09767e-11 -5.64531e-12 -1.02227e-11 -3.88932e-12 -6.01125e-13 1.36315e-13 1.08229e-13 2.73251e-14 2.03783e-16 -2.20273e-15 -7.2201e-16 -5.20457e-17 3.82694e-17 1.45595e-17 1.3173e-18 -6.26927e-19 -2.43105e-19 -1.99609e-20 1.00091e-20 3.41607e-21 1.81774e-22 -1.49396e-22 -4.02219e-23 -2.26842e-25 1.9505e-24 3.66737e-25 -2.38575e-26 -1.9679e-26 -2.17577e-27 4.18289e-28 1.38063e-28 4.89031e-30 -3.68305e-30 -5.9287e-31 3.17139e-32 1.84369e-32 1.13772e-33 -2.93841e-34 -4.95995e-35 1.35394e-36 9.77427e-37 5.01573e-38 -1.554e-39 -1.74964e-39 0 0 
0 0 -1.22983e-39 2.59036e-39 6.08875e-38 8.27484e-37 -1.44093e-37 -5.07245e-35 -2.22143e-34 1.65023e-33 1.81324e-32 5.55509e-33 -7.35399e-31 -3.38644e-30 1.22246e-29 1.65712e-28 3.0375e-28 -3.62543e-27 -2.30548e-26 1.25959e-27 5.65299e-25 2.18941e-24 -3.77363e-24 -5.9892e-23 -1.55793e-22 5.39756e-22 4.93122e-21 9.41194e-21 -4.85933e-20 -3.45856e-19 -5.61467e-19 3.21796e-18 2.11291e-17 3.6204e-17 -1.55031e-16 -1.1089e-15 -2.38983e-15 4.44112e-15 4.69952e-14 1.38417e-13 3.45057e-14 -1.36084e-12 -5.99368e-12 -1.13096e-11 1.06789e-11 1.52172e-10 5.58167e-10 1.07596e-09 -1.23329e-10 -9.72884e-09 -4.2546e-08 -1.11873e-07 -1.65096e-07 1.1964e-07 1.74549e-06 6.796e-06 1.76389e-05 3.1852e-05 2.76881e-05 -6.43609e-05 -0.00039887 -0.00123222 -0.00285022 -0.00529977 -0.00781432 -0.00789418 -0.000168694 0.0246083 0.0798922 0.182453 0.349928 0.596967 0.930677 1.34649 1.82574 2.33572 2.83277 3.26757 3.59186 3.76519 3.76014 3.56542 3.18635 2.64308 1.96701 1.19627 0.371265 -0.46944 -1.292 -2.06922 -2.78134 -3.41594 -3.96694 -4.43358 -4.81894 -5.12852 -5.36911 -5.54763 -5.67022 -5.74168 -5.7652 -5.74168 -5.67022 -5.54763 -5.36911 -5.12852 -4.81894 -4.43358 -3.96694 -3.41594 -2.78134 -2.06922 -1.292 -0.46944 0.371265 1.19627 1.96701 2.64308 3.18635 3.56542 3.76014 3.76519 3.59186 3.26757 2.83277 2.33572 1.82574 1.34649 0.930677 0.596967 0.349928 0.182453 0.0798922 0.0246083 -0.000168694 -0.00789418 -0.00781432 -0.00529977 -0.00285022 -0.00123222 -0.00039887 -6.43609e-05 2.76881e-05 3.1852e-05 1.76389e-05 6.796e-06 1.74549e-06 1.1964e-07 -1.65096e-07 -1.11873e-07 -4.2546e-08 -9.72884e-09 -1.23329e-10 1.07596e-09 5.58167e-10 1.52172e-10 1.06789e-11 -1.13096e-11 -5.99368e-12 -1.36084e-12 3.45057e-14 1.38417e-13 4.69953e-14 4.44113e-15 -2.38983e-15 -1.1089e-15 -1.55031e-16 3.6204e-17 2.11291e-17 3.21796e-18 -5.61467e-19 -3.4586e-19 -4.86256e-20 9.32571e-21 4.89133e-21 5.35119e-22 -1.5473e-22 -5.94492e-23 -3.74116e-24 2.17463e-24 5.61251e-25 1.19833e-27 -2.29061e-26 -3.60103e-27 3.02075e-28 1.64711e-28 1.21509e-29 -3.36724e-30 -7.31407e-31 5.50291e-33 1.80384e-32 1.64283e-33 -2.20965e-34 -5.04979e-35 -1.46557e-37 8.38957e-37 1.66268e-37 6.3198e-39 0 0 
0 0 7.20572e-39 1.42989e-37 6.6061e-37 -1.31107e-36 -4.76428e-35 -1.40966e-34 1.99702e-33 1.62825e-32 -2.25887e-32 -8.22892e-31 -2.67179e-30 1.99763e-29 1.8065e-28 9.99471e-29 -5.17163e-27 -2.41868e-26 4.13724e-26 7.79554e-25 2.11429e-24 -9.21671e-24 -8.10789e-23 -1.27732e-22 1.07737e-21 6.52853e-21 5.84951e-21 -9.08635e-20 -4.51539e-19 -2.77195e-19 6.05006e-18 2.8006e-17 2.1113e-17 -3.15788e-16 -1.54657e-15 -1.98926e-15 1.17873e-14 7.20745e-14 1.52876e-13 -1.97885e-13 -2.49463e-12 -8.2573e-12 -9.09711e-12 4.30545e-11 2.71285e-10 7.73948e-10 9.29243e-10 -2.75176e-09 -2.03906e-08 -6.84118e-08 -1.39487e-07 -7.60569e-08 7.5059e-07 3.91752e-06 1.18556e-05 2.47045e-05 2.8943e-05 -2.86294e-05 -0.000281375 -0.000973481 -0.00240895 -0.00468705 -0.00705984 -0.0068063 0.00227911 0.0313531 0.0971761 0.221049 0.425404 0.728131 1.13568 1.63682 2.1991 2.7698 3.28163 3.66247 3.84679 3.78649 3.45853 2.86805 2.04675 1.04713 -0.0655582 -1.22229 -2.35818 -3.41859 -4.36289 -5.16564 -5.81597 -6.31545 -6.6752 -6.9131 -7.05037 -7.10979 -7.11342 -7.0814 -7.03128 -6.97752 -6.93122 -6.90029 -6.88945 -6.90029 -6.93122 -6.97752 -7.03128 -7.0814 -7.11342 -7.10979 -7.05037 -6.9131 -6.6752 -6.31545 -5.81597 -5.16564 -4.36289 -3.41859 -2.35818 -1.22229 -0.0655582 1.04713 2.04675 2.86805 3.45853 3.78649 3.84679 3.66247 3.28163 2.7698 2.1991 1.63682 1.13568 0.728131 0.425404 0.221049 0.0971761 0.0313531 0.00227911 -0.0068063 -0.00705984 -0.00468705 -0.00240895 -0.000973481 -0.000281375 -2.86294e-05 2.8943e-05 2.47045e-05 1.18556e-05 3.91752e-06 7.5059e-07 -7.60569e-08 -1.39487e-07 -6.84118e-08 -2.03906e-08 -2.75176e-09 9.29243e-10 7.73948e-10 2.71285e-10 4.30545e-11 -9.09711e-12 -8.2573e-12 -2.49463e-12 -1.97885e-13 1.52876e-13 7.20745e-14 1.17873e-14 -1.98927e-15 -1.54657e-15 -3.15788e-16 2.11131e-17 2.8006e-17 6.05004e-18 -2.77237e-19 -4.51578e-19 -9.04467e-20 5.79316e-21 6.47845e-21 1.06879e-21 -1.26927e-22 -8.04923e-23 -9.14414e-24 2.10095e-24 7.74202e-25 4.1041e-26 -2.4038e-26 -5.1389e-27 9.9504e-29 1.79606e-28 1.98656e-29 -2.65678e-30 -8.1864e-31 -2.25109e-32 1.62005e-32 1.98839e-33 -1.40187e-34 -4.74265e-35 -1.26924e-36 3.14823e-37 9.75862e-38 0 0 
0 0 7.18764e-38 7.28284e-38 -2.0459e-36 -4.15431e-35 -6.33407e-35 2.14897e-33 1.33123e-32 -4.84605e-32 -8.44393e-31 -1.63845e-30 2.70562e-29 1.79341e-28 -1.78326e-28 -6.60504e-27 -2.22332e-26 9.54301e-26 9.79631e-25 1.58138e-24 -1.65945e-23 -1.00518e-22 -4.76469e-23 1.81038e-21 7.92626e-21 -2.26186e-21 -1.47904e-19 -5.36616e-19 3.41221e-19 9.89209e-18 3.36474e-17 -1.45955e-17 -5.42437e-16 -1.95792e-15 -5.6406e-16 2.30303e-14 1.00164e-13 1.3145e-13 -6.17937e-13 -4.01232e-12 -1.00769e-11 -8.2417e-13 9.73788e-11 4.26463e-10 9.3515e-10 1.84485e-10 -7.62532e-09 -3.59448e-08 -9.66426e-08 -1.3412e-07 1.89419e-07 1.92872e-06 7.18984e-06 1.76949e-05 2.71542e-05 1.09798e-07 -0.000167545 -0.000691601 -0.00188172 -0.00391931 -0.00621547 -0.00615119 0.00279141 0.0330646 0.104271 0.242219 0.474681 0.82366 1.29551 1.8717 2.5037 3.11485 3.60995 3.89137 3.8774 3.51865 2.80832 1.78391 0.520891 -0.880122 -2.30913 -3.66192 -4.8524 -5.81988 -6.53184 -6.98219 -7.18669 -7.17673 -6.99281 -6.6792 -6.27897 -5.83127 -5.36915 -4.9194 -4.50244 -4.13304 -3.82147 -3.57419 -3.39543 -3.28739 -3.25133 -3.28739 -3.39543 -3.57419 -3.82147 -4.13304 -4.50244 -4.9194 -5.36915 -5.83127 -6.27897 -6.6792 -6.99281 -7.17673 -7.18669 -6.98219 -6.53184 -5.81988 -4.8524 -3.66192 -2.30913 -0.880122 0.520891 1.78391 2.80832 3.51865 3.8774 3.89137 3.60995 3.11485 2.5037 1.8717 1.29551 0.82366 0.474681 0.242219 0.104271 0.0330646 0.00279141 -0.00615119 -0.00621547 -0.00391931 -0.00188172 -0.000691601 -0.000167545 1.09798e-07 2.71542e-05 1.76949e-05 7.18984e-06 1.92872e-06 1.89419e-07 -1.3412e-07 -9.66426e-08 -3.59448e-08 -7.62532e-09 1.84485e-10 9.3515e-10 4.26463e-10 9.73788e-11 -8.2417e-13 -1.00769e-11 -4.01232e-12 -6.17937e-13 1.3145e-13 1.00164e-13 2.30303e-14 -5.6407e-16 -1.95792e-15 -5.42437e-16 -1.45953e-17 3.36473e-17 9.89211e-18 3.42197e-19 -5.3277e-19 -1.46721e-19 -2.22649e-21 7.86886e-21 1.79649e-21 -4.75115e-23 -9.98163e-23 -1.64713e-23 1.57261e-24 9.73216e-25 9.4771e-26 -2.21026e-26 -6.56559e-27 -1.7728e-28 1.78343e-28 2.69158e-29 -1.62879e-30 -8.40219e-31 -4.82724e-32 1.32466e-32 2.14002e-33 -6.29161e-35 -4.2058e-35 -7.61133e-36 -1.74302e-37 0 0 
0 0 -2.55403e-37 -6.78757e-36 -3.43338e-35 1.67577e-36 2.10913e-33 9.71558e-33 -6.85539e-32 -7.97691e-31 -4.29831e-31 3.23612e-29 1.6009e-28 -5.00379e-28 -7.66965e-27 -1.66207e-26 1.58974e-25 1.12265e-24 4.67236e-25 -2.54847e-23 -1.12916e-22 1.02211e-22 2.71183e-21 8.62828e-21 -1.6676e-20 -2.18383e-19 -5.64409e-19 1.41962e-18 1.46429e-17 3.55949e-17 -7.94686e-17 -8.33036e-16 -2.20941e-15 2.41691e-15 3.8579e-14 1.25994e-13 4.65043e-14 -1.27968e-12 -5.82138e-12 -1.04328e-11 1.69915e-11 1.78325e-10 6.02667e-10 9.24972e-10 -1.5539e-09 -1.54668e-08 -5.59993e-08 -1.18375e-07 -5.64977e-08 7.3953e-07 3.82282e-06 1.14354e-05 2.23319e-05 1.68056e-05 -7.73374e-05 -0.000434127 -0.00134686 -0.00307838 -0.00529742 -0.00580415 0.00159623 0.0297295 0.100096 0.242519 0.490539 0.871739 1.39435 2.03399 2.72584 3.36706 3.83133 3.99319 3.7561 3.07628 1.97576 0.540745 -1.09326 -2.76564 -4.31763 -5.61576 -6.56781 -7.12939 -7.30183 -7.12347 -6.65787 -5.98085 -5.1699 -4.29551 -3.41621 -2.57643 -1.80647 -1.12399 -0.536463 -0.0439449 0.358482 0.678562 0.92517 1.10679 1.23077 1.30285 1.32647 1.30285 1.23077 1.10679 0.92517 0.678562 0.358482 -0.0439449 -0.536463 -1.12399 -1.80647 -2.57643 -3.41621 -4.29551 -5.1699 -5.98085 -6.65787 -7.12347 -7.30183 -7.12939 -6.56781 -5.61576 -4.31763 -2.76564 -1.09326 0.540745 1.97576 3.07628 3.7561 3.99319 3.83133 3.36706 2.72584 2.03399 1.39435 0.871739 0.490539 0.242519 0.100096 0.0297295 0.00159623 -0.00580415 -0.00529742 -0.00307838 -0.00134686 -0.000434127 -7.73374e-05 1.68056e-05 2.23319e-05 1.14354e-05 3.82282e-06 7.3953e-07 -5.64977e-08 -1.18375e-07 -5.59993e-08 -1.54668e-08 -1.5539e-09 9.24972e-10 6.02667e-10 1.78325e-10 1.69915e-11 -1.04328e-11 -5.82138e-12 -1.27968e-12 4.65042e-14 1.25994e-13 3.8579e-14 2.41691e-15 -2.2094e-15 -8.33035e-16 -7.94685e-17 3.55963e-17 1.46467e-17 1.41655e-18 -5.59581e-19 -2.16644e-19 -1.65253e-20 8.56804e-21 2.69156e-21 1.01174e-22 -1.12166e-22 -2.53059e-23 4.66382e-25 1.11566e-24 1.57972e-25 -1.65264e-26 -7.62625e-27 -4.9779e-28 1.59223e-28 3.22026e-29 -4.2595e-31 -7.93899e-31 -6.82864e-32 9.66799e-33 2.1001e-33 -1.07924e-36 -2.60567e-35 -5.00065e-36 0 0 
0 0 -3.83916e-36 -1.30842e-35 4.72578e-35 1.91173e-33 6.03041e-33 -8.06738e-32 -6.92858e-31 7.78237e-31 3.50774e-29 1.24618e-28 -8.22132e-28 -8.13935e-27 -7.44027e-27 2.24104e-25 1.16385e-24 -1.2659e-24 -3.49045e-23 -1.11872e-22 3.32774e-22 3.69416e-21 7.96334e-21 -3.88765e-20 -2.96617e-19 -4.83937e-19 3.07362e-18 1.99173e-17 3.03852e-17 -1.817e-16 -1.16871e-15 -2.10177e-15 7.51907e-15 5.80787e-14 1.4058e-13 -1.35753e-13 -2.21784e-12 -7.67154e-12 -7.83076e-12 4.81981e-11 2.87096e-10 7.64985e-10 5.69259e-10 -4.75238e-09 -2.6761e-08 -7.82705e-08 -1.17739e-07 1.48874e-07 1.69527e-06 6.51289e-06 1.59798e-05 2.19191e-05 -1.88997e-05 -0.000232188 -0.000870128 -0.0022444 -0.00430395 -0.0054865 -0.000521 0.0227052 0.086188 0.222619 0.471252 0.866949 1.42321 2.11374 2.86022 3.53378 3.97452 4.02605 3.57619 2.59101 1.13123 -0.654852 -2.55937 -4.35554 -5.83987 -6.86518 -7.35837 -7.32165 -6.81976 -5.9595 -4.86643 -3.66449 -2.46095 -1.33777 -0.349091 0.477058 1.13386 1.63031 1.98522 2.22233 2.36682 2.44256 2.47043 2.468 2.44928 2.42486 2.4024 2.38695 2.38144 2.38695 2.4024 2.42486 2.44928 2.468 2.47043 2.44256 2.36682 2.22233 1.98522 1.63031 1.13386 0.477058 -0.349091 -1.33777 -2.46095 -3.66449 -4.86643 -5.9595 -6.81976 -7.32165 -7.35837 -6.86518 -5.83987 -4.35554 -2.55937 -0.654852 1.13123 2.59101 3.57619 4.02605 3.97452 3.53378 2.86022 2.11374 1.42321 0.866949 0.471252 0.222619 0.086188 0.0227052 -0.000521 -0.0054865 -0.00430395 -0.0022444 -0.000870128 -0.000232188 -1.88997e-05 2.19191e-05 1.59798e-05 6.51289e-06 1.69527e-06 1.48874e-07 -1.17739e-07 -7.82705e-08 -2.6761e-08 -4.75238e-09 5.69259e-10 7.64985e-10 2.87096e-10 4.81981e-11 -7.83073e-12 -7.67153e-12 -2.21784e-12 -1.35753e-13 1.4058e-13 5.80787e-14 7.51908e-15 -2.10177e-15 -1.1687e-15 -1.81697e-16 3.03648e-17 1.97932e-17 3.04956e-18 -4.80632e-19 -2.94372e-19 -3.85575e-20 7.91187e-21 3.66758e-21 3.30093e-22 -1.11176e-22 -3.46738e-23 -1.25607e-24 1.15694e-24 2.22795e-25 -7.39652e-27 -8.0955e-27 -8.18163e-28 1.23948e-28 3.49138e-29 7.76703e-31 -6.89676e-31 -8.03637e-32 5.99908e-33 1.93251e-33 3.15815e-34 1.04229e-36 0 0 
0 0 6.70801e-36 2.9548e-34 1.63773e-33 2.71974e-33 -8.42674e-32 -5.49104e-31 1.81895e-30 3.48709e-29 7.78011e-29 -1.09572e-27 -7.87957e-27 4.44388e-27 2.8073e-25 1.06838e-24 -3.5272e-24 -4.33534e-23 -9.1232e-23 6.4107e-22 4.5985e-21 5.1749e-21 -6.93542e-20 -3.70254e-19 -2.29999e-19 5.37735e-18 2.49352e-17 1.36254e-17 -3.27029e-16 -1.50604e-15 -1.36964e-15 1.52337e-14 7.99458e-14 1.30688e-13 -4.51564e-13 -3.42517e-12 -9.09967e-12 -3.18911e-13 9.63216e-11 4.18465e-10 8.52133e-10 -3.63722e-10 -9.88228e-09 -4.14242e-08 -9.76029e-08 -7.0255e-08 5.51832e-07 3.16493e-06 9.88032e-06 1.92954e-05 1.02224e-05 -9.68375e-05 -0.000494997 -0.00149455 -0.00326914 -0.00495295 -0.00260697 0.0141478 0.0661212 0.186996 0.420745 0.810722 1.37984 2.10627 2.90449 3.62311 4.06753 4.0457 3.42451 2.17826 0.410264 -1.66069 -3.74612 -5.5511 -6.83605 -7.45999 -7.39692 -6.72502 -5.59631 -4.19821 -2.71665 -1.30838 -0.0850089 0.890088 1.59742 2.05077 2.28567 2.34804 2.28561 2.14206 1.95368 1.74852 1.5462 1.35962 1.19601 1.05875 0.948567 0.865009 0.806711 0.772356 0.760933 0.772356 0.806711 0.865009 0.948567 1.05875 1.19601 1.35962 1.5462 1.74852 1.95368 2.14206 2.28561 2.34804 2.28567 2.05077 1.59742 0.890088 -0.0850089 -1.30838 -2.71665 -4.19821 -5.59631 -6.72502 -7.39692 -7.45999 -6.83605 -5.5511 -3.74612 -1.66069 0.410264 2.17826 3.42451 4.0457 4.06753 3.62311 2.90449 2.10627 1.37984 0.810722 0.420745 0.186996 0.0661212 0.0141478 -0.00260697 -0.00495295 -0.00326914 -0.00149455 -0.000494997 -9.68375e-05 1.02224e-05 1.92954e-05 9.88032e-06 3.16493e-06 5.51832e-07 -7.0255e-08 -9.76029e-08 -4.14242e-08 -9.88228e-09 -3.63722e-10 8.52133e-10 4.18465e-10 9.63217e-11 -3.1885e-13 -9.09965e-12 -3.42517e-12 -4.51565e-13 1.30688e-13 7.99459e-14 1.52337e-14 -1.36964e-15 -1.50607e-15 -3.27196e-16 1.33784e-17 2.47269e-17 5.33246e-18 -2.29105e-19 -3.6754e-19 -6.88105e-20 5.14865e-21 4.56704e-21 6.36422e-22 -9.07083e-23 -4.30837e-23 -3.50515e-24 1.06228e-24 2.79196e-25 4.4295e-27 -7.83884e-27 -1.09072e-27 7.73659e-29 3.47154e-29 1.81297e-30 -5.46656e-31 -8.39255e-32 2.87837e-33 1.65485e-33 2.35392e-34 0 0 
0 0 1.8857e-34 1.01807e-33 2.05346e-34 -8.02734e-32 -3.89615e-31 2.57068e-30 3.19437e-29 2.65236e-29 -1.2808e-27 -6.88783e-27 1.75078e-26 3.18764e-25 8.23119e-25 -6.08291e-24 -4.90502e-23 -4.69902e-23 1.00428e-21 5.20306e-21 -4.04034e-22 -1.0682e-19 -4.19453e-19 2.68493e-19 8.30853e-18 2.84232e-17 -1.96853e-17 -5.15826e-16 -1.76998e-15 3.04367e-16 2.58157e-14 1.00878e-13 7.89248e-14 -9.32926e-13 -4.82452e-12 -9.38758e-12 1.43787e-11 1.63498e-10 5.57339e-10 7.71659e-10 -2.15037e-09 -1.73072e-08 -5.83765e-08 -1.04966e-07 5.7818e-08 1.22961e-06 5.20212e-06 1.34649e-05 1.86845e-05 -2.16535e-05 -0.000236879 -0.000889767 -0.00227522 -0.00412231 -0.00393775 0.00622337 0.0443632 0.142731 0.347794 0.711195 1.26889 2.01138 2.85593 3.63656 4.12574 4.08988 3.36436 1.92146 -0.0973836 -2.40071 -4.61422 -6.37264 -7.40687 -7.59899 -6.99265 -5.76321 -4.16191 -2.45357 -0.865586 0.443444 1.39328 1.97379 2.22637 2.2219 2.04102 1.75948 1.43919 1.12482 0.844375 0.611772 0.430465 0.297364 0.205361 0.145939 0.110734 0.0923313 0.0845918 0.0829878 0.0839997 0.0854429 0.086047 0.0854429 0.0839997 0.0829878 0.0845918 0.0923313 0.110734 0.145939 0.205361 0.297364 0.430465 0.611772 0.844375 1.12482 1.43919 1.75948 2.04102 2.2219 2.22637 1.97379 1.39328 0.443444 -0.865586 -2.45357 -4.16191 -5.76321 -6.99265 -7.59899 -7.40687 -6.37264 -4.61422 -2.40071 -0.0973836 1.92146 3.36436 4.08988 4.12574 3.63656 2.85593 2.01138 1.26889 0.711195 0.347794 0.142731 0.0443632 0.00622337 -0.00393775 -0.00412231 -0.00227522 -0.000889767 -0.000236879 -2.16535e-05 1.86845e-05 1.34649e-05 5.20212e-06 1.22961e-06 5.7818e-08 -1.04966e-07 -5.83765e-08 -1.73072e-08 -2.15037e-09 7.71659e-10 5.57339e-10 1.63498e-10 1.43786e-11 -9.38759e-12 -4.82452e-12 -9.32926e-13 7.8925e-14 1.00878e-13 2.58157e-14 3.04198e-16 -1.76984e-15 -5.1304e-16 -1.95596e-17 2.82062e-17 8.24251e-18 2.65289e-19 -4.16521e-19 -1.06024e-19 -3.87671e-22 5.16948e-21 9.97597e-22 -4.67533e-23 -4.87622e-23 -6.04873e-24 8.1849e-25 3.17123e-25 1.74353e-26 -6.85339e-27 -1.27522e-27 2.63292e-29 3.18069e-29 2.56162e-30 -3.8783e-31 -8.10003e-32 -1.16334e-32 2.99144e-34 0 0 
0 0 -3.81417e-35 -1.16877e-32 -7.17646e-32 -2.36136e-31 2.97736e-30 2.69438e-29 -2.19739e-29 -1.3538e-27 -5.29874e-27 2.98876e-26 3.30651e-25 4.43952e-25 -8.58469e-24 -5.03377e-23 2.08197e-23 1.37805e-21 5.25829e-21 -9.10296e-21 -1.47531e-19 -4.1814e-19 1.06825e-18 1.16629e-17 2.84949e-17 -7.45232e-17 -7.39472e-16 -1.84898e-15 3.25526e-15 3.90693e-14 1.15428e-13 -3.51965e-14 -1.59755e-12 -6.23873e-12 -7.5501e-12 3.857e-11 2.49028e-10 6.75294e-10 3.98942e-10 -5.0806e-09 -2.71195e-08 -7.50452e-08 -8.66432e-08 3.08467e-07 2.25307e-06 7.74611e-06 1.62991e-05 1.00165e-05 -8.50815e-05 -0.000458843 -0.00142122 -0.00309267 -0.00424518 0.000424496 0.0249545 0.0976828 0.264249 0.582276 1.10227 1.83457 2.71186 3.56681 4.14604 4.1701 3.42769 1.8694 -0.340711 -2.84414 -5.17686 -6.89702 -7.70412 -7.50957 -6.43925 -4.77636 -2.87171 -1.05409 0.43479 1.46858 2.031 2.18761 2.04923 1.73732 1.35885 0.993164 0.688657 0.466202 0.326541 0.257832 0.242619 0.262762 0.302415 0.349289 0.395031 0.434825 0.466436 0.489839 0.505805 0.515947 0.521823 0.524757 0.525603 0.524757 0.521823 0.515947 0.505805 0.489839 0.466436 0.434825 0.395031 0.349289 0.302415 0.262762 0.242619 0.257832 0.326541 0.466202 0.688657 0.993164 1.35885 1.73732 2.04923 2.18761 2.031 1.46858 0.43479 -1.05409 -2.87171 -4.77636 -6.43925 -7.50957 -7.70412 -6.89702 -5.17686 -2.84414 -0.340711 1.8694 3.42769 4.1701 4.14604 3.56681 2.71186 1.83457 1.10227 0.582276 0.264249 0.0976828 0.0249545 0.000424496 -0.00424518 -0.00309267 -0.00142122 -0.000458843 -8.50815e-05 1.00165e-05 1.62991e-05 7.74611e-06 2.25307e-06 3.08467e-07 -8.66432e-08 -7.50452e-08 -2.71195e-08 -5.0806e-09 3.98942e-10 6.75293e-10 2.49027e-10 3.85699e-11 -7.55011e-12 -6.23873e-12 -1.59755e-12 -3.51964e-14 1.15428e-13 3.90699e-14 3.26027e-15 -1.83445e-15 -7.33355e-16 -7.38294e-17 2.82963e-17 1.15735e-17 1.05882e-18 -4.15435e-19 -1.46498e-19 -9.02947e-21 5.22631e-21 1.36958e-21 2.06827e-23 -5.00569e-23 -8.54018e-24 4.41284e-25 3.29037e-25 2.97641e-26 -5.2728e-27 -1.34814e-27 -2.19498e-29 2.68326e-29 2.9657e-30 -2.44322e-31 -8.98096e-32 -1.01491e-32 0 0 
0 0 -8.54418e-33 -6.14005e-32 -1.11509e-31 3.04865e-30 2.07731e-29 -6.16985e-29 -1.31229e-27 -3.3507e-27 3.98093e-26 3.13362e-25 -2.47746e-26 -1.0639e-23 -4.61464e-23 1.06986e-22 1.70152e-21 4.54756e-21 -2.06582e-20 -1.85099e-19 -3.38106e-19 2.18539e-18 1.49869e-17 2.26931e-17 -1.54643e-16 -9.76399e-16 -1.5948e-15 7.77654e-15 5.40972e-14 1.15778e-13 -2.32864e-13 -2.4357e-12 -7.36342e-12 -2.37265e-12 7.41181e-11 3.47655e-10 7.27785e-10 -4.17727e-10 -9.4043e-09 -3.89287e-08 -8.68591e-08 -2.38717e-08 7.28386e-07 3.66488e-06 1.05461e-05 1.67414e-05 -1.23914e-05 -0.000193034 -0.000777383 -0.00205782 -0.00369977 -0.0027505 0.0104704 0.0585012 0.182445 0.441528 0.89891 1.58921 2.47345 3.40096 4.10719 4.26883 3.61224 2.03801 -0.295728 -2.97983 -5.45995 -7.20414 -7.86558 -7.37687 -5.9457 -3.965 -1.88163 -0.0737144 1.22574 1.94762 2.15742 2.00037 1.64407 1.23492 0.874744 0.615985 0.469774 0.419857 0.436813 0.48933 0.551085 0.603841 0.63748 0.648627 0.638723 0.611763 0.573107 0.527941 0.481019 0.436212 0.396436 0.363753 0.339511 0.324677 0.31964 0.324677 0.339511 0.363753 0.396436 0.436212 0.481019 0.527941 0.573107 0.611763 0.638723 0.648627 0.63748 0.603841 0.551085 0.48933 0.436813 0.419857 0.469774 0.615985 0.874744 1.23492 1.64407 2.00037 2.15742 1.94762 1.22574 -0.0737144 -1.88163 -3.965 -5.9457 -7.37687 -7.86558 -7.20414 -5.45995 -2.97983 -0.295728 2.03801 3.61224 4.26883 4.10719 3.40096 2.47345 1.58921 0.89891 0.441528 0.182445 0.0585012 0.0104704 -0.0027505 -0.00369977 -0.00205782 -0.000777383 -0.000193034 -1.23914e-05 1.67414e-05 1.05461e-05 3.66488e-06 7.28386e-07 -2.38717e-08 -8.68591e-08 -3.89287e-08 -9.4043e-09 -4.17728e-10 7.27783e-10 3.47655e-10 7.4118e-11 -2.37265e-12 -7.36342e-12 -2.4357e-12 -2.32863e-13 1.15784e-13 5.4108e-14 7.7469e-15 -1.58072e-15 -9.68514e-16 -1.53309e-16 2.25564e-17 1.48773e-17 2.16813e-18 -3.36167e-19 -1.83888e-19 -2.05193e-20 4.52127e-21 1.6918e-21 1.06433e-22 -4.58992e-23 -1.05874e-23 -2.52301e-26 3.11902e-25 3.96483e-26 -3.33429e-27 -1.30699e-27 -6.15016e-29 2.06849e-29 3.06877e-30 3.63916e-31 -2.83435e-32 0 0 
0 0 -1.06203e-32 4.12671e-31 2.88438e-30 1.43605e-29 -8.89924e-29 -1.1735e-27 -1.32693e-27 4.59918e-26 2.6918e-25 -5.19137e-25 -1.18989e-23 -3.6359e-23 2.01372e-22 1.90914e-21 2.95793e-21 -3.40535e-20 -2.1114e-19 -1.56274e-19 3.56718e-18 1.75599e-17 8.41548e-18 -2.60163e-16 -1.18616e-15 -8.28924e-16 1.40336e-14 6.90413e-14 9.18544e-14 -5.31986e-13 -3.39479e-12 -7.74995e-12 7.48064e-12 1.21768e-10 4.47735e-10 6.5298e-10 -1.84348e-09 -1.52531e-08 -5.16164e-08 -8.68296e-08 1.06695e-07 1.36214e-06 5.44887e-06 1.30749e-05 1.23407e-05 -5.56464e-05 -0.000358296 -0.00119465 -0.00271164 -0.00368191 0.00162397 0.0291668 0.112441 0.306814 0.682537 1.29782 2.15113 3.12835 3.97704 4.34291 3.88108 2.41037 0.0408241 -2.79988 -5.4744 -7.34339 -7.98347 -7.3215 -5.63281 -3.41693 -1.21576 0.548495 1.66234 2.1238 2.08184 1.74958 1.32813 0.959396 0.712863 0.59639 0.579425 0.61671 0.665943 0.697658 0.697259 0.662702 0.600449 0.520449 0.433161 0.347487 0.269555 0.203073 0.149345 0.10824 0.078414 0.0579758 0.0449714 0.0373059 0.0331496 0.0312428 0.0307438 0.0312428 0.0331496 0.0373059 0.0449714 0.0579758 0.078414 0.10824 0.149345 0.203073 0.269555 0.347487 0.433161 0.520449 0.600449 0.662702 0.697259 0.697658 0.665943 0.61671 0.579425 0.59639 0.712863 0.959396 1.32813 1.74958 2.08184 2.1238 1.66234 0.548495 -1.21576 -3.41693 -5.63281 -7.3215 -7.98347 -7.34339 -5.4744 -2.79988 0.0408241 2.41037 3.88108 4.34291 3.97704 3.12835 2.15113 1.29782 0.682537 0.306814 0.112441 0.0291668 0.00162397 -0.00368191 -0.00271164 -0.00119465 -0.000358296 -5.56464e-05 1.23407e-05 1.30749e-05 5.44887e-06 1.36214e-06 1.06695e-07 -8.68296e-08 -5.16164e-08 -1.52531e-08 -1.84348e-09 6.52978e-10 4.47735e-10 1.21768e-10 7.48064e-12 -7.74995e-12 -3.39479e-12 -5.31984e-13 9.17582e-14 6.85935e-14 1.39184e-14 -8.24936e-16 -1.17716e-15 -2.58048e-16 8.40468e-18 1.74396e-17 3.54157e-18 -1.55624e-19 -2.09849e-19 -3.38496e-20 2.94109e-21 1.89893e-21 2.00411e-22 -3.61687e-23 -1.18444e-23 -5.17403e-25 2.67978e-25 4.58097e-26 -1.31986e-27 -1.16891e-27 -8.86428e-29 1.47439e-29 4.32997e-30 3.98077e-31 0 0 
0 0 3.5734e-31 3.19468e-30 8.81308e-30 -1.02833e-28 -9.6806e-28 5.09295e-28 4.78939e-26 2.05037e-25 -9.70177e-25 -1.21487e-23 -2.1932e-23 2.9071e-22 1.94663e-21 5.37031e-22 -4.75593e-20 -2.16878e-19 1.36343e-19 5.07232e-18 1.84555e-17 -1.63887e-17 -3.84789e-16 -1.30485e-15 6.4214e-16 2.19544e-14 8.08634e-14 3.19778e-14 -9.41525e-13 -4.36358e-12 -6.80729e-12 2.32709e-11 1.80308e-10 5.2961e-10 3.73251e-10 -4.03264e-09 -2.25384e-08 -6.30822e-08 -6.53413e-08 3.31344e-07 2.24134e-06 7.49149e-06 1.44422e-05 -2.24456e-07 -0.000127787 -0.00059061 -0.0016909 -0.00321668 -0.00242456 0.0105254 0.0599853 0.19252 0.4776 0.990345 1.76853 2.75071 3.72489 4.33315 4.16586 2.93401 0.648455 -2.29659 -5.20603 -7.31899 -8.09305 -7.40225 -5.5581 -3.158 -0.845024 0.905073 1.89204 2.17668 1.98265 1.57531 1.16799 0.878396 0.732424 0.695459 0.709632 0.723063 0.704531 0.645359 0.553771 0.446167 0.33973 0.24769 0.177615 0.131686 0.108251 0.103599 0.113198 0.132631 0.158222 0.187043 0.216542 0.244934 0.270532 0.291993 0.308231 0.318315 0.321811 0.318315 0.308231 0.291993 0.270532 0.244934 0.216542 0.187043 0.158222 0.132631 0.113198 0.103599 0.108251 0.131686 0.177615 0.24769 0.33973 0.446167 0.553771 0.645359 0.704531 0.723063 0.709632 0.695459 0.732424 0.878396 1.16799 1.57531 1.98265 2.17668 1.89204 0.905073 -0.845024 -3.158 -5.5581 -7.40225 -8.09305 -7.31899 -5.20603 -2.29659 0.648455 2.93401 4.16586 4.33315 3.72489 2.75071 1.76853 0.990345 0.4776 0.19252 0.0599853 0.0105254 -0.00242456 -0.00321668 -0.0016909 -0.00059061 -0.000127787 -2.24456e-07 1.44422e-05 7.49149e-06 2.24134e-06 3.31344e-07 -6.53413e-08 -6.30821e-08 -2.25384e-08 -4.03264e-09 3.7325e-10 5.29609e-10 1.80308e-10 2.32709e-11 -6.80732e-12 -4.36373e-12 -9.42079e-13 3.13074e-14 8.01743e-14 2.17662e-14 6.32396e-16 -1.29559e-15 -3.81851e-16 -1.62139e-17 1.83382e-17 5.03909e-18 1.35286e-19 -2.15629e-19 -4.72996e-20 5.32574e-22 1.9368e-21 2.894e-22 -2.18154e-23 -1.20957e-23 -9.66534e-25 2.04157e-25 4.77078e-26 5.08279e-28 -9.64096e-28 -1.03122e-28 -8.46406e-30 1.81093e-30 0 0 
0 0 9.79464e-31 -1.24692e-29 -1.05683e-28 -7.31458e-28 1.96546e-27 4.57485e-26 1.30674e-25 -1.31942e-24 -1.13534e-23 -4.71969e-24 3.61514e-22 1.78587e-21 -2.4886e-21 -5.90095e-20 -1.95394e-19 5.26953e-19 6.4731e-18 1.67097e-17 -5.23061e-17 -5.13796e-16 -1.24975e-15 2.97795e-15 3.10498e-14 8.52195e-14 -7.58125e-14 -1.45431e-12 -5.15875e-12 -3.83315e-12 4.58919e-11 2.45625e-10 5.64584e-10 -1.99434e-10 -7.09248e-09 -3.08308e-08 -7.00229e-08 -1.03096e-08 6.76082e-07 3.3696e-06 9.53785e-06 1.33232e-05 -2.50772e-05 -0.000236811 -0.000892649 -0.00221355 -0.00330834 0.000905853 0.0259492 0.106674 0.304008 0.699012 1.36149 2.28923 3.33692 4.18126 4.37639 3.51922 1.47248 -1.47381 -4.62008 -7.08864 -8.17248 -7.6249 -5.73971 -3.19224 -0.738765 1.06559 2.00989 2.20121 1.92666 1.49287 1.11537 0.882717 0.782096 0.750799 0.724993 0.666757 0.569397 0.448409 0.327703 0.227821 0.160175 0.126362 0.120518 0.133256 0.155417 0.179797 0.201965 0.22019 0.234562 0.246157 0.256262 0.265801 0.275003 0.283958 0.29238 0.299635 0.30521 0.308689 0.30987 0.308689 0.30521 0.299635 0.29238 0.283958 0.275003 0.265801 0.256262 0.246157 0.234562 0.22019 0.201965 0.179797 0.155417 0.133256 0.120518 0.126362 0.160175 0.227821 0.327703 0.448409 0.569397 0.666757 0.724993 0.750799 0.782096 0.882717 1.11537 1.49287 1.92666 2.20121 2.00989 1.06559 -0.738765 -3.19224 -5.73971 -7.6249 -8.17248 -7.08864 -4.62008 -1.47381 1.47248 3.51922 4.37639 4.18126 3.33692 2.28923 1.36149 0.699012 0.304008 0.106674 0.0259492 0.000905853 -0.00330834 -0.00221355 -0.000892649 -0.000236811 -2.50772e-05 1.33232e-05 9.53785e-06 3.3696e-06 6.76082e-07 -1.03096e-08 -7.00228e-08 -3.08308e-08 -7.09249e-09 -1.99436e-10 5.64584e-10 2.45625e-10 4.58917e-11 -3.8337e-12 -5.1582e-12 -1.44626e-12 -7.52232e-14 8.45653e-14 3.07979e-14 2.94932e-15 -1.24175e-15 -5.10168e-16 -5.19077e-17 1.66108e-17 6.4342e-18 5.23951e-19 -1.94322e-19 -5.8711e-20 -2.47904e-21 1.77729e-21 3.59957e-22 -4.68469e-24 -1.13059e-23 -1.31434e-24 1.30136e-25 4.55737e-26 1.95709e-27 -7.47865e-28 -1.88925e-28 -1.39798e-29 0 0 
0 0 -1.37351e-29 -1.49466e-28 -5.12031e-28 2.94341e-27 4.0402e-26 5.63056e-26 -1.53048e-24 -9.65852e-24 1.29473e-23 4.03172e-22 1.43363e-21 -5.74606e-21 -6.62654e-20 -1.43838e-19 9.78103e-19 7.48754e-18 1.15775e-17 -9.75813e-17 -6.23747e-16 -9.32911e-16 6.22339e-15 4.01821e-14 7.63351e-14 -2.41713e-13 -2.03889e-12 -5.51752e-12 1.91717e-12 7.54828e-11 3.09781e-10 5.15e-10 -1.15327e-09 -1.10351e-08 -3.92328e-08 -6.77999e-08 9.21106e-08 1.1615e-06 4.70331e-06 1.11467e-05 7.92418e-06 -6.68891e-05 -0.000389141 -0.00125489 -0.00266531 -0.00260639 0.00736159 0.0501502 0.172939 0.450988 0.971571 1.78517 2.82783 3.85077 4.42085 4.04594 2.41308 -0.368668 -3.6817 -6.57375 -8.144 -7.9437 -6.16589 -3.52121 -0.887783 1.06013 2.05851 2.23334 1.92361 1.47618 1.11201 0.897871 0.794644 0.7285 0.64475 0.527806 0.393816 0.270863 0.181842 0.134916 0.124516 0.136601 0.155523 0.169071 0.17096 0.160615 0.141442 0.118714 0.0973655 0.0810409 0.0713802 0.0682939 0.0702392 0.0752252 0.0812854 0.0868339 0.0910889 0.0937763 0.0951462 0.0956331 0.0958292 0.0956331 0.0951462 0.0937763 0.0910889 0.0868339 0.0812854 0.0752252 0.0702392 0.0682939 0.0713802 0.0810409 0.0973655 0.118714 0.141442 0.160615 0.17096 0.169071 0.155523 0.136601 0.124516 0.134916 0.181842 0.270863 0.393816 0.527806 0.64475 0.7285 0.794644 0.897871 1.11201 1.47618 1.92361 2.23334 2.05851 1.06013 -0.887783 -3.52121 -6.16589 -7.9437 -8.144 -6.57375 -3.6817 -0.368668 2.41308 4.04594 4.42085 3.85077 2.82783 1.78517 0.971571 0.450988 0.172939 0.0501502 0.00736159 -0.00260639 -0.00266531 -0.00125489 -0.000389141 -6.68891e-05 7.92418e-06 1.11467e-05 4.70331e-06 1.1615e-06 9.21106e-08 -6.77999e-08 -3.92328e-08 -1.10351e-08 -1.15327e-09 5.15e-10 3.0978e-10 7.54847e-11 1.93134e-12 -5.47673e-12 -2.02154e-12 -2.39328e-13 7.58371e-14 3.98774e-14 6.17207e-15 -9.27849e-16 -6.19697e-16 -9.69474e-17 1.15125e-17 7.44593e-18 9.73126e-19 -1.43068e-19 -6.59514e-20 -5.72239e-21 1.42706e-21 4.01496e-22 1.29026e-23 -9.61969e-24 -1.52456e-24 5.60903e-26 4.0236e-26 2.93091e-27 4.6984e-29 -9.66035e-29 0 0 
0 0 -6.18462e-29 2.80383e-28 3.46476e-27 3.30269e-26 -9.47259e-27 -1.59382e-24 -7.34417e-24 2.87879e-23 4.10258e-22 9.309e-22 -8.79284e-21 -6.77296e-20 -6.47856e-20 1.43181e-18 7.83804e-18 2.80719e-18 -1.47668e-16 -6.85104e-16 -2.83876e-16 1.02273e-14 4.74774e-14 4.75178e-14 -4.70636e-13 -2.63142e-12 -5.10094e-12 1.11164e-11 1.10969e-10 3.60274e-10 3.35958e-10 -2.56071e-09 -1.57196e-08 -4.62599e-08 -5.04666e-08 2.56098e-07 1.79554e-06 6.12935e-06 1.16515e-05 -3.99077e-06 -0.000130378 -0.000587456 -0.00164954 -0.00289275 -0.000604982 0.0181896 0.0855035 0.262068 0.635671 1.29137 2.24334 3.34483 4.2328 4.38449 3.32538 0.925033 -2.38947 -5.68487 -7.88214 -8.25707 -6.789 -4.14297 -1.30699 0.880457 2.04095 2.27703 1.96677 1.50346 1.12826 0.90142 0.771052 0.662645 0.535779 0.394246 0.265783 0.176408 0.134598 0.130339 0.143813 0.154833 0.151021 0.129228 0.0942202 0.0549084 0.0207951 -0.00129112 -0.00793376 0.000499921 0.0207036 0.0478316 0.0764723 0.102029 0.121099 0.13213 0.135202 0.131563 0.123532 0.113675 0.104566 0.0981615 0.095871 0.0981615 0.104566 0.113675 0.123532 0.131563 0.135202 0.13213 0.121099 0.102029 0.0764723 0.0478316 0.0207036 0.000499921 -0.00793376 -0.00129112 0.0207951 0.0549084 0.0942202 0.129228 0.151021 0.154833 0.143813 0.130339 0.134598 0.176408 0.265783 0.394246 0.535779 0.662645 0.771052 0.90142 1.12826 1.50346 1.96677 2.27703 2.04095 0.880457 -1.30699 -4.14297 -6.789 -8.25707 -7.88214 -5.68487 -2.38947 0.925033 3.32538 4.38449 4.2328 3.34483 2.24334 1.29137 0.635671 0.262068 0.0855035 0.0181896 -0.000604982 -0.00289275 -0.00164954 -0.000587456 -0.000130378 -3.99079e-06 1.16515e-05 6.12935e-06 1.79554e-06 2.56098e-07 -5.04667e-08 -4.62599e-08 -1.57196e-08 -2.56071e-09 3.35963e-10 3.60292e-10 1.11003e-10 1.10864e-11 -5.05708e-12 -2.60942e-12 -4.66375e-13 4.73156e-14 4.71468e-14 1.01531e-14 -2.83204e-16 -6.80994e-16 -1.46815e-16 2.78935e-18 7.7974e-18 1.42505e-18 -6.44212e-20 -6.74257e-20 -8.75653e-21 9.26838e-22 4.08599e-22 2.86744e-23 -7.31576e-24 -1.58766e-24 -9.38782e-27 3.36713e-26 7.52587e-27 4.21256e-28 0 0 
0 0 4.76865e-28 6.41621e-27 2.55221e-26 -6.09754e-26 -1.52434e-24 -4.75177e-24 4.10346e-23 3.83366e-22 3.43285e-22 -1.12138e-20 -6.27391e-20 3.38161e-20 1.82044e-18 7.3208e-18 -9.17111e-18 -1.9555e-16 -6.67954e-16 7.22698e-16 1.45851e-14 5.04565e-14 -7.2084e-15 -7.55759e-13 -3.12311e-12 -3.51042e-12 2.42034e-11 1.4957e-10 3.79703e-10 -2.08275e-11 -4.45678e-09 -2.07881e-08 -4.9758e-08 -1.10338e-08 4.93832e-07 2.56417e-06 7.44173e-06 1.01378e-05 -2.49807e-05 -0.000219512 -0.000827888 -0.00202384 -0.00267618 0.00332836 0.0347826 0.134326 0.376531 0.857829 1.64983 2.71196 3.79752 4.43115 4.04034 2.2469 -0.812419 -4.36362 -7.23687 -8.40422 -7.50773 -5.03493 -2.02564 0.485409 1.92876 2.31881 2.04832 1.5677 1.16101 0.901882 0.737181 0.595257 0.447206 0.307277 0.203931 0.151444 0.141326 0.150622 0.155744 0.143167 0.112118 0.0711295 0.0320311 0.00515172 -0.0038285 0.00560067 0.0300633 0.0635833 0.0995217 0.131526 0.154975 0.167111 0.167009 0.155901 0.136034 0.110606 0.082953 0.0560239 0.0321562 0.0127606 -0.00128274 -0.00975533 -0.0125625 -0.00975533 -0.00128274 0.0127606 0.0321562 0.0560239 0.082953 0.110606 0.136034 0.155901 0.167009 0.167111 0.154975 0.131526 0.0995217 0.0635833 0.0300633 0.00560067 -0.0038285 0.00515172 0.0320311 0.0711295 0.112118 0.143167 0.155744 0.150622 0.141326 0.151444 0.203931 0.307277 0.447206 0.595257 0.737181 0.901882 1.16101 1.5677 2.04832 2.31881 1.92876 0.485409 -2.02564 -5.03493 -7.50773 -8.40422 -7.23687 -4.36362 -0.812419 2.2469 4.04034 4.43115 3.79752 2.71196 1.64983 0.857829 0.376531 0.134326 0.0347826 0.00332836 -0.00267618 -0.00202384 -0.000827888 -0.000219512 -2.49808e-05 1.01378e-05 7.44173e-06 2.56417e-06 4.93832e-07 -1.1034e-08 -4.9758e-08 -2.07881e-08 -4.45675e-09 -2.08073e-11 3.79527e-10 1.48648e-10 2.39934e-11 -3.49033e-12 -3.09924e-12 -7.496e-13 -6.98398e-15 5.01358e-14 1.44909e-14 7.17868e-16 -6.64212e-16 -1.94523e-16 -9.13141e-18 7.28511e-18 1.81229e-18 3.37115e-20 -6.24712e-20 -1.11678e-20 3.41937e-22 3.8185e-22 4.08693e-23 -4.73427e-24 -1.51785e-24 -5.95012e-26 1.01516e-26 4.58476e-27 0 0 
0 0 3.31316e-27 -1.04015e-27 -9.58997e-26 -1.35332e-24 -2.20854e-24 4.87108e-23 3.28376e-22 -2.5425e-22 -1.27082e-20 -5.17136e-20 1.40177e-19 2.08127e-18 5.86312e-18 -2.32244e-17 -2.329e-16 -5.49571e-16 2.04422e-15 1.86415e-14 4.6434e-14 -9.09432e-14 -1.07234e-12 -3.3527e-12 -3.19149e-13 4.11853e-11 1.86349e-10 3.46069e-10 -6.00639e-10 -6.81227e-09 -2.56046e-08 -4.6883e-08 5.79474e-08 8.12189e-07 3.4204e-06 8.32009e-06 5.44872e-06 -5.76869e-05 -0.000336372 -0.00109666 -0.00229326 -0.00172262 0.0099425 0.0586058 0.19867 0.51762 1.11447 2.03395 3.16295 4.14477 4.4086 3.38872 0.886192 -2.6352 -6.08042 -8.17922 -8.14734 -6.12252 -3.06486 -0.189913 1.66321 2.32671 2.15937 1.6722 1.2205 0.916374 0.71646 0.551468 0.396584 0.268765 0.190232 0.16185 0.162878 0.166054 0.153956 0.124655 0.0877592 0.0559337 0.0381443 0.0370663 0.0500371 0.0716292 0.096097 0.118494 0.135483 0.144775 0.145269 0.136791 0.120098 0.0972485 0.0708842 0.044168 0.0200944 0.00101227 -0.0118813 -0.0183612 -0.0195117 -0.0171608 -0.0133404 -0.01018 -0.00892785 -0.01018 -0.0133404 -0.0171608 -0.0195117 -0.0183612 -0.0118813 0.00101227 0.0200944 0.044168 0.0708842 0.0972485 0.120098 0.136791 0.145269 0.144775 0.135483 0.118494 0.096097 0.0716292 0.0500371 0.0370663 0.0381443 0.0559337 0.0877592 0.124655 0.153956 0.166054 0.162878 0.16185 0.190232 0.268765 0.396584 0.551468 0.71646 0.916374 1.2205 1.6722 2.15937 2.32671 1.66321 -0.189913 -3.06486 -6.12252 -8.14734 -8.17922 -6.08042 -2.6352 0.886192 3.38872 4.4086 4.14477 3.16295 2.03395 1.11447 0.51762 0.19867 0.0586058 0.0099425 -0.00172262 -0.00229326 -0.00109666 -0.000336373 -5.76869e-05 5.44874e-06 8.32009e-06 3.4204e-06 8.12188e-07 5.79473e-08 -4.68829e-08 -2.56046e-08 -6.81256e-09 -6.01948e-10 3.43268e-10 1.84741e-10 4.0804e-11 -3.32341e-13 -3.32987e-12 -1.06457e-12 -9.02116e-14 4.61619e-14 1.8533e-14 2.03316e-15 -5.4666e-16 -2.31766e-16 -2.31217e-17 5.83622e-18 2.0723e-18 1.39589e-19 -5.15032e-20 -1.26564e-20 -2.52989e-22 3.27101e-22 4.85149e-23 -2.2015e-24 -1.37649e-24 -2.73301e-25 -9.37343e-27 0 0 
0 0 -1.41356e-26 -2.54263e-25 -1.14708e-24 2.91295e-26 5.16795e-23 2.54566e-22 -7.93172e-22 -1.31412e-20 -3.6022e-20 2.41181e-19 2.17018e-18 3.549e-18 -3.76934e-17 -2.51806e-16 -3.21396e-16 3.56243e-15 2.15766e-14 3.31537e-14 -2.01697e-13 -1.37511e-12 -3.12382e-12 4.82226e-12 6.13038e-11 2.13866e-10 2.33957e-10 -1.43668e-09 -9.50349e-09 -2.92043e-08 -3.41792e-08 1.63409e-07 1.20844e-06 4.27242e-06 8.31499e-06 -3.76664e-06 -0.00010444 -0.000479664 -0.00136626 -0.00233513 0.000337112 0.0200799 0.0911035 0.280111 0.685153 1.39973 2.4272 3.56694 4.3518 4.14735 2.46211 -0.649741 -4.37536 -7.37902 -8.46045 -7.24344 -4.398 -1.21442 1.15492 2.24177 2.28002 1.82138 1.3203 0.960181 0.722348 0.538562 0.381241 0.263719 0.200222 0.181284 0.179497 0.170304 0.145512 0.112484 0.0838476 0.0680844 0.0654217 0.0707396 0.0779315 0.0835333 0.0873817 0.0912485 0.0967507 0.103825 0.110806 0.115009 0.114187 0.107311 0.0951529 0.0797627 0.0639923 0.0507026 0.0418591 0.0382897 0.0395928 0.0448079 0.0520958 0.0598049 0.066373 0.0708377 0.0723683 0.0708377 0.066373 0.0598049 0.0520958 0.0448079 0.0395928 0.0382897 0.0418591 0.0507026 0.0639923 0.0797627 0.0951529 0.107311 0.114187 0.115009 0.110806 0.103825 0.0967507 0.0912485 0.0873817 0.0835333 0.0779315 0.0707396 0.0654217 0.0680844 0.0838476 0.112484 0.145512 0.170304 0.179497 0.181284 0.200222 0.263719 0.381241 0.538562 0.722348 0.960181 1.3203 1.82138 2.28002 2.24177 1.15492 -1.21442 -4.398 -7.24344 -8.46045 -7.37902 -4.37536 -0.649741 2.46211 4.14735 4.3518 3.56694 2.4272 1.39973 0.685153 0.280111 0.0911036 0.0200799 0.000337112 -0.00233513 -0.00136626 -0.000479664 -0.00010444 -3.76665e-06 8.31498e-06 4.27243e-06 1.20844e-06 1.63409e-07 -3.41794e-08 -2.92057e-08 -9.50492e-09 -1.43014e-09 2.32096e-10 2.12154e-10 6.07881e-11 4.76985e-12 -3.10503e-12 -1.36624e-12 -2.00419e-13 3.29707e-14 2.14619e-14 3.54489e-15 -3.19767e-16 -2.50653e-16 -3.75281e-17 3.534e-18 2.16109e-18 2.40151e-19 -3.58836e-20 -1.3088e-20 -7.89662e-22 2.53595e-22 5.14469e-23 -6.52693e-26 -8.46887e-25 -1.98416e-25 0 0 
0 0 -1.59851e-25 -3.89964e-25 1.76341e-24 5.04744e-23 1.72294e-22 -1.2234e-21 -1.25504e-20 -1.7629e-20 3.25088e-19 2.07031e-18 6.04023e-19 -5.07176e-17 -2.46545e-16 7.02427e-18 5.0963e-15 2.25611e-14 9.47701e-15 -3.31021e-13 -1.6013e-12 -2.24219e-12 1.20145e-11 8.25693e-11 2.21624e-10 1.66141e-11 -2.53853e-09 -1.22815e-08 -3.02679e-08 -7.78935e-09 3.10358e-07 1.6651e-06 4.97231e-06 6.84514e-06 -1.89465e-05 -0.000166693 -0.000642899 -0.00159145 -0.00198356 0.00394569 0.0346412 0.133591 0.379552 0.877289 1.70511 2.81072 3.89605 4.39401 3.65095 1.3196 -2.23944 -5.8865 -8.16897 -8.12872 -5.90016 -2.62176 0.293654 1.96724 2.36517 2.01125 1.47274 1.04533 0.761122 0.555685 0.392596 0.277543 0.217755 0.197374 0.186852 0.166316 0.13513 0.104545 0.0844379 0.0756891 0.0714807 0.0647128 0.052883 0.0397005 0.0317822 0.0345061 0.0488457 0.0708477 0.093718 0.110183 0.115327 0.107834 0.0898179 0.065903 0.0414813 0.0213172 0.00819769 0.00288098 0.00423404 0.00967443 0.01649 0.0224956 0.0263603 0.0279537 0.0278875 0.0272648 0.0269659 0.0272648 0.0278875 0.0279537 0.0263603 0.0224956 0.01649 0.00967443 0.00423404 0.00288098 0.00819769 0.0213172 0.0414813 0.065903 0.0898179 0.107834 0.115327 0.110183 0.093718 0.0708477 0.0488457 0.0345061 0.0317822 0.0397005 0.052883 0.0647128 0.0714807 0.0756891 0.0844379 0.104545 0.13513 0.166316 0.186852 0.197374 0.217755 0.277543 0.392596 0.555685 0.761122 1.04533 1.47274 2.01125 2.36517 1.96724 0.293654 -2.62176 -5.90016 -8.12872 -8.16897 -5.8865 -2.23944 1.3196 3.65095 4.39401 3.89605 2.81072 1.70511 0.877289 0.379552 0.133591 0.0346412 0.00394569 -0.00198356 -0.00159145 -0.0006429 -0.000166693 -1.89466e-05 6.84514e-06 4.97231e-06 1.6651e-06 3.10356e-07 -7.78858e-09 -3.0249e-08 -1.22036e-08 -2.51573e-09 1.7606e-11 2.20119e-10 8.19618e-11 1.19215e-11 -2.2302e-12 -1.59198e-12 -3.29196e-13 9.42402e-15 2.245e-14 5.07256e-15 6.98899e-18 -2.45471e-16 -5.04975e-17 6.02954e-19 2.06184e-18 3.23703e-19 -1.757e-20 -1.25e-20 -1.2182e-21 1.7162e-22 5.12202e-23 8.85196e-24 1.90635e-26 0 0 
0 0 2.86166e-25 9.18889e-24 4.71117e-23 9.09846e-23 -1.51883e-21 -1.11122e-20 1.34291e-21 3.83616e-19 1.7935e-18 -2.65355e-18 -6.06072e-17 -2.14831e-16 4.08636e-16 6.43318e-15 2.09363e-14 -2.41195e-14 -4.64247e-13 -1.68026e-12 -5.66716e-13 2.09593e-11 1.01579e-10 1.96445e-10 -3.3035e-10 -3.87905e-09 -1.47453e-08 -2.71343e-08 3.61719e-08 5.00017e-07 2.14431e-06 5.30712e-06 3.21383e-06 -4.14377e-05 -0.000244275 -0.000812315 -0.00170537 -0.0010263 0.00961006 0.0545378 0.187138 0.497049 1.09048 2.0199 3.16487 4.12652 4.25934 2.94324 0.0384759 -3.76391 -7.06211 -8.43349 -7.30558 -4.34543 -1.01597 1.36604 2.32574 2.2152 1.68401 1.18312 0.83771 0.601023 0.424266 0.302263 0.236804 0.20882 0.18878 0.160507 0.127532 0.101126 0.0862542 0.0775517 0.0663346 0.0483833 0.0272664 0.0116967 0.00964565 0.0237215 0.0499498 0.0794378 0.102341 0.111158 0.102785 0.0791145 0.0458335 0.0102713 -0.0204864 -0.0409104 -0.048429 -0.0432828 -0.028399 -0.00799573 0.0134028 0.0320167 0.0454985 0.0533881 0.0561326 0.055393 0.0530445 0.0508856 0.050019 0.0508856 0.0530445 0.055393 0.0561326 0.0533881 0.0454985 0.0320167 0.0134028 -0.00799573 -0.028399 -0.0432828 -0.048429 -0.0409104 -0.0204864 0.0102713 0.0458335 0.0791145 0.102785 0.111158 0.102341 0.0794378 0.0499498 0.0237215 0.00964565 0.0116967 0.0272664 0.0483833 0.0663346 0.0775517 0.0862542 0.101126 0.127532 0.160507 0.18878 0.20882 0.236804 0.302263 0.424266 0.601023 0.83771 1.18312 1.68401 2.2152 2.32574 1.36604 -1.01597 -4.34543 -7.30558 -8.43349 -7.06211 -3.76391 0.0384759 2.94324 4.25934 4.12652 3.16487 2.0199 1.09048 0.497049 0.187138 0.0545377 0.00961005 -0.0010263 -0.00170537 -0.000812315 -0.000244275 -4.14377e-05 3.21384e-06 5.30712e-06 2.14432e-06 5.00045e-07 3.62745e-08 -2.69229e-08 -1.46197e-08 -3.84411e-09 -3.26351e-10 1.95337e-10 1.00924e-10 2.08261e-11 -5.64408e-13 -1.67134e-12 -4.61913e-13 -2.40039e-14 2.08404e-14 6.40424e-15 4.06683e-16 -2.1394e-16 -6.03465e-17 -2.6401e-18 1.78631e-18 3.81994e-19 1.3235e-21 -1.10679e-20 -1.5115e-21 9.59214e-23 4.79588e-23 7.84442e-24 0 0 
0 0 7.05981e-24 3.23566e-23 2.13696e-23 -1.67487e-21 -9.08008e-21 1.90192e-20 4.12857e-19 1.37437e-18 -5.88022e-18 -6.61455e-17 -1.58148e-16 8.43966e-16 7.3692e-15 1.63619e-14 -6.54329e-14 -5.8251e-13 -1.54721e-12 1.94257e-12 3.08878e-11 1.1378e-10 1.24964e-10 -8.19646e-10 -5.37105e-09 -1.63214e-08 -1.78661e-08 1.0106e-07 7.27586e-07 2.58222e-06 4.99494e-06 -3.34901e-06 -7.22325e-05 -0.000334464 -0.000964635 -0.00161617 0.000795388 0.0178848 0.0806346 0.252454 0.631695 1.31955 2.33191 3.47075 4.24085 3.94923 2.0647 -1.29612 -5.12121 -7.84392 -8.21898 -6.15076 -2.78189 0.287164 2.01537 2.36355 1.94592 1.38474 0.959722 0.675779 0.474595 0.336077 0.257342 0.218532 0.190297 0.157702 0.125534 0.103191 0.091372 0.0821447 0.0677776 0.0480829 0.0301329 0.0224026 0.029662 0.0503046 0.0778232 0.103745 0.120753 0.124432 0.114079 0.0923541 0.0640006 0.0345437 0.00938812 -0.00762011 -0.0147925 -0.0127834 -0.00421634 0.00713657 0.0176273 0.0247002 0.0277804 0.0274759 0.0253596 0.0233264 0.0223392 0.0227554 0.0240661 0.025375 0.0258959 0.025375 0.0240661 0.0227554 0.0223392 0.0233264 0.0253596 0.0274759 0.0277804 0.0247002 0.0176273 0.00713657 -0.00421634 -0.0127834 -0.0147925 -0.00762011 0.00938812 0.0345437 0.0640006 0.0923541 0.114079 0.124432 0.120753 0.103745 0.0778232 0.0503046 0.029662 0.0224026 0.0301329 0.0480829 0.0677776 0.0821447 0.091372 0.103191 0.125534 0.157702 0.190297 0.218532 0.257342 0.336077 0.474595 0.675779 0.959722 1.38474 1.94592 2.36355 2.01537 0.287164 -2.78189 -6.15076 -8.21898 -7.84392 -5.12121 -1.29612 2.0647 3.94923 4.24085 3.47075 2.33191 1.31955 0.631695 0.252454 0.0806343 0.0178848 0.000795398 -0.00161616 -0.000964635 -0.000334464 -7.22323e-05 -3.34898e-06 4.995e-06 2.58232e-06 7.27677e-07 1.00582e-07 -1.7746e-08 -1.62001e-08 -5.32963e-09 -8.12941e-10 1.24386e-10 1.13124e-10 3.07163e-11 1.93208e-12 -1.53967e-12 -5.79753e-13 -6.51194e-14 1.62928e-14 7.33677e-15 8.40025e-16 -1.57529e-16 -6.58634e-17 -5.85301e-18 1.36899e-18 4.11128e-19 1.893e-20 -9.04092e-21 -1.69457e-21 -2.37088e-22 1.47181e-23 0 0 
0 0 2.87493e-24 -2.88248e-22 -1.7396e-21 -6.71355e-21 3.41055e-20 4.13229e-19 8.59485e-19 -8.77868e-18 -6.67686e-17 -8.11185e-17 1.26939e-15 7.74815e-15 8.88653e-15 -1.10868e-13 -6.66079e-13 -1.15723e-12 5.19682e-12 4.06133e-11 1.14165e-10 -3.02584e-12 -1.44101e-09 -6.83908e-09 -1.62293e-08 -3.73105e-10 1.88929e-07 9.79638e-07 2.88396e-06 3.68818e-06 -1.3613e-05 -0.000111618 -0.000430921 -0.00106488 -0.00120474 0.00378332 0.0293482 0.113684 0.329787 0.781564 1.5579 2.62822 3.7118 4.22921 3.47783 1.0673 -2.60137 -6.23608 -8.22171 -7.61573 -4.82817 -1.35952 1.24131 2.31832 2.21404 1.65618 1.13982 0.78639 0.546842 0.38212 0.283004 0.230403 0.194731 0.159594 0.128508 0.108694 0.0983505 0.0887187 0.0740195 0.0565537 0.0430813 0.0389544 0.0451686 0.0592238 0.0775087 0.0962531 0.112187 0.12173 0.122313 0.112786 0.0940767 0.0695399 0.0443132 0.0235976 0.0113112 0.0087093 0.013874 0.0225977 0.0303908 0.0337314 0.0311638 0.0236642 0.0138529 0.00451996 -0.00167136 -0.00341717 -0.0009397 0.00442128 0.0106252 0.0153947 0.0171643 0.0153947 0.0106252 0.00442128 -0.0009397 -0.00341717 -0.00167136 0.00451996 0.0138529 0.0236642 0.0311638 0.0337314 0.0303908 0.0225977 0.013874 0.0087093 0.0113112 0.0235976 0.0443132 0.0695399 0.0940767 0.112786 0.122313 0.12173 0.112187 0.0962531 0.0775087 0.0592238 0.0451686 0.0389544 0.0430813 0.0565537 0.0740195 0.0887187 0.0983505 0.108694 0.128508 0.159594 0.194731 0.230403 0.283004 0.38212 0.546842 0.78639 1.13982 1.65618 2.21404 2.31832 1.24131 -1.35952 -4.82817 -7.61573 -8.22171 -6.23608 -2.60137 1.0673 3.47783 4.22921 3.7118 2.62822 1.5579 0.781563 0.329787 0.113684 0.0293483 0.00378335 -0.00120473 -0.00106488 -0.00043092 -0.000111618 -1.36129e-05 3.68813e-06 2.88253e-06 9.73572e-07 1.87214e-07 -4.74398e-10 -1.61329e-08 -6.79464e-09 -1.43172e-09 -2.88796e-12 1.13569e-10 4.04075e-11 5.17055e-12 -1.15218e-12 -6.63048e-13 -1.10343e-13 8.85519e-15 7.7146e-15 1.26358e-15 -8.08443e-17 -6.64865e-17 -8.73955e-18 8.56274e-19 4.11518e-19 3.39224e-20 -6.9418e-21 -2.25375e-21 -2.7589e-22 0 0 
0 0 -2.81752e-22 -1.84343e-21 -4.46853e-21 4.60181e-20 3.89391e-19 2.99312e-19 -1.11511e-17 -6.26608e-17 9.4168e-18 1.64547e-15 7.49166e-15 -1.04917e-15 -1.56033e-13 -6.98003e-13 -4.96141e-13 8.97562e-12 4.86819e-11 9.81819e-11 -1.91405e-10 -2.15453e-09 -8.01855e-09 -1.35199e-08 2.73404e-08 2.99551e-07 1.23115e-06 2.91931e-06 9.84265e-07 -2.82437e-05 -0.000158758 -0.000522565 -0.00106443 -0.000323913 0.00827458 0.0445709 0.15426 0.418837 0.943723 1.79789 2.89616 3.87511 4.09017 2.87005 0.00841016 -3.80491 -7.0644 -8.22525 -6.73553 -3.48032 -0.166852 1.86441 2.37433 1.98025 1.39385 0.945902 0.648881 0.447123 0.319445 0.248902 0.205079 0.167486 0.136379 0.11698 0.106185 0.0954702 0.0803678 0.063911 0.0506701 0.0428609 0.0399314 0.0417905 0.0498004 0.0647185 0.0840307 0.10175 0.110626 0.10553 0.0858673 0.0560925 0.0238438 -0.00227828 -0.0158806 -0.0143976 -0.000100987 0.0213592 0.0430468 0.0593141 0.0675273 0.0678787 0.0622582 0.0535608 0.0438726 0.0344291 0.0257363 0.0178208 0.0106238 0.0043369 -0.000657036 -0.00391781 -0.00506975 -0.00391781 -0.000657036 0.0043369 0.0106238 0.0178208 0.0257363 0.0344291 0.0438726 0.0535608 0.0622582 0.0678787 0.0675273 0.0593141 0.0430468 0.0213592 -0.000100987 -0.0143976 -0.0158806 -0.00227828 0.0238438 0.0560925 0.0858673 0.10553 0.110626 0.10175 0.0840307 0.0647185 0.0498004 0.0417905 0.0399314 0.0428609 0.0506701 0.063911 0.0803678 0.0954702 0.106185 0.11698 0.136379 0.167486 0.205079 0.248902 0.319445 0.447123 0.648881 0.945902 1.39385 1.98025 2.37433 1.86441 -0.166852 -3.48032 -6.73553 -8.22525 -7.0644 -3.80491 0.00841016 2.87005 4.09017 3.8751 2.89616 1.79788 0.943725 0.418837 0.15426 0.044571 0.00827461 -0.000323908 -0.00106443 -0.000522564 -0.000158758 -2.82456e-05 9.76172e-07 2.89921e-06 1.22117e-06 2.97027e-07 2.70526e-08 -1.34522e-08 -7.97292e-09 -2.14253e-09 -1.90304e-10 9.77233e-11 4.84495e-11 8.93137e-12 -4.94664e-13 -6.9491e-13 -1.55304e-13 -1.03396e-15 7.4597e-15 1.63807e-15 9.29957e-18 -6.23989e-17 -1.11026e-17 2.98379e-19 3.87579e-19 4.6294e-20 3.85988e-21 -1.18592e-21 0 0 
0 0 -7.83204e-22 6.82255e-21 5.53019e-20 3.48671e-19 -2.48048e-19 -1.28585e-17 -5.46217e-17 1.04604e-16 1.93728e-15 6.59896e-15 -1.26429e-14 -1.96054e-13 -6.6568e-13 4.1619e-13 1.29383e-11 5.3503e-11 6.23196e-11 -4.36152e-10 -2.88953e-09 -8.57226e-09 -7.21162e-09 6.66118e-08 4.28587e-07 1.4419e-06 2.51727e-06 -3.56443e-06 -4.76996e-05 -0.000211293 -0.000592631 -0.000899928 0.00119988 0.0146289 0.0640795 0.20269 0.518702 1.11432 2.03124 3.12414 3.9522 3.8305 2.15901 -1.05474 -4.85052 -7.59256 -7.9126 -5.69278 -2.21472 0.762319 2.21122 2.27665 1.72772 1.17386 0.792438 0.54007 0.374301 0.278237 0.223135 0.182023 0.149208 0.128304 0.115679 0.103278 0.0876592 0.0712835 0.0567718 0.0442603 0.0336493 0.0276224 0.0308718 0.0457381 0.0685609 0.0905346 0.102075 0.0971422 0.0759288 0.0441214 0.0102425 -0.0168437 -0.0308229 -0.0294506 -0.0150823 0.00588104 0.0261669 0.040042 0.045643 0.0441528 0.0392277 0.0343057 0.0314039 0.0310201 0.0319578 0.0322713 0.0300575 0.0242388 0.0146124 0.00264757 -0.00893945 -0.0174426 -0.0204693 -0.0174426 -0.00893945 0.00264757 0.0146124 0.0242388 0.0300575 0.0322713 0.0319578 0.0310201 0.0314039 0.0343057 0.0392277 0.0441528 0.045643 0.040042 0.0261669 0.00588104 -0.0150823 -0.0294506 -0.0308229 -0.0168437 0.0102425 0.0441214 0.0759288 0.0971422 0.102075 0.0905346 0.0685609 0.0457381 0.0308718 0.0276224 0.0336493 0.0442603 0.0567718 0.0712835 0.0876592 0.103278 0.115679 0.128304 0.149208 0.182023 0.223135 0.278237 0.374301 0.54007 0.792438 1.17386 1.72772 2.27665 2.21122 0.762319 -2.21472 -5.69278 -7.9126 -7.59256 -4.85052 -1.05475 2.159 3.83048 3.9522 3.12414 2.03125 1.11432 0.518702 0.20269 0.0640796 0.014629 0.00119988 -0.00089993 -0.000592633 -0.000211301 -4.77127e-05 -3.55222e-06 2.50051e-06 1.43209e-06 4.25697e-07 6.61614e-08 -7.1828e-09 -8.52862e-09 -2.8748e-09 -4.33823e-10 6.20843e-11 5.32572e-11 1.28755e-11 4.13161e-13 -6.62797e-13 -1.95151e-13 -1.25759e-14 6.57131e-15 1.92871e-15 1.04083e-16 -5.43966e-17 -1.28036e-17 -2.45783e-19 3.58221e-19 9.15997e-20 8.11649e-21 0 0 
0 0 9.6095e-21 8.60127e-20 3.02519e-19 -7.36347e-19 -1.36662e-17 -4.28029e-17 1.96411e-16 2.1029e-15 5.03858e-15 -2.50636e-14 -2.25507e-13 -5.55765e-13 1.54982e-12 1.66782e-11 5.33306e-11 3.37842e-12 -7.28849e-10 -3.55413e-09 -8.10363e-09 3.7106e-09 1.18069e-07 5.66714e-07 1.55232e-06 1.45736e-06 -1.04706e-05 -7.22656e-05 -0.000265418 -0.000619081 -0.000495382 0.00355871 0.0232071 0.0883128 0.259004 0.627881 1.28879 2.24961 3.30249 3.93965 3.46391 1.38206 -2.0704 -5.70123 -7.83319 -7.3576 -4.58961 -1.10028 1.43481 2.34938 2.09801 1.49106 0.995169 0.670514 0.456053 0.323214 0.249159 0.201454 0.164702 0.139945 0.124298 0.109893 0.0936715 0.0775292 0.062901 0.0489031 0.0358239 0.0277412 0.0300937 0.0448089 0.0681042 0.0915006 0.106212 0.106497 0.0916067 0.0651764 0.0334382 0.00360667 -0.0176382 -0.0260354 -0.0212018 -0.00743111 0.00882411 0.021355 0.026997 0.0261866 0.02203 0.0175554 0.0149585 0.0149905 0.0172774 0.0210482 0.0251622 0.0285738 0.0302627 0.0297562 0.0270092 0.0228045 0.0184785 0.0151673 0.0138952 0.0151673 0.0184785 0.0228045 0.0270092 0.0297562 0.0302627 0.0285738 0.0251622 0.0210482 0.0172774 0.0149905 0.0149585 0.0175554 0.02203 0.0261866 0.026997 0.021355 0.00882411 -0.00743111 -0.0212018 -0.0260354 -0.0176382 0.00360667 0.0334382 0.0651764 0.0916067 0.106497 0.106212 0.0915006 0.0681042 0.0448089 0.0300937 0.0277412 0.0358239 0.0489031 0.062901 0.0775292 0.0936715 0.109893 0.124298 0.139945 0.164702 0.201454 0.249159 0.323214 0.456053 0.670514 0.995169 1.49106 2.09801 2.34938 1.43481 -1.10028 -4.58961 -7.3576 -7.83319 -5.70124 -2.07041 1.38204 3.46391 3.93964 3.30249 2.24962 1.28879 0.627881 0.259005 0.088313 0.0232071 0.0035587 -0.000495392 -0.000619086 -0.000265344 -7.1852e-05 -1.03804e-05 1.45285e-06 1.54359e-06 5.63533e-07 1.17409e-07 3.67645e-09 -8.06699e-09 -3.53689e-09 -7.25073e-10 3.46033e-12 5.30927e-11 1.65986e-11 1.5415e-12 -5.53437e-13 -2.24486e-13 -2.49425e-14 5.01811e-15 2.09373e-15 1.95507e-16 -4.26282e-17 -1.35969e-17 -7.21106e-19 9.3447e-20 6.83899e-20 0 0 
0 0 5.46447e-20 -4.71471e-20 -1.26799e-18 -1.36531e-17 -2.52403e-17 2.94507e-16 2.13733e-15 2.59809e-15 -3.89862e-14 -2.42847e-13 -3.49599e-13 2.95369e-12 2.00815e-11 4.68048e-11 -8.34947e-11 -1.0734e-09 -4.09664e-09 -6.27287e-09 2.0401e-08 1.83426e-07 7.07714e-07 1.50456e-06 -4.99851e-07 -2.03506e-05 -0.000102533 -0.000318062 -0.000581847 0.000218225 0.00691898 0.0342892 0.117508 0.322842 0.744343 1.46226 2.44547 3.42455 3.83948 3.00974 0.577216 -2.99655 -6.33995 -7.81879 -6.6375 -3.50681 -0.170565 1.88165 2.34354 1.88749 1.28344 0.850854 0.572412 0.390645 0.284056 0.223377 0.180129 0.148786 0.12845 0.11139 0.0939879 0.0780654 0.0638821 0.0502074 0.0374732 0.0289545 0.0291382 0.0400813 0.0597479 0.0830073 0.103028 0.11331 0.109772 0.0918786 0.0634804 0.0314578 0.00426227 -0.0109414 -0.0108418 0.00197865 0.0202266 0.0356287 0.0429233 0.0413333 0.033824 0.0240654 0.015301 0.00863067 0.00435592 0.0018594 0.000523085 -0.000297477 -0.000994883 -0.00115834 0.000153489 0.00423354 0.0115038 0.0213389 0.031601 0.039468 0.0423583 0.039468 0.031601 0.0213389 0.0115038 0.00423354 0.000153489 -0.00115834 -0.000994883 -0.000297477 0.000523085 0.0018594 0.00435592 0.00863067 0.015301 0.0240654 0.033824 0.0413333 0.0429233 0.0356287 0.0202266 0.00197865 -0.0108418 -0.0109414 0.00426227 0.0314578 0.0634804 0.0918786 0.109772 0.11331 0.103028 0.0830073 0.0597479 0.0400813 0.0291382 0.0289545 0.0374732 0.0502074 0.0638821 0.0780654 0.0939879 0.11139 0.12845 0.148786 0.180129 0.223377 0.284056 0.390645 0.572412 0.850854 1.28344 1.88749 2.34354 1.88165 -0.170565 -3.50681 -6.6375 -7.81882 -6.33997 -2.99656 0.577204 3.00974 3.83948 3.42455 2.44547 1.46227 0.744344 0.322842 0.117508 0.0342891 0.00691898 0.000218332 -0.00058127 -0.000316206 -0.000101818 -2.02127e-05 -4.93448e-07 1.4974e-06 7.04174e-07 1.82464e-07 2.02741e-08 -6.24895e-09 -4.07734e-09 -1.06799e-09 -8.29807e-11 4.6605e-11 1.99876e-11 2.93899e-12 -3.48264e-13 -2.41767e-13 -3.88054e-14 2.58861e-15 2.12815e-15 2.93212e-16 -2.51511e-17 -1.39773e-17 -2.96293e-18 -1.47989e-19 0 0 
0 0 -3.50125e-19 -3.65463e-18 -1.53609e-17 -6.80011e-18 4.27824e-16 2.28638e-15 -2.30209e-16 -5.70368e-14 -2.68664e-13 -9.52417e-14 4.72718e-12 2.4265e-11 3.76407e-11 -1.9518e-10 -1.49936e-09 -4.69219e-09 -3.58153e-09 4.23884e-08 2.65745e-07 8.70521e-07 1.35639e-06 -3.26241e-06 -3.3291e-05 -0.00013967 -0.000373849 -0.000495487 0.00119772 0.0111547 0.0475257 0.150795 0.392343 0.864825 1.63038 2.61541 3.49236 3.66464 2.49421 -0.223004 -3.81223 -6.77822 -7.60068 -5.82342 -2.49539 0.574112 2.1476 2.24638 1.67323 1.10571 0.731546 0.490392 0.336135 0.249199 0.196511 0.157108 0.12982 0.10994 0.0914508 0.0752312 0.0617552 0.0486297 0.0361324 0.0264579 0.0219644 0.025306 0.0376363 0.0573715 0.0796996 0.0965261 0.10082 0.0894951 0.0648295 0.0337437 0.00540399 -0.0118084 -0.0132056 1.08511e-05 0.0211523 0.0411791 0.0531597 0.0549535 0.0490054 0.0395246 0.0296421 0.0211528 0.0145798 0.00983105 0.0065635 0.00423626 0.00187652 -0.00114548 -0.00435114 -0.00632167 -0.00515464 0.000495721 0.010848 0.0241611 0.0375284 0.0473954 0.0510635 0.0473954 0.0375284 0.0241611 0.010848 0.000495721 -0.00515464 -0.00632167 -0.00435114 -0.00114548 0.00187652 0.00423626 0.0065635 0.00983105 0.0145798 0.0211528 0.0296421 0.0395246 0.0490054 0.0549535 0.0531597 0.0411791 0.0211523 1.08511e-05 -0.0132056 -0.0118084 0.00540399 0.0337437 0.0648295 0.0894951 0.10082 0.0965261 0.0796996 0.0573715 0.0376363 0.025306 0.0219644 0.0264579 0.0361324 0.0486297 0.0617552 0.0752312 0.0914508 0.10994 0.12982 0.157108 0.196511 0.249199 0.336135 0.490392 0.731546 1.10571 1.67323 2.24638 2.1476 0.574112 -2.49538 -5.82342 -7.60068 -6.77823 -3.81223 -0.223009 2.49423 3.66464 3.49236 2.61542 1.63038 0.864826 0.392343 0.150795 0.0475258 0.0111553 0.00119953 -0.000492228 -0.0003716 -0.000138886 -3.31043e-05 -3.24014e-06 1.35115e-06 8.66384e-07 2.64383e-07 4.21455e-08 -3.57378e-09 -4.67066e-09 -1.49196e-09 -1.9412e-10 3.74927e-11 2.41535e-11 4.70442e-12 -9.51259e-14 -2.67487e-13 -5.67777e-14 -2.26957e-16 2.27664e-15 4.25387e-16 -8.42623e-18 -1.12204e-17 -3.48118e-18 0 0 
0 0 -4.66046e-18 -1.75275e-17 -1.82768e-17 4.87078e-16 2.7929e-15 2.62662e-16 -6.78759e-14 -3.27515e-13 -1.16555e-13 5.82937e-12 2.96731e-11 4.33848e-11 -2.55854e-10 -1.87725e-09 -5.67222e-09 -3.286e-09 5.71077e-08 3.39166e-07 1.0689e-06 1.478e-06 -5.05672e-06 -4.40904e-05 -0.000175332 -0.000441611 -0.00048348 0.00189104 0.0145094 0.0584577 0.178885 0.4518 0.969034 1.77744 2.76643 3.55615 3.51445 2.03675 -0.944375 -4.5563 -7.18119 -7.39664 -5.06435 -1.55728 1.25165 2.37075 2.13629 1.46714 0.941766 0.622123 0.414041 0.284812 0.215396 0.170089 0.134967 0.111294 0.0929405 0.0766003 0.0638013 0.0517156 0.0393549 0.028536 0.0195027 0.0150782 0.0198671 0.0346161 0.0555968 0.0751325 0.0850113 0.0805803 0.0615193 0.0323041 0.000865496 -0.0240686 -0.034957 -0.0287803 -0.00927994 0.0150099 0.0348384 0.045202 0.0464971 0.0423363 0.0362221 0.0302107 0.0249813 0.0207414 0.0175032 0.014798 0.0117815 0.00796145 0.00343263 -0.000345218 -0.00150768 0.000898318 0.00645147 0.0135 0.0195654 0.0231104 0.0238437 0.0231501 0.022692 0.0231501 0.0238437 0.0231104 0.0195654 0.0135 0.00645147 0.000898318 -0.00150768 -0.000345218 0.00343263 0.00796145 0.0117815 0.014798 0.0175032 0.0207414 0.0249813 0.0302107 0.0362221 0.0423363 0.0464971 0.045202 0.0348384 0.0150099 -0.00927994 -0.0287803 -0.034957 -0.0240686 0.000865496 0.0323041 0.0615193 0.0805803 0.0850113 0.0751325 0.0555968 0.0346161 0.0198671 0.0150782 0.0195027 0.028536 0.0393549 0.0517156 0.0638013 0.0766003 0.0929405 0.111294 0.134967 0.170089 0.215396 0.284812 0.414041 0.622123 0.941765 1.46714 2.13629 2.37075 1.25166 -1.5573 -5.06435 -7.39665 -7.18121 -4.55632 -0.944381 2.03674 3.51445 3.55615 2.76644 1.77744 0.969035 0.451801 0.178885 0.0584594 0.0145114 0.00188676 -0.000480986 -0.00043941 -0.000174425 -4.38492e-05 -5.02333e-06 1.47274e-06 1.06386e-06 3.3744e-07 5.6787e-08 -3.28164e-09 -5.64631e-09 -1.86805e-09 -2.54492e-10 4.32142e-11 2.9537e-11 5.80151e-12 -1.16366e-13 -3.26079e-13 -6.75692e-14 2.63077e-16 2.77857e-15 4.93951e-16 8.56553e-17 -9.01802e-18 0 0 
0 0 -8.84917e-18 4.14536e-18 1.32235e-16 1.53309e-15 3.62486e-15 -2.31015e-14 -1.99638e-13 -4.36681e-13 2.06475e-12 1.82997e-11 5.1081e-11 -5.7151e-11 -1.07377e-09 -4.46642e-09 -7.36455e-09 2.27978e-08 2.15256e-07 8.37541e-07 1.72037e-06 -1.16609e-06 -2.66628e-05 -0.000127198 -0.000373845 -0.000612049 0.000588562 0.00901639 0.0416617 0.137998 0.371261 0.844409 1.64365 2.72739 3.77607 4.12175 2.94514 -0.16958 -4.57247 -8.40011 -9.46677 -6.86648 -1.96307 2.42654 4.19638 3.43647 1.80492 0.69938 0.316723 0.21865 0.151202 0.119735 0.117969 0.104058 0.0849053 0.0753756 0.0648593 0.0520367 0.043222 0.0336643 0.0216753 0.012473 0.00872832 0.0133822 0.0292468 0.0533899 0.0786122 0.0939422 0.089718 0.0646142 0.0253272 -0.0166653 -0.0486095 -0.0614626 -0.0520921 -0.0255851 0.00649502 0.0313718 0.0419031 0.0394317 0.0307976 0.0225861 0.0176475 0.0158567 0.0158707 0.0167248 0.0178935 0.018035 0.0161389 0.012002 0.00727525 0.00476991 0.00670114 0.0130914 0.0212112 0.0268038 0.0260773 0.0181511 0.00607885 -0.0046999 -0.00904978 -0.0046999 0.00607885 0.0181511 0.0260773 0.0268038 0.0212112 0.0130914 0.00670114 0.00476991 0.00727525 0.012002 0.0161389 0.018035 0.0178935 0.0167248 0.0158707 0.0158567 0.0176475 0.0225861 0.0307976 0.0394317 0.0419031 0.0313718 0.00649502 -0.0255851 -0.0520921 -0.0614626 -0.0486095 -0.0166653 0.0253272 0.0646142 0.089718 0.0939422 0.0786122 0.0533899 0.0292468 0.0133822 0.00872832 0.012473 0.0216753 0.0336643 0.043222 0.0520367 0.0648593 0.0753756 0.0849053 0.104058 0.117969 0.119735 0.151202 0.21865 0.316723 0.69938 1.80492 3.43648 4.19637 2.42655 -1.96308 -6.86648 -9.46679 -8.40012 -4.57247 -0.169577 2.94515 4.12176 3.77608 2.7274 1.64365 0.84441 0.371263 0.138001 0.0416589 0.00898733 0.000585284 -0.0006093 -0.000371993 -0.000126533 -2.65128e-05 -1.15456e-06 1.71305e-06 8.33481e-07 2.14139e-07 2.2658e-08 -7.33531e-09 -4.44541e-09 -1.06843e-09 -5.67897e-11 5.08577e-11 1.82149e-11 2.0546e-12 -4.3487e-13 -1.98755e-13 -2.29974e-14 3.60993e-15 1.57922e-15 4.16471e-16 2.23363e-17 0 0 
0 0 -2.23824e-18 1.37902e-16 6.46273e-16 2.75916e-15 -4.22986e-15 -9.24058e-14 -3.48727e-13 3.50276e-13 8.84201e-12 3.64598e-11 2.27394e-11 -4.8837e-10 -2.79074e-09 -6.92621e-09 3.88519e-09 1.15075e-07 5.54749e-07 1.44926e-06 7.07385e-07 -1.38912e-05 -8.14913e-05 -0.000271816 -0.000547945 -7.81755e-05 0.00494624 0.0265441 0.094574 0.26915 0.646207 1.33416 2.37294 3.58885 4.45159 4.10167 1.73607 -2.66967 -7.75812 -11.0438 -10.3456 -5.57624 0.760166 5.23133 6.04899 4.12837 1.71642 0.284337 -0.146186 -0.157343 -0.0953989 -0.027711 0.0224989 0.0405377 0.0444292 0.0460441 0.041904 0.0343434 0.0259471 0.0158996 0.00637004 0.00079217 0.0041657 0.0205742 0.0479085 0.0784655 0.101931 0.107471 0.0893533 0.0502963 0.000676745 -0.0444323 -0.0709168 -0.0708492 -0.0460241 -0.00810409 0.026792 0.0466066 0.0481034 0.0368708 0.0214991 0.00871809 0.00159959 -3.47622e-05 0.0027371 0.00786988 0.0130802 0.0162262 0.0164935 0.0148892 0.0137553 0.0154804 0.0208656 0.0282303 0.0339114 0.0338215 0.0260138 0.0115475 -0.00507 -0.0183234 -0.023333 -0.0183234 -0.00507 0.0115475 0.0260138 0.0338215 0.0339114 0.0282303 0.0208656 0.0154804 0.0137553 0.0148892 0.0164935 0.0162262 0.0130802 0.00786988 0.0027371 -3.47622e-05 0.00159959 0.00871809 0.0214991 0.0368708 0.0481034 0.0466066 0.026792 -0.00810409 -0.0460241 -0.0708492 -0.0709168 -0.0444323 0.000676745 0.0502963 0.0893533 0.107471 0.101931 0.0784655 0.0479085 0.0205742 0.0041657 0.00079217 0.00637004 0.0158996 0.0259471 0.0343434 0.041904 0.0460441 0.0444292 0.0405377 0.0224989 -0.027711 -0.0953989 -0.157343 -0.146186 0.284341 1.71644 4.12838 6.049 5.23135 0.760183 -5.57621 -10.3456 -11.0438 -7.75812 -2.66966 1.73608 4.10168 4.45161 3.58886 2.37295 1.33417 0.646209 0.26915 0.0945527 0.0264507 0.00492037 -7.88731e-05 -0.000545427 -0.000270454 -8.10613e-05 -1.38106e-05 7.07304e-07 1.44271e-06 5.52019e-07 1.14467e-07 3.8494e-09 -6.89594e-09 -2.77744e-09 -4.85902e-10 2.26807e-11 3.62966e-11 8.80086e-12 3.48298e-13 -3.47231e-13 -9.19984e-14 -4.19241e-15 2.89494e-15 1.06222e-15 1.52249e-16 0 0 
0 0 4.43889e-17 4.80097e-16 1.59675e-15 1.44772e-15 -3.53007e-14 -2.11295e-13 -2.10498e-13 3.56124e-12 2.18294e-11 4.16559e-11 -1.72755e-10 -1.55312e-09 -5.24864e-09 -4.14738e-09 5.31967e-08 3.39218e-07 1.09314e-06 1.41872e-06 -6.14983e-06 -4.94822e-05 -0.000189112 -0.000447294 -0.000365792 0.00250705 0.0164385 0.0630262 0.188186 0.471249 1.01727 1.90801 3.09173 4.2336 4.63313 3.39218 -0.0455849 -5.16594 -10.0584 -12.1321 -9.7917 -3.87901 2.58648 6.486 6.74417 4.60418 2.07557 0.371956 -0.3647 -0.481762 -0.342879 -0.184123 -0.0865763 -0.0306031 0.00300336 0.0147046 0.016012 0.0149643 0.00763322 -0.001801 -0.00615486 -0.00437491 0.0073756 0.0324285 0.0656447 0.0968507 0.113445 0.106115 0.0753786 0.0292159 -0.0192834 -0.0555939 -0.0691414 -0.0568807 -0.0258467 0.0101153 0.0375716 0.0496828 0.0475044 0.0362055 0.021081 0.00667262 -0.00402011 -0.00878349 -0.00746291 -0.00228133 0.0033902 0.00725797 0.0093781 0.0117925 0.0165344 0.0242558 0.032788 0.0385719 0.0385084 0.0316836 0.0200546 0.0071852 -0.00371058 -0.0105741 -0.0128262 -0.0105741 -0.00371058 0.0071852 0.0200546 0.0316836 0.0385084 0.0385719 0.032788 0.0242558 0.0165344 0.0117925 0.0093781 0.00725797 0.0033902 -0.00228133 -0.00746291 -0.00878349 -0.00402011 0.00667262 0.021081 0.0362055 0.0475044 0.0496828 0.0375716 0.0101153 -0.0258467 -0.0568807 -0.0691414 -0.0555939 -0.0192834 0.0292159 0.0753786 0.106115 0.113445 0.0968507 0.0656447 0.0324285 0.0073756 -0.00437491 -0.00615486 -0.001801 0.00763322 0.0149643 0.016012 0.0147046 0.00300336 -0.0306031 -0.0865763 -0.184123 -0.342879 -0.481762 -0.3647 0.371963 2.07559 4.6042 6.74421 6.48605 2.58652 -3.87899 -9.79168 -12.1321 -10.0584 -5.16594 -0.0455891 3.39218 4.63315 4.23362 3.09175 1.90801 1.01727 0.471238 0.188115 0.0627935 0.0163534 0.00249169 -0.000364747 -0.000445177 -0.000188156 -4.92186e-05 -6.11194e-06 1.4137e-06 1.08805e-06 3.37529e-07 5.29066e-08 -4.13687e-09 -5.22486e-09 -1.54565e-09 -1.71844e-10 4.14856e-11 2.17307e-11 3.54449e-12 -2.09748e-13 -2.10375e-13 -3.50812e-14 1.67803e-15 1.50664e-15 4.28677e-16 0 0 
0 0 1.74439e-16 9.70225e-16 2.21371e-15 -9.58979e-15 -1.04602e-13 -2.82201e-13 1.01323e-12 1.11233e-11 3.57426e-11 -2.52539e-11 -7.48342e-10 -3.44332e-09 -6.31232e-09 1.813e-08 1.87811e-07 7.54156e-07 1.51397e-06 -1.68326e-06 -2.76698e-05 -0.000125675 -0.000346848 -0.000470946 0.00103504 0.00980023 0.0412885 0.129853 0.338089 0.756896 1.47829 2.52071 3.70544 4.53909 4.23538 2.03301 -2.18797 -7.3394 -11.2276 -11.6728 -8.07674 -2.10247 3.3795 6.28061 6.3989 4.83579 2.77504 0.951967 -0.226796 -0.651735 -0.575367 -0.373787 -0.223966 -0.120982 -0.0545139 -0.026713 -0.0164095 -0.0109019 -0.0128519 -0.0159813 -0.0135437 -0.00340729 0.0169963 0.045779 0.0762928 0.099439 0.104759 0.0866365 0.0490612 0.00304529 -0.0365008 -0.0577408 -0.0553699 -0.0331088 -0.00306464 0.0224609 0.036356 0.0391231 0.0350919 0.0272559 0.0172368 0.00635232 -0.00309252 -0.00824473 -0.00851305 -0.00570338 -0.00245421 0.000123638 0.00286269 0.00801417 0.0163117 0.0258886 0.0329608 0.0337436 0.0272103 0.0162015 0.00580868 -3.56802e-06 -0.00029499 0.00207675 0.00354718 0.00207675 -0.00029499 -3.56802e-06 0.00580868 0.0162015 0.0272103 0.0337436 0.0329608 0.0258886 0.0163117 0.00801417 0.00286269 0.000123638 -0.00245421 -0.00570338 -0.00851305 -0.00824473 -0.00309252 0.00635232 0.0172368 0.0272559 0.0350919 0.0391231 0.036356 0.0224609 -0.00306464 -0.0331088 -0.0553699 -0.0577408 -0.0365008 0.00304529 0.0490612 0.0866365 0.104759 0.099439 0.0762928 0.045779 0.0169963 -0.00340729 -0.0135437 -0.0159813 -0.0128519 -0.0109019 -0.0164095 -0.026713 -0.0545139 -0.120982 -0.223966 -0.373787 -0.575367 -0.651735 -0.226795 0.951971 2.77505 4.83581 6.39892 6.28063 3.37949 -2.10246 -8.07674 -11.6728 -11.2277 -7.33942 -2.18799 2.033 4.23538 4.5391 3.70545 2.52071 1.47829 0.756851 0.337913 0.129357 0.0410756 0.009745 0.00102784 -0.000469055 -0.000345171 -0.000125035 -2.75202e-05 -1.67031e-06 1.50762e-06 7.50577e-07 1.86863e-07 1.80221e-08 -6.28704e-09 -3.42743e-09 -7.44699e-10 -2.50787e-11 3.55877e-11 1.10727e-11 1.00829e-12 -2.81006e-13 -1.04015e-13 -9.50847e-15 -3.59953e-16 7.0469e-16 0 0 
0 0 3.89954e-16 9.34669e-16 -4.4433e-16 -4.18626e-14 -1.96418e-13 3.89363e-14 4.68321e-12 2.30272e-11 2.57497e-11 -2.90587e-10 -1.95942e-09 -5.55375e-09 1.16649e-09 9.01805e-08 4.70721e-07 1.27997e-06 5.50851e-07 -1.35051e-05 -7.81362e-05 -0.000253595 -0.000468074 0.00018028 0.00544366 0.026308 0.088297 0.240033 0.556626 1.12545 1.99785 3.09758 4.10771 4.41795 3.27014 0.196086 -4.39048 -8.92044 -11.2415 -9.97446 -5.65901 -0.492063 3.3223 5.04495 5.26797 4.68668 3.48759 1.84542 0.330467 -0.523193 -0.713834 -0.585164 -0.397723 -0.241066 -0.138784 -0.0834069 -0.0541127 -0.0405054 -0.0339375 -0.0263962 -0.0161713 0.00115358 0.0284506 0.0583674 0.0817652 0.0907665 0.0806194 0.0536527 0.0170079 -0.019245 -0.0435298 -0.0490379 -0.0354519 -0.0110991 0.0119889 0.0256252 0.0284406 0.0250702 0.0195903 0.013527 0.00680527 -1.57392e-05 -0.00540194 -0.00809681 -0.00824473 -0.00719655 -0.00510099 -0.00158926 0.00450568 0.013494 0.0231991 0.0300142 0.030576 0.0238533 0.0125261 0.00175433 -0.0037241 -0.00209266 0.00462955 0.0116987 0.0147554 0.0116987 0.00462955 -0.00209266 -0.0037241 0.00175433 0.0125261 0.0238533 0.030576 0.0300142 0.0231991 0.013494 0.00450568 -0.00158926 -0.00510099 -0.00719655 -0.00824473 -0.00809681 -0.00540194 -1.57392e-05 0.00680527 0.013527 0.0195903 0.0250702 0.0284406 0.0256252 0.0119889 -0.0110991 -0.0354519 -0.0490379 -0.0435298 -0.019245 0.0170079 0.0536527 0.0806194 0.0907665 0.0817652 0.0583674 0.0284506 0.00115358 -0.0161713 -0.0263962 -0.0339375 -0.0405054 -0.0541127 -0.0834069 -0.138784 -0.241066 -0.397723 -0.585164 -0.713834 -0.523193 0.330464 1.84541 3.48761 4.68672 5.26802 5.04498 3.32232 -0.492049 -5.65901 -9.97443 -11.2415 -8.92045 -4.39048 0.196097 3.27016 4.41795 4.10771 3.09759 1.99782 1.12533 0.556248 0.239093 0.0878426 0.0261642 0.00541198 0.000178138 -0.000465993 -0.000252351 -7.77347e-05 -1.34299e-05 5.50951e-07 1.27428e-06 4.68456e-07 8.97148e-08 1.14865e-09 -5.52965e-09 -1.95025e-09 -2.89134e-10 2.56602e-11 2.29254e-11 4.66171e-12 3.86282e-14 -1.95443e-13 -4.27971e-14 -9.22494e-15 2.43424e-16 0 0 
0 0 4.91236e-16 -1.61971e-15 -1.27499e-14 -1.02071e-13 -1.92983e-13 1.49286e-12 1.20581e-11 3.13e-11 -7.20195e-11 -9.53454e-10 -3.82866e-09 -4.84678e-09 3.43868e-08 2.61737e-07 9.25218e-07 1.35137e-06 -5.10574e-06 -4.43697e-05 -0.000172847 -0.00040281 -0.000258793 0.00266101 0.0160357 0.0587128 0.168202 0.405411 0.847577 1.55753 2.51966 3.54796 4.2074 3.84443 1.84578 -1.86251 -6.34542 -9.74662 -10.2635 -7.51286 -3.04236 0.803208 2.76304 3.35404 3.69798 4.05509 3.83947 2.73856 1.2274 0.00463571 -0.619854 -0.737106 -0.59004 -0.396541 -0.254479 -0.160246 -0.101057 -0.0720721 -0.0547457 -0.0367274 -0.0174885 0.00716096 0.0373858 0.0651101 0.0813847 0.0776776 0.0538871 0.0194595 -0.013776 -0.0353021 -0.0395988 -0.0282255 -0.00808663 0.0101112 0.0192765 0.018899 0.0136644 0.00860214 0.00505265 0.00240988 -0.000385783 -0.00296923 -0.00510206 -0.00724928 -0.00995324 -0.0126736 -0.0127242 -0.00745133 0.00378655 0.0179038 0.0295067 0.0337867 0.028979 0.0184817 0.00801041 0.00271988 0.00417091 0.0106018 0.018094 0.0237738 0.0258208 0.0237738 0.018094 0.0106018 0.00417091 0.00271988 0.00801041 0.0184817 0.028979 0.0337867 0.0295067 0.0179038 0.00378655 -0.00745133 -0.0127242 -0.0126736 -0.00995324 -0.00724928 -0.00510206 -0.00296923 -0.000385783 0.00240988 0.00505265 0.00860214 0.0136644 0.018899 0.0192765 0.0101112 -0.00808663 -0.0282255 -0.0395988 -0.0353021 -0.013776 0.0194595 0.0538871 0.0776776 0.0813847 0.0651101 0.0373858 0.00716096 -0.0174885 -0.0367274 -0.0547457 -0.0720721 -0.101057 -0.160246 -0.254479 -0.396541 -0.59004 -0.737106 -0.619854 0.00463632 1.22739 2.73855 3.83948 4.05516 3.69804 3.35407 2.76306 0.803193 -3.04238 -7.51287 -10.2635 -9.74661 -6.34542 -1.86252 1.8458 3.84443 4.20739 3.54794 2.51959 1.55727 0.846858 0.403788 0.167338 0.0583974 0.0159468 0.00264494 -0.000258223 -0.000400937 -0.000171991 -4.41392e-05 -5.07504e-06 1.34637e-06 9.20973e-07 2.60458e-07 3.41999e-08 -4.83032e-09 -3.81148e-09 -9.48926e-10 -7.16248e-11 3.11695e-11 1.20042e-11 1.48598e-12 -1.92409e-13 -1.0585e-13 -3.13405e-14 -2.77005e-15 0 0 
0 0 -2.04999e-16 -1.03971e-14 -4.31884e-14 -1.6376e-13 2.33189e-13 5.15607e-12 2.19067e-11 8.79691e-12 -3.79305e-10 -2.20419e-09 -5.37575e-09 7.26384e-09 1.26164e-07 5.85073e-07 1.36088e-06 -7.75069e-07 -2.2208e-05 -0.000108486 -0.000310306 -0.00042524 0.000986514 0.00912904 0.0377502 0.115661 0.291857 0.632529 1.20089 2.01312 2.97068 3.78631 3.95508 2.86597 0.141478 -3.86854 -7.81165 -9.7856 -8.57339 -4.78683 -0.655951 1.71623 2.04949 1.73204 2.06193 2.98806 3.59301 3.28381 2.20807 0.888856 -0.165842 -0.682729 -0.730486 -0.574583 -0.402764 -0.264364 -0.168857 -0.113146 -0.0776856 -0.0494024 -0.021148 0.0111945 0.0415157 0.0626993 0.0693412 0.0564994 0.0275204 -0.00704938 -0.0345174 -0.0437304 -0.0322518 -0.00732515 0.0179317 0.0307469 0.0278987 0.0147641 0.00036926 -0.00931648 -0.0134329 -0.0129319 -0.00898887 -0.00300412 0.00211463 0.00353847 4.21782e-05 -0.00600096 -0.00970568 -0.00697383 0.00245611 0.0141262 0.021929 0.0215608 0.0139624 0.0045729 -0.000545147 0.00130042 0.00820084 0.0157342 0.020511 0.0223341 0.022649 0.0223341 0.020511 0.0157342 0.00820084 0.00130042 -0.000545147 0.0045729 0.0139624 0.0215608 0.021929 0.0141262 0.00245611 -0.00697383 -0.00970568 -0.00600096 4.21782e-05 0.00353847 0.00211463 -0.00300412 -0.00898887 -0.0129319 -0.0134329 -0.00931648 0.00036926 0.0147641 0.0278987 0.0307469 0.0179317 -0.00732515 -0.0322518 -0.0437304 -0.0345174 -0.00704938 0.0275204 0.0564994 0.0693412 0.0626993 0.0415157 0.0111945 -0.021148 -0.0494024 -0.0776856 -0.113146 -0.168857 -0.264364 -0.402764 -0.574583 -0.730486 -0.68273 -0.165845 0.888856 2.20807 3.28381 3.59302 2.98809 2.06197 1.73205 2.04949 1.71621 -0.655962 -4.78683 -8.57339 -9.78559 -7.81162 -3.86853 0.141488 2.86597 3.95506 3.78625 2.97051 2.01261 1.19963 0.629943 0.29036 0.115047 0.0375459 0.00907792 0.00097993 -0.00042353 -0.000308828 -0.000107944 -2.20901e-05 -7.67755e-07 1.35512e-06 5.82335e-07 1.25535e-07 7.21532e-09 -5.35352e-09 -2.19411e-09 -3.77462e-10 8.78899e-12 2.18119e-11 5.13287e-12 2.30589e-13 -1.72703e-13 -6.73555e-14 -1.11653e-14 0 0 
0 0 -3.11953e-15 -2.92998e-14 -9.34025e-14 -1.11954e-13 1.70069e-12 1.17119e-11 2.51517e-11 -1.06318e-10 -1.06842e-09 -3.91685e-09 -2.94772e-09 4.94969e-08 3.2408e-07 1.03973e-06 9.79917e-07 -9.08887e-06 -6.16849e-05 -0.000216212 -0.000428651 8.01889e-05 0.00466795 0.0231121 0.0773477 0.206688 0.467188 0.917993 1.58955 2.43543 3.27603 3.75486 3.35903 1.59384 -1.63556 -5.59004 -8.65676 -9.12138 -6.48853 -2.20888 1.21775 2.24237 1.42223 0.520249 0.67784 1.69529 2.7542 3.24066 2.91713 1.89714 0.651439 -0.278834 -0.687208 -0.713259 -0.570416 -0.400949 -0.268823 -0.176773 -0.111771 -0.0669 -0.029087 0.00824514 0.0372817 0.0512796 0.0463321 0.0244192 -0.0046881 -0.0309937 -0.0454274 -0.0416911 -0.021361 0.00701745 0.0306153 0.0396402 0.0333775 0.0175547 -8.76085e-05 -0.0149043 -0.0242708 -0.0264484 -0.0208815 -0.00961691 0.00229327 0.0104999 0.0128562 0.0115839 0.0104929 0.0120204 0.0155727 0.0175826 0.015204 0.00791756 -0.000856764 -0.00659546 -0.00637451 -0.00109051 0.00576401 0.0104347 0.0115965 0.0105223 0.00989786 0.0105223 0.0115965 0.0104347 0.00576401 -0.00109051 -0.00637451 -0.00659546 -0.000856764 0.00791756 0.015204 0.0175826 0.0155727 0.0120204 0.0104929 0.0115839 0.0128562 0.0104999 0.00229327 -0.00961691 -0.0208815 -0.0264484 -0.0242708 -0.0149043 -8.76085e-05 0.0175547 0.0333775 0.0396402 0.0306153 0.00701745 -0.021361 -0.0416911 -0.0454274 -0.0309937 -0.0046881 0.0244192 0.0463321 0.0512796 0.0372817 0.00824514 -0.029087 -0.0669 -0.111771 -0.176773 -0.268823 -0.400949 -0.570416 -0.713259 -0.687209 -0.278836 0.651433 1.89714 2.91714 3.24067 2.7542 1.69531 0.67786 0.520303 1.42228 2.2424 1.21774 -2.20891 -6.48854 -9.12138 -8.65677 -5.59001 -1.63556 1.59384 3.359 3.75475 3.27569 2.43452 1.58752 0.914165 0.464795 0.2056 0.0769354 0.0229867 0.0046413 7.8817e-05 -0.000426744 -0.000215167 -6.13733e-05 -9.03834e-06 9.77204e-07 1.0351e-06 3.22536e-07 4.92398e-08 -2.94151e-09 -3.89976e-09 -1.06345e-09 -1.0577e-10 2.50517e-11 1.166e-11 1.68887e-12 -1.25957e-13 -9.34221e-14 -2.66578e-14 0 0 
0 0 -1.01288e-14 -5.6193e-14 -1.3494e-13 3.29748e-13 5.00029e-12 1.93337e-11 -4.28826e-12 -4.2274e-10 -2.26761e-09 -4.87439e-09 1.27049e-08 1.54541e-07 6.64861e-07 1.33387e-06 -2.32219e-06 -3.09239e-05 -0.000136224 -0.000351398 -0.000321564 0.00197047 0.0131997 0.0497106 0.142872 0.340111 0.695383 1.24489 1.97061 2.76105 3.3775 3.44023 2.48455 0.175945 -3.29492 -6.87548 -8.86203 -7.91746 -4.30132 -0.0516623 2.46136 2.42485 0.985999 -0.163771 -0.262599 0.465342 1.55662 2.58446 3.05882 2.67253 1.63795 0.4991 -0.318106 -0.684504 -0.699114 -0.557858 -0.40236 -0.271991 -0.171063 -0.0992549 -0.0450909 -0.00392755 0.0221515 0.0308552 0.0187115 -0.00867404 -0.0374568 -0.0557362 -0.0554898 -0.0367661 -0.00809248 0.0193031 0.0349675 0.0362862 0.0276043 0.0145241 0.00119452 -0.0111547 -0.0202162 -0.023558 -0.019906 -0.0110239 -0.00102852 0.00720661 0.012987 0.0180349 0.022954 0.0264659 0.0258909 0.0196284 0.00949664 -0.000144447 -0.00465996 -0.0025191 0.00402464 0.0107841 0.0148407 0.0154755 0.0142885 0.0128691 0.0123132 0.0128691 0.0142885 0.0154755 0.0148407 0.0107841 0.00402464 -0.0025191 -0.00465996 -0.000144447 0.00949664 0.0196284 0.0258909 0.0264659 0.022954 0.0180349 0.012987 0.00720661 -0.00102852 -0.0110239 -0.019906 -0.023558 -0.0202162 -0.0111547 0.00119452 0.0145241 0.0276043 0.0362862 0.0349675 0.0193031 -0.00809248 -0.0367661 -0.0554898 -0.0557362 -0.0374568 -0.00867404 0.0187115 0.0308552 0.0221515 -0.00392755 -0.0450909 -0.0992549 -0.171063 -0.271991 -0.40236 -0.557858 -0.699114 -0.684504 -0.318105 0.4991 1.63795 2.67254 3.05883 2.58447 1.55663 0.465353 -0.262586 -0.163731 0.986015 2.42487 2.46136 -0.0516726 -4.30135 -7.91748 -8.86205 -6.87549 -3.29493 0.175929 2.48448 3.44001 3.37689 2.75957 1.96758 1.2396 0.691825 0.338333 0.142119 0.0494458 0.0131277 0.00195865 -0.000320524 -0.000349771 -0.000135558 -3.07649e-05 -2.30694e-06 1.32852e-06 6.61822e-07 1.53789e-07 1.26304e-08 -4.85521e-09 -2.25744e-09 -4.20728e-10 -4.23658e-12 1.92502e-11 4.97019e-12 3.20811e-13 -2.76691e-14 -4.33274e-14 0 0 
0 0 -2.1737e-14 -6.87484e-14 -6.80281e-14 1.63809e-12 1.0444e-11 1.93435e-11 -1.2124e-10 -1.08198e-09 -3.75786e-09 -1.20734e-09 6.0259e-08 3.64524e-07 1.08782e-06 5.02694e-07 -1.29018e-05 -7.69227e-05 -0.000249988 -0.00042301 0.000498006 0.00681342 0.0302679 0.0954229 0.242308 0.520067 0.967326 1.58199 2.29153 2.93437 3.24931 2.8777 1.4365 -1.23807 -4.69665 -7.66325 -8.49836 -6.37181 -2.24211 1.55638 3.09823 2.34101 0.739467 -0.385271 -0.722964 -0.456981 0.342518 1.51722 2.54785 2.89761 2.4464 1.47303 0.416705 -0.340639 -0.664994 -0.676348 -0.551381 -0.397721 -0.264322 -0.160369 -0.0806919 -0.0281733 -0.00156884 0.00342393 -0.0107922 -0.0352222 -0.0586021 -0.0702214 -0.0620407 -0.0362101 -0.00319503 0.0235363 0.0346023 0.0311389 0.0195509 0.00615399 -0.00585668 -0.0152757 -0.0198983 -0.0185826 -0.0120024 -0.00354914 0.00367137 0.00890205 0.0137253 0.0196764 0.0249911 0.0260179 0.0191912 0.00544674 -0.00944184 -0.0181272 -0.0162602 -0.00576936 0.00675332 0.0151713 0.0175248 0.0160465 0.0141592 0.0134154 0.0133108 0.0134154 0.0141592 0.0160465 0.0175248 0.0151713 0.00675332 -0.00576936 -0.0162602 -0.0181272 -0.00944184 0.00544674 0.0191912 0.0260179 0.0249911 0.0196764 0.0137253 0.00890205 0.00367137 -0.00354914 -0.0120024 -0.0185826 -0.0198983 -0.0152757 -0.00585668 0.00615399 0.0195509 0.0311389 0.0346023 0.0235363 -0.00319503 -0.0362101 -0.0620407 -0.0702214 -0.0586021 -0.0352222 -0.0107922 0.00342393 -0.00156884 -0.0281733 -0.0806919 -0.160369 -0.264322 -0.397721 -0.551381 -0.676348 -0.664994 -0.340639 0.416705 1.47303 2.4464 2.89762 2.54785 1.51722 0.342525 -0.456978 -0.722949 -0.385257 0.73952 2.34101 3.09826 1.55637 -2.24214 -6.37188 -8.49838 -7.66325 -4.69664 -1.23811 1.43635 2.87727 3.24825 2.93209 2.28729 1.57514 0.962388 0.517365 0.24104 0.0949208 0.0301066 0.00677576 0.00049435 -0.00042122 -0.000248805 -7.65424e-05 -1.2833e-05 5.0261e-07 1.08311e-06 3.62822e-07 5.99548e-08 -1.20978e-09 -3.74183e-09 -1.07702e-09 -1.20634e-10 1.92665e-11 1.0389e-11 1.66803e-12 3.09139e-13 -3.47218e-14 0 0 
0 0 -3.23398e-14 -1.60291e-15 3.28554e-13 4.37116e-12 1.61897e-11 -1.08144e-11 -4.16901e-10 -2.16615e-09 -4.2643e-09 1.61462e-08 1.70015e-07 7.00577e-07 1.23265e-06 -3.73685e-06 -3.81056e-05 -0.000157347 -0.000373339 -0.000180053 0.00298548 0.0171408 0.0608749 0.167386 0.381421 0.743303 1.26168 1.88697 2.50086 2.92205 2.90588 2.14131 0.331876 -2.5275 -5.76459 -7.96699 -7.68985 -4.67868 -0.465635 2.60362 3.24366 2.0854 0.627912 -0.30626 -0.794749 -0.957343 -0.58907 0.370647 1.55536 2.46045 2.73891 2.2963 1.35866 0.370163 -0.321609 -0.632343 -0.654145 -0.534036 -0.386988 -0.255031 -0.1478 -0.0748139 -0.0365337 -0.028629 -0.041459 -0.0589935 -0.0708252 -0.0705353 -0.0555063 -0.0305443 -0.00402928 0.0146324 0.0214118 0.018951 0.0110052 0.000782445 -0.0103601 -0.0199585 -0.0244586 -0.0229011 -0.0164499 -0.00884448 -0.00188028 0.0048804 0.0130154 0.0220502 0.0282427 0.0268901 0.0157826 -0.00162793 -0.0181737 -0.0260992 -0.022627 -0.0113831 0.000373818 0.00702556 0.00746834 0.00433053 0.00111723 -0.000663555 -0.0011238 -0.000663555 0.00111723 0.00433053 0.00746834 0.00702556 0.000373818 -0.0113831 -0.022627 -0.0260992 -0.0181737 -0.00162793 0.0157826 0.0268901 0.0282427 0.0220502 0.0130154 0.0048804 -0.00188028 -0.00884448 -0.0164499 -0.0229011 -0.0244586 -0.0199585 -0.0103601 0.000782445 0.0110052 0.018951 0.0214118 0.0146324 -0.00402928 -0.0305443 -0.0555063 -0.0705353 -0.0708252 -0.0589935 -0.041459 -0.028629 -0.0365337 -0.0748139 -0.1478 -0.255031 -0.386988 -0.534036 -0.654145 -0.632343 -0.321609 0.370163 1.35866 2.2963 2.73891 2.46047 1.55536 0.370647 -0.589059 -0.957335 -0.794745 -0.306236 0.627934 2.08541 3.24367 2.60359 -0.465648 -4.67867 -7.68986 -7.967 -5.7646 -2.5276 0.331596 2.14058 2.90422 2.91879 2.49529 1.87863 1.25525 0.739461 0.379439 0.166513 0.0605552 0.0170491 0.00296841 -0.000179837 -0.000371653 -0.000156592 -3.79139e-05 -3.71468e-06 1.22797e-06 6.97434e-07 1.69203e-07 1.60566e-08 -4.24828e-09 -2.15659e-09 -4.14947e-10 -1.07429e-11 1.61219e-11 4.51424e-12 1.20397e-12 6.4034e-14 0 0 
0 0 -2.16611e-14 2.78009e-13 1.41952e-12 8.66958e-12 1.49884e-11 -1.16176e-10 -1.00375e-09 -3.4299e-09 -1.09532e-10 6.44314e-08 3.77183e-07 1.07538e-06 6.56199e-08 -1.5755e-05 -8.76074e-05 -0.000270466 -0.000393977 0.00091597 0.00877937 0.0366021 0.110997 0.271929 0.561099 0.996722 1.54584 2.11382 2.56081 2.72287 2.39818 1.32348 -0.727528 -3.61718 -6.48064 -7.84928 -6.57888 -3.00269 0.945945 3.156 3.05165 1.7508 0.588394 -0.0987251 -0.632465 -1.06528 -1.08842 -0.544052 0.419425 1.51732 2.37327 2.6185 2.16997 1.29627 0.382686 -0.280004 -0.586701 -0.617105 -0.514005 -0.374028 -0.24729 -0.154179 -0.0963366 -0.0734491 -0.0750446 -0.0827414 -0.0835737 -0.0697821 -0.0440715 -0.0169224 0.002071 0.00804576 0.00447776 -0.00167823 -0.00675806 -0.0102616 -0.0139117 -0.0169058 -0.0181819 -0.0179976 -0.0176841 -0.0182789 -0.0179288 -0.0139524 -0.00482661 0.00676233 0.0154515 0.0167525 0.0100665 -0.000358486 -0.00864032 -0.0103601 -0.00570755 0.00201254 0.00870604 0.0120433 0.0116778 0.00864668 0.00452099 0.000923098 -0.000457526 0.000923098 0.00452099 0.00864668 0.0116778 0.0120433 0.00870604 0.00201254 -0.00570755 -0.0103601 -0.00864032 -0.000358486 0.0100665 0.0167525 0.0154515 0.00676233 -0.00482661 -0.0139524 -0.0179288 -0.0182789 -0.0176841 -0.0179976 -0.0181819 -0.0169058 -0.0139117 -0.0102616 -0.00675806 -0.00167823 0.00447776 0.00804576 0.002071 -0.0169224 -0.0440715 -0.0697821 -0.0835737 -0.0827414 -0.0750446 -0.0734491 -0.0963366 -0.154179 -0.24729 -0.374028 -0.514005 -0.617105 -0.586701 -0.280004 0.382686 1.29627 2.16997 2.6185 2.37328 1.51734 0.419433 -0.54405 -1.08841 -1.06528 -0.632466 -0.0987226 0.5884 1.75082 3.05164 3.15599 0.945891 -3.00272 -6.5789 -7.84928 -6.48067 -3.61735 -0.72799 1.32231 2.39575 2.71847 2.55395 2.10429 1.538 0.991602 0.558204 0.270521 0.11042 0.0364099 0.00873189 0.000910113 -0.000392404 -0.000269211 -8.71815e-05 -1.56732e-05 6.77553e-08 1.07083e-06 3.7545e-07 6.41128e-08 -1.16848e-10 -3.41556e-09 -9.99215e-10 -1.15612e-10 1.49734e-11 9.04693e-12 2.95526e-12 3.69132e-13 0 0 
0 0 5.63456e-14 9.73026e-13 3.62388e-12 1.30554e-11 -1.09258e-11 -3.69262e-10 -1.93724e-09 -3.70705e-09 1.68484e-08 1.7007e-07 6.91178e-07 1.10665e-06 -4.67172e-06 -4.24224e-05 -0.00016905 -0.000377169 -3.71986e-05 0.00385403 0.020387 0.069888 0.186716 0.412547 0.774844 1.25679 1.7804 2.22296 2.45775 2.36869 1.79952 0.511209 -1.67305 -4.47718 -6.86667 -7.39507 -5.30125 -1.46657 1.97111 3.31926 2.67225 1.41228 0.5752 0.111632 -0.385727 -0.905669 -1.17419 -1.05488 -0.519417 0.408923 1.48556 2.2836 2.49699 2.09713 1.29251 0.42727 -0.207858 -0.521361 -0.576461 -0.489749 -0.367385 -0.262754 -0.188508 -0.145712 -0.124393 -0.112015 -0.0982169 -0.0739924 -0.0416407 -0.0113238 0.00713886 0.00906268 0.000155265 -0.0115815 -0.0208395 -0.0252011 -0.0247826 -0.0193879 -0.0114503 -0.00505464 -0.00408788 -0.00870951 -0.0149125 -0.0179346 -0.0158647 -0.0113862 -0.0084743 -0.00950449 -0.0124778 -0.0134903 -0.00993871 -0.0026547 0.00456207 0.00935257 0.0117872 0.0137949 0.0157578 0.0166569 0.0151171 0.0124499 0.0110959 0.0124499 0.0151171 0.0166569 0.0157578 0.0137949 0.0117872 0.00935257 0.00456207 -0.0026547 -0.00993871 -0.0134903 -0.0124778 -0.00950449 -0.0084743 -0.0113862 -0.0158647 -0.0179346 -0.0149125 -0.00870951 -0.00408788 -0.00505464 -0.0114503 -0.0193879 -0.0247826 -0.0252011 -0.0208395 -0.0115815 0.000155265 0.00906268 0.00713886 -0.0113238 -0.0416407 -0.0739924 -0.0982169 -0.112015 -0.124393 -0.145712 -0.188508 -0.262754 -0.367385 -0.489749 -0.576461 -0.521361 -0.207858 0.42727 1.29251 2.09713 2.49699 2.2836 1.48558 0.408941 -0.519396 -1.05487 -1.17418 -0.90568 -0.385733 0.111648 0.575217 1.41228 2.67227 3.31929 1.97116 -1.46653 -5.30124 -7.39506 -6.86678 -4.47749 -1.67385 0.509437 1.79616 2.36314 2.44976 2.21273 1.77142 1.25038 0.77087 0.410426 0.185753 0.0695254 0.0202796 0.00383263 -3.77677e-05 -0.000375507 -0.000168252 -4.22127e-05 -4.64532e-06 1.10266e-06 6.88128e-07 1.6927e-07 1.67575e-08 -3.69356e-09 -1.9288e-09 -3.67547e-10 -1.07124e-11 1.37993e-11 5.53591e-12 1.03044e-12 0 0 
0 0 2.80773e-13 2.28906e-12 7.06816e-12 1.21647e-11 -9.6001e-11 -8.57672e-10 -3.00122e-09 1.66566e-10 6.14388e-08 3.61478e-07 1.01649e-06 -2.0385e-07 -1.70481e-05 -9.20804e-05 -0.000276447 -0.000355472 0.00124619 0.0102447 0.0412541 0.122295 0.292814 0.587658 1.00727 1.49165 1.92665 2.19126 2.20673 1.91649 1.18626 -0.232173 -2.47322 -5.11059 -6.9645 -6.69276 -3.97293 -0.149044 2.63326 3.20882 2.22597 1.11848 0.564741 0.261635 -0.157669 -0.627229 -0.979019 -1.16175 -1.05881 -0.513017 0.41249 1.42198 2.176 2.41147 2.06055 1.32089 0.513518 -0.11097 -0.445436 -0.52844 -0.475932 -0.383988 -0.302665 -0.245363 -0.201541 -0.162446 -0.123908 -0.083892 -0.0471741 -0.0190535 -0.00348925 -0.000396189 -0.00423344 -0.0113824 -0.0192283 -0.0253857 -0.0271149 -0.0222005 -0.0129092 -0.00359488 0.00132195 0.00133154 -0.000952748 -0.00266863 -0.00356142 -0.00603274 -0.0114607 -0.018584 -0.0230298 -0.0211044 -0.0132311 -0.00406567 0.000662211 -0.000157295 -0.00343004 -0.00421583 -0.00121961 0.00324767 0.00616487 0.00697883 0.00681204 0.00697883 0.00616487 0.00324767 -0.00121961 -0.00421583 -0.00343004 -0.000157295 0.000662211 -0.00406567 -0.0132311 -0.0211044 -0.0230298 -0.018584 -0.0114607 -0.00603274 -0.00356142 -0.00266863 -0.000952748 0.00133154 0.00132195 -0.00359488 -0.0129092 -0.0222005 -0.0271149 -0.0253857 -0.0192283 -0.0113824 -0.00423344 -0.000396189 -0.00348925 -0.0190535 -0.0471741 -0.083892 -0.123908 -0.162446 -0.201541 -0.245363 -0.302665 -0.383988 -0.475932 -0.52844 -0.445436 -0.11097 0.513518 1.32089 2.06055 2.41147 2.176 1.42198 0.412503 -0.512996 -1.05879 -1.16173 -0.979017 -0.62723 -0.157659 0.261636 0.564743 1.11847 2.22598 3.20883 2.63324 -0.149034 -3.97289 -6.6928 -6.9647 -5.11112 -2.47447 -0.23469 1.18186 1.90984 2.19799 2.18094 1.91699 1.48409 1.00214 0.584654 0.291313 0.121666 0.0410401 0.0101902 0.00123867 -0.000354135 -0.000275183 -9.16393e-05 -1.69613e-05 -2.00494e-07 1.01226e-06 3.59839e-07 6.11394e-08 1.58781e-10 -2.98883e-09 -8.53804e-10 -9.52053e-11 1.32834e-11 7.82698e-12 2.13537e-12 0 0 
0 0 7.5202e-13 4.21417e-12 1.07669e-11 -6.78547e-12 -2.94995e-10 -1.62519e-09 -3.25146e-09 1.49284e-08 1.5551e-07 6.41926e-07 9.95142e-07 -4.91216e-06 -4.31244e-05 -0.000170164 -0.000366852 6.94357e-05 0.00441429 0.0224475 0.075614 0.19885 0.430978 0.788741 1.23445 1.66596 1.95522 2.01876 1.8486 1.43338 0.61983 -0.874451 -3.12553 -5.53684 -6.82112 -5.82479 -2.68556 0.910729 2.98402 2.93021 1.79368 0.890832 0.547963 0.336974 0.00391331 -0.347805 -0.666477 -0.98768 -1.183 -1.03875 -0.489598 0.371581 1.33358 2.07508 2.32593 2.04218 1.38681 0.625607 0.00761304 -0.354681 -0.488154 -0.479976 -0.419424 -0.35617 -0.297256 -0.238813 -0.176888 -0.115366 -0.066021 -0.0353464 -0.0233934 -0.0226263 -0.0239735 -0.0241641 -0.0229311 -0.0209117 -0.0173868 -0.0118267 -0.00616614 -0.00242882 -0.00175393 -0.00205522 -0.00120042 0.00103612 0.00194258 -0.00112754 -0.00780177 -0.0143597 -0.0158656 -0.0102155 -0.000244009 0.00784133 0.00898383 0.00332907 -0.00454842 -0.0091953 -0.00821618 -0.00299994 0.00336156 0.0081106 0.00979057 0.0081106 0.00336156 -0.00299994 -0.00821618 -0.0091953 -0.00454842 0.00332907 0.00898383 0.00784133 -0.000244009 -0.0102155 -0.0158656 -0.0143597 -0.00780177 -0.00112754 0.00194258 0.00103612 -0.00120042 -0.00205522 -0.00175393 -0.00242882 -0.00616614 -0.0118267 -0.0173868 -0.0209117 -0.0229311 -0.0241641 -0.0239735 -0.0226263 -0.0233934 -0.0353464 -0.066021 -0.115366 -0.176888 -0.238813 -0.297256 -0.35617 -0.419424 -0.479976 -0.488154 -0.354681 0.00761304 0.625607 1.38681 2.04218 2.32593 2.07508 1.33358 0.371584 -0.489588 -1.03873 -1.18299 -0.987674 -0.666478 -0.347794 0.00393319 0.336991 0.547961 0.890842 1.7937 2.93023 2.984 0.91075 -2.68556 -5.82486 -6.82145 -5.53768 -3.12739 -0.877885 0.614377 1.42587 1.83961 2.00906 1.94551 1.65757 1.22819 0.784727 0.428783 0.197835 0.075226 0.0223308 0.00439023 6.83159e-05 -0.000365266 -0.000169371 -4.29142e-05 -4.88508e-06 9.91664e-07 6.39128e-07 1.54787e-07 1.48486e-08 -3.23969e-09 -1.61807e-09 -2.93042e-10 -5.72819e-12 6.2224e-12 3.46116e-12 0 0 
0 0 1.53314e-12 6.02922e-12 1.10779e-11 -6.83081e-11 -6.74694e-10 -2.51587e-09 -2.14666e-10 5.24915e-08 3.21649e-07 9.24689e-07 -2.49973e-07 -1.65593e-05 -8.98365e-05 -0.000268731 -0.000320934 0.00141854 0.0109648 0.0435832 0.128026 0.30303 0.597989 0.99955 1.42651 1.74775 1.85372 1.73003 1.44024 0.980568 0.136325 -1.41098 -3.64265 -5.77898 -6.48271 -4.8651 -1.50658 1.70521 3.08788 2.56798 1.4187 0.728077 0.521808 0.350362 0.0935203 -0.131734 -0.365587 -0.693775 -1.0138 -1.15272 -1.00684 -0.509033 0.308587 1.22481 1.94081 2.23662 2.04086 1.4697 0.765383 0.148175 -0.262173 -0.45411 -0.494604 -0.458871 -0.394464 -0.323699 -0.249668 -0.176717 -0.115343 -0.0733232 -0.053052 -0.0474757 -0.047132 -0.0467884 -0.0428667 -0.0346102 -0.0223364 -0.00894331 0.000863153 0.00465786 0.00304353 0.00042814 -0.000603206 -0.000731335 -0.00342048 -0.0102284 -0.0186877 -0.023857 -0.0212876 -0.0115921 0.000646636 0.00920587 0.0108026 0.00645883 -2.75772e-06 -0.00469828 -0.00480153 0.000368322 0.00906727 0.0170919 0.0202914 0.0170919 0.00906727 0.000368322 -0.00480153 -0.00469828 -2.75772e-06 0.00645883 0.0108026 0.00920587 0.000646636 -0.0115921 -0.0212876 -0.023857 -0.0186877 -0.0102284 -0.00342048 -0.000731335 -0.000603206 0.00042814 0.00304353 0.00465786 0.000863153 -0.00894331 -0.0223364 -0.0346102 -0.0428667 -0.0467884 -0.047132 -0.0474757 -0.053052 -0.0733232 -0.115343 -0.176717 -0.249668 -0.323699 -0.394464 -0.458871 -0.494604 -0.45411 -0.262173 0.148175 0.765383 1.4697 2.04086 2.23662 1.94081 1.22481 0.308587 -0.509029 -1.00683 -1.15271 -1.01378 -0.693761 -0.365592 -0.131718 0.0935344 0.350373 0.521854 0.728083 1.41871 2.56799 3.08788 1.70521 -1.50663 -4.8653 -6.48333 -5.78031 -3.64524 -1.41537 0.129954 0.972597 1.43159 1.72152 1.84465 1.73905 1.41933 0.994493 0.594958 0.301493 0.127374 0.0433595 0.0109072 0.00141023 -0.000319782 -0.000267519 -8.94111e-05 -1.6476e-05 -2.46603e-07 9.20882e-07 3.20206e-07 5.22377e-08 -2.19571e-10 -2.50529e-09 -6.70871e-10 -6.87973e-11 -7.46551e-12 3.98662e-12 0 0 
0 0 2.50176e-12 5.42264e-12 -7.30288e-13 -2.11494e-10 -1.27456e-09 -2.85133e-09 1.12487e-08 1.30055e-07 5.61846e-07 9.10285e-07 -4.45111e-06 -4.02277e-05 -0.000161115 -0.000346649 0.000114946 0.00456542 0.0230182 0.0773502 0.20256 0.435239 0.784375 1.19699 1.55242 1.71569 1.63093 1.36919 1.04117 0.600826 -0.254611 -1.85391 -4.04026 -5.85875 -5.9945 -3.87907 -0.481367 2.2494 3.01043 2.18229 1.11573 0.616628 0.485886 0.323706 0.128489 0.00555549 -0.142269 -0.407097 -0.716564 -0.979215 -1.12039 -1.00521 -0.539297 0.212602 1.0682 1.78639 2.13878 2.03821 1.57085 0.921683 0.296813 -0.161611 -0.415928 -0.498715 -0.474255 -0.403873 -0.321828 -0.246651 -0.185908 -0.140327 -0.109328 -0.0883056 -0.0745246 -0.066282 -0.0600933 -0.0526166 -0.0412119 -0.0275467 -0.015442 -0.00736697 -0.00300493 0.000689577 0.00442694 0.00616348 0.00230486 -0.00724765 -0.0185489 -0.0259027 -0.0255892 -0.0195066 -0.0123005 -0.00865257 -0.00922215 -0.0128243 -0.0174231 -0.0218306 -0.0233768 -0.020275 -0.0125736 -0.0044146 -0.000770543 -0.0044146 -0.0125736 -0.020275 -0.0233768 -0.0218306 -0.0174231 -0.0128243 -0.00922215 -0.00865257 -0.0123005 -0.0195066 -0.0255892 -0.0259027 -0.0185489 -0.00724765 0.00230486 0.00616348 0.00442694 0.000689577 -0.00300493 -0.00736697 -0.015442 -0.0275467 -0.0412119 -0.0526166 -0.0600933 -0.066282 -0.0745246 -0.0883056 -0.109328 -0.140327 -0.185908 -0.246651 -0.321828 -0.403873 -0.474255 -0.498715 -0.415928 -0.161611 0.296813 0.921683 1.57085 2.03821 2.13878 1.78639 1.0682 0.212602 -0.539297 -1.0052 -1.12038 -0.979208 -0.716552 -0.407074 -0.142249 0.00557587 0.128508 0.323711 0.485912 0.616646 1.11575 2.1823 3.01045 2.24939 -0.4815 -3.87947 -5.99544 -5.86069 -4.04371 -1.85922 -0.261654 0.592867 1.03342 1.36233 1.62312 1.70726 1.54466 1.19096 0.780419 0.433044 0.201536 0.0769571 0.0228997 0.00454088 0.000113632 -0.00034517 -0.000160372 -4.00337e-05 -4.42681e-06 9.071e-07 5.59416e-07 1.29455e-07 1.11882e-08 -2.84042e-09 -1.26842e-09 -2.17007e-10 -4.84086e-11 1.09763e-12 0 0 
0 0 3.06016e-12 -2.84494e-12 -4.15555e-11 -4.85636e-10 -2.00412e-09 -8.77009e-10 4.00807e-08 2.65447e-07 8.09039e-07 -1.05902e-07 -1.45017e-05 -8.15515e-05 -0.000249239 -0.000297532 0.001403 0.0108331 0.0432968 0.127584 0.301684 0.591366 0.974098 1.35383 1.58597 1.56478 1.31619 0.990432 0.700706 0.313004 -0.563295 -2.22086 -4.33116 -5.7973 -5.40219 -2.92273 0.364971 2.57339 2.81174 1.81256 0.883326 0.540961 0.442932 0.27924 0.133545 0.0794431 -0.00633438 -0.190636 -0.421474 -0.682699 -0.950542 -1.09908 -0.998315 -0.597736 0.0783608 0.89161 1.60835 2.0225 2.03202 1.66568 1.07659 0.457692 -0.0413397 -0.345621 -0.464864 -0.457796 -0.38932 -0.312236 -0.25156 -0.210009 -0.180371 -0.152898 -0.126008 -0.101554 -0.0810766 -0.0649021 -0.0517302 -0.0424237 -0.0367362 -0.0334269 -0.0296008 -0.0225273 -0.0134349 -0.00571239 -0.00301795 -0.00509655 -0.00916328 -0.0110254 -0.0091539 -0.00611947 -0.00539296 -0.00869353 -0.0141785 -0.0202739 -0.0264186 -0.033074 -0.0387162 -0.0410977 -0.0388919 -0.0347094 -0.0325413 -0.0347094 -0.0388919 -0.0410977 -0.0387162 -0.033074 -0.0264186 -0.0202739 -0.0141785 -0.00869353 -0.00539296 -0.00611947 -0.0091539 -0.0110254 -0.00916328 -0.00509655 -0.00301795 -0.00571239 -0.0134349 -0.0225273 -0.0296008 -0.0334269 -0.0367362 -0.0424237 -0.0517302 -0.0649021 -0.0810766 -0.101554 -0.126008 -0.152898 -0.180371 -0.210009 -0.25156 -0.312236 -0.38932 -0.457796 -0.464864 -0.345621 -0.0413397 0.457692 1.07659 1.66568 2.03202 2.0225 1.60835 0.89161 0.0783608 -0.597736 -0.998313 -1.09907 -0.950532 -0.682696 -0.421473 -0.190625 -0.00631142 0.0794803 0.133575 0.279252 0.442931 0.540958 0.88333 1.81256 2.81173 2.5733 0.364774 -2.92333 -5.40355 -5.79997 -4.33546 -2.22695 -0.570617 0.305561 0.694307 0.985414 1.31008 1.55722 1.57811 1.34705 0.969206 0.588396 0.300168 0.126941 0.0430765 0.0107768 0.0013949 -0.00029648 -0.000248124 -8.11688e-05 -1.44294e-05 -1.0352e-07 8.05721e-07 2.64264e-07 3.98875e-08 -8.77021e-10 -1.99654e-09 -5.02809e-10 -1.3999e-10 -1.04576e-11 0 0 
0 0 1.66273e-12 -2.85236e-11 -1.38911e-10 -9.27148e-10 -2.43385e-09 7.01466e-09 9.91576e-08 4.62112e-07 8.38472e-07 -3.47825e-06 -3.44702e-05 -0.000143622 -0.00031916 9.57766e-05 0.00429539 0.0220467 0.0749395 0.197542 0.425001 0.761835 1.14566 1.44311 1.51184 1.30898 0.953929 0.64634 0.449037 0.113468 -0.810448 -2.5271 -4.52478 -5.6179 -4.75108 -2.03991 1.02618 2.7167 2.5439 1.48305 0.713378 0.489041 0.398022 0.234109 0.129094 0.114281 0.0629864 -0.0535085 -0.194315 -0.391546 -0.659096 -0.913992 -1.05919 -1.00601 -0.670572 -0.0611188 0.694368 1.40834 1.88369 1.99083 1.73408 1.22676 0.637212 0.125048 -0.220693 -0.387315 -0.416623 -0.375593 -0.317296 -0.269547 -0.236942 -0.211218 -0.18639 -0.158895 -0.128725 -0.098549 -0.0720698 -0.0541414 -0.0456992 -0.0440427 -0.0442029 -0.0424089 -0.0391093 -0.0360153 -0.0342566 -0.0320333 -0.0275235 -0.0196061 -0.0103167 -0.00320852 -0.00111897 -0.00340017 -0.00720677 -0.0108787 -0.0146894 -0.0200243 -0.026386 -0.0321508 -0.0353096 -0.0361935 -0.0360911 -0.0361935 -0.0353096 -0.0321508 -0.026386 -0.0200243 -0.0146894 -0.0108787 -0.00720677 -0.00340017 -0.00111897 -0.00320852 -0.0103167 -0.0196061 -0.0275235 -0.0320333 -0.0342566 -0.0360153 -0.0391093 -0.0424089 -0.0442029 -0.0440427 -0.0456992 -0.0541414 -0.0720698 -0.098549 -0.128725 -0.158895 -0.18639 -0.211218 -0.236942 -0.269547 -0.317296 -0.375593 -0.416623 -0.387315 -0.220693 0.125048 0.637212 1.22676 1.73408 1.99083 1.88369 1.40834 0.694368 -0.0611188 -0.670572 -1.00601 -1.05918 -0.913984 -0.659088 -0.391544 -0.194313 -0.0535036 0.0630073 0.1143 0.129115 0.234123 0.398018 0.489017 0.713364 1.48304 2.54385 2.71656 1.0258 -2.04081 -4.75295 -5.62133 -4.52992 -2.53371 -0.817602 0.107059 0.444291 0.643124 0.949799 1.30281 1.50443 1.43592 1.13993 0.758024 0.422875 0.196552 0.0745617 0.0219341 0.0042725 9.4628e-05 -0.000317806 -0.000142965 -3.43051e-05 -3.45917e-06 8.35463e-07 4.60123e-07 9.87022e-08 6.97627e-09 -2.42922e-09 -9.66607e-10 -3.10314e-10 -3.94942e-11 0 0 
0 0 -4.8185e-12 -8.69085e-11 -3.29461e-10 -1.49886e-09 -1.43989e-09 2.70777e-08 2.02344e-07 6.75989e-07 1.31944e-07 -1.14294e-05 -6.88459e-05 -0.000220403 -0.000283939 0.0012178 0.00990435 0.0404968 0.121111 0.288962 0.568122 0.931569 1.27476 1.44342 1.32998 0.979639 0.594831 0.377338 0.293969 -0.0173559 -1.01821 -2.78249 -4.62955 -5.34639 -4.08253 -1.25966 1.5122 2.72305 2.24914 1.20614 0.594859 0.451985 0.354537 0.196084 0.124384 0.127463 0.0902383 0.0202552 -0.0494612 -0.172691 -0.37613 -0.617936 -0.857298 -1.02469 -1.00672 -0.732088 -0.206823 0.486986 1.18326 1.6958 1.90085 1.76784 1.37043 0.849857 0.346814 -0.0382172 -0.268562 -0.365188 -0.372759 -0.338425 -0.294253 -0.255122 -0.225981 -0.202467 -0.178812 -0.151456 -0.121671 -0.0948121 -0.0738648 -0.0594958 -0.049528 -0.0429858 -0.0412693 -0.0444874 -0.0505941 -0.0543734 -0.0528078 -0.045728 -0.0370041 -0.0306902 -0.0284878 -0.0285587 -0.0283271 -0.026784 -0.0249096 -0.0246115 -0.0267385 -0.0311316 -0.0362126 -0.0402813 -0.0417935 -0.0402813 -0.0362126 -0.0311316 -0.0267385 -0.0246115 -0.0249096 -0.026784 -0.0283271 -0.0285587 -0.0284878 -0.0306902 -0.0370041 -0.045728 -0.0528078 -0.0543734 -0.0505941 -0.0444874 -0.0412693 -0.0429858 -0.049528 -0.0594958 -0.0738648 -0.0948121 -0.121671 -0.151456 -0.178812 -0.202467 -0.225981 -0.255122 -0.294253 -0.338425 -0.372759 -0.365188 -0.268562 -0.0382172 0.346814 0.849857 1.37043 1.76784 1.90085 1.6958 1.18326 0.486986 -0.206823 -0.732088 -1.00672 -1.02469 -0.857296 -0.61793 -0.376124 -0.172686 -0.0494537 0.0202651 0.0902592 0.12747 0.124373 0.196064 0.354527 0.451956 0.594836 1.20611 2.24907 2.72284 1.51164 -1.26097 -4.08507 -5.35058 -4.63536 -2.78925 -1.02469 -0.02234 0.290932 0.37567 0.592629 0.975254 1.32358 1.43629 1.26841 0.926925 0.565288 0.28752 0.120505 0.0402926 0.00985326 0.00121079 -0.000282916 -0.000219423 -6.85251e-05 -1.13726e-05 1.32861e-07 6.73212e-07 2.01445e-07 2.69464e-08 -1.44987e-09 -1.57432e-09 -5.77287e-10 -9.82037e-11 0 0 
0 0 -2.17113e-11 -1.97447e-10 -6.47142e-10 -1.96643e-09 3.29695e-09 6.8428e-08 3.55018e-07 7.56087e-07 -2.2928e-06 -2.70651e-05 -0.000120301 -0.000285153 2.92063e-05 0.0036805 0.0197341 0.0687731 0.1844 0.40105 0.721994 1.08117 1.33824 1.34391 1.05724 0.620037 0.285402 0.204573 0.223104 -0.106331 -1.20377 -2.99136 -4.65422 -5.00917 -3.43017 -0.596053 1.84413 2.63409 1.95749 0.983612 0.514369 0.421734 0.312657 0.165087 0.119476 0.12721 0.0928843 0.0511099 0.0255595 -0.0414142 -0.170245 -0.343942 -0.566753 -0.806213 -0.974466 -0.989693 -0.787769 -0.346728 0.265912 0.917647 1.45813 1.7579 1.76382 1.50896 1.08549 0.613662 0.194857 -0.112835 -0.292663 -0.363746 -0.360648 -0.320323 -0.273094 -0.233114 -0.203855 -0.181472 -0.162282 -0.144535 -0.126135 -0.106501 -0.0851773 -0.0655127 -0.0516777 -0.0461542 -0.0470779 -0.0488803 -0.0478747 -0.0436869 -0.040181 -0.0401038 -0.0435836 -0.0473678 -0.0490864 -0.0480068 -0.0452135 -0.0424501 -0.0417279 -0.0448243 -0.0507739 -0.0569866 -0.05958 -0.0569866 -0.0507739 -0.0448243 -0.0417279 -0.0424501 -0.0452135 -0.0480068 -0.0490864 -0.0473678 -0.0435836 -0.0401038 -0.040181 -0.0436869 -0.0478747 -0.0488803 -0.0470779 -0.0461542 -0.0516777 -0.0655127 -0.0851773 -0.106501 -0.126135 -0.144535 -0.162282 -0.181472 -0.203855 -0.233114 -0.273094 -0.320323 -0.360648 -0.363746 -0.292663 -0.112835 0.194857 0.613662 1.08549 1.50896 1.76382 1.7579 1.45813 0.917647 0.265912 -0.346728 -0.787769 -0.989692 -0.974466 -0.806212 -0.566748 -0.343934 -0.170234 -0.0414084 0.0255623 0.0511275 0.0929037 0.127221 0.119484 0.165078 0.312641 0.421729 0.514355 0.983584 1.95738 2.63373 1.84327 -0.597865 -3.43342 -5.01411 -4.66046 -2.99783 -1.20915 -0.109703 0.221644 0.204065 0.284825 0.617543 1.05229 1.33736 1.33162 1.07581 0.718406 0.399057 0.183482 0.0684293 0.0196342 0.00366098 2.84737e-05 -0.000283943 -0.000119754 -2.69361e-05 -2.27988e-06 7.53277e-07 3.53492e-07 6.81111e-08 3.2479e-09 -2.0893e-09 -9.11688e-10 -1.98843e-10 0 0 
0 0 -5.66614e-11 -3.76382e-10 -1.09014e-09 -1.68762e-09 1.58292e-08 1.41475e-07 5.33377e-07 3.54493e-07 -8.03702e-06 -5.38742e-05 -0.000185059 -0.000272719 0.000920104 0.00837272 0.0356426 0.109437 0.266058 0.529611 0.873062 1.18944 1.31869 1.14774 0.725192 0.276781 0.0586966 0.127852 0.210632 -0.179017 -1.37612 -3.15392 -4.60858 -4.63102 -2.81848 -0.0515988 2.0475 2.48485 1.68719 0.810172 0.459311 0.393194 0.272513 0.140049 0.114322 0.119936 0.0847904 0.0592461 0.0553245 0.0203038 -0.0518861 -0.153969 -0.312869 -0.523514 -0.73938 -0.910135 -0.963907 -0.829337 -0.487909 0.0259235 0.623892 1.17679 1.56676 1.71862 1.61772 1.31549 0.899238 0.465075 0.0938741 -0.1695 -0.314813 -0.362421 -0.346895 -0.300742 -0.249386 -0.206487 -0.177922 -0.162034 -0.152511 -0.142913 -0.129172 -0.112566 -0.0963583 -0.0835062 -0.0735918 -0.0637489 -0.0522531 -0.0400624 -0.031114 -0.0277721 -0.0291837 -0.0315921 -0.0327517 -0.0317187 -0.0289172 -0.0253833 -0.0236915 -0.0260034 -0.032458 -0.0396962 -0.0428964 -0.0396962 -0.032458 -0.0260034 -0.0236915 -0.0253833 -0.0289172 -0.0317187 -0.0327517 -0.0315921 -0.0291837 -0.0277721 -0.031114 -0.0400624 -0.0522531 -0.0637489 -0.0735918 -0.0835062 -0.0963583 -0.112566 -0.129172 -0.142913 -0.152511 -0.162034 -0.177922 -0.206487 -0.249386 -0.300742 -0.346895 -0.362421 -0.314813 -0.1695 0.0938741 0.465075 0.899238 1.31549 1.61772 1.71862 1.56676 1.17679 0.623892 0.0259234 -0.487909 -0.829336 -0.963906 -0.910133 -0.73938 -0.523511 -0.312863 -0.153958 -0.0518737 0.0203081 0.0553285 0.0592596 0.0847907 0.119934 0.114336 0.140041 0.272511 0.393163 0.459294 0.810105 1.68699 2.48428 2.04619 -0.0540797 -2.82252 -4.63656 -4.61488 -3.15966 -1.38009 -0.180767 0.210432 0.128034 0.0592832 0.276065 0.721988 1.14224 1.31222 1.18356 0.868739 0.526988 0.264739 0.108894 0.0354642 0.00832978 0.000914733 -0.000271699 -0.000184238 -5.36241e-05 -7.99691e-06 3.54017e-07 5.31173e-07 1.40839e-07 1.56975e-08 -1.85233e-09 -1.16472e-09 -3.43904e-10 0 0 
0 0 -1.18272e-10 -6.17874e-10 -1.55205e-09 6.90613e-10 4.22001e-08 2.52592e-07 6.47574e-07 -1.18699e-06 -1.93495e-05 -9.42585e-05 -0.000244928 -5.55872e-05 0.00285824 0.0164795 0.059703 0.164544 0.365211 0.666612 1.00442 1.23676 1.20848 0.87274 0.374464 -0.00962319 -0.0713096 0.128968 0.226349 -0.253225 -1.53594 -3.26856 -4.50346 -4.23384 -2.26431 0.378426 2.14821 2.30287 1.44803 0.678467 0.421162 0.365791 0.237209 0.122785 0.112185 0.113513 0.0781331 0.062355 0.0658397 0.0441316 0.0052735 -0.0460743 -0.141422 -0.285648 -0.463935 -0.663747 -0.839313 -0.924601 -0.866971 -0.628752 -0.213951 0.316308 0.867734 1.33019 1.61009 1.66327 1.49712 1.16833 0.762205 0.3626 0.0340864 -0.192647 -0.316059 -0.353393 -0.333566 -0.285612 -0.234127 -0.192944 -0.164943 -0.147233 -0.135431 -0.127912 -0.123317 -0.120001 -0.115342 -0.106686 -0.0937105 -0.0781505 -0.0639326 -0.0534729 -0.04637 -0.0401211 -0.0336139 -0.026137 -0.0179456 -0.00982668 -0.00399616 -0.00280979 -0.00673916 -0.0124831 -0.0152614 -0.0124831 -0.00673916 -0.00280979 -0.00399616 -0.00982668 -0.0179456 -0.026137 -0.0336139 -0.0401211 -0.04637 -0.0534729 -0.0639326 -0.0781505 -0.0937105 -0.106686 -0.115342 -0.120001 -0.123317 -0.127912 -0.135431 -0.147233 -0.164943 -0.192944 -0.234127 -0.285612 -0.333566 -0.353393 -0.316059 -0.192647 0.0340864 0.3626 0.762205 1.16833 1.49712 1.66327 1.61009 1.33019 0.867734 0.316308 -0.213951 -0.628752 -0.866971 -0.924602 -0.839314 -0.663745 -0.463932 -0.285644 -0.141417 -0.0460643 0.00528248 0.0441345 0.0658527 0.0623681 0.0781245 0.113512 0.112177 0.122778 0.237218 0.365785 0.421131 0.67836 1.44769 2.30204 2.14647 0.375295 -2.26903 -4.23972 -4.50943 -3.27323 -1.53837 -0.253532 0.227019 0.129417 -0.0700584 -0.00887675 0.373079 0.868676 1.20261 1.23068 0.999467 0.663322 0.363409 0.163731 0.0594066 0.0163965 0.00284308 -5.58008e-05 -0.000243885 -9.3831e-05 -1.92573e-05 -1.17977e-06 6.4508e-07 2.51486e-07 4.19192e-08 5.3693e-10 -9.47975e-10 -5.04982e-10 0 0 
0 0 -2.11612e-10 -8.5632e-10 -1.7019e-09 7.5784e-09 8.97793e-08 3.92361e-07 4.86011e-07 -4.94396e-06 -3.88401e-05 -0.000146539 -0.000255363 0.000584609 0.00651678 0.029449 0.0939494 0.235052 0.478221 0.800417 1.09799 1.20894 1.01229 0.548834 0.0467694 -0.212535 -0.110177 0.17932 0.244244 -0.336382 -1.67821 -3.33448 -4.35102 -3.83665 -1.77793 0.703719 2.17081 2.10898 1.24391 0.580786 0.393951 0.339932 0.208295 0.112984 0.113559 0.11073 0.0768624 0.0678851 0.072363 0.0545675 0.0325085 0.00951424 -0.041888 -0.124593 -0.239433 -0.397841 -0.58307 -0.758975 -0.882779 -0.895285 -0.750197 -0.436697 0.0191001 0.544985 1.04312 1.42085 1.60966 1.58911 1.38621 1.06006 0.684235 0.323714 0.0265399 -0.181556 -0.298531 -0.339064 -0.328421 -0.290592 -0.243157 -0.197166 -0.15912 -0.133402 -0.119903 -0.11561 -0.115151 -0.114306 -0.111607 -0.107345 -0.103063 -0.0991603 -0.0950522 -0.0893846 -0.0820527 -0.0730448 -0.0631917 -0.0531084 -0.0451802 -0.0414203 -0.0425997 -0.0459259 -0.0477832 -0.0459259 -0.0425997 -0.0414203 -0.0451802 -0.0531084 -0.0631917 -0.0730448 -0.0820527 -0.0893846 -0.0950522 -0.0991603 -0.103063 -0.107345 -0.111607 -0.114306 -0.115151 -0.11561 -0.119903 -0.133402 -0.15912 -0.197166 -0.243157 -0.290592 -0.328421 -0.339064 -0.298531 -0.181556 0.0265399 0.323714 0.684235 1.06006 1.38621 1.58911 1.60966 1.42085 1.04312 0.544985 0.0191001 -0.436697 -0.750197 -0.895285 -0.882779 -0.758975 -0.58307 -0.397839 -0.23943 -0.124589 -0.0418818 0.00952435 0.0325154 0.0545693 0.072372 0.0679009 0.0768643 0.110735 0.113557 0.112994 0.208297 0.339918 0.393892 0.58061 1.24338 2.10776 2.16848 0.699915 -1.78315 -3.84253 -4.35624 -3.33778 -1.67909 -0.335563 0.245351 0.179712 -0.108779 -0.210772 0.0470588 0.546449 1.00746 1.20304 1.0926 0.796478 0.475869 0.233896 0.093486 0.0293024 0.00648345 0.000581058 -0.000254369 -0.00014589 -3.86601e-05 -4.91894e-06 4.84602e-07 3.90693e-07 8.92648e-08 7.58936e-09 5.34453e-10 -5.84999e-10 0 0 
0 0 -3.28219e-10 -9.02872e-10 -8.05984e-10 2.26815e-08 1.64633e-07 5.14591e-07 -3.55567e-07 -1.24474e-05 -6.86127e-05 -0.000199888 -0.000129585 0.00198605 0.0127848 0.0488882 0.140017 0.320242 0.598403 0.916811 1.13736 1.10033 0.747111 0.212616 -0.223205 -0.323084 -0.0786121 0.248751 0.247754 -0.426812 -1.79603 -3.35343 -4.16438 -3.455 -1.36421 0.936642 2.13683 1.91718 1.07345 0.507684 0.370904 0.312814 0.182116 0.104898 0.112732 0.106047 0.0747746 0.0707003 0.0741559 0.0578643 0.0448522 0.0362606 0.0104745 -0.0298933 -0.0899053 -0.189286 -0.327836 -0.49722 -0.680164 -0.831708 -0.899479 -0.837778 -0.61709 -0.248161 0.220027 0.712291 1.14161 1.43811 1.56249 1.51111 1.31278 1.01501 0.675119 0.347075 0.0704005 -0.133386 -0.262074 -0.324178 -0.334904 -0.310761 -0.268185 -0.222138 -0.181409 -0.149615 -0.125581 -0.108165 -0.0970365 -0.0922673 -0.0928084 -0.0962554 -0.100129 -0.102765 -0.103771 -0.102972 -0.100725 -0.0976853 -0.0953469 -0.0950277 -0.0972489 -0.100291 -0.101739 -0.100291 -0.0972489 -0.0950277 -0.0953469 -0.0976853 -0.100725 -0.102972 -0.103771 -0.102765 -0.100129 -0.0962554 -0.0928084 -0.0922673 -0.0970365 -0.108165 -0.125581 -0.149615 -0.181409 -0.222138 -0.268185 -0.310761 -0.334904 -0.324178 -0.262074 -0.133386 0.0704005 0.347075 0.675119 1.01501 1.31278 1.51111 1.56249 1.43811 1.14161 0.712291 0.220027 -0.248161 -0.61709 -0.837778 -0.899479 -0.831708 -0.680164 -0.497219 -0.327835 -0.189284 -0.0899019 -0.0298888 0.0104814 0.0362696 0.0448583 0.0578678 0.0741592 0.0707076 0.0747856 0.106049 0.112727 0.104892 0.182127 0.312782 0.370813 0.50737 1.07266 1.91553 2.13388 0.932228 -1.36974 -3.46055 -4.16856 -3.35525 -1.79557 -0.425242 0.248942 0.248883 -0.0774273 -0.320805 -0.221555 0.21195 0.74364 1.09501 1.1318 0.912313 0.595469 0.318674 0.13933 0.0486471 0.0127207 0.00197545 -0.000129336 -0.000199031 -6.83018e-05 -1.23879e-05 -3.52699e-07 5.12497e-07 1.63811e-07 2.31922e-08 4.6722e-09 -3.60394e-10 0 0 
0 0 -4.27849e-10 -3.54078e-10 2.49115e-09 5.08235e-08 2.65536e-07 5.04461e-07 -2.54485e-06 -2.55484e-05 -0.000108504 -0.000226849 0.000280046 0.00462971 0.0227436 0.0763813 0.198715 0.417256 0.716249 1.00074 1.11074 0.915552 0.439589 -0.0995791 -0.41388 -0.349389 -0.00483195 0.312999 0.231049 -0.517513 -1.88393 -3.32987 -3.9561 -3.10053 -1.0233 1.09108 2.06407 1.73598 0.932599 0.450991 0.347823 0.283583 0.156928 0.0951857 0.106407 0.0955134 0.0663694 0.0648691 0.0663362 0.0511352 0.0439322 0.0428532 0.0313177 0.0164533 -0.00680893 -0.0569719 -0.138492 -0.258048 -0.418518 -0.598349 -0.763958 -0.87184 -0.873849 -0.741431 -0.471038 -0.0883436 0.352389 0.787256 1.15314 1.40077 1.50377 1.45903 1.28856 1.03094 0.731336 0.432417 0.16618 -0.0461379 -0.196808 -0.287539 -0.328089 -0.332448 -0.31303 -0.280069 -0.239994 -0.198678 -0.161862 -0.133753 -0.115136 -0.103584 -0.096443 -0.0920755 -0.0899732 -0.089256 -0.0895753 -0.0905253 -0.0924981 -0.0950337 -0.0981737 -0.100698 -0.10187 -0.100698 -0.0981737 -0.0950337 -0.0924981 -0.0905253 -0.0895753 -0.089256 -0.0899732 -0.0920755 -0.096443 -0.103584 -0.115136 -0.133753 -0.161862 -0.198678 -0.239994 -0.280069 -0.31303 -0.332448 -0.328089 -0.287539 -0.196808 -0.0461379 0.16618 0.432417 0.731336 1.03094 1.28856 1.45903 1.50377 1.40077 1.15314 0.787256 0.352389 -0.0883436 -0.471038 -0.741431 -0.873849 -0.87184 -0.763958 -0.598349 -0.418518 -0.258047 -0.138491 -0.0569705 -0.00680574 0.016458 0.0313246 0.0428613 0.0439383 0.0511382 0.0663375 0.0648712 0.0663741 0.0955189 0.106406 0.0951842 0.156904 0.283529 0.347661 0.450524 0.931499 1.73382 2.06053 1.08617 -1.02886 -3.10542 -3.95899 -3.33024 -1.88243 -0.515572 0.232073 0.312805 -0.00407522 -0.347028 -0.411306 -0.0986766 0.437691 0.911185 1.10533 0.995852 0.712746 0.415218 0.197744 0.0760067 0.022631 0.00460604 0.000278145 -0.000225935 -0.000108023 -2.543e-05 -2.53156e-06 5.02617e-07 2.64406e-07 5.2453e-08 1.35688e-08 5.932e-10 0 0 
0 0 -4.09868e-10 1.51667e-09 1.03618e-08 9.68534e-08 3.73149e-07 1.37235e-07 -7.05138e-06 -4.59677e-05 -0.000153129 -0.000173496 0.00120093 0.00914821 0.0375972 0.113236 0.269609 0.520896 0.820232 1.03853 1.01328 0.669183 0.121326 -0.35826 -0.519208 -0.311663 0.0834355 0.357681 0.196865 -0.599927 -1.93889 -3.26941 -3.7365 -2.77998 -0.750667 1.18236 1.96879 1.57264 0.820017 0.408895 0.327795 0.258299 0.138289 0.0892789 0.100821 0.0853609 0.0570051 0.055377 0.0533315 0.0378785 0.0333523 0.0352096 0.0306314 0.0292025 0.0265893 0.00871594 -0.0277196 -0.0938851 -0.201352 -0.345001 -0.512579 -0.678653 -0.804769 -0.856343 -0.804725 -0.636707 -0.361588 -0.00475814 0.392363 0.779963 1.10942 1.33959 1.44806 1.43182 1.30549 1.0972 0.841114 0.572272 0.318993 0.100713 -0.0732946 -0.201327 -0.285713 -0.331939 -0.346212 -0.337335 -0.314836 -0.287744 -0.260882 -0.235343 -0.211355 -0.189768 -0.171615 -0.157428 -0.147138 -0.140303 -0.13612 -0.133165 -0.131058 -0.129435 -0.128865 -0.129435 -0.131058 -0.133165 -0.13612 -0.140303 -0.147138 -0.157428 -0.171615 -0.189768 -0.211355 -0.235343 -0.260882 -0.287744 -0.314836 -0.337335 -0.346212 -0.331939 -0.285713 -0.201327 -0.0732946 0.100713 0.318993 0.572272 0.841114 1.0972 1.30549 1.43182 1.44806 1.33959 1.10942 0.779963 0.392363 -0.00475814 -0.361588 -0.636707 -0.804725 -0.856343 -0.804769 -0.678653 -0.512579 -0.345001 -0.201352 -0.0938845 -0.0277188 0.00871708 0.0265924 0.0292076 0.0306379 0.0352178 0.0333572 0.0378838 0.0533352 0.0553727 0.0570139 0.0853677 0.100815 0.0892702 0.138284 0.258225 0.327535 0.408216 0.818552 1.56997 1.9647 1.17716 -0.755936 -2.78388 -3.738 -3.26851 -1.93667 -0.597926 0.197587 0.357189 0.0836915 -0.309548 -0.516135 -0.356068 0.121028 0.666081 1.00839 1.03348 0.816232 0.518358 0.268296 0.112683 0.0374128 0.0091025 0.00119439 -0.000172938 -0.000152468 -4.57593e-05 -7.01734e-06 1.37345e-07 3.71918e-07 1.00602e-07 2.9931e-08 2.97398e-09 0 0 
0 0 -7.48737e-11 5.8508e-09 2.58301e-08 1.62974e-07 4.33391e-07 -9.65523e-07 -1.51009e-05 -7.43658e-05 -0.000187555 5.20776e-05 0.00295559 0.0163127 0.0585514 0.160189 0.350685 0.623783 0.898082 1.02002 0.848295 0.383483 -0.176695 -0.545113 -0.547009 -0.23522 0.165157 0.378746 0.153064 -0.66621 -1.95956 -3.17699 -3.51241 -2.49507 -0.537779 1.22663 1.86559 1.43365 0.736175 0.382689 0.316071 0.243757 0.132296 0.0934295 0.103548 0.083984 0.0557696 0.052439 0.0461594 0.0290429 0.024049 0.0246909 0.0211197 0.0239851 0.029711 0.0282726 0.0194011 -0.00758562 -0.0652087 -0.155081 -0.277574 -0.423775 -0.573353 -0.704786 -0.791443 -0.80869 -0.739887 -0.575552 -0.321103 0.00322693 0.363903 0.718882 1.02801 1.25795 1.38763 1.41124 1.33767 1.18823 0.98853 0.76372 0.534455 0.317095 0.124405 -0.035873 -0.160454 -0.250975 -0.312701 -0.35269 -0.37619 -0.386192 -0.385183 -0.376842 -0.364848 -0.352096 -0.340335 -0.330187 -0.321156 -0.312216 -0.303708 -0.297048 -0.29455 -0.297048 -0.303708 -0.312216 -0.321156 -0.330187 -0.340335 -0.352096 -0.364848 -0.376842 -0.385183 -0.386192 -0.37619 -0.35269 -0.312701 -0.250975 -0.160454 -0.035873 0.124405 0.317095 0.534455 0.76372 0.98853 1.18823 1.33767 1.41124 1.38763 1.25795 1.02801 0.718882 0.363903 0.00322693 -0.321103 -0.575552 -0.739887 -0.80869 -0.791443 -0.704786 -0.573353 -0.423775 -0.277574 -0.155081 -0.0652083 -0.00758505 0.0194018 0.0282736 0.0297139 0.0239898 0.0211262 0.0246997 0.0240563 0.0290473 0.0461601 0.0524365 0.0557725 0.0839878 0.103552 0.0934381 0.13228 0.243654 0.315711 0.381752 0.734237 1.43039 1.86101 1.22137 -0.542456 -2.49781 -3.51256 -3.17507 -1.95697 -0.664366 0.153447 0.378029 0.164968 -0.233538 -0.543848 -0.542022 -0.175501 0.381818 0.844263 1.01508 0.893718 0.620754 0.348985 0.159411 0.0582661 0.0162323 0.00294042 5.14278e-05 -0.00018678 -7.40356e-05 -1.50307e-05 -9.60055e-07 4.32686e-07 1.70254e-07 5.64697e-08 7.78468e-09 0 0 
0 0 9.17342e-10 1.4212e-08 5.24231e-08 2.43775e-07 3.35357e-07 -3.36772e-06 -2.79765e-05 -0.000108781 -0.000181621 0.000591598 0.00596908 0.0269909 0.0866489 0.217114 0.438192 0.716893 0.93836 0.940298 0.62697 0.0847647 -0.428872 -0.654312 -0.514345 -0.143524 0.229006 0.380273 0.109285 -0.71018 -1.94564 -3.05667 -3.28835 -2.24509 -0.375964 1.23641 1.76289 1.31919 0.676266 0.36829 0.310717 0.237749 0.135407 0.10417 0.11228 0.0901649 0.0628668 0.0583305 0.0492311 0.0312688 0.0248978 0.0223211 0.0160129 0.0169565 0.0223376 0.0255408 0.0285158 0.0227897 -0.00158816 -0.0469864 -0.118196 -0.214798 -0.330062 -0.457517 -0.584058 -0.692561 -0.764004 -0.775846 -0.711017 -0.56141 -0.331516 -0.0398565 0.286408 0.613822 0.908132 1.14107 1.29439 1.36373 1.35404 1.27668 1.14506 0.97514 0.784007 0.587606 0.398974 0.226499 0.0744818 -0.0564219 -0.165882 -0.253762 -0.320753 -0.369812 -0.404883 -0.429692 -0.446947 -0.457652 -0.46196 -0.46002 -0.454079 -0.447935 -0.445503 -0.447935 -0.454079 -0.46002 -0.46196 -0.457652 -0.446947 -0.429692 -0.404883 -0.369812 -0.320753 -0.253762 -0.165882 -0.0564219 0.0744818 0.226499 0.398974 0.587606 0.784007 0.97514 1.14506 1.27668 1.35404 1.36373 1.29439 1.14107 0.908132 0.613822 0.286408 -0.0398565 -0.331516 -0.56141 -0.711017 -0.775846 -0.764004 -0.692561 -0.584058 -0.457517 -0.330062 -0.214798 -0.118196 -0.0469864 -0.00158802 0.0227902 0.0285163 0.0255419 0.02234 0.0169607 0.0160185 0.0223289 0.0249074 0.0312766 0.0492333 0.0583247 0.0628573 0.0901552 0.112285 0.104163 0.135367 0.237564 0.310164 0.367011 0.673828 1.31539 1.75799 1.23137 -0.37976 -2.24655 -3.28729 -3.05404 -1.94295 -0.708626 0.109356 0.379402 0.228471 -0.142317 -0.511375 -0.650694 -0.426426 0.0846054 0.624056 0.935784 0.93382 0.713425 0.436074 0.216063 0.0862287 0.0268591 0.00593927 0.000588222 -0.000180943 -0.000108309 -2.78496e-05 -3.35101e-06 3.36529e-07 2.56264e-07 9.44751e-08 1.62501e-08 0 0 
0 0 3.0785e-09 2.84034e-08 9.31382e-08 3.18428e-07 -1.13617e-07 -7.81539e-06 -4.6586e-05 -0.000142331 -8.32291e-05 0.0016468 0.0107636 0.0420746 0.122573 0.282774 0.526699 0.79041 0.932014 0.800699 0.366832 -0.200463 -0.617984 -0.690622 -0.441469 -0.0534192 0.27294 0.370549 0.0739135 -0.728549 -1.89902 -2.91383 -3.06964 -2.03088 -0.26064 1.21703 1.66076 1.22251 0.630475 0.357188 0.304745 0.232741 0.138925 0.112651 0.118475 0.0953131 0.0699229 0.0657893 0.0566581 0.0402093 0.0341826 0.0296772 0.0207636 0.0181027 0.0192911 0.0201254 0.0241431 0.0251629 0.0166946 -0.00210393 -0.0358423 -0.0863436 -0.153362 -0.239527 -0.343161 -0.459007 -0.577269 -0.679899 -0.74699 -0.759402 -0.703227 -0.573728 -0.374399 -0.119658 0.167783 0.460861 0.733094 0.965 1.14303 1.2599 1.31262 1.30351 1.24087 1.13691 1.0052 0.858164 0.705447 0.553508 0.407963 0.274267 0.156488 0.0556948 -0.0290875 -0.0992359 -0.155615 -0.197818 -0.225117 -0.238798 -0.243027 -0.243758 -0.244129 -0.243758 -0.243027 -0.238798 -0.225117 -0.197818 -0.155615 -0.0992359 -0.0290875 0.0556948 0.156488 0.274267 0.407963 0.553508 0.705447 0.858164 1.0052 1.13691 1.24087 1.30351 1.31262 1.2599 1.14303 0.965 0.733094 0.460861 0.167783 -0.119658 -0.374399 -0.573728 -0.703227 -0.759402 -0.74699 -0.679899 -0.577269 -0.459007 -0.343161 -0.239527 -0.153362 -0.0863437 -0.0358423 -0.00210381 0.0166948 0.0251633 0.0241438 0.0201264 0.0192922 0.0181064 0.0207702 0.0296848 0.0341912 0.0402188 0.0566623 0.065787 0.0699181 0.0953026 0.118465 0.112633 0.13884 0.232424 0.303945 0.355497 0.627529 1.21824 1.65574 1.21247 -0.263378 -2.03103 -3.06756 -2.91079 -1.89647 -0.727365 0.0737014 0.369558 0.272143 -0.0526906 -0.438899 -0.686853 -0.61462 -0.199215 0.365222 0.796896 0.927527 0.7866 0.52416 0.28141 0.121981 0.0418707 0.0107108 0.00163824 -8.31062e-05 -0.000141732 -4.63788e-05 -7.77832e-06 -1.08121e-07 3.37588e-07 1.41212e-07 2.95196e-08 0 0 
0 0 7.08488e-09 4.99552e-08 1.48385e-07 3.39986e-07 -1.21003e-06 -1.51672e-05 -7.07195e-05 -0.000160171 0.000188763 0.00348554 0.017937 0.0623772 0.166445 0.354668 0.609385 0.834785 0.87372 0.608836 0.0894932 -0.448841 -0.735895 -0.665814 -0.346955 0.0260936 0.300722 0.357426 0.0509986 -0.722718 -1.82552 -2.75693 -2.86368 -1.8552 -0.190223 1.17032 1.55713 1.13756 0.592523 0.34556 0.296045 0.226325 0.139792 0.115828 0.118726 0.0950619 0.0714838 0.0681432 0.0605765 0.0472786 0.0433177 0.0394369 0.0306518 0.0265378 0.024507 0.0215313 0.0217848 0.0212768 0.0164524 0.00876043 -0.00478137 -0.0254909 -0.0548034 -0.0985513 -0.160383 -0.242583 -0.344237 -0.456839 -0.568541 -0.663804 -0.726624 -0.743125 -0.701921 -0.598951 -0.438246 -0.231254 0.0050479 0.253195 0.495945 0.717695 0.904297 1.04597 1.13918 1.18681 1.19666 1.17718 1.13424 1.07057 0.990727 0.902035 0.811955 0.725422 0.645182 0.573066 0.511666 0.464124 0.432657 0.415446 0.405737 0.396431 0.389892 0.396431 0.405737 0.415446 0.432657 0.464124 0.511666 0.573066 0.645182 0.725422 0.811955 0.902035 0.990727 1.07057 1.13424 1.17718 1.19666 1.18681 1.13918 1.04597 0.904297 0.717695 0.495945 0.253195 0.0050479 -0.231254 -0.438246 -0.598951 -0.701921 -0.743125 -0.726624 -0.663804 -0.568541 -0.456839 -0.344237 -0.242583 -0.160383 -0.0985514 -0.0548035 -0.0254909 -0.00478135 0.0087605 0.0164525 0.0212771 0.0217855 0.0215324 0.0245076 0.0265399 0.0306577 0.0394434 0.043324 0.0472843 0.060579 0.0681472 0.0714829 0.0950598 0.11872 0.115784 0.139635 0.225858 0.294957 0.343437 0.589098 1.13297 1.55224 1.1665 -0.19176 -1.85413 -2.86084 -2.75376 -1.82326 -0.721904 0.0505349 0.356316 0.299718 0.0263789 -0.344893 -0.662216 -0.731965 -0.446363 0.0892592 0.60599 0.869538 0.830774 0.606453 0.352961 0.165644 0.0620766 0.0178499 0.00346807 0.000187489 -0.000159533 -7.04111e-05 -1.5097e-05 -1.19628e-06 3.66025e-07 1.85866e-07 4.80327e-08 0 0 
0 0 1.36946e-08 7.91295e-08 2.12606e-07 2.22526e-07 -3.3642e-06 -2.62219e-05 -9.79369e-05 -0.000135818 0.000751047 0.0064412 0.0281217 0.0885069 0.217635 0.42901 0.678576 0.841902 0.762877 0.378029 -0.181836 -0.642324 -0.782663 -0.595002 -0.245369 0.091594 0.316782 0.344263 0.0388271 -0.698775 -1.73419 -2.59553 -2.67674 -1.71873 -0.161134 1.1001 1.45306 1.06325 0.562026 0.335212 0.287553 0.221218 0.140678 0.116894 0.116428 0.0922635 0.069644 0.0662885 0.0598735 0.0490938 0.0469359 0.0446641 0.0380672 0.0351885 0.033083 0.0284937 0.0254206 0.0212212 0.0145602 0.00866849 0.00259666 -0.00380627 -0.0118019 -0.0272303 -0.0548149 -0.0990766 -0.162948 -0.244841 -0.340767 -0.443777 -0.544528 -0.632221 -0.693921 -0.718494 -0.698394 -0.631297 -0.520355 -0.372357 -0.197336 -0.00708394 0.185243 0.368032 0.533806 0.681223 0.814048 0.936144 1.04322 1.12242 1.17036 1.19266 1.19701 1.18962 1.17484 1.15631 1.13851 1.12625 1.12234 1.12354 1.11974 1.10075 1.07663 1.10075 1.11974 1.12354 1.12234 1.12625 1.13851 1.15631 1.17484 1.18962 1.19701 1.19266 1.17036 1.12242 1.04322 0.936144 0.814048 0.681223 0.533806 0.368032 0.185243 -0.00708394 -0.197336 -0.372357 -0.520355 -0.631297 -0.698394 -0.718494 -0.693921 -0.632221 -0.544528 -0.443777 -0.340767 -0.244841 -0.162948 -0.0990767 -0.0548149 -0.0272303 -0.0118019 -0.00380628 0.00259665 0.00866843 0.0145601 0.0212211 0.0254211 0.0284946 0.0330832 0.0351896 0.0380724 0.0446681 0.0469338 0.0490956 0.0598821 0.0662992 0.0696471 0.0922659 0.116421 0.116827 0.140439 0.220566 0.286119 0.33261 0.558125 1.05849 1.44853 1.09723 -0.16145 -1.71665 -2.67346 -2.59247 -1.73232 -0.698338 0.0381283 0.343051 0.31563 0.0915122 -0.243867 -0.591801 -0.778546 -0.638902 -0.18073 0.376326 0.759248 0.837863 0.67532 0.426953 0.216592 0.0880822 0.027986 0.00640956 0.000746994 -0.000135353 -9.75194e-05 -2.61027e-05 -3.33652e-06 2.52594e-07 2.03985e-07 7.04279e-08 0 0 
0 0 2.35419e-08 1.13305e-07 2.69409e-07 -1.71937e-07 -7.08519e-06 -4.14057e-05 -0.000122062 -2.7137e-05 0.0017605 0.0109027 0.0419237 0.120728 0.274627 0.50087 0.726484 0.806234 0.604141 0.1261 -0.424841 -0.769602 -0.765266 -0.494529 -0.147979 0.141356 0.322357 0.329009 0.0315202 -0.664772 -1.63375 -2.43654 -2.51105 -1.61834 -0.167549 1.01086 1.34937 0.998058 0.537704 0.32612 0.279601 0.217537 0.142163 0.117556 0.114244 0.0901961 0.0682959 0.0644106 0.0583148 0.0484198 0.0463556 0.0448542 0.0402283 0.0393783 0.0389388 0.0353305 0.0315339 0.0253703 0.0165201 0.00916395 0.00403002 0.00196116 0.00252056 0.000896111 -0.00693394 -0.0251124 -0.0569282 -0.102898 -0.163059 -0.236357 -0.320445 -0.411431 -0.501956 -0.583498 -0.647325 -0.686236 -0.695895 -0.674367 -0.623173 -0.545861 -0.446835 -0.330003 -0.199124 -0.0520777 0.118051 0.316054 0.529993 0.71539 0.864095 0.981277 1.07437 1.14887 1.20852 1.25665 1.29719 1.33417 1.36907 1.39718 1.40592 1.37724 1.29924 1.37724 1.40592 1.39718 1.36907 1.33417 1.29719 1.25665 1.20852 1.14887 1.07437 0.981277 0.864095 0.71539 0.529993 0.316054 0.118051 -0.0520777 -0.199124 -0.330003 -0.446835 -0.545861 -0.623173 -0.674367 -0.695895 -0.686236 -0.647325 -0.583498 -0.501956 -0.411431 -0.320445 -0.236357 -0.163059 -0.102898 -0.0569282 -0.0251124 -0.00693392 0.000896146 0.00252059 0.00196118 0.00403 0.00916383 0.0165198 0.0253699 0.0315341 0.0353308 0.0389382 0.0393782 0.040231 0.0448565 0.0463528 0.0484189 0.0583201 0.0644218 0.0683058 0.0901996 0.114227 0.117436 0.141811 0.216655 0.277783 0.323037 0.533423 0.993295 1.34545 1.00906 -0.166694 -1.61552 -2.50764 -2.43381 -1.63235 -0.664704 0.0306172 0.327731 0.321086 0.140944 -0.147018 -0.49188 -0.761281 -0.765589 -0.422547 0.125642 0.601303 0.802383 0.723002 0.498474 0.273315 0.120151 0.0417228 0.0108498 0.00175155 -2.72543e-05 -0.000121558 -4.12202e-05 -7.03627e-06 -1.46518e-07 1.50781e-07 9.19134e-08 0 0 
0 0 3.67581e-08 1.44674e-07 2.85336e-07 -1.04342e-06 -1.29248e-05 -6.02843e-05 -0.000131319 0.000227541 0.0034153 0.0172929 0.0598447 0.158824 0.33496 0.564509 0.746115 0.725908 0.407437 -0.12643 -0.620675 -0.827206 -0.696664 -0.38144 -0.0645305 0.172577 0.315148 0.306915 0.0230298 -0.626941 -1.52975 -2.28284 -2.36525 -1.54916 -0.204139 0.904767 1.24401 0.93754 0.515284 0.314592 0.268209 0.21089 0.140277 0.114635 0.109802 0.0875519 0.0671762 0.0633088 0.0577012 0.0480289 0.0450257 0.0431801 0.0392243 0.0392568 0.0401904 0.0383574 0.0357513 0.0302014 0.0211031 0.0126292 0.00634896 0.00400077 0.00609444 0.00904627 0.00962745 0.00471672 -0.00816522 -0.0291969 -0.0591816 -0.0987836 -0.149262 -0.211587 -0.284275 -0.364317 -0.447427 -0.529026 -0.604405 -0.668014 -0.717256 -0.749265 -0.757985 -0.734841 -0.685646 -0.602014 -0.471084 -0.281479 -0.0337371 0.164429 0.32702 0.46357 0.580413 0.681883 0.770599 0.848661 0.918039 0.980206 1.03445 1.0763 1.09791 1.09386 1.07582 1.09386 1.09791 1.0763 1.03445 0.980206 0.918039 0.848661 0.770599 0.681883 0.580413 0.46357 0.32702 0.164429 -0.0337371 -0.281479 -0.471084 -0.602014 -0.685646 -0.734841 -0.757985 -0.749265 -0.717256 -0.668014 -0.604405 -0.529026 -0.447427 -0.364317 -0.284275 -0.211587 -0.149262 -0.0987836 -0.0591816 -0.0291969 -0.00816521 0.00471674 0.00962752 0.00904625 0.00609441 0.00400064 0.00634878 0.0126289 0.0211025 0.0302008 0.0357508 0.0383569 0.040189 0.0392547 0.0392225 0.0431786 0.0450256 0.0480306 0.0577041 0.0633155 0.0671811 0.0875519 0.109762 0.114459 0.139774 0.209718 0.265966 0.311069 0.510766 0.933017 1.24089 0.904119 -0.202278 -1.54588 -2.36196 -2.28056 -1.5288 -0.627153 0.0220393 0.305662 0.313866 0.171966 -0.0640262 -0.379403 -0.693075 -0.822951 -0.617435 -0.125647 0.405569 0.72246 0.742553 0.561814 0.333363 0.158067 0.0595594 0.0172098 0.00339843 0.000226143 -0.000130806 -6.00181e-05 -1.28464e-05 -1.04097e-06 -4.58462e-08 1.02099e-07 0 0 
0 0 5.23766e-08 1.57292e-07 2.02826e-07 -2.6558e-06 -2.13624e-05 -8.08833e-05 -0.00010624 0.000712432 0.0059509 0.0260344 0.082191 0.201991 0.395298 0.613912 0.732295 0.603411 0.187169 -0.358917 -0.756646 -0.820336 -0.595009 -0.272927 -0.00363644 0.18218 0.292571 0.275154 0.0110827 -0.587226 -1.42342 -2.13334 -2.23479 -1.50415 -0.264204 0.785362 1.13691 0.880112 0.493555 0.299703 0.251554 0.198369 0.131765 0.104948 0.0996894 0.0807581 0.0631979 0.0604197 0.0561972 0.0472781 0.0436288 0.0414341 0.0375518 0.0372189 0.0383091 0.0375703 0.0365689 0.0330852 0.0258214 0.0178484 0.0107527 0.00674671 0.007353 0.0102665 0.0131616 0.0134729 0.00937392 0.0011768 -0.0111476 -0.0280511 -0.0511658 -0.0832661 -0.126022 -0.180353 -0.246978 -0.326613 -0.418205 -0.512093 -0.605511 -0.693962 -0.762796 -0.779437 -0.786443 -0.764814 -0.70076 -0.588685 -0.440186 -0.29637 -0.167015 -0.0514277 0.0531146 0.148987 0.237536 0.319385 0.394799 0.463351 0.523132 0.57043 0.600766 0.612918 0.6135 0.612918 0.600766 0.57043 0.523132 0.463351 0.394799 0.319385 0.237536 0.148987 0.0531146 -0.0514277 -0.167015 -0.29637 -0.440186 -0.588685 -0.70076 -0.764814 -0.786443 -0.779437 -0.762796 -0.693962 -0.605511 -0.512093 -0.418205 -0.326613 -0.246978 -0.180353 -0.126022 -0.0832661 -0.0511658 -0.0280511 -0.0111475 0.00117682 0.00937391 0.0134729 0.0131615 0.0102663 0.00735278 0.00674635 0.0107522 0.0178476 0.0258206 0.0330844 0.0365675 0.0375687 0.0383074 0.0372164 0.0375461 0.0414273 0.0436295 0.047286 0.0562022 0.0604233 0.0632013 0.0807483 0.0996204 0.104697 0.131076 0.196871 0.248879 0.295806 0.488977 0.87605 1.13474 0.785818 -0.261581 -1.50069 -2.23182 -2.13154 -1.42285 -0.587603 0.010118 0.274053 0.291401 0.181505 -0.00346093 -0.271467 -0.591977 -0.816176 -0.75277 -0.357001 0.186385 0.600567 0.72881 0.610988 0.393417 0.201031 0.0818006 0.0259102 0.005922 0.000708665 -0.000105888 -8.05322e-05 -2.12469e-05 -2.70901e-06 -4.90921e-07 8.24293e-08 0 0 
0 0 6.75033e-08 1.23755e-07 -6.64795e-08 -5.32378e-06 -3.26148e-05 -9.88307e-05 -1.75926e-05 0.00153555 0.00962927 0.0375036 0.108985 0.248786 0.451651 0.643493 0.68256 0.445676 -0.0395672 -0.55377 -0.828656 -0.762728 -0.481458 -0.184027 0.0295055 0.170143 0.256117 0.236326 -0.00114553 -0.542756 -1.31141 -1.98236 -2.11049 -1.47136 -0.335995 0.661461 1.03386 0.83065 0.478071 0.287212 0.234375 0.183409 0.119158 0.0900391 0.0841971 0.0690114 0.0547997 0.0536844 0.0515835 0.0443452 0.0409939 0.0391034 0.0354615 0.0343843 0.0348753 0.0343473 0.0343666 0.0333032 0.0290077 0.0229814 0.0162458 0.0108045 0.00907263 0.0103102 0.0128634 0.014615 0.0138796 0.0110427 0.00666413 0.000996477 -0.0070799 -0.0202457 -0.0414226 -0.0722832 -0.116137 -0.178719 -0.267104 -0.354637 -0.445118 -0.536884 -0.621444 -0.687322 -0.738804 -0.767754 -0.765256 -0.728311 -0.664442 -0.590028 -0.515029 -0.442468 -0.372343 -0.303857 -0.236752 -0.171378 -0.108626 -0.0499528 0.00228185 0.0449684 0.075092 0.0916253 0.0964303 0.0916253 0.075092 0.0449684 0.00228185 -0.0499528 -0.108626 -0.171378 -0.236752 -0.303857 -0.372343 -0.442468 -0.515029 -0.590028 -0.664442 -0.728311 -0.765256 -0.767754 -0.738804 -0.687322 -0.621444 -0.536884 -0.445118 -0.354637 -0.267104 -0.178719 -0.116137 -0.0722833 -0.0414226 -0.0202457 -0.00707989 0.000996516 0.00666417 0.0110426 0.0138794 0.0146148 0.0128631 0.0103097 0.00907203 0.0108038 0.0162449 0.0229805 0.029007 0.0333022 0.0343645 0.0343448 0.0348733 0.0343823 0.0354557 0.039095 0.0409923 0.0443491 0.0515855 0.0536887 0.0548017 0.0689896 0.0840876 0.0896734 0.118232 0.181543 0.231268 0.283034 0.473617 0.827268 1.03276 0.662905 -0.332862 -1.46798 -2.10792 -1.98099 -1.31108 -0.543152 -0.00196484 0.235447 0.255172 0.169553 0.0295231 -0.183026 -0.479033 -0.758901 -0.824474 -0.550922 -0.0392454 0.443608 0.679323 0.640435 0.449507 0.247606 0.108469 0.0373257 0.00958306 0.00152784 -1.77072e-05 -9.84119e-05 -3.24587e-05 -5.48484e-06 -1.32418e-06 3.57326e-09 0 0 
0 0 7.62803e-08 2.03524e-09 -6.46119e-07 -9.37766e-06 -4.6363e-05 -0.000106381 0.000175296 0.00282729 0.0147213 0.0519789 0.139895 0.297168 0.499744 0.648842 0.5977 0.263246 -0.25567 -0.6996 -0.842079 -0.674024 -0.375771 -0.123521 0.036503 0.14263 0.213392 0.19855 -0.00631228 -0.487476 -1.18774 -1.82196 -1.98134 -1.43773 -0.40717 0.542271 0.941187 0.794941 0.475959 0.285434 0.225109 0.17423 0.110459 0.0772015 0.0691234 0.0563128 0.0443112 0.0441427 0.0439978 0.0389003 0.0365661 0.0355904 0.0325083 0.030828 0.0304984 0.0297335 0.0301537 0.0308739 0.029533 0.0261878 0.0208813 0.015174 0.011646 0.010878 0.0122779 0.0139643 0.0144391 0.0136514 0.0122715 0.0107186 0.00843915 0.00290263 -0.0111056 -0.0303144 -0.0590547 -0.101432 -0.159165 -0.225158 -0.298604 -0.378362 -0.460448 -0.539354 -0.611143 -0.66958 -0.708526 -0.725231 -0.722526 -0.707186 -0.685009 -0.658828 -0.629308 -0.596397 -0.560256 -0.521659 -0.48188 -0.442765 -0.406609 -0.376011 -0.353259 -0.339627 -0.335203 -0.339627 -0.353259 -0.376011 -0.406609 -0.442765 -0.48188 -0.521659 -0.560256 -0.596397 -0.629308 -0.658828 -0.685009 -0.707186 -0.722526 -0.725231 -0.708526 -0.66958 -0.611143 -0.539354 -0.460448 -0.378362 -0.298604 -0.225158 -0.159165 -0.101432 -0.0590546 -0.0303144 -0.0111055 0.00290265 0.00843911 0.0107185 0.0122713 0.0136512 0.0144388 0.0139638 0.0122774 0.0108773 0.0116454 0.0151733 0.0208806 0.0261872 0.0295323 0.0308729 0.0301516 0.0297314 0.0304976 0.0308274 0.0325028 0.0355787 0.0365616 0.0389063 0.0440029 0.0441459 0.0443093 0.0562682 0.0689509 0.0766876 0.109268 0.171972 0.221594 0.281067 0.471783 0.792345 0.941104 0.544526 -0.403774 -1.43456 -1.97919 -1.82091 -1.1875 -0.487774 -0.0069239 0.197906 0.212701 0.142218 0.0365201 -0.122796 -0.373866 -0.67067 -0.837875 -0.696069 -0.254304 0.262073 0.594884 0.645765 0.497376 0.295762 0.139235 0.0517335 0.0146512 0.00281345 0.00017422 -0.000105951 -4.6171e-05 -9.72288e-06 -2.71478e-06 -1.76624e-07 0 0 
0 0 6.87495e-08 -2.66637e-07 -1.69427e-06 -1.50993e-05 -6.14025e-05 -9.145e-05 0.000525393 0.00473568 0.0214832 0.069591 0.174208 0.344635 0.535479 0.627311 0.481661 0.0686142 -0.446927 -0.792936 -0.809835 -0.574533 -0.290658 -0.0904994 0.0268508 0.111208 0.175378 0.17102 0.00177929 -0.418121 -1.05053 -1.64978 -1.84318 -1.39796 -0.473871 0.428225 0.856409 0.770342 0.486759 0.296448 0.227662 0.176301 0.112805 0.0746535 0.0625616 0.049718 0.0373749 0.035809 0.0361543 0.032683 0.0314466 0.0315673 0.0292242 0.0270837 0.0259904 0.0248113 0.0251829 0.0267432 0.0273103 0.0262997 0.022986 0.018095 0.0140165 0.0119954 0.0121967 0.0135092 0.0144054 0.0144702 0.0141815 0.0135781 0.0124574 0.00951581 0.0028516 -0.00801338 -0.0251601 -0.050942 -0.086362 -0.130442 -0.183069 -0.244006 -0.311687 -0.383233 -0.454833 -0.521794 -0.579431 -0.624886 -0.658235 -0.681668 -0.697776 -0.707938 -0.712611 -0.711591 -0.704931 -0.693203 -0.677738 -0.660141 -0.64239 -0.626424 -0.614013 -0.606249 -0.603611 -0.606249 -0.614013 -0.626424 -0.64239 -0.660141 -0.677738 -0.693203 -0.704931 -0.711591 -0.712611 -0.707938 -0.697776 -0.681668 -0.658235 -0.624886 -0.579431 -0.521794 -0.454833 -0.383233 -0.311687 -0.244006 -0.183069 -0.130442 -0.086362 -0.050942 -0.0251601 -0.00801335 0.00285159 0.00951573 0.0124572 0.0135778 0.0141811 0.0144697 0.014405 0.0135087 0.0121963 0.011995 0.0140162 0.0180946 0.0229854 0.0262992 0.0273097 0.0267421 0.0251808 0.0248093 0.0259892 0.0270823 0.0292183 0.0315558 0.0314381 0.0326825 0.0361544 0.0358155 0.0373654 0.0496433 0.0623035 0.0739578 0.111308 0.173649 0.223829 0.29205 0.483059 0.768651 0.857286 0.431076 -0.470414 -1.39509 -1.84139 -1.64891 -1.0503 -0.418291 0.00133862 0.170514 0.174874 0.11097 0.0269551 -0.0898958 -0.289156 -0.571682 -0.805827 -0.788986 -0.444647 0.0683792 0.479409 0.624345 0.532944 0.343009 0.173388 0.0692636 0.0213817 0.00471287 0.000522623 -9.11193e-05 -6.1195e-05 -1.57317e-05 -4.84542e-06 -5.13717e-07 0 0 
0 0 2.98221e-08 -7.57695e-07 -3.39548e-06 -2.26272e-05 -7.5249e-05 -3.68043e-05 0.00109763 0.00741858 0.0301311 0.0902848 0.210845 0.388432 0.555355 0.578274 0.340798 -0.125895 -0.604025 -0.837473 -0.747737 -0.479163 -0.228348 -0.0751348 0.0140287 0.0871018 0.149531 0.156798 0.0214702 -0.340141 -0.907293 -1.47328 -1.70188 -1.35664 -0.541638 0.31065 0.7678 0.74448 0.499902 0.312087 0.235838 0.185477 0.124683 0.0834216 0.0674519 0.0533671 0.0386916 0.033154 0.0315738 0.028274 0.0272851 0.0280587 0.0264934 0.0241193 0.0225228 0.0210453 0.0210525 0.0225983 0.0237811 0.0238746 0.0221308 0.0186164 0.0150114 0.0127768 0.0123654 0.0133233 0.0143683 0.0150519 0.015318 0.0151491 0.0144823 0.012819 0.00943844 0.00353099 -0.00601177 -0.0205217 -0.040879 -0.0676122 -0.101385 -0.142765 -0.191614 -0.246922 -0.306374 -0.367004 -0.425345 -0.478876 -0.52629 -0.567744 -0.603906 -0.635099 -0.661128 -0.68149 -0.69578 -0.704257 -0.707795 -0.707753 -0.705497 -0.702427 -0.699609 -0.697669 -0.697001 -0.697669 -0.699609 -0.702427 -0.705497 -0.707753 -0.707795 -0.704257 -0.69578 -0.68149 -0.661128 -0.635099 -0.603906 -0.567744 -0.52629 -0.478876 -0.425345 -0.367004 -0.306374 -0.246922 -0.191614 -0.142765 -0.101385 -0.0676122 -0.040879 -0.0205217 -0.00601172 0.00353103 0.00943844 0.0128189 0.0144819 0.0151486 0.0153175 0.0150517 0.0143682 0.0133232 0.0123652 0.0127766 0.0150112 0.0186159 0.0221298 0.0238737 0.0237798 0.0225959 0.0210493 0.0210422 0.0225195 0.0241155 0.026487 0.0280498 0.0272746 0.0282655 0.0315713 0.0331539 0.0386691 0.0532544 0.0670833 0.0825078 0.122838 0.182434 0.231768 0.307837 0.496821 0.743714 0.769521 0.313887 -0.53827 -1.35409 -1.70036 -1.47254 -0.907054 -0.340246 0.0211057 0.156318 0.149099 0.0869607 0.0142095 -0.0745778 -0.227124 -0.476767 -0.744055 -0.833333 -0.600997 -0.125196 0.339225 0.575542 0.552729 0.386601 0.209854 0.0898614 0.0299894 0.00738325 0.00109214 -3.6768e-05 -7.50696e-05 -2.36754e-05 -7.88306e-06 -1.0747e-06 0 0 
0 0 -6.1364e-08 -1.55985e-06 -5.94256e-06 -3.18352e-05 -8.3744e-05 8.04149e-05 0.00196727 0.0110337 0.0408169 0.113803 0.248423 0.425778 0.556762 0.502945 0.182741 -0.309727 -0.722672 -0.840898 -0.669193 -0.394081 -0.182403 -0.0649226 0.00778632 0.0741636 0.134322 0.149741 0.0430289 -0.265438 -0.770453 -1.30335 -1.56516 -1.31871 -0.614994 0.182587 0.665137 0.705464 0.503838 0.321687 0.239187 0.191224 0.136248 0.0954347 0.077906 0.0638136 0.0472756 0.0372154 0.0321379 0.0272858 0.0252568 0.0257024 0.0246201 0.022395 0.0207159 0.0193531 0.0190583 0.0199978 0.02076 0.0207916 0.0195848 0.0171127 0.014366 0.0125489 0.0122601 0.013122 0.0144337 0.0156325 0.0163265 0.0164357 0.0158489 0.014591 0.0123976 0.00894089 0.00364516 -0.0041932 -0.0151302 -0.0298719 -0.0492519 -0.0741836 -0.105348 -0.142835 -0.185857 -0.232785 -0.281419 -0.329615 -0.375821 -0.419406 -0.460231 -0.498034 -0.532347 -0.562206 -0.586987 -0.606355 -0.620933 -0.631569 -0.63929 -0.644858 -0.648731 -0.651032 -0.651825 -0.651032 -0.648731 -0.644858 -0.63929 -0.631569 -0.620933 -0.606355 -0.586987 -0.562206 -0.532347 -0.498034 -0.460231 -0.419406 -0.375821 -0.329615 -0.281419 -0.232785 -0.185857 -0.142835 -0.105348 -0.0741836 -0.0492519 -0.0298719 -0.0151302 -0.00419317 0.00364521 0.00894091 0.0123975 0.0145907 0.0158483 0.0164352 0.0163264 0.0156327 0.0144337 0.0131215 0.0122593 0.0125481 0.0143649 0.0171112 0.0195828 0.0207894 0.0207568 0.0199938 0.0190538 0.0193489 0.0207121 0.0223893 0.0246128 0.0256941 0.0252485 0.0272776 0.0321315 0.0372082 0.0472329 0.0636446 0.0774112 0.0942786 0.13406 0.187827 0.234969 0.317713 0.501492 0.705618 0.667547 0.186042 -0.611801 -1.31647 -1.56387 -1.30272 -0.770254 -0.265548 0.0426532 0.149227 0.133891 0.0740244 0.00796124 -0.0644206 -0.181383 -0.392083 -0.665893 -0.836764 -0.719096 -0.308149 0.181926 0.500578 0.554134 0.423771 0.247256 0.11327 0.0406258 0.0109816 0.00195769 7.98559e-05 -8.36693e-05 -3.3446e-05 -1.19358e-05 -1.93262e-06 0 0 
0 0 -2.314e-07 -2.76774e-06 -9.50845e-06 -4.21953e-05 -8.0714e-05 0.000288777 0.00321719 0.0157278 0.0536099 0.139683 0.285341 0.454055 0.53808 0.40403 0.0154427 -0.47464 -0.802099 -0.811224 -0.582358 -0.318469 -0.144284 -0.0524655 0.00884439 0.0673426 0.121547 0.140248 0.0568262 -0.20274 -0.647038 -1.14398 -1.43291 -1.2803 -0.68862 0.0477419 0.54896 0.651592 0.496502 0.323278 0.234574 0.188115 0.13996 0.101891 0.0848444 0.07289 0.0570849 0.0445104 0.0365723 0.029722 0.0255759 0.0245827 0.0233662 0.0214493 0.0202238 0.0193732 0.0191205 0.0194645 0.019387 0.0186384 0.0171827 0.015142 0.0129502 0.0115513 0.0114421 0.0125274 0.0143103 0.0160758 0.0172746 0.0175695 0.0169961 0.0156877 0.0137777 0.0111825 0.00782768 0.00342706 -0.00226419 -0.00969362 -0.0195066 -0.0325528 -0.0498353 -0.0720705 -0.0994412 -0.131375 -0.166604 -0.203383 -0.240442 -0.276985 -0.312678 -0.347245 -0.380038 -0.41011 -0.436448 -0.458563 -0.476601 -0.491286 -0.503229 -0.51283 -0.520008 -0.5245 -0.52604 -0.5245 -0.520008 -0.51283 -0.503229 -0.491286 -0.476601 -0.458563 -0.436448 -0.41011 -0.380038 -0.347245 -0.312678 -0.276985 -0.240442 -0.203383 -0.166604 -0.131375 -0.0994412 -0.0720705 -0.0498353 -0.0325528 -0.0195066 -0.00969362 -0.00226419 0.00342707 0.00782768 0.0111824 0.0137774 0.0156871 0.0169954 0.0175692 0.0172749 0.0160762 0.0143099 0.012526 0.0114409 0.0115498 0.0129473 0.0151387 0.0171793 0.0186351 0.0193834 0.019461 0.0191167 0.0193701 0.0202198 0.0214417 0.0233599 0.024578 0.0255678 0.0297163 0.036567 0.0444937 0.0570197 0.0726511 0.0841903 0.100465 0.137412 0.184418 0.230336 0.319744 0.494968 0.652634 0.551921 0.0512698 -0.68569 -1.27838 -1.43187 -1.14351 -0.64693 -0.2029 0.0564396 0.139728 0.121108 0.0671654 0.00896113 -0.0520619 -0.143445 -0.316833 -0.579482 -0.807252 -0.798155 -0.472283 0.015423 0.402142 0.535549 0.451918 0.284002 0.13903 0.0533597 0.015654 0.00320179 0.000287188 -8.08633e-05 -4.45185e-05 -1.6998e-05 -3.15739e-06 0 0 
0 0 -5.11673e-07 -4.47064e-06 -1.42094e-05 -5.26376e-05 -5.77178e-05 0.000622247 0.00493447 0.0216266 0.0684836 0.167273 0.319856 0.470931 0.498663 0.285328 -0.153278 -0.614257 -0.843087 -0.754877 -0.49131 -0.249856 -0.109842 -0.038532 0.0111011 0.0588515 0.104515 0.123861 0.0608115 -0.152298 -0.535874 -0.992046 -1.29905 -1.23212 -0.75159 -0.0840549 0.426234 0.587607 0.482509 0.322523 0.227706 0.180266 0.137451 0.101928 0.0852167 0.0758194 0.062955 0.0507671 0.0420131 0.0340572 0.0277865 0.0246242 0.0226 0.0208632 0.0202338 0.0202011 0.0202725 0.0202478 0.0195493 0.0180548 0.0160054 0.0136141 0.0113659 0.0100026 0.0100164 0.0114319 0.0137438 0.0161878 0.0179779 0.0186671 0.018174 0.0167057 0.0146131 0.0121383 0.00937135 0.0063702 0.00313421 -0.000408997 -0.00465026 -0.0101733 -0.0180082 -0.02914 -0.0442607 -0.0634446 -0.0859937 -0.110713 -0.136456 -0.162656 -0.189076 -0.215611 -0.241812 -0.266625 -0.289082 -0.308478 -0.324886 -0.33876 -0.350676 -0.360655 -0.368467 -0.373448 -0.375217 -0.373448 -0.368467 -0.360655 -0.350676 -0.33876 -0.324886 -0.308478 -0.289082 -0.266625 -0.241812 -0.215611 -0.189076 -0.162656 -0.136456 -0.110713 -0.0859937 -0.0634446 -0.0442607 -0.02914 -0.0180082 -0.0101733 -0.00465025 -0.000408977 0.00313421 0.00637017 0.00937128 0.0121381 0.0146127 0.016705 0.0181734 0.0186672 0.0179785 0.0161878 0.0137424 0.0114302 0.0100145 0.00999907 0.0113616 0.0136119 0.0160046 0.0180526 0.0195473 0.0202455 0.0202704 0.0201994 0.0202302 0.0208573 0.0225948 0.0246206 0.0277821 0.0340542 0.0420091 0.0507424 0.062855 0.0754869 0.0843704 0.100194 0.134542 0.176327 0.223563 0.319525 0.481824 0.589415 0.429571 -0.0806138 -0.749 -1.23057 -1.29828 -0.991761 -0.535867 -0.152498 0.0604443 0.123393 0.104128 0.0586798 0.0111541 -0.0382349 -0.109208 -0.248565 -0.488881 -0.751197 -0.838963 -0.611238 -0.152493 0.284005 0.496319 0.468718 0.318357 0.166492 0.0681645 0.0215256 0.00491113 0.000619039 -5.82612e-05 -5.58021e-05 -2.28885e-05 -4.80301e-06 0 0 
0 0 -9.36496e-07 -6.73789e-06 -2.00624e-05 -6.14166e-05 -3.88574e-06 0.00111955 0.00720645 0.0288248 0.0853051 0.195745 0.350156 0.474456 0.438831 0.151599 -0.3157 -0.723436 -0.847188 -0.677393 -0.399489 -0.188492 -0.0805751 -0.0281559 0.00873047 0.0453178 0.0830542 0.102958 0.0587012 -0.110489 -0.434153 -0.845114 -1.16014 -1.16865 -0.796805 -0.206231 0.300964 0.514985 0.463104 0.322534 0.223786 0.173626 0.13446 0.100723 0.0828327 0.0742763 0.0642891 0.0540072 0.0461443 0.0384877 0.0309515 0.0256648 0.0224824 0.0206365 0.0204144 0.0210429 0.0214545 0.0211664 0.0201358 0.0182537 0.0156423 0.0126976 0.0100234 0.00836789 0.00826046 0.00991148 0.0127493 0.0159071 0.0184289 0.0196301 0.0193171 0.01778 0.015436 0.0126706 0.00986631 0.00717608 0.00482939 0.00291681 0.00144998 1.82324e-05 -0.00216315 -0.00618033 -0.0129708 -0.0229676 -0.035804 -0.0506176 -0.0664441 -0.0828632 -0.0998963 -0.117637 -0.135841 -0.153667 -0.170078 -0.184457 -0.196715 -0.207361 -0.216833 -0.225211 -0.232004 -0.236519 -0.238103 -0.236519 -0.232004 -0.225211 -0.216833 -0.207361 -0.196715 -0.184457 -0.170078 -0.153667 -0.135841 -0.117637 -0.0998963 -0.0828632 -0.0664441 -0.0506176 -0.035804 -0.0229676 -0.0129708 -0.00618033 -0.00216315 1.82398e-05 0.00144999 0.00291682 0.00482938 0.00717605 0.00986622 0.0126704 0.0154355 0.0177794 0.019317 0.0196305 0.0184291 0.0159062 0.0127476 0.00990905 0.00825667 0.00836309 0.0100205 0.0126972 0.0156414 0.0182518 0.0201362 0.0211662 0.0214537 0.0210406 0.020411 0.0206295 0.0224745 0.0256601 0.0309447 0.0384819 0.0461347 0.0539608 0.0641323 0.0738155 0.0817464 0.0986424 0.131179 0.169484 0.219812 0.320138 0.463214 0.517392 0.30443 -0.203074 -0.794677 -1.16753 -1.15969 -0.845019 -0.434261 -0.110717 0.0583625 0.102565 0.0827397 0.0451876 0.00876466 -0.0279438 -0.0801129 -0.187519 -0.397515 -0.674092 -0.843067 -0.719908 -0.314139 0.150911 0.436769 0.472228 0.348517 0.194832 0.0849085 0.0286906 0.00717263 0.00111395 -5.05103e-06 -6.54967e-05 -2.91863e-05 -6.89216e-06 0 0 
0 0 -1.54032e-06 -9.60155e-06 -2.69373e-05 -6.5988e-05 9.41458e-05 0.00182324 0.0101164 0.0373763 0.103828 0.224109 0.374427 0.463174 0.359951 0.00854034 -0.464245 -0.79835 -0.81733 -0.585219 -0.31189 -0.1374 -0.0597944 -0.0246199 0.000864471 0.028835 0.0608389 0.0815324 0.053713 -0.0758227 -0.342394 -0.705066 -1.01795 -1.08975 -0.821806 -0.315719 0.174172 0.431689 0.434769 0.32091 0.222605 0.169562 0.13326 0.101547 0.0818038 0.0721311 0.0635306 0.0548677 0.0482194 0.0416446 0.0339974 0.0274046 0.0231242 0.0210663 0.0208912 0.021697 0.0222683 0.0221525 0.0210785 0.018961 0.015931 0.0124091 0.00910442 0.00688671 0.00644681 0.00806574 0.0112889 0.0151995 0.0185134 0.020358 0.0204789 0.018949 0.0163895 0.0133087 0.0101594 0.00729996 0.00500478 0.00353834 0.00310476 0.00354078 0.0042673 0.00425696 0.00243356 -0.00176673 -0.00821805 -0.0161618 -0.0248064 -0.0338335 -0.0434074 -0.0538869 -0.0651623 -0.0765622 -0.0871961 -0.0963789 -0.104173 -0.110993 -0.117397 -0.123431 -0.128613 -0.132197 -0.133502 -0.132197 -0.128613 -0.123431 -0.117397 -0.110993 -0.104173 -0.0963789 -0.0871961 -0.0765622 -0.0651623 -0.0538869 -0.0434074 -0.0338335 -0.0248064 -0.0161618 -0.00821805 -0.00176673 0.00243356 0.00425697 0.00426733 0.00354081 0.00310479 0.00353833 0.00500478 0.00729995 0.0101592 0.0133084 0.0163889 0.0189486 0.020479 0.0203582 0.0185128 0.0151979 0.0112865 0.00806216 0.00644213 0.00688313 0.00910354 0.0124087 0.0159302 0.0189611 0.0210807 0.0221526 0.0222646 0.0216918 0.0208841 0.0210543 0.023108 0.0273847 0.0339737 0.0416126 0.0481691 0.0547613 0.0632587 0.0714741 0.0804027 0.0990339 0.129556 0.165213 0.218828 0.319073 0.43552 0.434427 0.177498 -0.313054 -0.820257 -1.08911 -1.01782 -0.705185 -0.342609 -0.0760842 0.0533958 0.0811851 0.0605901 0.0287478 0.000905867 -0.0244471 -0.0594564 -0.136701 -0.310369 -0.582382 -0.81337 -0.794477 -0.46198 0.00853581 0.358265 0.461001 0.372676 0.223065 0.103346 0.037203 0.0100692 0.00181428 9.20673e-05 -7.09598e-05 -3.51648e-05 -9.39857e-06 0 0 
0 0 -2.35408e-06 -1.30364e-05 -3.45056e-05 -6.28959e-05 0.00025219 0.00277833 0.0137381 0.0472838 0.123684 0.251245 0.39096 0.43629 0.26455 -0.137316 -0.591929 -0.837252 -0.758866 -0.486531 -0.234429 -0.0994076 -0.0485499 -0.0271186 -0.00972383 0.0127688 0.0405987 0.0613672 0.0465456 -0.0488592 -0.262605 -0.57515 -0.875666 -0.996706 -0.824687 -0.408479 0.0489833 0.337539 0.394399 0.314065 0.221877 0.166699 0.132508 0.103416 0.0825244 0.0709817 0.0625398 0.0547047 0.0486784 0.0430041 0.0360164 0.0292082 0.0244459 0.0223858 0.0219487 0.0224947 0.0231402 0.0232118 0.0222323 0.0200077 0.0167279 0.0126751 0.00869177 0.00573745 0.00471376 0.00612919 0.00959638 0.0140606 0.0181978 0.0208231 0.0214388 0.0201468 0.0174841 0.0141434 0.0106201 0.00738771 0.00480497 0.00316049 0.0028952 0.00392888 0.00589166 0.00782805 0.00862549 0.00766627 0.00491851 0.00105267 -0.00317572 -0.00744151 -0.0120591 -0.0174832 -0.0238068 -0.0304808 -0.0366669 -0.0417663 -0.0458528 -0.0494786 -0.0531607 -0.057045 -0.0606671 -0.0633241 -0.0642889 -0.0633241 -0.0606671 -0.057045 -0.0531607 -0.0494786 -0.0458528 -0.0417663 -0.0366669 -0.0304808 -0.0238068 -0.0174832 -0.0120591 -0.00744151 -0.00317572 0.00105267 0.00491851 0.00766627 0.00862548 0.00782808 0.00589169 0.00392891 0.00289521 0.00316047 0.00480498 0.00738766 0.0106199 0.0141429 0.0174836 0.0201466 0.021439 0.0208227 0.018196 0.0140582 0.00959344 0.0061252 0.00470991 0.00573567 0.00869063 0.0126738 0.0167292 0.0200115 0.0222355 0.0232098 0.0231323 0.0224816 0.0219239 0.0223462 0.024395 0.0291403 0.0359295 0.0428949 0.0485272 0.0544611 0.0620606 0.0700041 0.0806589 0.100348 0.128294 0.162098 0.218253 0.312685 0.395563 0.34032 0.0518936 -0.406477 -0.823761 -0.996527 -0.875838 -0.575433 -0.262895 -0.0491443 0.0462494 0.0610537 0.0403902 0.0127171 -0.00965531 -0.0269536 -0.0482792 -0.0988875 -0.233279 -0.484182 -0.755206 -0.833201 -0.589055 -0.136624 0.263321 0.434247 0.389133 0.250076 0.12311 0.047065 0.0136744 0.00276484 0.000248845 -6.85855e-05 -3.97278e-05 -1.22275e-05 0 0 
0 0 -3.40043e-06 -1.6937e-05 -4.21841e-05 -4.76837e-05 0.0004883 0.00403042 0.01813 0.0584879 0.144383 0.275954 0.398289 0.393842 0.156305 -0.279067 -0.693239 -0.841367 -0.679692 -0.390022 -0.17152 -0.0746528 -0.0448807 -0.0328021 -0.0202727 -0.00124334 0.0228795 0.0425844 0.0372104 -0.0299359 -0.196062 -0.458 -0.736646 -0.891491 -0.804068 -0.479864 -0.0694021 0.234935 0.340719 0.299271 0.219685 0.16402 0.130854 0.104369 0.0833504 0.070222 0.0615428 0.0542136 0.0482908 0.042917 0.0366656 0.0304783 0.0258697 0.0234082 0.0227302 0.0231848 0.0239164 0.0241762 0.0234181 0.0212966 0.0178619 0.0134143 0.00873751 0.00498946 0.00323836 0.00416626 0.00766162 0.0126113 0.0174983 0.0209899 0.0222678 0.0213358 0.0186976 0.0151521 0.0113114 0.00766946 0.00463545 0.00263852 0.00210436 0.00317782 0.00550714 0.00823283 0.01027 0.0108773 0.0100055 0.00825681 0.00635422 0.00468819 0.0028897 0.000452834 -0.00287146 -0.00657145 -0.00990636 -0.0122918 -0.013878 -0.0152139 -0.016971 -0.0192479 -0.0217045 -0.0236118 -0.0243054 -0.0236118 -0.0217045 -0.0192479 -0.016971 -0.0152139 -0.013878 -0.0122918 -0.00990636 -0.00657145 -0.00287146 0.000452834 0.0028897 0.00468819 0.00635422 0.00825681 0.0100055 0.0108773 0.01027 0.00823286 0.00550718 0.00317784 0.00210436 0.00263854 0.00463542 0.00766933 0.0113112 0.0151517 0.0186973 0.0213357 0.0222674 0.0209883 0.0174955 0.0126087 0.00765884 0.00416284 0.00323542 0.0049877 0.00873606 0.0134156 0.0178663 0.0212997 0.0234173 0.0241692 0.0239006 0.0231563 0.0226754 0.0233207 0.0257421 0.0302995 0.0364428 0.0426391 0.0479347 0.0536987 0.0606993 0.0687441 0.0808389 0.100573 0.126018 0.159123 0.216178 0.298258 0.342142 0.237582 -0.0669827 -0.478455 -0.803613 -0.891569 -0.736918 -0.458275 -0.196292 -0.0301351 0.0370055 0.0423632 0.0227627 -0.00122666 -0.0201496 -0.0326077 -0.0446199 -0.0742443 -0.170665 -0.388147 -0.676423 -0.837311 -0.689888 -0.277701 0.155591 0.392004 0.396431 0.274671 0.143715 0.058218 0.0180462 0.004011 0.000483276 -5.3704e-05 -4.1346e-05 -1.5194e-05 0 0 
0 0 -4.68774e-06 -2.10921e-05 -4.90776e-05 -1.48507e-05 0.000822291 0.00562301 0.0233277 0.0708606 0.165333 0.297039 0.395351 0.336811 0.0398028 -0.410187 -0.765039 -0.815035 -0.589087 -0.302922 -0.124575 -0.0607517 -0.0457835 -0.0394113 -0.0297477 -0.0133273 0.00714858 0.0248695 0.0257693 -0.0189096 -0.143434 -0.356057 -0.604905 -0.777814 -0.760636 -0.526344 -0.1753 0.127692 0.273517 0.27373 0.213632 0.160719 0.127912 0.103505 0.0831719 0.0691758 0.0603047 0.0534694 0.0475479 0.0420148 0.0362162 0.030626 0.0262628 0.0237291 0.0229664 0.0235036 0.0244543 0.0250274 0.0245662 0.0226362 0.0191944 0.0144383 0.00918054 0.00464531 0.00205412 0.00239553 0.0056619 0.0108956 0.0164988 0.0208184 0.0228724 0.0224381 0.0199416 0.0162452 0.0121124 0.00808167 0.00463237 0.00222824 0.00133861 0.00218144 0.00451591 0.00749073 0.0100324 0.0113116 0.0112422 0.0104494 0.00962845 0.0091716 0.00870449 0.00773451 0.00595716 0.003834 0.0020857 0.0012013 0.00108196 0.00102729 0.000451299 -0.000857732 -0.00250998 -0.00392253 -0.00447117 -0.00392253 -0.00250998 -0.000857732 0.000451299 0.00102729 0.00108196 0.0012013 0.0020857 0.003834 0.00595716 0.00773451 0.00870449 0.0091716 0.00962845 0.0104494 0.0112422 0.0113116 0.0100324 0.00749074 0.00451592 0.00218146 0.0013386 0.00222824 0.00463234 0.00808157 0.0121122 0.0162449 0.0199414 0.0224378 0.0228712 0.020816 0.016496 0.0108936 0.0056597 0.00239211 0.00205088 0.00464382 0.00918165 0.0144417 0.0191969 0.022636 0.0245631 0.0250158 0.0244255 0.0234477 0.0228639 0.023565 0.0260181 0.0302809 0.0357604 0.0414418 0.0468498 0.0525304 0.0589242 0.067012 0.0798607 0.0989025 0.122467 0.155633 0.210398 0.27322 0.275318 0.130379 -0.173079 -0.525118 -0.760181 -0.777724 -0.604893 -0.355995 -0.143324 -0.0187915 0.0258496 0.0249063 0.00723664 -0.013165 -0.029507 -0.0391372 -0.0454761 -0.0603687 -0.123912 -0.301442 -0.586263 -0.811116 -0.761355 -0.408197 0.0396437 0.335244 0.393509 0.29566 0.164568 0.0705339 0.0232202 0.0055961 0.000815126 -2.05338e-05 -3.80056e-05 -1.79999e-05 0 0 
0 0 -6.20294e-06 -2.51588e-05 -5.39302e-05 4.20998e-05 0.00127493 0.00759432 0.0293381 0.0842026 0.185864 0.313401 0.381603 0.267057 -0.0799472 -0.525361 -0.807018 -0.764964 -0.495985 -0.229655 -0.0922964 -0.0544635 -0.0490836 -0.0462438 -0.0385047 -0.0244348 -0.00749837 0.00772258 0.0122104 -0.0154807 -0.104969 -0.271274 -0.484601 -0.660595 -0.696979 -0.545775 -0.262712 0.0216085 0.194756 0.235568 0.201096 0.155594 0.123665 0.100802 0.0818114 0.0678411 0.0589332 0.0524455 0.0466443 0.041051 0.0354192 0.0301209 0.0258942 0.023364 0.0226513 0.0233259 0.0245963 0.0255697 0.0255165 0.0239467 0.0206103 0.0157423 0.010013 0.00466781 0.00122405 0.000778975 0.00364589 0.00903057 0.0152166 0.0203896 0.0232549 0.0233929 0.0211922 0.0174469 0.0130562 0.00865471 0.00476551 0.00197184 0.000708765 0.00135112 0.00354407 0.00656578 0.00925947 0.0107935 0.0110282 0.0105989 0.0102021 0.0102273 0.0102989 0.00989159 0.00872283 0.00725941 0.00620866 0.00603458 0.00655175 0.00715748 0.00718264 0.00640922 0.0051932 0.00410883 0.00367308 0.00410883 0.0051932 0.00640922 0.00718264 0.00715748 0.00655175 0.00603458 0.00620866 0.00725941 0.00872283 0.00989159 0.0102989 0.0102273 0.0102021 0.0105989 0.0110282 0.0107935 0.00925948 0.00656578 0.00354408 0.00135112 0.000708765 0.00197186 0.00476546 0.00865465 0.0130561 0.0174467 0.021192 0.023392 0.0232527 0.0203867 0.0152146 0.00902926 0.00364318 0.0007746 0.00122156 0.0046691 0.0100155 0.0157434 0.0206098 0.0239455 0.0255105 0.0255491 0.024547 0.0232309 0.0224829 0.0230953 0.0254963 0.0295618 0.0346808 0.0401173 0.045488 0.0509722 0.0569216 0.0649509 0.0777436 0.0955811 0.117981 0.150825 0.198712 0.236138 0.197485 0.0249078 -0.260064 -0.544081 -0.695939 -0.659823 -0.483884 -0.270538 -0.104248 -0.0148216 0.012772 0.00817468 -0.00707715 -0.0240123 -0.038079 -0.0458233 -0.0486866 -0.054054 -0.0917419 -0.22848 -0.49358 -0.761282 -0.80313 -0.522819 -0.0795361 0.265822 0.37983 0.311948 0.185005 0.0838152 0.0292033 0.00755818 0.00126514 3.77783e-05 -2.71819e-05 -2.02126e-05 0 0 
0 0 -7.90371e-06 -2.86412e-05 -5.50984e-05 0.000130493 0.00186681 0.00997401 0.0361352 0.0982526 0.205283 0.324136 0.357084 0.187117 -0.198108 -0.621069 -0.821453 -0.698919 -0.407527 -0.171708 -0.0719187 -0.0530612 -0.0537745 -0.0533314 -0.0470888 -0.0352795 -0.0216587 -0.0091464 -0.00316214 -0.018764 -0.0799689 -0.204596 -0.379371 -0.545471 -0.617651 -0.538072 -0.326242 -0.0759486 0.109013 0.184816 0.179649 0.146931 0.117901 0.0964581 0.0791683 0.0661186 0.0575548 0.0511072 0.0454713 0.0400152 0.0344974 0.0292558 0.0250349 0.0224674 0.0217419 0.0226222 0.0242653 0.0257649 0.0262411 0.0250973 0.0220529 0.0171492 0.0111079 0.00510803 0.000764107 -0.000512565 0.00177747 0.00709817 0.0137342 0.0196985 0.0234285 0.0242139 0.022369 0.018672 0.0140737 0.009311 0.00504676 0.00185515 0.000268752 0.00065561 0.00277166 0.0057802 0.00851244 0.0101231 0.0104524 0.0101448 0.00992443 0.0101158 0.0103446 0.0100732 0.00905758 0.00777713 0.00692199 0.00698164 0.0077313 0.00853934 0.00879266 0.00826146 0.00731134 0.00640283 0.006084 0.00640283 0.00731134 0.00826146 0.00879266 0.00853934 0.0077313 0.00698164 0.00692199 0.00777713 0.00905758 0.0100732 0.0103446 0.0101158 0.00992443 0.0101448 0.0104524 0.0101231 0.00851246 0.0057802 0.00277165 0.000655622 0.000268775 0.00185515 0.00504668 0.0093109 0.0140736 0.0186718 0.0223683 0.0242121 0.0234258 0.0196962 0.013733 0.00709624 0.00177335 -0.000516168 0.000764281 0.00510997 0.0111081 0.0171492 0.0220535 0.025094 0.0262274 0.0257271 0.0241818 0.0224705 0.0214861 0.0220658 0.0244488 0.0284542 0.0334571 0.0387192 0.0438954 0.049159 0.0550467 0.0627688 0.074776 0.0912478 0.112795 0.143424 0.17905 0.187291 0.113392 -0.071385 -0.322575 -0.53544 -0.615699 -0.543845 -0.377886 -0.20319 -0.0786605 -0.01758 -0.00212669 -0.00826679 -0.0208783 -0.0345791 -0.0464535 -0.0527568 -0.0532709 -0.0525953 -0.0713912 -0.170756 -0.405504 -0.695529 -0.817477 -0.61806 -0.197121 0.186268 0.355431 0.322637 0.204336 0.0978009 0.0359692 0.00992671 0.00185388 0.000128983 -5.86063e-06 -2.12497e-05 0 0 
0 0 -9.7117e-06 -3.08813e-05 -5.05633e-05 0.000258182 0.00261703 0.0127801 0.0436586 0.112701 0.222918 0.328599 0.322354 0.0998709 -0.310536 -0.695776 -0.812467 -0.624329 -0.328309 -0.128087 -0.0599542 -0.0541241 -0.0586929 -0.0598225 -0.0547078 -0.045012 -0.0343646 -0.0246003 -0.0187536 -0.026592 -0.0662858 -0.155312 -0.291589 -0.437964 -0.528754 -0.505677 -0.362279 -0.157285 0.0230376 0.123602 0.147458 0.132011 0.109132 0.0899311 0.0746951 0.0632881 0.0551453 0.0490876 0.0439112 0.0387885 0.0334526 0.0282414 0.0238774 0.0211345 0.0203926 0.0214144 0.0234663 0.0255052 0.0266137 0.0260079 0.023345 0.0186094 0.0123927 0.005827 0.000674397 -0.00153789 0.000103818 0.00519229 0.0121501 0.0188171 0.0233553 0.0249215 0.0235311 0.0199528 0.0151541 0.0100516 0.00535939 0.00176488 -0.000127378 0.000113672 0.00215213 0.00517089 0.00790156 0.00954348 0.00988694 0.00968885 0.00957466 0.00987521 0.0101497 0.00985842 0.0088004 0.00744983 0.00658371 0.00663719 0.00739285 0.00819159 0.0084766 0.00805221 0.00721727 0.00644368 0.00611851 0.00644368 0.00721727 0.00805221 0.0084766 0.00819159 0.00739285 0.00663719 0.00658371 0.00744983 0.0088004 0.00985842 0.0101497 0.00987521 0.00957466 0.00968885 0.00988694 0.0095435 0.00790159 0.00517092 0.00215216 0.000113719 -0.000127344 0.00176488 0.00535938 0.0100516 0.0151541 0.0199525 0.0235299 0.0249193 0.0233529 0.0188156 0.0121489 0.00518931 9.96799e-05 -0.00153957 0.000675163 0.00582685 0.0123926 0.0186109 0.0233431 0.0259983 0.0265886 0.0254432 0.0233441 0.0211987 0.0200308 0.0205752 0.0230808 0.0271773 0.0321057 0.037165 0.0420081 0.0468596 0.0524924 0.0600588 0.0707571 0.0857265 0.105665 0.130751 0.149424 0.128511 0.029328 -0.151371 -0.357658 -0.502314 -0.526232 -0.43593 -0.289823 -0.15372 -0.0648325 -0.0252724 -0.0175648 -0.0235338 -0.0334057 -0.0441566 -0.0539437 -0.0591408 -0.0581077 -0.0536195 -0.0594527 -0.127304 -0.326622 -0.621266 -0.808512 -0.692381 -0.308995 0.0994487 0.320875 0.327083 0.221892 0.112184 0.0434583 0.0127197 0.00260049 0.00026142 2.93807e-05 -2.03772e-05 0 0 
0 0 -1.15082e-05 -3.10662e-05 -3.79866e-05 0.000433138 0.00354186 0.0160174 0.0518172 0.12721 0.23816 0.326409 0.278372 0.00820073 -0.414097 -0.749631 -0.784922 -0.547021 -0.259874 -0.0955478 -0.052028 -0.0543352 -0.0609586 -0.062643 -0.0581508 -0.0503054 -0.0422341 -0.0352242 -0.0308338 -0.0346767 -0.0594385 -0.120065 -0.220949 -0.341863 -0.436394 -0.452844 -0.369362 -0.215183 -0.0544605 0.0570945 0.104494 0.108083 0.0946876 0.0797352 0.0674874 0.0580535 0.0511766 0.0460741 0.0417087 0.0372349 0.0322506 0.027109 0.0225802 0.0195802 0.0186877 0.0198133 0.0222182 0.0248318 0.0266077 0.0266246 0.0244671 0.0200145 0.0137727 0.00683429 0.000903925 -0.00220688 -0.00132886 0.00338045 0.010446 0.0177304 0.0231449 0.0254456 0.0246009 0.0212517 0.0163465 0.0108897 0.00572768 0.00172122 -0.000455364 -0.00038952 0.00164282 0.00466286 0.00746603 0.00907222 0.00947983 0.00935274 0.00939413 0.00979362 0.010103 0.00974515 0.00857989 0.00711871 0.00618083 0.00615477 0.00685455 0.00755744 0.00781069 0.00735807 0.00660409 0.00585708 0.00558623 0.00585708 0.00660409 0.00735807 0.00781069 0.00755744 0.00685455 0.00615477 0.00618083 0.00711871 0.00857989 0.00974515 0.010103 0.00979362 0.00939413 0.00935274 0.00947983 0.00907225 0.00746608 0.00466292 0.00164286 -0.000389515 -0.000455395 0.00172123 0.00572772 0.0108898 0.0163465 0.021251 0.0245991 0.0254431 0.023143 0.0177293 0.0104437 0.0033765 -0.00133199 -0.00220769 0.00090358 0.00683421 0.0137741 0.0200139 0.0244607 0.0266086 0.0265675 0.0247444 0.0220498 0.0195129 0.0181979 0.0188432 0.0215558 0.0257769 0.030625 0.0353666 0.0396405 0.0438317 0.0487507 0.0554492 0.0648221 0.0774471 0.093555 0.109442 0.108964 0.0639518 -0.0470216 -0.20882 -0.364728 -0.449696 -0.434222 -0.340268 -0.219679 -0.118985 -0.0584607 -0.0337683 -0.0299667 -0.0343975 -0.0414398 -0.0495386 -0.0574436 -0.061994 -0.0603958 -0.0538573 -0.0515924 -0.0949311 -0.258513 -0.544309 -0.781075 -0.745952 -0.412035 0.00823973 0.277117 0.324914 0.237067 0.126628 0.0515799 0.015942 0.00352132 0.000443585 8.22307e-05 -1.67248e-05 0 0 
0 0 -1.31338e-05 -2.8254e-05 -1.48105e-05 0.000662999 0.00465365 0.0196767 0.0604929 0.141432 0.250486 0.317438 0.226338 -0.0852264 -0.506624 -0.783758 -0.743084 -0.470165 -0.2006 -0.0688559 -0.0428045 -0.0493494 -0.056489 -0.0577656 -0.0534629 -0.0471746 -0.0413298 -0.0369814 -0.0348906 -0.0377297 -0.053402 -0.0933039 -0.164495 -0.258533 -0.34589 -0.385413 -0.34907 -0.244627 -0.11418 -0.00632172 0.054256 0.0745931 0.0723561 0.0652219 0.0574363 0.0506829 0.0456101 0.0418912 0.0387037 0.0351451 0.0307747 0.0258379 0.021214 0.0179484 0.0168277 0.017937 0.0206156 0.0237427 0.0261489 0.0268871 0.0253263 0.0213302 0.0151941 0.00798206 0.00139984 -0.00256638 -0.00251842 0.0016595 0.00875932 0.0165041 0.0226785 0.0258082 0.0255875 0.0225267 0.0175833 0.0117604 0.00609158 0.00164763 -0.000844477 -0.00085042 0.00120694 0.00431528 0.00709127 0.0087049 0.00913377 0.00910846 0.00933504 0.00992373 0.0103721 0.00994786 0.00867496 0.00708015 0.00604812 0.00591373 0.00652568 0.00711543 0.00725379 0.00674875 0.00596056 0.00527072 0.00502932 0.00527072 0.00596056 0.00674875 0.00725379 0.00711543 0.00652568 0.00591373 0.00604812 0.00708015 0.00867496 0.00994786 0.0103721 0.00992373 0.00933504 0.00910846 0.0091338 0.00870492 0.0070913 0.00431535 0.00120697 -0.000850408 -0.000844487 0.00164763 0.00609161 0.0117605 0.0175832 0.0225257 0.0255853 0.025806 0.0226771 0.0165026 0.00875597 0.00165576 -0.00252024 -0.00256746 0.00139892 0.00798286 0.0151946 0.0213271 0.0253184 0.0268633 0.026091 0.0236223 0.0203831 0.0175354 0.0161905 0.0170183 0.0199633 0.0242649 0.0289437 0.033152 0.0366492 0.0398651 0.0436783 0.0489531 0.0561119 0.0647064 0.0733007 0.0778532 0.0599931 0.000949613 -0.107193 -0.239303 -0.345691 -0.383504 -0.344852 -0.257952 -0.164135 -0.0930571 -0.0532019 -0.0375231 -0.0346385 -0.0366867 -0.0409524 -0.0467216 -0.0529845 -0.0572877 -0.0560619 -0.0489877 -0.0424911 -0.0684355 -0.199564 -0.46785 -0.739447 -0.779903 -0.504093 -0.0847151 0.22535 0.316 0.249344 0.140788 0.060217 0.0195845 0.00462883 0.000683659 0.000156456 -9.31845e-06 0 0 
0 0 -1.4393e-05 -2.1416e-05 2.1615e-05 0.000954629 0.00596003 0.0237343 0.0695459 0.155018 0.259461 0.301751 0.167592 -0.177987 -0.5865 -0.799255 -0.689607 -0.394076 -0.14664 -0.0425404 -0.0281778 -0.0368007 -0.0440432 -0.0449227 -0.0410636 -0.0363192 -0.0323676 -0.0302194 -0.0303658 -0.0336877 -0.0444655 -0.0704138 -0.118691 -0.188044 -0.261934 -0.310635 -0.306701 -0.244862 -0.148761 -0.0564263 0.00409106 0.0358204 0.0472463 0.0485076 0.0456125 0.0418289 0.0387814 0.0366936 0.0348594 0.0324549 0.0289136 0.0243858 0.0197997 0.016292 0.01491 0.0159021 0.0187412 0.022297 0.0253103 0.0267379 0.0258746 0.0224341 0.01659 0.00924021 0.00212413 -0.00268218 -0.00352381 6.70971e-05 0.006975 0.0150748 0.0219561 0.0259205 0.0264138 0.0237355 0.0188138 0.0127286 0.00656093 0.00157642 -0.00118695 -0.00129199 0.000832254 0.00399274 0.00678982 0.00835847 0.00881608 0.00888227 0.00929907 0.0101274 0.0106915 0.010328 0.00896397 0.00728999 0.00613189 0.00594948 0.00641184 0.0069125 0.00689342 0.00630777 0.00549882 0.00478178 0.00457029 0.00478178 0.00549882 0.00630777 0.00689342 0.0069125 0.00641184 0.00594948 0.00613189 0.00728999 0.00896397 0.010328 0.0106915 0.0101274 0.00929907 0.00888228 0.0088161 0.00835848 0.00678985 0.00399278 0.000832266 -0.00129198 -0.00118694 0.0015765 0.00656102 0.0127288 0.0188136 0.0237341 0.0264116 0.0259187 0.0219546 0.015072 0.00697084 6.41283e-05 -0.00352525 -0.00268338 0.00212405 0.00924123 0.0165897 0.0224313 0.025863 0.0267022 0.0252303 0.0221327 0.0184342 0.0153887 0.0141192 0.0151718 0.0183325 0.0226185 0.0269578 0.0304537 0.0329756 0.0350546 0.0374975 0.0410247 0.045468 0.0493109 0.0493649 0.0395413 0.00928152 -0.0504185 -0.143628 -0.241599 -0.30522 -0.310283 -0.262105 -0.188391 -0.119071 -0.0708018 -0.0448552 -0.0340628 -0.0306831 -0.0304411 -0.0324256 -0.0362291 -0.0408744 -0.0446856 -0.0438172 -0.0366197 -0.0280425 -0.0423443 -0.145964 -0.392207 -0.686275 -0.795346 -0.583576 -0.17701 0.166908 0.300403 0.258288 0.154316 0.0692305 0.0236238 0.0059308 0.000989024 0.000255696 2.8732e-06 0 0 
0 0 -1.50618e-05 -9.48861e-06 7.38891e-05 0.00131368 0.00746307 0.0281526 0.0788171 0.167627 0.264739 0.279601 0.103646 -0.26766 -0.652107 -0.796578 -0.625597 -0.31782 -0.0950473 -0.0147215 -0.00949225 -0.0208395 -0.0297301 -0.0317813 -0.0295496 -0.0266905 -0.0243114 -0.0234519 -0.0246304 -0.0279382 -0.0353712 -0.0516785 -0.0829106 -0.131463 -0.189545 -0.237387 -0.251697 -0.221086 -0.156088 -0.0840025 -0.028912 0.00641006 0.0249922 0.0323618 0.0336354 0.0325532 0.031344 0.0307584 0.0303055 0.0291602 0.0266465 0.0227505 0.0183501 0.0147533 0.0130692 0.0138201 0.0166654 0.0205074 0.0240867 0.0262426 0.0261487 0.0233397 0.017876 0.0105648 0.00300695 -0.0025621 -0.00427425 -0.00137058 0.00527992 0.0135906 0.0210932 0.0258715 0.0270738 0.0248815 0.0200556 0.0137175 0.00705761 0.00156522 -0.00156999 -0.00176401 0.000454059 0.00371057 0.00653744 0.00806578 0.00848826 0.00866861 0.00929479 0.0103542 0.0110887 0.0107606 0.00940663 0.00764453 0.00644021 0.00614554 0.00655319 0.00689994 0.00675695 0.00604651 0.0051386 0.00440808 0.00413469 0.00440808 0.0051386 0.00604651 0.00675695 0.00689994 0.00655319 0.00614554 0.00644021 0.00764453 0.00940663 0.0107606 0.0110887 0.0103542 0.0092948 0.00866862 0.00848826 0.00806579 0.00653744 0.00371056 0.000454056 -0.00176403 -0.00156999 0.00156528 0.00705779 0.0137177 0.0200551 0.0248799 0.0270718 0.0258699 0.0210911 0.0135865 0.0052757 -0.00137278 -0.00427515 -0.00256244 0.00300831 0.0105658 0.0178757 0.0233356 0.0261295 0.0261935 0.0239814 0.0202914 0.0162744 0.0131857 0.012119 0.0134412 0.0166969 0.0208512 0.0246546 0.0272737 0.0287084 0.0296054 0.0307415 0.03258 0.0344003 0.0339827 0.0275796 0.00994042 -0.0247735 -0.0799342 -0.153097 -0.21979 -0.251738 -0.238081 -0.190386 -0.132215 -0.083547 -0.0522502 -0.0359402 -0.0285049 -0.0251518 -0.023884 -0.0245834 -0.0268171 -0.0295739 -0.031747 -0.0296817 -0.0208272 -0.00953743 -0.0147533 -0.094719 -0.316423 -0.622663 -0.792738 -0.648885 -0.26624 0.103292 0.278384 0.263559 0.166875 0.0784623 0.0280227 0.00742957 0.00136582 0.000383254 2.08845e-05 0 0 
0 0 -1.48989e-05 8.56778e-06 0.000144404 0.00174414 0.0091585 0.0328793 0.0881304 0.178933 0.266093 0.251501 0.0363253 -0.351579 -0.701639 -0.775969 -0.552412 -0.242424 -0.0474948 0.00985632 0.00499697 -0.0117364 -0.0247388 -0.0299129 -0.0304318 -0.029682 -0.02853 -0.0280038 -0.0286398 -0.0303412 -0.0338934 -0.0421496 -0.0600411 -0.09153 -0.133974 -0.174881 -0.195931 -0.184096 -0.141849 -0.0917522 -0.046812 -0.0132695 0.00784786 0.0187105 0.0228863 0.0238334 0.0240389 0.0245791 0.0253336 0.0254029 0.0239821 0.0209109 0.0169234 0.0133072 0.0113287 0.0117615 0.0144478 0.018449 0.0225071 0.0253775 0.0260824 0.0240208 0.0190619 0.0118799 0.00401908 -0.00225035 -0.00480564 -0.0026316 0.00362424 0.0120533 0.0200587 0.0256217 0.0276031 0.0259135 0.0212637 0.0146983 0.00758797 0.00157927 -0.00196224 -0.00227021 3.7421e-05 0.00345686 0.00633107 0.00777981 0.00816939 0.00842272 0.0092756 0.0105246 0.0114581 0.0112232 0.00987595 0.00809141 0.00685685 0.0065341 0.00679427 0.00699472 0.00666655 0.00582349 0.00479273 0.0039794 0.0036707 0.0039794 0.00479273 0.00582349 0.00666655 0.00699472 0.00679427 0.0065341 0.00685685 0.00809141 0.00987595 0.0112232 0.0114581 0.0105246 0.00927561 0.00842273 0.0081694 0.00777981 0.00633108 0.00345685 3.7381e-05 -0.00227022 -0.0019622 0.00157941 0.00758826 0.0146986 0.021263 0.0259118 0.0276012 0.0256197 0.0200554 0.0120484 0.00362056 -0.00263281 -0.0048054 -0.00224964 0.00402002 0.0118807 0.0190617 0.0240134 0.0260563 0.0253143 0.0223661 0.0181717 0.0139676 0.0109998 0.0102189 0.0118296 0.0151281 0.0189356 0.0220353 0.0237089 0.0240921 0.0239368 0.0240542 0.0245262 0.0242589 0.0207419 0.0104733 -0.0102204 -0.0437048 -0.0891083 -0.140239 -0.183866 -0.196612 -0.175871 -0.134893 -0.092236 -0.0605625 -0.0425738 -0.0343021 -0.0307553 -0.0290081 -0.0282673 -0.0286989 -0.0297696 -0.0304706 -0.0299383 -0.0247744 -0.0118266 0.00481916 0.00964622 -0.0474615 -0.241486 -0.549944 -0.772327 -0.698235 -0.349769 0.0363095 0.250443 0.264927 0.178141 0.0877376 0.0327295 0.00912113 0.00181843 0.000541869 4.56928e-05 0 0 
0 0 -1.36578e-05 3.36974e-05 0.00023515 0.00224773 0.0110345 0.0378466 0.0972985 0.188655 0.263472 0.218319 -0.03213 -0.426933 -0.733789 -0.739123 -0.474156 -0.173155 -0.0106238 0.0226794 0.00622225 -0.0171447 -0.0345528 -0.0427603 -0.0455667 -0.046371 -0.0461277 -0.0456885 -0.0453807 -0.0448607 -0.0441793 -0.0451565 -0.0521233 -0.0697071 -0.0981319 -0.129411 -0.149672 -0.146501 -0.123419 -0.0898204 -0.0549215 -0.0253394 -0.00426418 0.00823714 0.0141672 0.0163636 0.0174016 0.0186914 0.0202769 0.0213712 0.0210396 0.018921 0.0154713 0.0119749 0.00976675 0.00978509 0.0121477 0.0161801 0.0206143 0.0241928 0.0257763 0.0245556 0.0201645 0.0131569 0.00510586 -0.00174946 -0.00510711 -0.00370645 0.00210184 0.0104777 0.0189036 0.0251782 0.0279177 0.0268661 0.0224129 0.0157096 0.00814454 0.00160369 -0.00231174 -0.00281394 -0.000450371 0.00310321 0.00606625 0.00751824 0.0078678 0.00816844 0.00915357 0.0105972 0.0116703 0.0115627 0.010279 0.00857841 0.0073823 0.00702564 0.00716286 0.00718171 0.00663275 0.00556978 0.00435503 0.00341562 0.00308621 0.00341562 0.00435503 0.00556978 0.00663275 0.00718171 0.00716286 0.00702564 0.0073823 0.00857841 0.010279 0.0115627 0.0116703 0.0105972 0.00915355 0.00816843 0.00786779 0.00751822 0.00606622 0.0031032 -0.000450373 -0.00281396 -0.00231171 0.00160387 0.00814497 0.0157099 0.0224121 0.0268644 0.0279156 0.0251754 0.0188994 0.010473 0.00209933 -0.00370608 -0.00510611 -0.00174871 0.00510682 0.013159 0.0201639 0.0245436 0.0257412 0.0241064 0.0204303 0.0158437 0.0115791 0.00889902 0.00851289 0.0103474 0.0135608 0.0169246 0.0191951 0.0199242 0.0194285 0.0185451 0.0179527 0.017545 0.0158942 0.0103872 -0.00183478 -0.0228351 -0.0526473 -0.0881021 -0.12253 -0.146498 -0.150314 -0.13021 -0.0987938 -0.0701565 -0.0523767 -0.0452931 -0.0442656 -0.0449262 -0.0454038 -0.0456003 -0.04601 -0.0462438 -0.0454531 -0.0426838 -0.0345476 -0.0172442 0.00600383 0.0223794 -0.010807 -0.172616 -0.472173 -0.735781 -0.730322 -0.424801 -0.0318156 0.217443 0.262344 0.187834 0.0968713 0.0376769 0.010994 0.00234889 0.000733442 7.81454e-05 0 0 
0 0 -1.11053e-05 6.66538e-05 0.000347466 0.00282324 0.0130709 0.0429737 0.10614 0.196599 0.25709 0.181333 -0.0992446 -0.491463 -0.749076 -0.690716 -0.398226 -0.117559 0.00935464 0.0197985 -0.00615103 -0.0330794 -0.0515132 -0.0600864 -0.0632028 -0.0644018 -0.0648838 -0.0651503 -0.0650672 -0.0637337 -0.0604961 -0.0564323 -0.0555181 -0.0628091 -0.0800708 -0.101734 -0.117871 -0.119842 -0.10752 -0.0849399 -0.0580452 -0.0325806 -0.012516 0.000626075 0.0075234 0.0104694 0.011858 0.013394 0.0154547 0.0173409 0.0180011 0.0168478 0.0140925 0.0107839 0.00833535 0.00789661 0.00982867 0.0137168 0.0184606 0.0227371 0.0252571 0.0249111 0.021174 0.0144648 0.00625688 -0.00110249 -0.00516803 -0.00448365 0.000800291 0.00900362 0.0176639 0.0245708 0.0280278 0.0276271 0.0235301 0.0167143 0.00879183 0.00172338 -0.0025872 -0.00328831 -0.00093888 0.002711 0.00575325 0.00722218 0.00757518 0.00788342 0.00899432 0.0105891 0.0118 0.0118068 0.0106722 0.00909749 0.0080066 0.0076297 0.00766516 0.00746512 0.00664487 0.00531199 0.00384005 0.0027588 0.00234197 0.0027588 0.00384005 0.00531199 0.00664487 0.00746512 0.00766516 0.0076297 0.0080066 0.00909749 0.0106722 0.0118068 0.0118 0.0105891 0.00899432 0.00788341 0.00757518 0.00722219 0.00575323 0.00271097 -0.00093892 -0.00328834 -0.00258713 0.00172364 0.00879229 0.0167144 0.0235294 0.0276253 0.0280252 0.024567 0.0176593 0.00899987 0.000799352 -0.00448261 -0.00516723 -0.00110153 0.00625978 0.0144679 0.0211699 0.0248909 0.0252076 0.0226257 0.0182401 0.0133222 0.00916935 0.00689364 0.0069413 0.00902326 0.0121122 0.0148721 0.0163042 0.0161883 0.0150103 0.0136964 0.012831 0.0119725 0.00939942 0.00270898 -0.0103885 -0.0305875 -0.0563822 -0.0837875 -0.10697 -0.119847 -0.118244 -0.102211 -0.0804294 -0.0629789 -0.0555029 -0.056274 -0.060274 -0.0634946 -0.0648103 -0.0648197 -0.0645343 -0.0640545 -0.0628904 -0.0598452 -0.0513766 -0.0330793 -0.00630917 0.0195026 0.00907557 -0.117319 -0.396699 -0.687731 -0.745658 -0.489099 -0.0986301 0.180647 0.256017 0.195759 0.105682 0.0427849 0.0130282 0.00295611 0.000958684 0.000118865 0 0 
0 0 -7.04729e-06 0.000107874 0.00048172 0.00346584 0.0152392 0.0481739 0.114503 0.202713 0.247454 0.142091 -0.162859 -0.544448 -0.75071 -0.63795 -0.332453 -0.0799991 0.0132686 0.0068993 -0.022483 -0.0474002 -0.0626636 -0.0691456 -0.0711961 -0.0721425 -0.073275 -0.0748232 -0.0761738 -0.0758871 -0.072679 -0.0669681 -0.0622243 -0.0636513 -0.0739623 -0.0874808 -0.0987361 -0.102233 -0.0957822 -0.0803224 -0.0593107 -0.0373084 -0.0183623 -0.00494617 0.00261655 0.00599901 0.00746078 0.00890172 0.0110724 0.0134732 0.0149795 0.0147714 0.0127629 0.00975072 0.00711519 0.0061303 0.00755966 0.0111934 0.0161608 0.021083 0.0245125 0.0250653 0.022044 0.0156713 0.00740512 -0.000306769 -0.00496488 -0.00493742 -0.00022416 0.00768052 0.016454 0.0237551 0.0279418 0.0281783 0.0244869 0.0177188 0.00947157 0.00195165 -0.00277902 -0.00372451 -0.00138279 0.00231772 0.00543602 0.00692885 0.00729407 0.00767534 0.00880053 0.0105044 0.0117807 0.0119658 0.0110188 0.00970689 0.00874035 0.00838613 0.00822928 0.00774849 0.0065789 0.00493902 0.00323202 0.0019808 0.00151224 0.0019808 0.00323202 0.00493902 0.0065789 0.00774849 0.00822928 0.00838613 0.00874035 0.00970689 0.0110188 0.0119658 0.0117807 0.0105044 0.00880051 0.00767533 0.00729406 0.00692885 0.00543601 0.00231771 -0.00138281 -0.00372453 -0.00277893 0.00195196 0.00947214 0.0177191 0.024486 0.0281762 0.0279385 0.0237507 0.0164499 0.00767832 -0.000224024 -0.00493649 -0.00496374 -0.000304451 0.00740871 0.0156715 0.0220325 0.0250371 0.0244518 0.0209509 0.0159057 0.0107399 0.00680813 0.00500642 0.00559082 0.00789182 0.0107456 0.0128519 0.0134722 0.012627 0.0110049 0.00958739 0.00874815 0.00768391 0.00450126 -0.00304002 -0.0165663 -0.0357397 -0.0580813 -0.0795056 -0.0953814 -0.102179 -0.0988793 -0.0876679 -0.0740572 -0.0635897 -0.0620175 -0.0666391 -0.0722894 -0.0755058 -0.0758207 -0.074446 -0.0728769 -0.0717099 -0.0707665 -0.0687777 -0.0624063 -0.0472813 -0.0225291 0.00667368 0.0129788 -0.0799382 -0.331286 -0.63533 -0.747413 -0.541931 -0.161985 0.141595 0.246451 0.201868 0.114019 0.0479671 0.0151956 0.00363518 0.00121672 0.000168124 0 0 
0 0 -1.36365e-06 0.000157338 0.000637026 0.00416697 0.0175051 0.0533657 0.122299 0.207119 0.235297 0.102059 -0.221791 -0.587215 -0.74391 -0.587847 -0.280743 -0.0579628 0.00913337 -0.00568488 -0.0330117 -0.0528662 -0.0638805 -0.0684526 -0.0699804 -0.0710012 -0.0727278 -0.0752656 -0.0778336 -0.0787764 -0.0766061 -0.0713948 -0.0660267 -0.0651424 -0.0699063 -0.0781765 -0.0863433 -0.0903375 -0.0873868 -0.0767773 -0.0601233 -0.0408788 -0.0229172 -0.00929837 -0.00109575 0.00265525 0.00407578 0.00522177 0.00723619 0.00987035 0.0120556 0.0127556 0.0115114 0.00887292 0.00609578 0.00463561 0.00544921 0.00872908 0.0138016 0.0192939 0.0235584 0.0250377 0.0227184 0.0166808 0.00848205 0.000557449 -0.00452189 -0.00504742 -0.000905702 0.00658697 0.0152357 0.0228286 0.027562 0.028453 0.0252249 0.0185954 0.0102012 0.00229872 -0.00280735 -0.00400689 -0.00180672 0.00187231 0.00500438 0.00663006 0.00712458 0.00757166 0.00870834 0.0103552 0.0116772 0.0119805 0.0113603 0.0103839 0.00965211 0.00932213 0.00895948 0.0080914 0.00652231 0.00451498 0.00255346 0.00113954 0.00063252 0.00113954 0.00255346 0.00451498 0.00652231 0.0080914 0.00895948 0.00932213 0.00965211 0.0103839 0.0113603 0.0119805 0.0116772 0.0103552 0.00870835 0.00757163 0.00712455 0.00663005 0.00500439 0.00187234 -0.00180675 -0.00400691 -0.00280722 0.00229911 0.0102018 0.0185957 0.0252238 0.0284503 0.0275581 0.0228244 0.0152326 0.00658564 -0.000905348 -0.00504617 -0.00452025 0.00055918 0.00848277 0.0166764 0.0227027 0.025005 0.0234883 0.0191427 0.0135114 0.00821089 0.00460393 0.00340121 0.00446557 0.00693635 0.00947392 0.0109277 0.0107562 0.00932575 0.007516 0.00621734 0.00558354 0.00441782 0.000706095 -0.00760515 -0.0214345 -0.0396567 -0.0592004 -0.0761623 -0.087051 -0.0902116 -0.0863228 -0.0781693 -0.0698398 -0.0649581 -0.0657222 -0.0709957 -0.076193 -0.0784009 -0.0775119 -0.0749354 -0.0723641 -0.070578 -0.0695384 -0.0680432 -0.0635481 -0.0526591 -0.0329555 -0.00580228 0.00888761 -0.0579959 -0.279847 -0.585544 -0.74077 -0.584611 -0.220702 0.101745 0.234369 0.206275 0.121793 0.0531431 0.0174623 0.00437721 0.00150483 0.000225724 0 0 
0 0 5.95485e-06 0.00021447 0.000811118 0.00491503 0.019833 0.0584873 0.129512 0.210072 0.221384 0.062225 -0.276181 -0.622658 -0.733899 -0.544232 -0.241394 -0.0441514 0.00575786 -0.0117739 -0.0360363 -0.0520705 -0.0607308 -0.0651495 -0.0673732 -0.0690232 -0.0711512 -0.0739719 -0.076652 -0.0776121 -0.0755976 -0.0708537 -0.0658317 -0.0636075 -0.0653981 -0.0705858 -0.0769248 -0.0812799 -0.0808103 -0.073872 -0.0607302 -0.0438685 -0.0268408 -0.0129795 -0.00414504 3.72441e-05 0.00144643 0.00225063 0.00394327 0.00660531 0.00929902 0.0107981 0.0103953 0.00825078 0.00543909 0.00352468 0.00369099 0.00650473 0.011514 0.0174232 0.0224205 0.0247021 0.0230524 0.0174523 0.00942967 0.00148389 -0.00381568 -0.00473654 -0.00112514 0.00582898 0.0141549 0.0217387 0.0268418 0.0282667 0.0255776 0.0192324 0.0108791 0.00284841 -0.00253149 -0.00405626 -0.00211925 0.0013954 0.00451808 0.00629825 0.00699204 0.00760359 0.00873687 0.0102684 0.0114803 0.0118853 0.0116163 0.0110959 0.0106993 0.0103936 0.00975168 0.00846065 0.00640718 0.0040427 0.00177141 0.000245235 -0.000341515 0.000245235 0.00177141 0.0040427 0.00640718 0.00846065 0.00975168 0.0103936 0.0106993 0.0110959 0.0116163 0.0118853 0.0114803 0.0102684 0.00873687 0.00760358 0.00699203 0.00629826 0.00451807 0.00139539 -0.00211929 -0.00405627 -0.00253138 0.0028489 0.0108798 0.0192326 0.0255764 0.0282636 0.0268377 0.0217349 0.0141524 0.00582826 -0.0011243 -0.00473525 -0.00381589 0.0014831 0.00942848 0.017446 0.0230344 0.0246658 0.0223413 0.0172529 0.0111852 0.00592333 0.00276569 0.00219656 0.00371291 0.00624524 0.00836811 0.00908395 0.00820521 0.00634459 0.00451976 0.00350556 0.00311483 0.00182291 -0.0024476 -0.0115065 -0.0256258 -0.042919 -0.060032 -0.0733942 -0.0805141 -0.0810994 -0.076801 -0.0704582 -0.0652265 -0.0633633 -0.0655007 -0.0704554 -0.0752042 -0.0772674 -0.0763537 -0.0736611 -0.070812 -0.0686186 -0.0669409 -0.0647344 -0.0603718 -0.0518065 -0.0359089 -0.0118147 0.00557375 -0.0442172 -0.240688 -0.542191 -0.730921 -0.620012 -0.274918 0.0620727 0.220535 0.209237 0.12899 0.0582505 0.0197928 0.00516997 0.00181847 0.000290914 0 0 
0 0 1.47848e-05 0.000278148 0.00100057 0.00569699 0.0221918 0.0635036 0.136196 0.211879 0.206298 0.0228621 -0.327239 -0.653962 -0.723888 -0.506678 -0.208938 -0.0311967 0.00787265 -0.0110131 -0.0344581 -0.0494503 -0.0577116 -0.0629772 -0.0664466 -0.0689882 -0.0715038 -0.0742031 -0.0763074 -0.0763894 -0.0735217 -0.0684797 -0.0634059 -0.0601756 -0.0601012 -0.063288 -0.0684585 -0.0731946 -0.074699 -0.0707861 -0.0607786 -0.0461947 -0.0301888 -0.0162448 -0.00678306 -0.00209048 -0.000621732 -0.000131085 0.00117778 0.00372385 0.0067522 0.00899207 0.00941712 0.00787841 0.00521086 0.00290309 0.00246454 0.00466817 0.00941993 0.0155347 0.0210535 0.0239948 0.0229441 0.0178059 0.010087 0.00238793 -0.00285006 -0.00398065 -0.000856397 0.00546731 0.0132242 0.020561 0.0257662 0.0276218 0.0254619 0.0195966 0.0115334 0.00359457 -0.00189668 -0.00371195 -0.00225311 0.000904525 0.00390195 0.00585557 0.00688513 0.00776046 0.00890567 0.0102264 0.0112592 0.011775 0.0118565 0.0118603 0.011818 0.0115311 0.0105883 0.00877334 0.00622811 0.00348575 0.00102303 -0.000611846 -0.00119469 -0.000611846 0.00102303 0.00348575 0.00622811 0.00877334 0.0105883 0.0115311 0.011818 0.0118603 0.0118565 0.011775 0.0112592 0.0102264 0.00890567 0.00776045 0.00688512 0.00585556 0.00390193 0.000904503 -0.00225323 -0.00371197 -0.00189649 0.00359521 0.0115342 0.0195968 0.0254603 0.0276185 0.0257623 0.0205574 0.0132219 0.00546689 -0.000855891 -0.00398176 -0.00285247 0.00238719 0.0100856 0.0177969 0.0229252 0.0239575 0.0209635 0.0153433 0.00905844 0.0040337 0.00146576 0.00148844 0.00340119 0.00583009 0.00741233 0.00737982 0.00585582 0.00371043 0.00201145 0.00133895 0.00115865 -0.000301196 -0.00520709 -0.0149646 -0.0292044 -0.0454616 -0.0602413 -0.070404 -0.0744151 -0.0729823 -0.0682676 -0.0630856 -0.0598653 -0.0598915 -0.0630794 -0.0681309 -0.073169 -0.0760663 -0.0760065 -0.0738756 -0.0711346 -0.0685921 -0.0660233 -0.0625776 -0.0573629 -0.049169 -0.0342916 -0.0110102 0.00773291 -0.0312665 -0.20835 -0.50485 -0.72106 -0.651301 -0.325834 0.0228534 0.205526 0.211059 0.135661 0.0632551 0.0221557 0.00599966 0.00215184 0.000362438 0 0 
0 0 2.48814e-05 0.000346869 0.00120131 0.00650042 0.0245579 0.0684039 0.14243 0.21279 0.190298 -0.0163546 -0.376486 -0.683216 -0.714085 -0.471416 -0.176898 -0.0139275 0.0170752 -0.00396119 -0.0286953 -0.044335 -0.0529843 -0.0592278 -0.0641159 -0.0679742 -0.0712762 -0.0740972 -0.075682 -0.0747806 -0.0709291 -0.0657883 -0.0603455 -0.0561232 -0.054496 -0.0560408 -0.0602156 -0.0651341 -0.0681834 -0.0668928 -0.0597892 -0.0475368 -0.0328133 -0.019084 -0.00916952 -0.00396252 -0.00230472 -0.00201615 -0.00111665 0.00122589 0.00449899 0.00737965 0.00865836 0.00779457 0.00545836 0.00294311 0.00186738 0.0033694 0.0076369 0.0136213 0.0194039 0.0227844 0.0222123 0.017609 0.0104093 0.00317264 -0.00168252 -0.00272806 2.59179e-05 0.0056341 0.0125741 0.0193299 0.0243571 0.0264283 0.024809 0.0195967 0.0121412 0.00459101 -0.000838254 -0.00296896 -0.00208701 0.000498592 0.00321637 0.00531409 0.00674928 0.00793878 0.00912887 0.0101896 0.0110232 0.0116014 0.0120841 0.0126603 0.0130073 0.0127346 0.0114169 0.00906082 0.00598909 0.00290025 0.000295209 -0.00135354 -0.00195789 -0.00135354 0.000295209 0.00290025 0.00598909 0.00906082 0.0114169 0.0127346 0.0130073 0.0126603 0.0120841 0.0116014 0.0110232 0.0101896 0.00912887 0.00793876 0.00674927 0.0053141 0.00321636 0.000498574 -0.00208706 -0.00296902 -0.000838001 0.00459174 0.0121421 0.0195968 0.0248073 0.0264251 0.0243535 0.0193266 0.0125716 0.00563307 2.47825e-05 -0.00273064 -0.00168479 0.00317152 0.0104059 0.0175998 0.0221964 0.0227435 0.0193011 0.0134132 0.00724405 0.00268621 0.000809242 0.00145329 0.00358058 0.00570909 0.00666909 0.00586548 0.00376424 0.00142556 -5.48861e-05 -0.0003748 -0.000425774 -0.00217825 -0.00768765 -0.0179593 -0.0320089 -0.0469772 -0.0593908 -0.066581 -0.0679238 -0.0648991 -0.0599805 -0.0557963 -0.0542183 -0.0558333 -0.0600179 -0.0654718 -0.0706119 -0.0744898 -0.0753844 -0.0737517 -0.070899 -0.0675622 -0.0637101 -0.0588468 -0.0526626 -0.044068 -0.028526 -0.00393782 0.0169536 -0.0140034 -0.176409 -0.469765 -0.711392 -0.680546 -0.374964 -0.016233 0.1896 0.211986 0.141886 0.0681456 0.0245274 0.00685287 0.00249876 0.000438714 0 0 
0 0 3.59299e-05 0.000419029 0.00140936 0.0073149 0.0269148 0.0731868 0.148271 0.212915 0.173361 -0.0559239 -0.424824 -0.710518 -0.702018 -0.433201 -0.139817 0.0104928 0.0337334 0.00975237 -0.0168756 -0.0335514 -0.042695 -0.0497796 -0.0563064 -0.0621754 -0.0671908 -0.0709647 -0.0726367 -0.0712703 -0.067998 -0.0631022 -0.0574135 -0.0523111 -0.0492572 -0.0492104 -0.0522212 -0.0569338 -0.0610505 -0.0618948 -0.0574606 -0.0476213 -0.034463 -0.0213139 -0.0112209 -0.00559763 -0.00371982 -0.00352253 -0.0029586 -0.000859058 0.00253866 0.00596006 0.00807467 0.00807015 0.00617739 0.00363432 0.00200467 0.00267602 0.0061959 0.0116836 0.0173506 0.0209089 0.0207075 0.0166594 0.0102437 0.0038284 -0.000293703 -0.00103477 0.00153247 0.00639168 0.0123359 0.0181168 0.0226397 0.0246651 0.0234853 0.0190759 0.0125663 0.00578678 0.000679008 -0.00173447 -0.00157285 0.000224924 0.00252882 0.00471896 0.00656248 0.00814385 0.00938952 0.0102783 0.0108499 0.0114767 0.0123382 0.0133801 0.0140417 0.0137313 0.0120514 0.00917218 0.00571382 0.00237438 -0.000226104 -0.00186349 -0.00239053 -0.00186349 -0.000226104 0.00237438 0.00571382 0.00917218 0.0120514 0.0137313 0.0140417 0.0133801 0.0123382 0.0114767 0.0108499 0.0102783 0.00938952 0.00814383 0.00656246 0.00471895 0.0025288 0.000224896 -0.00157286 -0.00173447 0.000679331 0.00578758 0.0125673 0.0190758 0.0234836 0.024662 0.0226363 0.0181134 0.0123327 0.00638958 0.00153054 -0.00103735 -0.000296461 0.00382631 0.0102402 0.0166527 0.0206923 0.0208602 0.0172361 0.0114622 0.0057792 0.00195911 0.000895286 0.00207864 0.0042401 0.00594866 0.00610256 0.00452422 0.00195239 -0.00045847 -0.0017045 -0.00172026 -0.0017489 -0.00381001 -0.00980886 -0.0203243 -0.0338148 -0.0472088 -0.0571728 -0.0616698 -0.0608347 -0.0567108 -0.0519817 -0.0489595 -0.0489762 -0.052023 -0.0571156 -0.0628068 -0.0677109 -0.0709909 -0.0723563 -0.0706445 -0.0668365 -0.0617962 -0.0559402 -0.049447 -0.0424139 -0.0333261 -0.0167298 0.00976758 0.0336026 0.0103799 -0.139425 -0.431706 -0.699449 -0.70785 -0.4232 -0.0556846 0.172731 0.212128 0.14772 0.0729205 0.0268912 0.00771835 0.00285357 0.000518118 0 0 
0 0 4.76233e-05 0.000493217 0.00162137 0.00813202 0.0292488 0.0778402 0.153717 0.21224 0.155391 -0.0959642 -0.471881 -0.734075 -0.684102 -0.387994 -0.0956335 0.0409338 0.0547037 0.0269073 -0.00142338 -0.0188121 -0.0280777 -0.0353984 -0.0431733 -0.0512812 -0.0587687 -0.0644147 -0.0670437 -0.0671135 -0.0648667 -0.0605995 -0.0549734 -0.0492641 -0.0449624 -0.0433311 -0.0449117 -0.048976 -0.0535532 -0.0559231 -0.0537722 -0.0462765 -0.0349093 -0.0227226 -0.0128432 -0.0070124 -0.00495416 -0.00481592 -0.00449137 -0.00261552 0.000808887 0.00472553 0.00763883 0.00852857 0.00732626 0.00489318 0.00283876 0.00268414 0.00516919 0.00978351 0.0148786 0.0182698 0.0183112 0.0148989 0.00945474 0.00428809 0.00127789 0.0012134 0.00372708 0.00780475 0.0125411 0.0170264 0.0205797 0.0222878 0.0214276 0.0179446 0.0126646 0.00704715 0.00254304 -4.40937e-05 -0.000680991 0.000154624 0.00183 0.00401358 0.00624729 0.00825487 0.0096571 0.0104142 0.0108773 0.01152 0.01263 0.01395 0.014783 0.0143283 0.0123207 0.00909853 0.00538301 0.00197068 -0.000583595 -0.00212186 -0.00258404 -0.00212186 -0.000583595 0.00197068 0.00538301 0.00909853 0.0123207 0.0143283 0.014783 0.01395 0.01263 0.01152 0.0108773 0.0104142 0.0096571 0.00825487 0.00624729 0.00401356 0.00182995 0.00015458 -0.000680998 -4.40094e-05 0.00254351 0.007048 0.0126655 0.0179445 0.0214262 0.0222853 0.0205764 0.0170221 0.0125366 0.00780195 0.00372512 0.00120989 0.00127434 0.00428653 0.00945254 0.0148941 0.0182923 0.0182115 0.0147616 0.00955955 0.00473569 0.00193789 0.00168786 0.00328903 0.00533597 0.00637219 0.0056729 0.00335179 0.000337882 -0.00206752 -0.00308056 -0.00287412 -0.00290159 -0.00520734 -0.0114777 -0.0218222 -0.0343727 -0.0459757 -0.0535806 -0.0557741 -0.0533943 -0.0487959 -0.0447008 -0.0430906 -0.0447071 -0.048998 -0.0547145 -0.0603415 -0.0646211 -0.0668648 -0.0667813 -0.0641301 -0.0584649 -0.0509555 -0.0428586 -0.0351215 -0.0278391 -0.0186173 -0.00131934 0.0268815 0.0545416 0.0407667 -0.0953519 -0.386659 -0.681663 -0.73142 -0.470165 -0.0956138 0.15483 0.211472 0.153162 0.0775672 0.0292327 0.008587 0.00321166 0.000599244 0 0 
0 0 5.97294e-05 0.000568362 0.00183471 0.00894411 0.0315411 0.0823278 0.158714 0.210725 0.136517 -0.135832 -0.516096 -0.751551 -0.658478 -0.336331 -0.0484803 0.0700555 0.0706968 0.037372 0.0074511 -0.0100201 -0.0185806 -0.0247729 -0.0321756 -0.0412031 -0.0505133 -0.0578765 -0.0619611 -0.0632321 -0.0620046 -0.0584925 -0.0532389 -0.0472524 -0.0419779 -0.0388647 -0.0388305 -0.0417795 -0.0461446 -0.0493457 -0.0489137 -0.0435374 -0.0340569 -0.0231976 -0.0139766 -0.00830046 -0.00618901 -0.00602995 -0.00582514 -0.00413141 -0.000724479 0.00353102 0.00719687 0.00905527 0.00866938 0.00662703 0.00430624 0.00330016 0.00462145 0.00797361 0.0120255 0.0148574 0.0149328 0.0122628 0.0081349 0.00455847 0.00303527 0.00391867 0.00659568 0.00994116 0.0132777 0.0161688 0.0183078 0.0192808 0.0185673 0.0161042 0.0123423 0.00825677 0.00465675 0.00210757 0.000682104 0.000454505 0.00134183 0.00324513 0.00575716 0.00811938 0.00981201 0.0106329 0.0110692 0.0117256 0.0129042 0.0142666 0.0150136 0.0143565 0.0120966 0.00870335 0.00493187 0.00163918 -0.000736016 -0.00214842 -0.00257836 -0.00214842 -0.000736016 0.00163918 0.00493187 0.00870335 0.0120966 0.0143565 0.0150136 0.0142666 0.0129042 0.0117256 0.0110692 0.0106329 0.00981201 0.00811938 0.00575716 0.00324511 0.00134178 0.000454448 0.000682113 0.00210769 0.00465714 0.0082575 0.0123431 0.0161042 0.0185665 0.0192787 0.018304 0.0161632 0.0132724 0.00993828 0.00659314 0.00391458 0.00303233 0.00455838 0.00813476 0.0122563 0.0149066 0.0148011 0.0119162 0.00774324 0.00417536 0.00253477 0.0031239 0.0049766 0.00662637 0.00686466 0.00522277 0.00218166 -0.00112023 -0.00347091 -0.00427069 -0.0039428 -0.00403656 -0.00644389 -0.012617 -0.0223376 -0.033593 -0.0433165 -0.0488108 -0.0492725 -0.0460413 -0.0416395 -0.038649 -0.0386408 -0.0417415 -0.0470124 -0.0530022 -0.0582765 -0.0617995 -0.0630325 -0.0617343 -0.0576253 -0.0502429 -0.0409294 -0.0319053 -0.0245221 -0.0183624 -0.00984731 0.00754446 0.037337 0.070523 0.0698571 -0.0483067 -0.335172 -0.656184 -0.74893 -0.514304 -0.135379 0.136021 0.209978 0.158156 0.0820488 0.0315329 0.00945046 0.00356922 0.000681003 0 0 
0 0 7.21104e-05 0.000643651 0.00204702 0.00974197 0.0337639 0.08659 0.163191 0.20843 0.117247 -0.174258 -0.555749 -0.762242 -0.62749 -0.28453 -0.00749155 0.0878488 0.0718727 0.0315461 0.00028108 -0.0165257 -0.0235289 -0.0271646 -0.0318587 -0.0390973 -0.0479792 -0.0547558 -0.0589425 -0.0606085 -0.0599273 -0.0570411 -0.0523096 -0.0463779 -0.0404686 -0.0360621 -0.0343758 -0.0358376 -0.0393614 -0.0426809 -0.0432758 -0.0395792 -0.0319475 -0.0226969 -0.0145435 -0.00940801 -0.00747405 -0.00734875 -0.00720154 -0.00560233 -0.00222408 0.00227944 0.00657378 0.00937766 0.00998619 0.00858238 0.00630016 0.00456469 0.00453414 0.00633264 0.00888118 0.0107553 0.0106924 0.00877366 0.00627678 0.00466652 0.00502579 0.00710676 0.0100517 0.0127247 0.0145605 0.0155835 0.0159329 0.0157587 0.0149502 0.0134995 0.011495 0.00922966 0.00685362 0.00452137 0.00246414 0.0011567 0.0010899 0.00253767 0.00505668 0.00772129 0.0097191 0.0107865 0.0113555 0.0120213 0.0130863 0.014164 0.0145475 0.013571 0.0112144 0.00788041 0.00439799 0.00138075 -0.000712486 -0.00193522 -0.00230666 -0.00193522 -0.000712486 0.00138075 0.00439799 0.00788041 0.0112144 0.013571 0.0145475 0.014164 0.0130863 0.0120213 0.0113555 0.0107865 0.0097191 0.00772129 0.00505668 0.00253766 0.00108988 0.00115667 0.00246414 0.00452148 0.006854 0.00923031 0.0114957 0.0134999 0.0149498 0.0157568 0.0159282 0.015577 0.0145549 0.0127211 0.0100485 0.00710326 0.00502464 0.00466798 0.00627595 0.00876276 0.0106678 0.0107072 0.00877059 0.00609864 0.00408255 0.00378249 0.00509612 0.00690083 0.00790817 0.00714869 0.00456992 0.000931721 -0.00258276 -0.00485489 -0.00551321 -0.00513014 -0.005204 -0.0074806 -0.0131503 -0.0218428 -0.0315179 -0.0393921 -0.0432197 -0.0426456 -0.0392995 -0.0357269 -0.0342222 -0.0358669 -0.0402602 -0.0461718 -0.0521096 -0.0568661 -0.0597373 -0.0604127 -0.0587241 -0.0544957 -0.0477255 -0.0388311 -0.0316058 -0.0269228 -0.0232971 -0.0163217 0.000405296 0.0315534 0.0717407 0.0876558 -0.00739515 -0.283534 -0.62535 -0.759672 -0.553902 -0.17371 0.116817 0.207707 0.162632 0.086306 0.033764 0.010299 0.00392239 0.000762515 0 0 
0 0 8.46779e-05 0.000718263 0.00225558 0.0105136 0.0358816 0.0905615 0.16712 0.205583 0.0983736 -0.209964 -0.590203 -0.76812 -0.596793 -0.240295 0.0211656 0.0923222 0.0603976 0.0140464 -0.017499 -0.033048 -0.0386838 -0.0400067 -0.0411869 -0.0446514 -0.0499284 -0.0548767 -0.0582739 -0.05964 -0.0589506 -0.0564163 -0.0521939 -0.0465941 -0.040455 -0.0350659 -0.0318158 -0.0315085 -0.0336517 -0.0363319 -0.0372047 -0.0346267 -0.0286393 -0.021135 -0.0145127 -0.0103955 -0.00890175 -0.00888117 -0.00872523 -0.00713927 -0.00378423 0.00087511 0.0056923 0.00937507 0.0110589 0.0105325 0.008512 0.00628399 0.00493296 0.00486977 0.00557577 0.00606241 0.00567544 0.00462879 0.00394853 0.00469483 0.00720094 0.0107422 0.0140986 0.0160886 0.0163725 0.0152646 0.0135618 0.0119109 0.0107458 0.0102096 0.0100109 0.00978219 0.00890637 0.00707939 0.00459244 0.00230682 0.00129792 0.00197732 0.00423787 0.00694246 0.00930038 0.0107376 0.0115873 0.0122358 0.013007 0.0135121 0.0132956 0.0119357 0.00954324 0.00656329 0.00355932 0.00110238 -0.000612995 -0.00157019 -0.00187192 -0.00157019 -0.000612995 0.00110238 0.00355932 0.00656329 0.00954324 0.0119357 0.0132956 0.0135121 0.013007 0.0122358 0.0115873 0.0107376 0.00930038 0.00694246 0.00423787 0.00197731 0.00129791 0.00230678 0.0045924 0.00707948 0.00890667 0.00978267 0.0100117 0.0102103 0.0107458 0.0119086 0.0135564 0.0152573 0.016366 0.0160845 0.014096 0.0107407 0.00720151 0.00469571 0.00394513 0.00461892 0.00565628 0.00601587 0.00546585 0.00463615 0.0044786 0.00550477 0.00730227 0.0088284 0.00894554 0.00709983 0.00364013 -0.000507717 -0.00413922 -0.00633543 -0.00694153 -0.00654518 -0.00651817 -0.00837467 -0.0130653 -0.0202789 -0.0282287 -0.0344864 -0.0371966 -0.0363363 -0.0336209 -0.0314216 -0.0316865 -0.0349073 -0.040278 -0.0464305 -0.0520423 -0.0562604 -0.0587896 -0.059439 -0.058042 -0.0546032 -0.0496491 -0.0443811 -0.0409151 -0.0397383 -0.0384094 -0.0327923 -0.017298 0.0141396 0.0603439 0.0921602 0.0212108 -0.239432 -0.594801 -0.765613 -0.588316 -0.20933 0.0980095 0.204886 0.166561 0.0902738 0.0358901 0.0111198 0.00426635 0.00084283 0 0 
0 0 9.73048e-05 0.000791068 0.00245677 0.0112444 0.0378563 0.0941913 0.170534 0.202528 0.0806917 -0.242194 -0.620086 -0.772298 -0.570809 -0.205552 0.0417712 0.094766 0.0526243 0.00345718 -0.0272469 -0.0419082 -0.0478574 -0.0493946 -0.0491092 -0.0496355 -0.0527518 -0.056449 -0.059122 -0.0599946 -0.0590745 -0.0566247 -0.052815 -0.0477475 -0.0417532 -0.0357998 -0.0311958 -0.0290093 -0.0292934 -0.0306188 -0.0309909 -0.0288699 -0.0242495 -0.0186029 -0.0138724 -0.0112193 -0.0105647 -0.0107944 -0.0105335 -0.0088248 -0.00540335 -0.000674668 0.00449328 0.00895617 0.0116984 0.0122536 0.010833 0.00832539 0.00569242 0.0036199 0.00211991 0.000992715 0.000138981 1.75909e-05 0.00141525 0.00468264 0.00953266 0.0146541 0.0184554 0.0198052 0.0184742 0.015191 0.0112278 0.007918 0.00617813 0.0063641 0.00787602 0.00965545 0.0104285 0.00941087 0.00690255 0.00389638 0.00194402 0.00176116 0.00337329 0.00590155 0.00840802 0.0102592 0.0114487 0.0121672 0.0124493 0.0121879 0.011185 0.00941151 0.00707907 0.00461027 0.00238685 0.000654194 -0.000500691 -0.00111324 -0.00133496 -0.00111324 -0.000500691 0.000654194 0.00238685 0.00461027 0.00707907 0.00941151 0.011185 0.0121879 0.0124493 0.0121672 0.0114487 0.0102592 0.00840802 0.00590155 0.0033733 0.00176117 0.00194402 0.00389631 0.00690251 0.00941088 0.0104286 0.00965581 0.00787683 0.00636514 0.00617824 0.00791553 0.0112218 0.0151827 0.0184672 0.0198013 0.0184542 0.0146549 0.00953396 0.00468168 0.00141215 1.07375e-05 0.000121218 0.000948142 0.0020149 0.00339083 0.00524793 0.00755486 0.00961543 0.0105337 0.00955762 0.00662805 0.0023729 -0.00211727 -0.00579759 -0.00801199 -0.00868424 -0.00833832 -0.00804531 -0.00907758 -0.0123422 -0.017725 -0.0238643 -0.0287758 -0.0310198 -0.0306668 -0.0293002 -0.0289521 -0.0310852 -0.0356544 -0.0416089 -0.0476062 -0.0526811 -0.0564784 -0.0589076 -0.0597934 -0.0588647 -0.0561455 -0.0524473 -0.049344 -0.0488292 -0.0491138 -0.0475726 -0.0416358 -0.0270185 0.00360795 0.0526238 0.0946396 0.0417897 -0.204803 -0.568966 -0.769869 -0.618167 -0.241477 0.0803936 0.201858 0.169978 0.0939004 0.037873 0.0118975 0.00459495 0.000920673 0 0 
0 0 0.00010974 0.000860459 0.00264599 0.0119191 0.0396554 0.0974542 0.173525 0.199637 0.0648176 -0.270662 -0.646262 -0.776468 -0.549596 -0.175719 0.064034 0.10766 0.0611281 0.0110895 -0.01918 -0.034193 -0.0422812 -0.0467089 -0.048052 -0.0501867 -0.0536702 -0.0574552 -0.0601234 -0.0608807 -0.059789 -0.0573938 -0.0540388 -0.0496784 -0.0442071 -0.038112 -0.0324449 -0.0283964 -0.0264163 -0.0257461 -0.024817 -0.0224944 -0.0188468 -0.0150637 -0.0125263 -0.0118277 -0.0123894 -0.013021 -0.0126804 -0.0107095 -0.00707862 -0.00223845 0.00313708 0.00816632 0.011914 0.013572 0.0129541 0.0104517 0.00670392 0.00256607 -0.0013063 -0.00429608 -0.00564707 -0.00479739 -0.00123052 0.00475956 0.0119514 0.0186228 0.0228543 0.0235314 0.0206332 0.0151747 0.0089859 0.00394033 0.00150538 0.00213647 0.00510651 0.00870172 0.0111229 0.0112089 0.00905958 0.00582126 0.00304864 0.00189138 0.00256521 0.00454511 0.0069702 0.00914287 0.0106686 0.0113612 0.011159 0.0100814 0.00830396 0.00614537 0.00393816 0.00211504 0.000758844 -4.03813e-05 -0.000463575 -0.000639405 -0.000694523 -0.000639405 -0.000463575 -4.03813e-05 0.000758844 0.00211504 0.00393816 0.00614537 0.00830396 0.0100814 0.011159 0.0113612 0.0106686 0.00914287 0.0069702 0.00454511 0.00256522 0.0018914 0.00304862 0.00582121 0.00905953 0.0112088 0.0111229 0.008702 0.00510739 0.00213779 0.00150562 0.00393758 0.00897936 0.0151664 0.0206262 0.023528 0.0228552 0.0186258 0.0119517 0.00475767 -0.00123269 -0.00480465 -0.00566256 -0.00433466 -0.00140938 0.00234096 0.0062744 0.00969356 0.0117437 0.0118595 0.00975464 0.00578687 0.000937557 -0.00378644 -0.00755285 -0.0099255 -0.0107875 -0.0104466 -0.00971537 -0.00952785 -0.0108905 -0.0141312 -0.0184488 -0.0224155 -0.0248697 -0.0258133 -0.0264261 -0.0283355 -0.0323316 -0.037961 -0.0440689 -0.0495271 -0.0538993 -0.0572418 -0.059615 -0.0606574 -0.059853 -0.0571415 -0.0533532 -0.0498873 -0.0477766 -0.0464383 -0.0420351 -0.0339649 -0.0189776 0.0112207 0.0611384 0.107531 0.0640061 -0.175082 -0.547894 -0.774119 -0.644319 -0.269867 0.0645847 0.198996 0.172971 0.0971602 0.0396798 0.0126158 0.00490105 0.000994338 0 0 
0 0 0.000121568 0.000924363 0.00281799 0.0125234 0.0412561 0.100354 0.176217 0.197259 0.0512205 -0.295193 -0.669111 -0.780848 -0.53184 -0.148105 0.0892514 0.127835 0.0778497 0.0258522 -0.00521214 -0.0210796 -0.0312177 -0.0386708 -0.0432189 -0.0473647 -0.0521418 -0.0569085 -0.0602756 -0.0614003 -0.0604653 -0.0583136 -0.0555731 -0.0521902 -0.0476247 -0.0418039 -0.0354277 -0.0295889 -0.0250561 -0.0217126 -0.0187442 -0.0155345 -0.0124544 -0.010504 -0.0104144 -0.0120406 -0.0142185 -0.0155073 -0.015057 -0.0126724 -0.0087314 -0.00373869 0.00182329 0.0072301 0.0117381 0.0145096 0.0147361 0.0123569 0.00766455 0.00156946 -0.00459206 -0.00938793 -0.0112898 -0.00939159 -0.00367271 0.00490326 0.014333 0.0223113 0.0268546 0.0268521 0.0224535 0.015091 0.00688448 0.000261068 -0.00293094 -0.00217227 0.00174531 0.00675369 0.0107118 0.0120998 0.0107948 0.00776275 0.00456824 0.00242077 0.00194291 0.00302825 0.00501874 0.00723444 0.00889756 0.00960924 0.00897638 0.00728498 0.00486944 0.00244307 0.000444888 -0.00069572 -0.0010775 -0.000915129 -0.000522484 -0.000188681 -5.79364e-05 -0.000188681 -0.000522484 -0.000915129 -0.0010775 -0.00069572 0.000444888 0.00244307 0.00486944 0.00728498 0.00897638 0.00960924 0.00889756 0.00723444 0.00501874 0.00302825 0.00194291 0.00242078 0.00456822 0.00776274 0.0107948 0.0120997 0.0107116 0.00675389 0.00174623 -0.00217081 -0.00293075 0.000258123 0.00687809 0.0150829 0.0224464 0.0268499 0.0268579 0.0223144 0.0143313 0.00490123 -0.00367562 -0.00939814 -0.0113015 -0.00942778 -0.00469406 0.00135957 0.00725846 0.0116238 0.0135562 0.0128159 0.00956787 0.00479924 -0.000485372 -0.00542167 -0.0093289 -0.0119661 -0.0131541 -0.0128193 -0.0113511 -0.0095437 -0.00864085 -0.0094894 -0.0120438 -0.0154944 -0.0188441 -0.0218174 -0.0250743 -0.0295227 -0.0353036 -0.0416511 -0.0474693 -0.052036 -0.0554244 -0.058145 -0.060263 -0.0611473 -0.0599911 -0.0565902 -0.0518395 -0.0470727 -0.0429534 -0.0384499 -0.0310133 -0.0209031 -0.00505471 0.0259619 0.0778358 0.127676 0.0891547 -0.147607 -0.530291 -0.778576 -0.66714 -0.294322 0.0510502 0.196645 0.175666 0.100057 0.0412874 0.0132591 0.00517723 0.00106174 0 0 
0 0 0.000132219 0.000980394 0.0029673 0.0130455 0.0426474 0.102921 0.178766 0.195714 0.0402334 -0.315817 -0.689299 -0.786721 -0.519825 -0.127645 0.107674 0.14024 0.0844794 0.0291023 -0.00243187 -0.0175842 -0.0277207 -0.0343746 -0.0391653 -0.0438606 -0.0493474 -0.0549697 -0.059204 -0.0609871 -0.0605219 -0.0589266 -0.0571128 -0.0550357 -0.051829 -0.046764 -0.0399941 -0.0324358 -0.0250976 -0.0185173 -0.0127708 -0.00808468 -0.0051854 -0.00497446 -0.00749008 -0.0116977 -0.015754 -0.0179565 -0.0175133 -0.0146597 -0.0102088 -0.0049377 0.000717554 0.00636957 0.0114009 0.0149611 0.016005 0.0137979 0.00833782 0.000570312 -0.00761125 -0.0139261 -0.0162254 -0.0133588 -0.00564071 0.00517914 0.0164203 0.0253663 0.0299062 0.0291822 0.023545 0.0146343 0.00496097 -0.00288653 -0.00682037 -0.00623549 -0.00193362 0.00393229 0.00910921 0.0119133 0.0118412 0.00958228 0.0063247 0.00341102 0.00166931 0.00155342 0.00269813 0.00454957 0.00619471 0.00679424 0.00600245 0.0039529 0.0013173 -0.00115789 -0.00273164 -0.00320584 -0.00265374 -0.00156873 -0.000363428 0.000471571 0.000807373 0.000471571 -0.000363428 -0.00156873 -0.00265374 -0.00320584 -0.00273164 -0.00115789 0.0013173 0.0039529 0.00600245 0.00679424 0.00619471 0.00454957 0.00269813 0.00155342 0.00166931 0.00341101 0.00632473 0.0095823 0.0118412 0.0119132 0.00910907 0.00393243 -0.00193257 -0.00623415 -0.00682031 -0.00288931 0.00495526 0.0146268 0.0235389 0.0291817 0.0299098 0.0253668 0.0164177 0.00517798 -0.00564472 -0.0133657 -0.0162387 -0.0139641 -0.00770116 0.000379576 0.00795769 0.0130965 0.0148649 0.0133004 0.00922766 0.00388065 -0.00170991 -0.00679025 -0.0109844 -0.014081 -0.0156245 -0.0151529 -0.0126873 -0.00897525 -0.00552062 -0.00384478 -0.00476317 -0.00809195 -0.0129546 -0.0186784 -0.0251503 -0.0323675 -0.0398389 -0.0465679 -0.0516397 -0.0548684 -0.0569526 -0.0587444 -0.0602941 -0.0607201 -0.0589044 -0.0546509 -0.04905 -0.043585 -0.0389033 -0.0341536 -0.0275112 -0.017403 -0.00225535 0.0292412 0.0844915 0.140079 0.107505 -0.127288 -0.518423 -0.784512 -0.687294 -0.314866 0.040126 0.195124 0.178216 0.102621 0.0426842 0.0138149 0.00541652 0.0011206 0 0 
0 0 0.000141046 0.0010261 0.0030887 0.0134769 0.0438298 0.105208 0.181335 0.195244 0.0318895 -0.333208 -0.708565 -0.796889 -0.51741 -0.119321 0.113771 0.140169 0.0780212 0.0195022 -0.0107905 -0.0234081 -0.0309171 -0.035335 -0.0384464 -0.041983 -0.0469091 -0.0525469 -0.0571803 -0.0595286 -0.0596835 -0.0589277 -0.0584096 -0.0580602 -0.0566415 -0.052746 -0.0459072 -0.0367104 -0.026327 -0.0160372 -0.00696353 -0.00027251 0.00275329 0.00142121 -0.00373062 -0.0106963 -0.0168169 -0.0200565 -0.0197043 -0.0164119 -0.0114118 -0.00573508 7.04019e-05 0.00580144 0.0110644 0.0150631 0.0164985 0.0143513 0.00832988 -0.000606784 -0.0101663 -0.0174586 -0.0198471 -0.0161309 -0.00691261 0.00546324 0.0178318 0.0271787 0.0314618 0.0299806 0.0234486 0.0136578 0.00321675 -0.00526904 -0.00977359 -0.00962403 -0.00557941 0.00053667 0.00649487 0.01067 0.0121349 0.011062 0.00826774 0.00487652 0.00204455 0.000535016 0.000549272 0.00160633 0.0028644 0.00333033 0.00257057 0.000625536 -0.00174956 -0.00380111 -0.00483434 -0.00463223 -0.00334072 -0.00150338 0.000326404 0.0016103 0.00210016 0.0016103 0.000326404 -0.00150338 -0.00334072 -0.00463223 -0.00483434 -0.00380111 -0.00174956 0.000625536 0.00257057 0.00333033 0.0028644 0.00160633 0.000549272 0.000535014 0.00204454 0.00487654 0.00826778 0.0110621 0.0121349 0.0106698 0.00649461 0.00053676 -0.00557854 -0.00962288 -0.00977338 -0.00527091 0.00321222 0.0136515 0.0234437 0.0299801 0.0314628 0.0271768 0.01783 0.00546242 -0.00691684 -0.0161386 -0.0198622 -0.0174904 -0.010243 -0.000781249 0.0079741 0.0136971 0.0154148 0.0134388 0.00890183 0.00326962 -0.00248143 -0.00777905 -0.0124153 -0.0160131 -0.0178731 -0.0171739 -0.0135245 -0.0076788 -0.00150125 0.00270341 0.00321481 -0.000339648 -0.0072411 -0.0162928 -0.026463 -0.0366858 -0.0457664 -0.0525552 -0.0564222 -0.0578513 -0.058205 -0.058721 -0.059444 -0.0592522 -0.0568983 -0.0522434 -0.0466383 -0.0417351 -0.038186 -0.0351059 -0.0306746 -0.0231614 -0.0105446 0.019715 0.0781142 0.140034 0.113542 -0.119099 -0.516138 -0.794721 -0.706505 -0.332173 0.0318391 0.194674 0.180785 0.104903 0.0438705 0.0142735 0.00561283 0.00116862 0 0 
0 0 0.000147441 0.00105927 0.00317774 0.0138114 0.0448107 0.107276 0.184071 0.195967 0.025904 -0.348444 -0.72848 -0.812055 -0.522636 -0.117261 0.117968 0.142361 0.0756182 0.0136809 -0.0150465 -0.0305249 -0.0380948 -0.0409903 -0.0419252 -0.0432547 -0.0463462 -0.0507762 -0.0549097 -0.0573435 -0.0580585 -0.0583773 -0.0595042 -0.0612604 -0.0619968 -0.0596203 -0.0528902 -0.042028 -0.0284416 -0.0141498 -0.00137358 0.00760439 0.0109768 0.00825571 0.000667448 -0.00886881 -0.0170276 -0.0214224 -0.0213095 -0.0176364 -0.0120698 -0.00594868 7.0459e-06 0.00565156 0.0107539 0.0146221 0.0160399 0.0137674 0.00739698 -0.00201681 -0.0120732 -0.0195315 -0.0216747 -0.0172571 -0.00727812 0.0056806 0.0182024 0.0272134 0.0308538 0.0286989 0.0217823 0.0119642 0.00168898 -0.00667952 -0.011443 -0.0118918 -0.00859668 -0.0028911 0.00336505 0.00859481 0.0116884 0.0121552 0.0102848 0.00696072 0.00335096 0.00062795 -0.000746493 -0.000822086 -0.000326828 -0.000106715 -0.000683406 -0.00199857 -0.00359552 -0.00476466 -0.00500399 -0.00411537 -0.00230349 -3.23141e-05 0.00209654 0.00360606 0.00415062 0.00360606 0.00209654 -3.23141e-05 -0.00230349 -0.00411537 -0.00500399 -0.00476466 -0.00359552 -0.00199857 -0.000683406 -0.000106715 -0.000326828 -0.000822086 -0.000746494 0.000627941 0.00335095 0.00696074 0.0102849 0.0121553 0.0116884 0.00859462 0.00336475 -0.00289107 -0.00859604 -0.0118908 -0.0114423 -0.00668004 0.001686 0.0119591 0.0217775 0.0286962 0.0308516 0.0272113 0.0182029 0.00568063 -0.00728407 -0.0172681 -0.0216871 -0.0195557 -0.0121432 -0.00217262 0.00707935 0.0131583 0.0150111 0.0130692 0.00864244 0.00309441 -0.00266978 -0.00820843 -0.0133408 -0.0174749 -0.0195984 -0.0184837 -0.0134996 -0.00551131 0.0032557 0.00977561 0.0115249 0.00747266 -0.00179858 -0.0145813 -0.0287106 -0.0420745 -0.0527746 -0.0594053 -0.0617505 -0.0610133 -0.0592637 -0.0581349 -0.0578057 -0.0570712 -0.0546421 -0.0504853 -0.0460585 -0.0430063 -0.0416814 -0.0407374 -0.0378196 -0.0302395 -0.014757 0.0139609 0.0757494 0.142201 0.117632 -0.117178 -0.521462 -0.809881 -0.726339 -0.347317 0.0259073 0.19541 0.183516 0.106966 0.0448533 0.0146283 0.00576131 0.0012038 0 0 
0 0 0.000150963 0.0010783 0.00323114 0.0140448 0.0455964 0.109174 0.187087 0.197975 0.0221103 -0.361958 -0.748714 -0.828878 -0.52737 -0.10905 0.134743 0.161571 0.0910011 0.0216683 -0.015918 -0.0380157 -0.0485221 -0.0513831 -0.0503886 -0.0488884 -0.0489865 -0.0509307 -0.0534423 -0.055186 -0.0561685 -0.0576418 -0.0606953 -0.0648389 -0.0678957 -0.067062 -0.0604573 -0.0478849 -0.0309971 -0.0126573 0.00379035 0.0151027 0.0189473 0.0150823 0.00543982 -0.00631488 -0.0162127 -0.0216386 -0.0218799 -0.0180115 -0.0119952 -0.00545724 0.000632788 0.00596235 0.0104701 0.0135801 0.0143045 0.0116761 0.00535142 -0.00367045 -0.0130328 -0.0196827 -0.0211493 -0.016439 -0.00660168 0.0056723 0.0171825 0.0250461 0.0277805 0.0252351 0.0185537 0.00963904 0.000508454 -0.00691199 -0.0114493 -0.0125061 -0.0102562 -0.00548906 0.00053054 0.00640022 0.0108458 0.0129532 0.0124412 0.00979273 0.00599381 0.00230752 -0.000426104 -0.00192619 -0.00245416 -0.00265761 -0.00285904 -0.00326604 -0.00358436 -0.00353957 -0.00277324 -0.00127289 0.000817635 0.00309753 0.00519468 0.00662754 0.00716859 0.00662754 0.00519468 0.00309753 0.000817635 -0.00127289 -0.00277324 -0.00353957 -0.00358436 -0.00326604 -0.00285904 -0.00265761 -0.00245416 -0.00192619 -0.000426105 0.00230752 0.00599382 0.00979276 0.0124412 0.0129534 0.0108458 0.00640001 0.000530247 -0.00548914 -0.0102559 -0.0125053 -0.0114478 -0.00691093 0.000506843 0.00963399 0.0185474 0.0252298 0.0277773 0.0250468 0.0171846 0.00566876 -0.00660945 -0.0164454 -0.0211604 -0.0197101 -0.0130903 -0.00380259 0.00506028 0.0111279 0.013368 0.0121156 0.0084134 0.0033857 -0.00215659 -0.00795137 -0.0135948 -0.0181789 -0.0204018 -0.0187183 -0.0124717 -0.00257164 0.00844399 0.0169295 0.0196402 0.0149379 0.00318876 -0.013325 -0.0314736 -0.0480843 -0.0604104 -0.0668599 -0.067614 -0.0645546 -0.0604202 -0.057374 -0.0559064 -0.0549008 -0.053169 -0.0506657 -0.0487182 -0.0485947 -0.0501026 -0.0510815 -0.0481929 -0.0376827 -0.0156114 0.0219366 0.0910543 0.161264 0.134218 -0.109146 -0.52627 -0.826656 -0.74646 -0.360737 0.0221554 0.197423 0.186524 0.108858 0.0456388 0.0148747 0.00585841 0.00122466 0 0 
0 0 0.000151451 0.00108246 0.00324719 0.0141738 0.0461872 0.110933 0.190495 0.201501 0.0208214 -0.373354 -0.768363 -0.845195 -0.528345 -0.0926324 0.162027 0.191218 0.115815 0.0378852 -0.016514 -0.0490127 -0.0645563 -0.0684164 -0.0656133 -0.0605939 -0.0565371 -0.0545719 -0.054126 -0.0542568 -0.0550823 -0.0576376 -0.0626241 -0.0691132 -0.0743028 -0.0747214 -0.0679274 -0.0535384 -0.0334423 -0.0113443 0.00837653 0.0216529 0.0259093 0.0212414 0.0101905 -0.00306779 -0.0141858 -0.020399 -0.0210588 -0.0171886 -0.0109687 -0.00424936 0.00176924 0.00649713 0.00990182 0.0116406 0.0112139 0.00808811 0.00225947 -0.00534325 -0.0127619 -0.0176036 -0.0179908 -0.0133938 -0.00480192 0.00542424 0.0146427 0.0206392 0.0222765 0.0197383 0.0141772 0.00711976 0.000111337 -0.00566966 -0.009457 -0.0108658 -0.00978862 -0.00634651 -0.00119938 0.00472182 0.0101054 0.0136669 0.0147502 0.0132313 0.00990155 0.00576848 0.0018881 -0.00105971 -0.00281622 -0.00355992 -0.00350613 -0.00287637 -0.00178823 -0.000318289 0.00147783 0.00352379 0.00565397 0.00766057 0.00930431 0.0104108 0.0107988 0.0104108 0.00930431 0.00766057 0.00565397 0.00352379 0.00147783 -0.000318289 -0.00178823 -0.00287637 -0.00350613 -0.00355992 -0.00281622 -0.00105971 0.0018881 0.00576848 0.00990154 0.0132313 0.0147502 0.013667 0.0101054 0.00472166 -0.00119967 -0.0063467 -0.00978855 -0.0108648 -0.00945444 -0.00566719 0.000110062 0.00711367 0.0141695 0.0197327 0.0222748 0.0206404 0.0146427 0.00542053 -0.00480601 -0.0134022 -0.0180076 -0.0176237 -0.0128033 -0.00545786 0.00201003 0.00761039 0.0103613 0.010268 0.00791822 0.00394369 -0.00112345 -0.00699663 -0.0129275 -0.017762 -0.0198894 -0.017582 -0.0102705 0.00108923 0.013719 0.0235723 0.0268899 0.0215204 0.00760782 -0.0122986 -0.0342262 -0.0539734 -0.0680203 -0.0745621 -0.0740115 -0.0687735 -0.062278 -0.0572996 -0.0547718 -0.053967 -0.0538326 -0.0542955 -0.0562527 -0.0602826 -0.0652693 -0.0680461 -0.064168 -0.0486135 -0.0161933 0.0380476 0.115716 0.190686 0.161244 -0.0929228 -0.527301 -0.842893 -0.765982 -0.372041 0.0208984 0.200942 0.189919 0.110609 0.0462273 0.0150088 0.00590194 0.00123052 0 0 
0 0 0.000149061 0.00107208 0.00322619 0.0141965 0.0465779 0.112559 0.194389 0.206835 0.0224644 -0.382717 -0.789353 -0.866141 -0.53464 -0.0811363 0.183076 0.212611 0.131254 0.0432328 -0.025073 -0.0684502 -0.0899242 -0.0951265 -0.0901286 -0.0806214 -0.0709909 -0.0636096 -0.0588137 -0.0563057 -0.0563169 -0.0595671 -0.0661455 -0.0744445 -0.0810441 -0.0819501 -0.0744068 -0.0580282 -0.0351378 -0.010078 0.0120122 0.0266062 0.0312042 0.026183 0.0145881 0.000819151 -0.0108215 -0.0174549 -0.0185343 -0.0150472 -0.00900566 -0.00253012 0.00297353 0.00671981 0.0085395 0.00853235 0.0067133 0.00326514 -0.00142777 -0.00657248 -0.0109252 -0.0131781 -0.0123048 -0.00830635 -0.00202059 0.00494753 0.0108526 0.0144046 0.0150225 0.0130156 0.00932253 0.0050344 0.000843257 -0.00262221 -0.00523301 -0.0066747 -0.00663032 -0.00472148 -0.000888498 0.00424452 0.00978896 0.014327 0.016864 0.0168265 0.0144251 0.0104289 0.00582544 0.00166682 -0.00133948 -0.00276869 -0.00267057 -0.001257 0.00100856 0.00369114 0.00635549 0.0087889 0.0107397 0.0122713 0.0132956 0.0139461 0.0141317 0.0139461 0.0132956 0.0122713 0.0107397 0.0087889 0.00635549 0.00369114 0.00100856 -0.001257 -0.00267057 -0.00276869 -0.00133948 0.00166682 0.00582544 0.0104289 0.0144251 0.0168266 0.0168641 0.0143271 0.00978902 0.00424443 -0.000888792 -0.00472177 -0.00663035 -0.00667329 -0.00522946 -0.00261932 0.0008413 0.00502751 0.00931511 0.0130107 0.0150207 0.0144054 0.0108526 0.00494356 -0.00202766 -0.00831722 -0.0123152 -0.0131876 -0.0109606 -0.00667366 -0.00163768 0.00285238 0.00595254 0.00726938 0.0066602 0.00421011 1.65572e-05 -0.00548771 -0.0113536 -0.0160912 -0.0177839 -0.0148485 -0.00680463 0.00537497 0.0187381 0.0291403 0.0326322 0.0266369 0.011096 -0.0113594 -0.0363045 -0.0588145 -0.0747363 -0.0818958 -0.0807502 -0.0740317 -0.0657015 -0.0591297 -0.0559219 -0.0559407 -0.0584849 -0.0632838 -0.0706676 -0.0802122 -0.0896604 -0.0946218 -0.0893948 -0.067949 -0.0247059 0.0433559 0.130991 0.211866 0.182068 -0.0815706 -0.533597 -0.863721 -0.786827 -0.38132 0.0225559 0.206261 0.193796 0.112226 0.0466134 0.0150289 0.00589167 0.00122161 0 0 
0 0 0.000144225 0.00104861 0.00317079 0.0141146 0.0467584 0.114019 0.198729 0.213987 0.0269316 -0.39121 -0.815774 -0.900197 -0.558039 -0.0862383 0.18946 0.222633 0.142697 0.0450077 -0.0382887 -0.0949377 -0.124528 -0.132227 -0.12511 -0.110374 -0.0939865 -0.0797984 -0.069419 -0.0632297 -0.0615967 -0.0647777 -0.0720259 -0.0809311 -0.0875697 -0.0877626 -0.078754 -0.0604518 -0.0355272 -0.00877712 0.0143558 0.029414 0.0342457 0.0295466 0.0184683 0.00536062 -0.00589778 -0.012594 -0.0141506 -0.0114794 -0.00638459 -0.000872191 0.00346223 0.0057503 0.005753 0.00395157 0.00102855 -0.00220523 -0.00501682 -0.00684711 -0.0073473 -0.00653123 -0.00445614 -0.00158924 0.00156458 0.00438371 0.00633799 0.00722146 0.0069729 0.00604548 0.00486957 0.00382797 0.00293536 0.00201511 0.000945434 -0.000233883 -0.000939389 -0.000600292 0.00144025 0.00512845 0.00988486 0.0146312 0.0181106 0.0194649 0.0182762 0.0149084 0.010174 0.00523935 0.00123251 -0.00103198 -0.00126048 0.000347786 0.00319522 0.00651891 0.00967185 0.0122161 0.0139714 0.014969 0.0154707 0.015665 0.0157125 0.015665 0.0154707 0.014969 0.0139714 0.0122161 0.00967185 0.00651891 0.00319522 0.000347786 -0.00126048 -0.00103198 0.00123251 0.00523935 0.010174 0.0149084 0.0182763 0.0194649 0.0181106 0.0146312 0.00988487 0.00512834 0.00144003 -0.000600519 -0.000939163 -0.000231944 0.000949333 0.0020175 0.00293238 0.00382099 0.00486308 0.00604147 0.00697177 0.00722238 0.00633539 0.00437634 0.00155932 -0.00159413 -0.00446421 -0.00654225 -0.00738068 -0.00692647 -0.00518415 -0.00255806 0.000355721 0.00280483 0.00400596 0.00332403 0.000487848 -0.00402665 -0.00911419 -0.0130458 -0.0139431 -0.0103615 -0.00191528 0.0102915 0.0232977 0.0332938 0.0363439 0.0297944 0.01343 -0.010366 -0.0371762 -0.0617334 -0.0794685 -0.08795 -0.0873655 -0.0804815 -0.0714757 -0.0641958 -0.0610408 -0.0627091 -0.0689496 -0.079361 -0.0935204 -0.109802 -0.124447 -0.131498 -0.123798 -0.0942765 -0.0378276 0.04512 0.142313 0.221732 0.188318 -0.0867086 -0.556895 -0.897583 -0.813079 -0.389737 0.0270219 0.213386 0.198117 0.113677 0.0467882 0.0149371 0.00583008 0.00119922 0 0 
0 0 0.000137551 0.0010143 0.00308543 0.0139319 0.046709 0.115208 0.203254 0.222567 0.0338801 -0.399024 -0.847857 -0.947443 -0.59676 -0.101986 0.191086 0.2385 0.17545 0.0689081 -0.0350819 -0.112699 -0.157378 -0.172597 -0.166351 -0.147721 -0.124866 -0.103566 -0.0869719 -0.0763595 -0.0721606 -0.0740226 -0.0803521 -0.0879973 -0.0928166 -0.0908631 -0.0798303 -0.0600092 -0.034372 -0.00763181 0.0150418 0.0297063 0.0347821 0.0311946 0.0218941 0.0106582 0.000738968 -0.00571779 -0.00803403 -0.00685571 -0.00362791 -0.000106123 0.00226971 0.00267978 0.000981629 -0.00210679 -0.00531391 -0.0074073 -0.00753415 -0.00560466 -0.00220269 0.00156632 0.00453879 0.00594506 0.0056601 0.00412827 0.00204645 0.000300892 -0.000552051 -0.000172364 0.00135573 0.00360889 0.00597649 0.00762001 0.0081792 0.00755381 0.00630228 0.00523023 0.00523224 0.00685269 0.00991767 0.0138309 0.0174096 0.0195886 0.0195492 0.0171163 0.0128203 0.0077322 0.0031294 7.88474e-05 -0.000880745 0.000218984 0.00280276 0.00603746 0.0091592 0.011584 0.0130938 0.0138066 0.013993 0.0139423 0.0138924 0.0139423 0.013993 0.0138066 0.0130938 0.011584 0.0091592 0.00603746 0.00280276 0.000218984 -0.000880745 7.88474e-05 0.0031294 0.0077322 0.0128203 0.0171163 0.0195492 0.0195887 0.0174096 0.0138309 0.00991766 0.00685257 0.00523208 0.00523016 0.00630288 0.00755616 0.00818281 0.00762116 0.00597243 0.00360269 0.00135154 -0.000174462 -0.000552789 0.000299181 0.0020404 0.00412205 0.00565773 0.0059403 0.00453117 0.00155688 -0.0022261 -0.00566732 -0.00768113 -0.00770725 -0.00589033 -0.00310959 -0.000613153 0.000376801 -0.000656434 -0.00339789 -0.00672644 -0.00899852 -0.00847777 -0.00402152 0.00451233 0.0158263 0.0273987 0.0358787 0.0377802 0.0307171 0.0143152 -0.0094544 -0.0365442 -0.0619209 -0.0811463 -0.0914939 -0.0928277 -0.0875664 -0.0796965 -0.07325 -0.0714055 -0.0756164 -0.0862835 -0.102911 -0.124127 -0.146869 -0.165379 -0.171562 -0.156359 -0.111849 -0.0345575 0.0689515 0.174915 0.237445 0.189862 -0.102422 -0.595426 -0.94458 -0.844974 -0.397483 0.0339559 0.221934 0.202621 0.114858 0.0467319 0.0147379 0.00572177 0.00116542 0 0 
0 0 0.00012962 0.000971343 0.0029744 0.0136502 0.0463966 0.115971 0.207605 0.232192 0.0437708 -0.40329 -0.878866 -0.996899 -0.636039 -0.110901 0.199621 0.311089 0.274448 0.158931 0.0256527 -0.0862759 -0.160105 -0.195035 -0.198899 -0.182788 -0.157515 -0.1315 -0.109803 -0.094902 -0.087372 -0.0864097 -0.0897918 -0.0940209 -0.0951233 -0.0898809 -0.0766849 -0.0563012 -0.0316653 -0.00690938 0.013831 0.0275008 0.0330801 0.0315185 0.0251328 0.0168255 0.00891977 0.0029305 -0.000521887 -0.00173216 -0.00146057 -0.000897482 -0.00119562 -0.00286129 -0.00575033 -0.00906056 -0.0113504 -0.0113072 -0.00826086 -0.00261182 0.00415953 0.0101021 0.0134232 0.0132213 0.00976583 0.00435084 -0.00114619 -0.00511959 -0.006423 -0.00491491 -0.00110303 0.00392599 0.00896191 0.0128104 0.0148002 0.0148042 0.0132391 0.010984 0.00901686 0.00821905 0.00894369 0.0110492 0.0136842 0.0158205 0.0164361 0.0150123 0.0116178 0.00702276 0.00233217 -0.00134396 -0.0032406 -0.00326209 -0.00170084 0.000690127 0.00324475 0.0053498 0.00676099 0.00744887 0.00764919 0.00762709 0.0075765 0.00762709 0.00764919 0.00744887 0.00676099 0.0053498 0.00324475 0.000690127 -0.00170084 -0.00326209 -0.0032406 -0.00134396 0.00233217 0.00702276 0.0116178 0.0150123 0.0164361 0.0158205 0.0136842 0.0110492 0.00894369 0.00821897 0.00901685 0.0109843 0.0132402 0.0148066 0.0148031 0.0128102 0.00895721 0.00392124 -0.00110415 -0.00491513 -0.00642604 -0.00512542 -0.00115079 0.00434801 0.00976075 0.0132163 0.0134185 0.0100916 0.00413851 -0.00266513 -0.00837682 -0.0115491 -0.011823 -0.00991492 -0.0071696 -0.00498674 -0.00404907 -0.00426491 -0.00487172 -0.00444356 -0.00171314 0.00390323 0.0122357 0.0220233 0.0312123 0.0371991 0.0372347 0.029464 0.0136401 -0.00872664 -0.0343172 -0.0589889 -0.0788343 -0.0912075 -0.0956247 -0.0938242 -0.0891279 -0.0854767 -0.0863315 -0.0938241 -0.108757 -0.130459 -0.156405 -0.181539 -0.197562 -0.19369 -0.15889 -0.0853657 0.0260553 0.15865 0.273507 0.309694 0.198324 -0.111306 -0.634514 -0.993785 -0.875812 -0.401703 0.0438182 0.23152 0.20695 0.115614 0.0464118 0.0144337 0.00557087 0.00112219 0 0 
0 0 0.000120766 0.000920929 0.00283975 0.0132663 0.0457828 0.116173 0.211544 0.242876 0.0579043 -0.399991 -0.901608 -1.04001 -0.668647 -0.100532 0.27943 0.470015 0.478045 0.362809 0.196422 0.0358702 -0.0867625 -0.161591 -0.193363 -0.19399 -0.176831 -0.153232 -0.130828 -0.113696 -0.103126 -0.0983269 -0.0970562 -0.0961656 -0.0923895 -0.0835269 -0.0688906 -0.0494981 -0.0277602 -0.00669388 0.0109489 0.0232635 0.0297452 0.0310411 0.0284778 0.0237031 0.0180928 0.0124677 0.00744061 0.00319995 -0.00038551 -0.00356416 -0.00674937 -0.0101544 -0.0133646 -0.0155948 -0.0157016 -0.012743 -0.00660076 0.0018758 0.0108115 0.0177967 0.0208955 0.0192191 0.013414 0.00525157 -0.00268069 -0.00828864 -0.0101141 -0.00809968 -0.00297637 0.00372443 0.0104315 0.0157565 0.018833 0.0194225 0.0177591 0.0146118 0.0109001 0.00771895 0.00573947 0.00532259 0.00607154 0.00723753 0.00788716 0.00721455 0.00497413 0.0013966 -0.00273711 -0.00659557 -0.0093514 -0.0107249 -0.0106711 -0.00960223 -0.00800221 -0.0064048 -0.00507507 -0.00420247 -0.0036978 -0.00350797 -0.00343745 -0.00350797 -0.0036978 -0.00420247 -0.00507507 -0.0064048 -0.00800221 -0.00960223 -0.0106711 -0.0107249 -0.0093514 -0.00659557 -0.00273711 0.0013966 0.00497413 0.00721456 0.00788715 0.00723753 0.00607151 0.00532257 0.00573945 0.00771894 0.0109003 0.0146124 0.0177603 0.0194247 0.0188351 0.0157552 0.0104265 0.00372155 -0.00297442 -0.00809927 -0.0101196 -0.00829441 -0.00268216 0.00524677 0.013403 0.0192132 0.0208954 0.0177906 0.010792 0.00183377 -0.00669288 -0.0129323 -0.0160761 -0.0163148 -0.0146021 -0.0120912 -0.00945641 -0.00692811 -0.00405498 -6.19731e-05 0.00545329 0.0125527 0.0206948 0.0286536 0.0349352 0.0377143 0.0352393 0.0265796 0.0117303 -0.00813819 -0.03069 -0.05295 -0.0720552 -0.0858785 -0.0937308 -0.0965373 -0.0966765 -0.0974024 -0.101881 -0.112275 -0.129349 -0.151697 -0.175232 -0.192317 -0.191701 -0.160083 -0.0855987 0.0364634 0.196235 0.36174 0.476271 0.467947 0.277771 -0.100979 -0.666954 -1.03666 -0.898414 -0.39839 0.0579053 0.242161 0.210869 0.115811 0.0457902 0.0140215 0.00537824 0.00107053 0 0 
0 0 0.000110981 0.000862831 0.00268071 0.0127733 0.0448392 0.115753 0.215047 0.254906 0.0772231 -0.387867 -0.916395 -1.08168 -0.708896 -0.118527 0.385674 0.697082 0.789127 0.703714 0.516851 0.30297 0.114153 -0.024289 -0.108664 -0.148237 -0.157279 -0.149612 -0.135648 -0.12178 -0.110808 -0.103005 -0.0970067 -0.0908146 -0.0825104 -0.0710641 -0.0565536 -0.0399908 -0.0229078 -0.00680289 0.00711599 0.0180503 0.025712 0.0302313 0.0317871 0.0306357 0.0271274 0.0216372 0.0147312 0.0072007 -0.000341772 -0.00719087 -0.0129188 -0.0172086 -0.0196854 -0.0197529 -0.0169572 -0.0110793 -0.0025414 0.00737075 0.0167558 0.0234187 0.0256973 0.0229943 0.0160131 0.00668174 -0.00244297 -0.00907766 -0.0116926 -0.0101488 -0.00519205 0.00168725 0.00875553 0.014604 0.018258 0.0193212 0.0177714 0.0141782 0.00927536 0.00409685 -0.000459271 -0.0037214 -0.00544803 -0.00604552 -0.00607109 -0.00637617 -0.00747568 -0.009671 -0.0127252 -0.0161328 -0.0193021 -0.0217578 -0.0232029 -0.0235893 -0.0231714 -0.0221897 -0.0210513 -0.0199701 -0.0191691 -0.0186403 -0.0184972 -0.0186403 -0.0191691 -0.0199701 -0.0210513 -0.0221897 -0.0231714 -0.0235893 -0.0232029 -0.0217578 -0.0193021 -0.0161328 -0.0127252 -0.009671 -0.00747568 -0.00637614 -0.0060711 -0.00604556 -0.00544808 -0.00372142 -0.000459283 0.00409695 0.00927578 0.0141789 0.0177727 0.0193231 0.0182598 0.0146024 0.0087508 0.00168603 -0.00518819 -0.0101483 -0.0116982 -0.00908359 -0.0024466 0.00667458 0.0160004 0.0229909 0.0257024 0.0234082 0.0167326 0.00734201 -0.00260887 -0.0112234 -0.0172539 -0.0203442 -0.020736 -0.0189214 -0.015433 -0.0104651 -0.00413473 0.00348445 0.0119474 0.0207201 0.0287692 0.0349815 0.0382841 0.037687 0.0326142 0.0230427 0.00938083 -0.00733919 -0.0256636 -0.0440117 -0.0608034 -0.0747149 -0.0851374 -0.0922503 -0.0973452 -0.102463 -0.109639 -0.120166 -0.13379 -0.147572 -0.155242 -0.146316 -0.106985 -0.0230343 0.114715 0.302587 0.515381 0.70123 0.786006 0.694 0.383534 -0.118886 -0.706998 -1.07812 -0.913093 -0.386284 0.0771566 0.254142 0.214355 0.115387 0.0448389 0.013494 0.00514117 0.00101005 0 0 
0 0 0.000100055 0.000796084 0.00249524 0.0121643 0.0435507 0.114706 0.218212 0.2686 0.102003 -0.36815 -0.928875 -1.13326 -0.758468 -0.156717 0.457461 0.920216 1.14865 1.14678 0.979052 0.730254 0.473498 0.255199 0.0945095 -0.00939294 -0.0678536 -0.09518 -0.103969 -0.103207 -0.0982586 -0.0915527 -0.0836945 -0.0746064 -0.0641499 -0.0525363 -0.0403916 -0.0284447 -0.0171131 -0.00654111 0.00342945 0.0129483 0.0217466 0.0291692 0.0343482 0.0363166 0.0345435 0.0290826 0.0205439 0.0102089 -0.000393026 -0.00985787 -0.0170407 -0.0212217 -0.0220765 -0.0196179 -0.0141162 -0.00617959 0.00321886 0.012772 0.0209233 0.026088 0.027199 0.0239144 0.0169856 0.00791823 -0.0011452 -0.00826089 -0.0120242 -0.0119905 -0.00869677 -0.00324223 0.00281773 0.00817125 0.0118142 0.0131264 0.0119422 0.0083519 0.00296571 -0.0034807 -0.00998875 -0.0157237 -0.0200069 -0.0226883 -0.0239338 -0.0243363 -0.0246101 -0.0253497 -0.0269014 -0.0292628 -0.0321709 -0.0350655 -0.0375317 -0.0391499 -0.0398428 -0.0396756 -0.038904 -0.0378513 -0.0368825 -0.0361576 -0.0359305 -0.0361576 -0.0368825 -0.0378513 -0.038904 -0.0396756 -0.0398428 -0.0391499 -0.0375317 -0.0350655 -0.0321709 -0.0292628 -0.0269014 -0.0253497 -0.0246101 -0.0243363 -0.0239338 -0.0226883 -0.0200069 -0.0157238 -0.00998881 -0.00348055 0.00296628 0.00835286 0.0119433 0.0131281 0.0118157 0.00816974 0.00281359 -0.00324247 -0.00869245 -0.01199 -0.0120294 -0.00826738 -0.00115116 0.00790929 0.0169767 0.0239137 0.0272022 0.0260792 0.020901 0.012751 0.0031772 -0.00628798 -0.0143432 -0.020086 -0.0229545 -0.022701 -0.0193013 -0.0129671 -0.00421291 0.00614402 0.017016 0.0270858 0.0349889 0.0396974 0.0404738 0.0370807 0.0299427 0.0197959 0.0076492 -0.00550067 -0.0190303 -0.0325021 -0.0454866 -0.0576092 -0.0684016 -0.0776311 -0.0853775 -0.092003 -0.0977156 -0.101907 -0.102125 -0.0929425 -0.0657341 -0.00768497 0.0955898 0.255421 0.472604 0.72808 0.975594 1.14233 1.14386 0.916063 0.454907 -0.15696 -0.756316 -1.12945 -0.925479 -0.366618 0.101847 0.267779 0.217502 0.114339 0.0435424 0.0128438 0.00485565 0.000939742 0 0 
0 0 8.7887e-05 0.00072032 0.00228281 0.011437 0.0419099 0.113027 0.221102 0.28425 0.132832 -0.340407 -0.940323 -1.20869 -0.907231 -0.322148 0.380878 1.01186 1.42955 1.58223 1.50191 1.26877 0.971144 0.678459 0.431443 0.244713 0.115523 0.0328654 -0.0159649 -0.0419825 -0.0533836 -0.0556621 -0.0522485 -0.045483 -0.0372147 -0.0288586 -0.0214512 -0.0154324 -0.0103005 -0.00513764 0.00105783 0.00891935 0.0181627 0.0274915 0.0352148 0.0394899 0.0391473 0.0340354 0.024891 0.0133197 0.0013743 -0.00899256 -0.0161973 -0.019455 -0.0186152 -0.0142091 -0.0072485 0.00105375 0.00945327 0.0168881 0.0223543 0.02518 0.0249766 0.021659 0.0157054 0.0080135 -0.000140103 -0.00731821 -0.012406 -0.0147234 -0.0142488 -0.0115948 -0.00769463 -0.00376861 -0.000685011 0.000669251 -8.50903e-05 -0.00315235 -0.00829667 -0.0150364 -0.0225375 -0.0298844 -0.0361354 -0.0406917 -0.0433145 -0.0442014 -0.0440903 -0.0436594 -0.0437289 -0.0446423 -0.046592 -0.0491583 -0.0519006 -0.0542384 -0.0558301 -0.056505 -0.0563724 -0.0557296 -0.0549157 -0.0542888 -0.0540795 -0.0542888 -0.0549157 -0.0557296 -0.0563724 -0.056505 -0.0558301 -0.0542384 -0.0519006 -0.0491583 -0.046592 -0.0446423 -0.043729 -0.0436594 -0.0440903 -0.0442015 -0.0433145 -0.0406917 -0.0361355 -0.0298845 -0.0225376 -0.0150361 -0.00829594 -0.00315119 -8.41385e-05 0.000670361 -0.000683499 -0.00376933 -0.00769819 -0.0115953 -0.0142451 -0.0147227 -0.0124105 -0.00732385 -0.000148873 0.00800315 0.0157019 0.0216586 0.0249711 0.0251704 0.0223431 0.0168716 0.00941972 0.000977129 -0.0074281 -0.014582 -0.0193236 -0.0206972 -0.0181726 -0.0118524 -0.00233539 0.00906229 0.0207735 0.0310079 0.0382693 0.0415697 0.0404586 0.0353408 0.0272697 0.0175707 0.00759224 -0.00183433 -0.010536 -0.0187132 -0.0267926 -0.0350403 -0.0432019 -0.0504892 -0.0558956 -0.0578623 -0.054266 -0.041766 -0.0148705 0.0345761 0.116943 0.245348 0.431022 0.676746 0.967945 1.26408 1.49598 1.57564 1.42331 1.00707 0.378434 -0.321831 -0.904496 -1.20453 -0.936836 -0.338957 0.132562 0.283363 0.220375 0.112661 0.0418934 0.012068 0.0045199 0.000859168 0 0 
0 0 7.47545e-05 0.000636901 0.00204681 0.0105976 0.0399125 0.110657 0.223568 0.301774 0.170168 -0.30306 -0.94381 -1.26598 -1.17002 -0.686098 0.0494245 0.832811 1.47095 1.84617 1.93737 1.79913 1.52115 1.19111 0.87338 0.603595 0.393895 0.241682 0.137648 0.0706685 0.030528 0.00882615 -0.000888441 -0.00350525 -0.00282137 -0.00140459 -0.000728842 -0.0011756 -0.00200941 -0.0017999 0.000813125 0.00657952 0.0151261 0.0249111 0.0338196 0.0396609 0.0408954 0.0370964 0.0290457 0.0184176 0.00729676 -0.00220966 -0.00843697 -0.0106337 -0.0089555 -0.00424437 0.00212117 0.00872582 0.0143392 0.01835 0.0204406 0.0205987 0.0190899 0.0159826 0.0114653 0.00568364 -0.000971946 -0.00784639 -0.0141046 -0.0190015 -0.021913 -0.022841 -0.0220398 -0.0202814 -0.018371 -0.0172146 -0.0175113 -0.0197291 -0.0239741 -0.0300014 -0.0373195 -0.045032 -0.0521763 -0.0578806 -0.0616019 -0.0632179 -0.0631546 -0.0621345 -0.0610575 -0.0606181 -0.0612243 -0.0628488 -0.0651474 -0.0675991 -0.0697086 -0.0711357 -0.0718205 -0.0718874 -0.0716289 -0.0713148 -0.071184 -0.0713148 -0.0716289 -0.0718874 -0.0718205 -0.0711357 -0.0697086 -0.0675991 -0.0651474 -0.0628488 -0.0612243 -0.0606181 -0.0610575 -0.0621345 -0.0631547 -0.0632179 -0.0616019 -0.0578806 -0.0521764 -0.0450322 -0.0373196 -0.0300011 -0.0239732 -0.0197279 -0.0175107 -0.0172138 -0.0183693 -0.0202811 -0.0220423 -0.0228418 -0.0219102 -0.0190015 -0.0141081 -0.0078511 -0.000983249 0.00567233 0.0114625 0.0159796 0.0190835 0.0205924 0.0204277 0.0183347 0.0143202 0.00867257 0.00198561 -0.00452811 -0.00950908 -0.0116434 -0.0101052 -0.00475086 0.00380458 0.0141425 0.0245068 0.0331537 0.0386696 0.0401827 0.0376899 0.0320477 0.0245569 0.0166731 0.00970014 0.0042772 0.000304633 -0.00265617 -0.00532377 -0.00795799 -0.0101082 -0.010513 -0.0068445 0.00423904 0.0274098 0.0689122 0.137033 0.241904 0.393636 0.602175 0.870522 1.18665 1.51506 1.79166 1.9291 1.83803 1.46411 0.828403 0.0480867 -0.684448 -1.16626 -1.26154 -0.940264 -0.301729 0.169759 0.300815 0.222825 0.110294 0.0398879 0.0111736 0.00413776 0.000769626 0 0 
0 0 6.13475e-05 0.000549269 0.00179559 0.00966515 0.0375675 0.107486 0.225188 0.320522 0.21392 -0.256859 -0.961828 -1.43597 -1.56334 -1.25544 -0.574078 0.299902 1.14436 1.77904 2.11578 2.16167 1.98768 1.68721 1.34399 1.0164 0.735929 0.513488 0.347475 0.229878 0.150578 0.0995889 0.0681617 0.0492152 0.0373837 0.02886 0.0214789 0.0145258 0.00843114 0.00438654 0.00356526 0.0066124 0.0132358 0.0220806 0.0309882 0.0378823 0.0411323 0.0399811 0.0349661 0.0272794 0.0188236 0.011375 0.00628888 0.00429268 0.00514867 0.00798829 0.0114805 0.0144852 0.0160718 0.0160382 0.014664 0.0123852 0.00976547 0.00698412 0.00381745 -6.63563e-05 -0.00508464 -0.0112528 -0.018169 -0.0251304 -0.0311916 -0.035726 -0.0383758 -0.0393394 -0.0392119 -0.0387323 -0.0387927 -0.0400314 -0.0428945 -0.0474075 -0.0533486 -0.0600956 -0.066831 -0.0726539 -0.0768734 -0.0791421 -0.0795402 -0.0785934 -0.0770188 -0.0756797 -0.0750715 -0.0755332 -0.0769069 -0.0789074 -0.0810764 -0.0830036 -0.0844266 -0.0853071 -0.0857684 -0.0859453 -0.0859724 -0.0859453 -0.0857684 -0.0853071 -0.0844266 -0.0830036 -0.0810764 -0.0789074 -0.0769069 -0.0755332 -0.0750715 -0.0756797 -0.0770188 -0.0785934 -0.0795402 -0.079142 -0.0768734 -0.072654 -0.0668311 -0.0600957 -0.0533486 -0.0474071 -0.0428934 -0.0400302 -0.0387922 -0.0387319 -0.0392099 -0.0393381 -0.0383773 -0.0357268 -0.0311898 -0.025131 -0.0181723 -0.0112588 -0.00509595 -7.55676e-05 0.00381259 0.0069751 0.00976153 0.012389 0.0146536 0.016017 0.0160587 0.0144491 0.0113755 0.00777963 0.00473529 0.00349375 0.00491303 0.0091886 0.0156684 0.0231735 0.0302204 0.0353483 0.0376301 0.0367073 0.0331045 0.0278727 0.0222432 0.0175036 0.0144636 0.0133389 0.0139516 0.0158884 0.018863 0.0231125 0.0297281 0.0408225 0.0600743 0.0924588 0.144749 0.225427 0.344272 0.511241 0.733059 1.01214 1.33814 1.67973 1.97877 2.15192 2.10609 1.77061 1.13842 0.29732 -0.573125 -1.25162 -1.55803 -1.43081 -0.958164 -0.25568 0.213349 0.319487 0.224433 0.107128 0.0375354 0.0101812 0.00372047 0.000674517 0 0 
0 0 4.85508e-05 0.000462147 0.00154114 0.00867231 0.0349162 0.103426 0.225431 0.339525 0.265147 -0.188075 -0.935559 -1.60915 -1.99455 -1.93851 -1.41959 -0.562025 0.416983 1.29349 1.91105 2.21275 2.22907 2.04065 1.73952 1.4029 1.0827 0.806731 0.585056 0.416489 0.293908 0.208018 0.149333 0.10949 0.0819448 0.0618195 0.0459499 0.032913 0.0222538 0.0144622 0.0103111 0.0101799 0.0139299 0.0206886 0.028832 0.0364783 0.0421216 0.0446784 0.0439269 0.0405072 0.0355147 0.0302261 0.0256794 0.0224454 0.0205074 0.0193787 0.0182495 0.0164128 0.0134987 0.00951851 0.00508777 0.00086722 -0.00264585 -0.0052534 -0.00737198 -0.00973727 -0.0131797 -0.0183192 -0.025167 -0.0332008 -0.041483 -0.0489877 -0.0548787 -0.0587814 -0.0608756 -0.061618 -0.0618591 -0.0622856 -0.0635826 -0.066026 -0.0697345 -0.0744039 -0.0795121 -0.0843944 -0.0883444 -0.0909429 -0.0919449 -0.0915787 -0.0902769 -0.0886553 -0.0873453 -0.0868175 -0.0871911 -0.0884252 -0.0902293 -0.0922668 -0.0941317 -0.0957007 -0.0967925 -0.0974501 -0.0976391 -0.0974501 -0.0967925 -0.0957007 -0.0941317 -0.0922668 -0.0902293 -0.0884252 -0.0871911 -0.0868175 -0.0873453 -0.0886553 -0.0902769 -0.0915787 -0.0919449 -0.0909429 -0.0883445 -0.0843946 -0.0795122 -0.074404 -0.0697345 -0.0660254 -0.0635813 -0.0622844 -0.0618588 -0.0616176 -0.0608738 -0.0587796 -0.0548788 -0.0489878 -0.0414824 -0.0332025 -0.0251715 -0.0183258 -0.0131889 -0.00974631 -0.00737873 -0.00525933 -0.00264735 0.000867423 0.00507109 0.00950151 0.0134892 0.016381 0.0181839 0.0192372 0.0202008 0.0218489 0.0246039 0.0284129 0.0327526 0.0367003 0.0392174 0.0395904 0.0375728 0.0336633 0.0289434 0.0245639 0.0216628 0.0209497 0.0224871 0.0259978 0.0311883 0.0379169 0.0465251 0.0582804 0.0752876 0.100889 0.139967 0.198838 0.285516 0.409198 0.578913 0.801452 1.07677 1.3956 1.73077 2.0306 2.21826 2.20204 1.90159 1.28658 0.413641 -0.561367 -1.41537 -1.93199 -1.98749 -1.60324 -0.931947 -0.187136 0.264383 0.338409 0.224667 0.103078 0.0348777 0.00912619 0.00328569 0.000578665 0 0 
0 0 3.71364e-05 0.000380197 0.00129617 0.00766102 0.032039 0.0984737 0.22371 0.356612 0.318717 -0.106609 -0.878079 -1.69201 -2.3268 -2.57409 -2.32373 -1.61589 -0.624528 0.414742 1.29112 1.87827 2.14834 2.14882 1.96391 1.68028 1.36704 1.06951 0.811886 0.603022 0.44179 0.322045 0.235558 0.173964 0.130088 0.098236 0.0742675 0.0556548 0.0410187 0.0298227 0.0223163 0.0187317 0.0191193 0.0231124 0.0298337 0.0378604 0.0456643 0.0518757 0.0555811 0.0564238 0.0546479 0.0508361 0.0457402 0.0399717 0.033835 0.0274517 0.0208288 0.013815 0.00653016 -0.000741738 -0.00755121 -0.0132602 -0.0174933 -0.0202011 -0.0218141 -0.0232151 -0.0253832 -0.0292372 -0.0352167 -0.0431327 -0.0523133 -0.0616359 -0.0700476 -0.0766792 -0.0811849 -0.0836565 -0.0845755 -0.0846448 -0.0845014 -0.0847662 -0.0857499 -0.0876529 -0.0902813 -0.0933107 -0.0962559 -0.0986463 -0.100113 -0.100497 -0.0999103 -0.0987051 -0.0973208 -0.0962432 -0.0958254 -0.0962363 -0.0974495 -0.099208 -0.101212 -0.103118 -0.104654 -0.105686 -0.106008 -0.105686 -0.104654 -0.103118 -0.101212 -0.099208 -0.0974495 -0.0962363 -0.0958254 -0.0962432 -0.0973208 -0.0987051 -0.0999103 -0.100497 -0.100113 -0.0986463 -0.0962559 -0.0933107 -0.0902813 -0.087653 -0.0857499 -0.0847658 -0.0845 -0.0846434 -0.0845754 -0.0836564 -0.0811832 -0.0766768 -0.0700463 -0.0616354 -0.0523136 -0.0431361 -0.035223 -0.0292419 -0.0253893 -0.023224 -0.0218223 -0.0202096 -0.0174979 -0.0132646 -0.00756718 -0.000751889 0.0065218 0.013793 0.0207909 0.0273604 0.0336164 0.0395167 0.0449071 0.0493801 0.0523243 0.0530351 0.0510982 0.0466339 0.0403635 0.03362 0.0279268 0.0247102 0.024837 0.0283661 0.0347057 0.0430954 0.0530273 0.0645585 0.0788704 0.0982523 0.125978 0.166717 0.22635 0.311989 0.431743 0.593502 0.80318 1.06141 1.35839 1.67053 1.95315 2.13748 2.1372 1.86841 1.28385 0.411151 -0.623807 -1.61105 -2.31585 -2.56494 -2.3183 -1.68565 -0.874617 -0.105954 0.31775 0.355423 0.222944 0.0981386 0.0319959 0.00805352 0.00285377 0.000487006 0 0 
0 0 2.75629e-05 0.000306852 0.00107101 0.00667292 0.0290433 0.0927584 0.219839 0.370433 0.369454 -0.0329338 -0.731649 -1.60104 -2.43584 -2.99457 -3.088 -2.65809 -1.80162 -0.72708 0.328072 1.17652 1.72337 1.96515 1.96007 1.79095 1.53681 1.258 0.993476 0.763846 0.576432 0.430388 0.320529 0.239838 0.181373 0.138979 0.107687 0.0839782 0.0655786 0.0511476 0.0402846 0.033121 0.0299551 0.0308504 0.0355065 0.0430188 0.0519953 0.0607153 0.0676836 0.0717093 0.0720614 0.0687876 0.0623029 0.0533181 0.0426829 0.0310996 0.0191928 0.00757144 -0.00343981 -0.0133975 -0.0219779 -0.0288279 -0.0337632 -0.0369311 -0.0386318 -0.0396975 -0.0410618 -0.0436685 -0.0482675 -0.0550335 -0.0637396 -0.0734793 -0.0831942 -0.0918125 -0.0984891 -0.102853 -0.104918 -0.105138 -0.104085 -0.102462 -0.10088 -0.0998797 -0.0996418 -0.100229 -0.101505 -0.103042 -0.104466 -0.105389 -0.105605 -0.105131 -0.104227 -0.103138 -0.102432 -0.102293 -0.102923 -0.104246 -0.106073 -0.108006 -0.109721 -0.110879 -0.111334 -0.110879 -0.109721 -0.108006 -0.106073 -0.104246 -0.102923 -0.102293 -0.102432 -0.103138 -0.104227 -0.105131 -0.105605 -0.105389 -0.104466 -0.103042 -0.101505 -0.100229 -0.0996418 -0.0998798 -0.10088 -0.102461 -0.104083 -0.105137 -0.104917 -0.102852 -0.0984877 -0.0918099 -0.0831917 -0.0734776 -0.0637392 -0.0550376 -0.0482756 -0.043673 -0.0410663 -0.0397066 -0.0386424 -0.0369434 -0.0337722 -0.0288339 -0.0219834 -0.0134054 -0.00344825 0.00756885 0.0191747 0.0310258 0.0425229 0.0529981 0.0616704 0.0676462 0.0701499 0.0688017 0.063629 0.0556223 0.0463407 0.0377088 0.0317547 0.0300408 0.0331465 0.0407181 0.0517319 0.0650062 0.0797781 0.0964058 0.116598 0.143379 0.181131 0.235557 0.313148 0.421061 0.566156 0.753348 0.983259 1.24806 1.52645 1.77998 1.94877 1.95421 1.71375 1.16945 0.324698 -0.726023 -1.79608 -2.64894 -3.07691 -2.98357 -2.42671 -1.59488 -0.728663 -0.0325491 0.36829 0.369183 0.219081 0.0924397 0.0289977 0.00700738 0.00244291 0.000403373 0 0 
0 0 1.9936e-05 0.000243806 0.000871911 0.00574143 0.0260388 0.0864978 0.214109 0.382699 0.435157 0.133439 -0.455588 -1.30262 -2.25867 -3.08752 -3.5477 -3.48738 -2.90478 -1.94404 -0.832741 0.202791 1.00375 1.50467 1.72103 1.71639 1.56926 1.34994 1.11044 0.883707 0.686869 0.525998 0.400281 0.305316 0.235162 0.183873 0.146123 0.117653 0.0954605 0.0777129 0.0635365 0.0528573 0.0460876 0.0435818 0.0454612 0.0512106 0.059638 0.0689443 0.0771485 0.0825192 0.0837676 0.0802771 0.0722847 0.0605417 0.0461565 0.0304767 0.0145356 -0.000643558 -0.014399 -0.0264073 -0.0364049 -0.044334 -0.0502172 -0.0542148 -0.0566464 -0.0579914 -0.0590715 -0.0607229 -0.0638147 -0.0688216 -0.0758939 -0.0846661 -0.0942185 -0.103558 -0.111557 -0.117481 -0.120849 -0.121728 -0.120489 -0.11775 -0.114259 -0.110767 -0.107883 -0.105915 -0.105057 -0.105125 -0.105835 -0.106715 -0.107418 -0.107697 -0.107503 -0.106998 -0.106464 -0.106254 -0.10657 -0.107554 -0.109021 -0.11078 -0.112369 -0.113526 -0.113937 -0.113526 -0.112369 -0.11078 -0.109021 -0.107554 -0.10657 -0.106254 -0.106464 -0.106998 -0.107503 -0.107697 -0.107418 -0.106715 -0.105835 -0.105125 -0.105057 -0.105915 -0.107883 -0.110767 -0.114259 -0.11775 -0.120487 -0.121726 -0.120848 -0.11748 -0.111556 -0.103556 -0.0942152 -0.0846624 -0.075892 -0.0688268 -0.0638256 -0.0607281 -0.0590754 -0.0580005 -0.0566575 -0.0542278 -0.0502274 -0.044344 -0.0364103 -0.0263999 -0.0143969 -0.000647195 0.014511 0.030417 0.0460461 0.0603095 0.0718276 0.0794135 0.0822794 0.0801427 0.0736343 0.0642383 0.053969 0.0452526 0.0402663 0.0405187 0.0465268 0.0577122 0.0729006 0.0907898 0.110553 0.132612 0.158873 0.192832 0.239551 0.30514 0.396187 0.518961 0.677962 0.873784 1.1002 1.33955 1.55868 1.70574 1.71086 1.49586 0.997353 0.199989 -0.831102 -1.93781 -2.89456 -3.47465 -3.5345 -3.07586 -2.24999 -1.29745 -0.453575 0.133215 0.433741 0.381393 0.213366 0.086198 0.0259923 0.00602293 0.00206574 0.00032989 0 0 
0 0 1.41277e-05 0.000191401 0.000701421 0.00488886 0.0231137 0.0798402 0.205914 0.385926 0.472749 0.34046 -0.0873927 -0.833924 -1.81359 -2.82758 -3.61834 -3.96202 -3.75453 -3.04799 -2.02198 -0.909588 0.0823392 0.824831 1.2781 1.47122 1.46957 1.34563 1.16107 0.96043 0.771232 0.607523 0.473926 0.369605 0.290572 0.231643 0.187786 0.154539 0.128447 0.107284 0.0898575 0.0758331 0.0655595 0.0594562 0.0578452 0.0604898 0.0664053 0.0740617 0.0814087 0.0863453 0.0873254 0.0833555 0.0743849 0.0611214 0.0447057 0.0266621 0.00837253 -0.00902773 -0.0246114 -0.0381169 -0.049353 -0.0584865 -0.0655694 -0.0707813 -0.0743917 -0.076627 -0.0780352 -0.0792164 -0.0809355 -0.0839707 -0.0886798 -0.0952379 -0.103161 -0.111631 -0.119686 -0.126267 -0.130666 -0.132487 -0.131762 -0.128897 -0.124593 -0.119618 -0.11475 -0.110616 -0.107583 -0.105828 -0.105207 -0.105411 -0.106023 -0.106723 -0.107241 -0.107531 -0.107622 -0.107801 -0.108219 -0.109051 -0.110214 -0.111575 -0.112846 -0.113797 -0.114101 -0.113797 -0.112846 -0.111575 -0.110214 -0.109051 -0.108219 -0.107801 -0.107622 -0.107531 -0.107241 -0.106723 -0.106023 -0.105411 -0.105207 -0.105828 -0.107583 -0.110616 -0.11475 -0.119618 -0.124593 -0.128896 -0.131761 -0.132484 -0.130664 -0.126267 -0.119686 -0.111628 -0.103157 -0.095233 -0.0886773 -0.0839774 -0.0809468 -0.0792203 -0.0780389 -0.0766386 -0.0744044 -0.0707942 -0.065578 -0.0584932 -0.0493609 -0.0381166 -0.0246061 -0.00903132 0.00835711 0.0266297 0.044639 0.0609575 0.0740604 0.0827423 0.0861924 0.0844581 0.078487 0.0698974 0.0610412 0.0543227 0.0516874 0.0545571 0.0633686 0.0776231 0.0963378 0.118329 0.142946 0.170653 0.203348 0.244653 0.299679 0.374175 0.474141 0.604047 0.765042 0.95247 1.15216 1.33619 1.46017 1.46235 1.2705 0.819473 0.0803055 -0.90736 -2.01511 -3.03692 -3.74053 -3.94705 -3.60453 -2.81666 -1.80642 -0.830416 -0.0867184 0.33947 0.47118 0.384594 0.205194 0.0795613 0.023068 0.00512343 0.00172945 0.000267249 0 0 
0 0 9.87221e-06 0.000148917 0.000558803 0.00412569 0.0203433 0.0731509 0.197267 0.392995 0.545424 0.554612 0.305021 -0.279577 -1.18379 -2.27099 -3.3051 -4.02465 -4.23784 -3.89262 -3.08825 -2.02745 -0.938143 -0.00303566 0.677371 1.0844 1.25648 1.25798 1.15481 1.00106 0.834661 0.678464 0.543574 0.433534 0.347227 0.281031 0.230684 0.192076 0.161647 0.13694 0.116417 0.0993384 0.0857509 0.0759975 0.0703216 0.0687077 0.0705388 0.0745223 0.0790767 0.0822094 0.0821622 0.0778549 0.0688462 0.0555494 0.0390166 0.0205796 0.00163846 -0.0165808 -0.0331713 -0.0477478 -0.0601667 -0.0704934 -0.0789782 -0.0856365 -0.0906402 -0.0941073 -0.0961801 -0.0973398 -0.0981112 -0.0992421 -0.101374 -0.104885 -0.109918 -0.116052 -0.122584 -0.128659 -0.133337 -0.135958 -0.136238 -0.134224 -0.130292 -0.125149 -0.119476 -0.114019 -0.109364 -0.105876 -0.103683 -0.102744 -0.102719 -0.103332 -0.104269 -0.105204 -0.106092 -0.10686 -0.107629 -0.108408 -0.109294 -0.11017 -0.110981 -0.111526 -0.111736 -0.111526 -0.110981 -0.11017 -0.109294 -0.108408 -0.107629 -0.10686 -0.106092 -0.105204 -0.104269 -0.103332 -0.102719 -0.102744 -0.103683 -0.105876 -0.109364 -0.114019 -0.119476 -0.125149 -0.130292 -0.134224 -0.136237 -0.135956 -0.133335 -0.128659 -0.122584 -0.116049 -0.109913 -0.104879 -0.101371 -0.0992481 -0.0981211 -0.097346 -0.0961866 -0.094118 -0.0906507 -0.085646 -0.0789888 -0.0705037 -0.0601737 -0.0477506 -0.0331674 -0.0165784 0.00163017 0.0205589 0.0389704 0.0554524 0.0686251 0.0774141 0.0813307 0.0807642 0.0767295 0.0710213 0.0657194 0.0627367 0.0637313 0.0697942 0.0812997 0.0981041 0.119581 0.144987 0.174189 0.207771 0.24758 0.296986 0.360385 0.442737 0.548391 0.679183 0.832061 0.996002 1.14821 1.25046 1.24919 1.07825 0.673238 -0.00415849 -0.935314 -2.02012 -3.07662 -3.87774 -4.22155 -4.00909 -3.2922 -2.26197 -1.17888 -0.278095 0.30424 0.552814 0.54357 0.391627 0.196573 0.0728939 0.0202997 0.00431955 0.00143603 0.000215044 0 0 
0 0 6.84875e-06 0.000115073 0.000441668 0.00345367 0.0177566 0.066428 0.186918 0.392748 0.6013 0.726234 0.650694 0.264345 -0.481374 -1.52461 -2.68257 -3.69582 -4.31478 -4.38927 -3.91826 -3.03886 -1.9656 -0.913645 -0.0400351 0.580208 0.944878 1.09782 1.10084 1.01381 0.884196 0.74436 0.613172 0.499591 0.406303 0.332113 0.27416 0.229018 0.193454 0.164753 0.141083 0.121247 0.104599 0.0911606 0.0811008 0.0744804 0.0710611 0.0700878 0.0704019 0.070594 0.0690908 0.0646376 0.0565153 0.0446322 0.0296342 0.0125267 -0.0055416 -0.0234136 -0.0402232 -0.0553774 -0.0687481 -0.0802577 -0.0899825 -0.0980376 -0.104384 -0.109056 -0.111978 -0.113345 -0.113532 -0.113044 -0.112621 -0.112864 -0.114312 -0.117031 -0.120784 -0.125075 -0.129013 -0.132007 -0.133296 -0.132685 -0.13019 -0.126129 -0.121042 -0.1155 -0.110226 -0.10569 -0.102234 -0.100052 -0.0990881 -0.0991577 -0.0999554 -0.101094 -0.102363 -0.10351 -0.104434 -0.105117 -0.105606 -0.105906 -0.106106 -0.106202 -0.106287 -0.106202 -0.106106 -0.105906 -0.105606 -0.105117 -0.104434 -0.10351 -0.102363 -0.101094 -0.0999554 -0.0991577 -0.0990881 -0.100052 -0.102234 -0.10569 -0.110226 -0.1155 -0.121042 -0.126129 -0.13019 -0.132685 -0.133294 -0.132005 -0.129011 -0.125075 -0.120785 -0.117029 -0.114307 -0.112859 -0.112618 -0.113048 -0.113541 -0.113354 -0.111985 -0.109065 -0.104395 -0.0980528 -0.0899927 -0.0802573 -0.0687506 -0.0553857 -0.0402265 -0.0234156 -0.00555016 0.0125117 0.0296119 0.0445814 0.0563785 0.0643394 0.0685127 0.0695467 0.0686068 0.0672394 0.0669287 0.0690212 0.0745644 0.084257 0.0984796 0.117359 0.140882 0.16926 0.202945 0.242839 0.290772 0.349544 0.422414 0.512765 0.622414 0.74944 0.885503 1.0121 1.09703 1.09265 0.940185 0.577235 -0.0402946 -0.910312 -1.95801 -3.027 -3.90293 -4.37206 -4.29785 -3.68124 -2.67184 -1.5183 -0.479038 0.263802 0.648608 0.723766 0.599216 0.391371 0.186257 0.066193 0.017716 0.00361276 0.00118388 0.000172169 0 0 
0 0 4.76756e-06 8.8419e-05 0.000345787 0.00286256 0.0153354 0.0595332 0.173442 0.377759 0.614636 0.82311 0.899567 0.719855 0.187398 -0.709829 -1.86255 -3.05062 -4.00577 -4.50298 -4.43806 -3.85601 -2.92152 -1.85136 -0.843449 -0.029888 0.535709 0.862799 0.997773 0.999553 0.922644 0.809024 0.686628 0.571403 0.47092 0.387487 0.320232 0.266837 0.224737 0.191159 0.163718 0.140756 0.121077 0.103955 0.0893497 0.0773093 0.0679463 0.0611919 0.0564962 0.053022 0.0495912 0.0450054 0.0382971 0.0288525 0.0166675 0.00225438 -0.013668 -0.0301116 -0.0462849 -0.0614598 -0.0752543 -0.0875516 -0.0981917 -0.107243 -0.114603 -0.120176 -0.123843 -0.125533 -0.125386 -0.12377 -0.121254 -0.118556 -0.116392 -0.115335 -0.115607 -0.117104 -0.119385 -0.121847 -0.123806 -0.124653 -0.124128 -0.122088 -0.118777 -0.114536 -0.109879 -0.105359 -0.101429 -0.0984162 -0.0964679 -0.0955942 -0.0956151 -0.0962139 -0.0970478 -0.0978695 -0.0984294 -0.0986121 -0.0984662 -0.0981188 -0.0976672 -0.0973438 -0.0972112 -0.0973438 -0.0976672 -0.0981188 -0.0984662 -0.0986121 -0.0984294 -0.0978695 -0.0970478 -0.0962139 -0.0956151 -0.0955942 -0.0964679 -0.0984162 -0.101429 -0.105359 -0.109879 -0.114536 -0.118777 -0.122088 -0.124128 -0.124652 -0.123804 -0.121845 -0.119383 -0.117104 -0.115608 -0.115334 -0.116388 -0.11855 -0.12125 -0.123773 -0.125396 -0.125541 -0.123851 -0.120186 -0.11461 -0.107257 -0.0982032 -0.087547 -0.0752628 -0.0614687 -0.0462814 -0.0301193 -0.0136687 0.00223327 0.0166482 0.0288242 0.0382119 0.0448185 0.0492021 0.0522771 0.0551696 0.0589821 0.0645531 0.072569 0.0832539 0.0969411 0.113983 0.134869 0.160526 0.192037 0.230555 0.277642 0.335096 0.404803 0.488624 0.587514 0.699661 0.818192 0.927891 1.00134 0.99689 0.860125 0.533774 -0.0295172 -0.839808 -1.84372 -2.90969 -3.84057 -4.42037 -4.48509 -3.98981 -3.03834 -1.85485 -0.706542 0.187215 0.717572 0.896507 0.820245 0.612477 0.376425 0.172825 0.0593212 0.0152983 0.00299202 0.000967793 0.000137031 0 0 
0 0 3.11767e-06 6.57002e-05 0.000262603 0.00232351 0.0131048 0.0536465 0.164673 0.344147 0.581841 0.838724 1.03204 1.04168 0.743817 0.0650963 -0.964949 -2.19318 -3.37335 -4.24181 -4.60658 -4.40925 -3.73325 -2.76087 -1.70408 -0.741503 0.0173224 0.534968 0.828699 0.946173 0.943362 0.870392 0.764984 0.651854 0.545107 0.451569 0.373393 0.309835 0.259097 0.218759 0.186159 0.158953 0.135373 0.114185 0.0948325 0.0773155 0.0618962 0.04905 0.0389546 0.0313486 0.0255692 0.0206188 0.0153612 0.00876827 0.000182388 -0.0105579 -0.0231854 -0.0371269 -0.0516114 -0.0659012 -0.0794124 -0.0917728 -0.102784 -0.11225 -0.120079 -0.126168 -0.130293 -0.132355 -0.132222 -0.130107 -0.126338 -0.121574 -0.116606 -0.112176 -0.108968 -0.107283 -0.10716 -0.108234 -0.11003 -0.111843 -0.113099 -0.113407 -0.112576 -0.110575 -0.10772 -0.104296 -0.100817 -0.0975943 -0.0949245 -0.0929579 -0.0916552 -0.0909081 -0.090426 -0.0900241 -0.0894632 -0.0886398 -0.0876024 -0.0864784 -0.0854381 -0.0847017 -0.0844608 -0.0847017 -0.0854381 -0.0864784 -0.0876024 -0.0886398 -0.0894632 -0.0900241 -0.090426 -0.0909081 -0.0916552 -0.0929579 -0.0949245 -0.0975943 -0.100817 -0.104296 -0.10772 -0.110576 -0.112576 -0.113408 -0.1131 -0.111843 -0.110029 -0.108232 -0.107158 -0.107283 -0.108969 -0.112175 -0.116603 -0.12157 -0.126333 -0.130108 -0.132231 -0.132362 -0.130299 -0.126179 -0.120088 -0.112257 -0.102794 -0.0917777 -0.0794179 -0.065908 -0.0516165 -0.0371365 -0.0231945 -0.0105581 0.000170243 0.00873364 0.0153072 0.0205004 0.0253242 0.0308377 0.0380128 0.0474053 0.0592533 0.0733945 0.089473 0.10751 0.127959 0.151792 0.180609 0.216336 0.261069 0.316897 0.385319 0.467282 0.562853 0.669615 0.780864 0.883107 0.952312 0.951371 0.830759 0.534774 0.0181169 -0.737783 -1.69661 -2.7493 -3.71798 -4.39142 -4.58807 -4.22476 -3.35969 -2.18409 -0.960614 0.065438 0.741496 1.03813 1.02843 0.835763 0.579775 0.342921 0.164084 0.0534545 0.0130714 0.00242685 0.000776242 0.000106804 0 0 
0 0 1.66855e-06 4.48346e-05 0.000185128 0.00175219 0.0103112 0.0437695 0.138686 0.291827 0.512783 0.786016 1.05497 1.21757 1.14397 0.719734 -0.0978684 -1.23673 -2.5069 -3.64805 -4.41194 -4.64387 -4.32738 -3.57561 -2.57983 -1.54244 -0.622802 0.0876307 0.563334 0.827153 0.92723 0.917048 0.843269 0.740556 0.631427 0.528709 0.438713 0.363272 0.301587 0.251819 0.21152 0.177958 0.148846 0.122505 0.097952 0.0749434 0.0538501 0.0352547 0.0198693 0.00801223 -0.000461484 -0.00626531 -0.010485 -0.0143867 -0.0191721 -0.0256336 -0.0340526 -0.0443192 -0.0559073 -0.0681387 -0.0803502 -0.0918967 -0.102492 -0.111759 -0.119556 -0.125777 -0.130167 -0.132584 -0.132856 -0.130966 -0.127061 -0.121574 -0.115118 -0.108541 -0.102628 -0.0980673 -0.0952992 -0.0943606 -0.095006 -0.096778 -0.0990242 -0.10112 -0.102597 -0.103075 -0.102508 -0.100959 -0.0986194 -0.0958232 -0.0928176 -0.0898302 -0.0870117 -0.0844666 -0.0821049 -0.0798643 -0.0776779 -0.0755293 -0.0734277 -0.0715287 -0.0700113 -0.0689678 -0.0686366 -0.0689678 -0.0700113 -0.0715287 -0.0734277 -0.0755293 -0.0776779 -0.0798643 -0.0821049 -0.0844666 -0.0870117 -0.0898302 -0.0928176 -0.0958232 -0.0986194 -0.100959 -0.102508 -0.103075 -0.102597 -0.10112 -0.0990245 -0.0967781 -0.0950049 -0.0943583 -0.0952972 -0.0980669 -0.102629 -0.10854 -0.115115 -0.121569 -0.127057 -0.130965 -0.132862 -0.132591 -0.130171 -0.125787 -0.119568 -0.111762 -0.1025 -0.0919087 -0.0803572 -0.0681471 -0.0559157 -0.0443272 -0.0340598 -0.0256527 -0.0191987 -0.0144054 -0.0105278 -0.00634674 -0.000630561 0.00767778 0.0192282 0.0340705 0.0518565 0.0718293 0.0934634 0.11655 0.141654 0.170227 0.204378 0.246684 0.299967 0.366293 0.44687 0.541613 0.647798 0.758559 0.860915 0.932578 0.939514 0.835705 0.568339 0.0899096 -0.61916 -1.53535 -2.56875 -3.56076 -4.30969 -4.62504 -4.39407 -3.6332 -2.4965 -1.23129 -0.0968499 0.717541 1.14007 1.2133 1.05123 0.783209 0.510948 0.290781 0.138187 0.043612 0.0102836 0.001828 0.000573162 7.63229e-05 0 0 
0 0 5.91806e-07 2.82479e-05 0.000122407 0.00125389 0.00768696 0.0334701 0.107543 0.231469 0.423959 0.687512 0.9916 1.26038 1.37593 1.20591 0.653298 -0.289739 -1.51123 -2.79347 -3.87325 -4.52522 -4.63236 -4.214 -3.40433 -2.3967 -1.38136 -0.50112 0.166606 0.605549 0.842712 0.926251 0.907618 0.830797 0.728257 0.620687 0.519856 0.431359 0.356591 0.294555 0.243299 0.200377 0.163348 0.130261 0.0997797 0.0713242 0.0450691 0.0215901 0.00160956 -0.0141236 -0.0254581 -0.0326513 -0.0365916 -0.0385315 -0.0398988 -0.0420043 -0.0456835 -0.0513046 -0.0587936 -0.0676623 -0.0773432 -0.0870728 -0.0963698 -0.1048 -0.11209 -0.118069 -0.122618 -0.1255 -0.126556 -0.125632 -0.122675 -0.117841 -0.111574 -0.104449 -0.0972551 -0.0907771 -0.0856693 -0.0824536 -0.0812357 -0.0817565 -0.0836494 -0.0862648 -0.0890193 -0.0912913 -0.092684 -0.0929615 -0.0920447 -0.0900453 -0.0871454 -0.0835988 -0.0796364 -0.0755087 -0.0713838 -0.0673885 -0.0636415 -0.06023 -0.0572371 -0.0547536 -0.0528874 -0.0517205 -0.0513442 -0.0517205 -0.0528874 -0.0547536 -0.0572371 -0.06023 -0.0636415 -0.0673885 -0.0713838 -0.0755087 -0.0796364 -0.0835988 -0.0871454 -0.0900453 -0.0920447 -0.0929615 -0.092684 -0.0912913 -0.0890193 -0.0862647 -0.0836496 -0.0817565 -0.081235 -0.0824519 -0.0856669 -0.0907758 -0.0972553 -0.104448 -0.111571 -0.117838 -0.122672 -0.125629 -0.126559 -0.125507 -0.122624 -0.118074 -0.112098 -0.104809 -0.0963795 -0.0870787 -0.0773478 -0.0676717 -0.0588074 -0.0513168 -0.0456831 -0.0420154 -0.0399094 -0.0385466 -0.0366147 -0.0326931 -0.0255642 -0.0143309 0.00117992 0.0207666 0.0436169 0.0689591 0.0961828 0.125211 0.156829 0.192751 0.235348 0.287518 0.351955 0.430574 0.523896 0.629877 0.742005 0.847662 0.925702 0.943628 0.857751 0.617267 0.174675 -0.49612 -1.37465 -2.38621 -3.38999 -4.19661 -4.61342 -4.50679 -3.85742 -2.78188 -1.50466 -0.287944 0.651395 1.20179 1.37107 1.25588 0.988033 0.685033 0.42243 0.230633 0.107154 0.0333489 0.00766532 0.00130597 0.000398159 5.07699e-05 0 0 
0 0 6.71724e-08 1.82199e-05 8.26643e-05 0.000946074 0.00624732 0.0285734 0.0790979 0.173198 0.331166 0.566755 0.871413 1.19789 1.45233 1.50594 1.23117 0.554439 -0.496244 -1.77448 -3.0446 -4.0497 -4.5914 -4.58769 -4.08653 -3.23523 -2.2243 -1.23214 -0.387974 0.242209 0.649519 0.863851 0.933154 0.906971 0.827171 0.724024 0.616694 0.515899 0.426566 0.34976 0.284513 0.229075 0.181419 0.139607 0.102192 0.0682429 0.0374262 0.0100179 -0.0134431 -0.0323743 -0.0462995 -0.0552237 -0.0596981 -0.0607535 -0.0596995 -0.0580499 -0.0570848 -0.0576887 -0.0602407 -0.0646786 -0.0706309 -0.0774813 -0.0845857 -0.0914923 -0.0977977 -0.103308 -0.107791 -0.111172 -0.113195 -0.113705 -0.112479 -0.10945 -0.104741 -0.0986836 -0.0917853 -0.0847619 -0.0782912 -0.0730939 -0.0695916 -0.0679675 -0.068089 -0.0696173 -0.0719774 -0.074558 -0.0767918 -0.0781775 -0.0783884 -0.0773253 -0.074999 -0.0715798 -0.0673384 -0.0625664 -0.0576164 -0.0527328 -0.0481853 -0.0441681 -0.0407683 -0.0380898 -0.036141 -0.0350045 -0.0346125 -0.0350045 -0.036141 -0.0380898 -0.0407683 -0.0441681 -0.0481853 -0.0527328 -0.0576164 -0.0625664 -0.0673384 -0.0715798 -0.074999 -0.0773253 -0.0783884 -0.0781775 -0.0767918 -0.074558 -0.0719774 -0.0696173 -0.0680889 -0.0679677 -0.0695912 -0.0730926 -0.078289 -0.08476 -0.0917851 -0.0986826 -0.104737 -0.109447 -0.112478 -0.113703 -0.113193 -0.111177 -0.107798 -0.103311 -0.0978008 -0.0914991 -0.0845987 -0.0774938 -0.0706391 -0.0646847 -0.0602473 -0.0577004 -0.0570977 -0.058073 -0.059706 -0.0607456 -0.0597048 -0.0552367 -0.0463485 -0.0325105 -0.0137326 0.00945736 0.0364115 0.0665044 0.0994254 0.1355 0.175787 0.222018 0.276478 0.34166 0.41971 0.511815 0.616715 0.729068 0.837297 0.921444 0.950415 0.881946 0.666594 0.256777 -0.376827 -1.22413 -2.21431 -3.2215 -4.06956 -4.56884 -4.57261 -4.03307 -3.03194 -1.76683 -0.493608 0.552934 1.22698 1.5006 1.4471 1.19355 0.868248 0.564695 0.329962 0.172568 0.07881 0.0284694 0.00622867 0.00098391 0.000295824 3.57135e-05 0 0 
0 0 -8.74777e-08 1.23704e-05 5.78279e-05 0.000684869 0.00453144 0.0203319 0.0545487 0.122808 0.245652 0.443109 0.722842 1.06378 1.4018 1.62787 1.60804 1.22587 0.434765 -0.703308 -2.01476 -3.25519 -4.1806 -4.6206 -4.52354 -3.95849 -3.07939 -2.07174 -1.10341 -0.291868 0.306277 0.687663 0.883999 0.942454 0.910661 0.828219 0.723602 0.6147 0.511454 0.418543 0.337158 0.266761 0.206112 0.153692 0.108147 0.068238 0.033168 0.00263193 -0.0233543 -0.0445477 -0.0605769 -0.0713186 -0.0769774 -0.078169 -0.076055 -0.071923 -0.0672254 -0.0632304 -0.0607437 -0.0602048 -0.0616085 -0.0646517 -0.068804 -0.073506 -0.0783145 -0.0829317 -0.0871334 -0.0907441 -0.0936095 -0.0955253 -0.0962378 -0.0955411 -0.0932286 -0.0893121 -0.084066 -0.0778325 -0.0712081 -0.0648682 -0.0593926 -0.0552559 -0.052694 -0.0517239 -0.0520541 -0.0532436 -0.0547411 -0.0560592 -0.0567122 -0.0564115 -0.0550027 -0.0524979 -0.0491139 -0.0450517 -0.0406819 -0.0362714 -0.0321464 -0.0285175 -0.0254655 -0.0231082 -0.0214511 -0.0204725 -0.0201765 -0.0204725 -0.0214511 -0.0231082 -0.0254655 -0.0285175 -0.0321464 -0.0362714 -0.0406819 -0.0450517 -0.0491139 -0.0524979 -0.0550027 -0.0564115 -0.0567122 -0.0560592 -0.0547411 -0.0532435 -0.0520541 -0.0517239 -0.0526939 -0.0552559 -0.0593922 -0.0648673 -0.071206 -0.0778307 -0.0840656 -0.0893116 -0.0932257 -0.095537 -0.0962373 -0.0955264 -0.0936084 -0.0907443 -0.0871397 -0.0829382 -0.0783186 -0.0735069 -0.068807 -0.0646637 -0.0616224 -0.0602092 -0.0607499 -0.0632391 -0.0672385 -0.0719398 -0.076064 -0.0781834 -0.0769844 -0.0713279 -0.0606009 -0.0446157 -0.023499 0.00228035 0.0325032 0.0670254 0.106105 0.150537 0.201517 0.260603 0.329606 0.410161 0.503272 0.608099 0.720102 0.829094 0.916623 0.953444 0.899072 0.705222 0.324384 -0.275075 -1.08929 -2.06046 -3.06605 -3.94192 -4.50482 -4.60157 -4.16335 -3.24161 -2.0061 -0.699824 0.43375 1.2217 1.6023 1.62197 1.39668 1.05989 0.720193 0.441485 0.244753 0.122358 0.0543487 0.0202574 0.00451758 0.000710977 0.000208709 2.43255e-05 0 0 
0 0 5.20907e-09 1.01473e-05 4.62498e-05 0.00056668 0.0037482 0.0131741 0.0354174 0.082775 0.173603 0.329829 0.569112 0.891075 1.26099 1.59888 1.7844 1.6841 1.19751 0.305971 -0.898772 -2.22381 -3.42373 -4.27147 -4.6231 -4.4515 -3.83999 -2.9448 -1.94579 -1.0009 -0.217677 0.354571 0.716162 0.899432 0.950133 0.913845 0.828311 0.720615 0.607964 0.500269 0.402312 0.315832 0.240827 0.176449 0.121552 0.0748862 0.035237 0.0016372 -0.0264427 -0.0492594 -0.0669563 -0.0793606 -0.0865797 -0.0888912 -0.0870036 -0.0819607 -0.0750238 -0.067596 -0.0608098 -0.0555363 -0.0522427 -0.0510028 -0.0515324 -0.0534331 -0.0561635 -0.0593967 -0.0628327 -0.0662395 -0.0694544 -0.072297 -0.0745327 -0.0758433 -0.075968 -0.0746254 -0.0716966 -0.0672921 -0.0616476 -0.0552889 -0.0487112 -0.0425709 -0.0373217 -0.0333066 -0.0306181 -0.0291711 -0.0286765 -0.0287111 -0.0289234 -0.0289547 -0.0285255 -0.0274813 -0.0258157 -0.0236301 -0.0211252 -0.0184689 -0.0159259 -0.0136293 -0.0117394 -0.0102418 -0.00921826 -0.00860587 -0.00838785 -0.00860587 -0.00921826 -0.0102418 -0.0117394 -0.0136293 -0.0159259 -0.0184689 -0.0211252 -0.0236301 -0.0258157 -0.0274813 -0.0285255 -0.0289547 -0.0289234 -0.0287111 -0.0286765 -0.0291711 -0.0306181 -0.0333066 -0.0373216 -0.0425708 -0.048711 -0.0552881 -0.0616459 -0.0672896 -0.0716955 -0.0746252 -0.075966 -0.0758394 -0.0745312 -0.0722992 -0.0694564 -0.0662394 -0.0628349 -0.0594008 -0.0561684 -0.0534398 -0.051534 -0.0510012 -0.052253 -0.0555427 -0.0608162 -0.0676184 -0.075041 -0.0819574 -0.0869974 -0.0888909 -0.0865838 -0.0793518 -0.0669609 -0.0493076 -0.0265296 0.00143434 0.0347976 0.0740758 0.120118 0.174104 0.237231 0.31072 0.395651 0.492289 0.599327 0.712418 0.822015 0.910925 0.9518 0.906282 0.727955 0.370209 -0.19982 -0.982751 -1.92917 -2.93029 -3.82362 -4.43295 -4.60393 -4.2537 -3.40935 -2.21422 -0.894463 0.305493 1.19347 1.67807 1.77789 1.593 1.25634 0.887784 0.567009 0.328611 0.172962 0.0824698 0.0352867 0.0131257 0.00373737 0.000586563 0.000171519 1.87171e-05 0 0 
0 0 -1.79646e-07 5.65406e-06 2.79965e-05 0.000358262 0.00236018 0.00787858 0.0217519 0.0531464 0.11709 0.23423 0.426618 0.707776 1.06772 1.45783 1.78446 1.9203 1.73742 1.1542 0.178607 -1.07344 -2.39713 -3.55203 -4.32954 -4.60889 -4.38141 -3.73896 -2.83756 -1.85075 -0.927616 -0.16779 0.384608 0.731866 0.905791 0.950587 0.910053 0.820681 0.708948 0.592074 0.480149 0.378349 0.288852 0.211888 0.146752 0.0922537 0.0470078 0.00966944 -0.0209515 -0.0455943 -0.0648432 -0.0788894 -0.0878715 -0.0918877 -0.0912938 -0.0867722 -0.0793095 -0.0701102 -0.0604608 -0.0514508 -0.043954 -0.0384715 -0.0350861 -0.0336604 -0.0338224 -0.0351071 -0.037198 -0.0398104 -0.0426764 -0.0456931 -0.0486145 -0.0511566 -0.0530225 -0.0538395 -0.053272 -0.0511464 -0.0473732 -0.0421235 -0.0357823 -0.0288332 -0.0218674 -0.0153985 -0.00985274 -0.00549897 -0.00239517 -0.000470692 0.000509064 0.000788174 0.000668347 0.000411061 0.000172804 8.47202e-05 0.000176977 0.000424641 0.000746567 0.00113263 0.00146007 0.00173737 0.00194212 0.00207243 0.00212705 0.00207243 0.00194212 0.00173737 0.00146007 0.00113263 0.000746567 0.000424641 0.000176977 8.47202e-05 0.000172804 0.000411061 0.000668347 0.000788174 0.000509064 -0.000470692 -0.00239517 -0.00549897 -0.00985274 -0.0153985 -0.0218673 -0.0288333 -0.0357824 -0.0421233 -0.0473719 -0.0511439 -0.0532701 -0.0538395 -0.0530217 -0.0511526 -0.0486107 -0.0456946 -0.0426804 -0.0398136 -0.0372012 -0.0351087 -0.0338197 -0.0336655 -0.0350925 -0.038463 -0.043956 -0.0514526 -0.060461 -0.070121 -0.0793249 -0.0867895 -0.0912907 -0.0918921 -0.0878777 -0.0788909 -0.064842 -0.0456208 -0.0209892 0.00955008 0.0467513 0.0917413 0.145783 0.210233 0.286189 0.374339 0.474588 0.584924 0.700572 0.81185 0.901929 0.944633 0.903485 0.734305 0.392267 -0.155302 -0.911444 -1.8326 -2.81937 -3.72165 -4.3628 -4.5896 -4.3114 -3.53701 -2.38675 -1.06835 0.178661 1.15033 1.73117 1.91325 1.77784 1.45241 1.06374 0.70514 0.425031 0.233359 0.116655 0.0529492 0.0216711 0.00784938 0.0023532 0.000369913 0.000104185 1.06062e-05 0 0 
0 0 -3.61681e-07 1.89199e-06 1.28278e-05 0.000190522 0.00129205 0.00439581 0.0126705 0.0325324 0.0754149 0.158835 0.304972 0.534651 0.855688 1.24759 1.64866 1.95449 2.03522 1.77223 1.10371 0.0612212 -1.22128 -2.5337 -3.64439 -4.36284 -4.58717 -4.32124 -3.66142 -2.76175 -1.78933 -0.885814 -0.144873 0.392632 0.729626 0.897047 0.937595 0.893948 0.801872 0.687657 0.568716 0.45538 0.352996 0.263763 0.187858 0.124473 0.0723031 0.0297454 -0.00463578 -0.0320639 -0.0535214 -0.0696047 -0.0806134 -0.0867764 -0.0882634 -0.0854333 -0.0789216 -0.0696489 -0.0587849 -0.0474781 -0.0368388 -0.0276971 -0.0205534 -0.0155827 -0.0126731 -0.0114789 -0.011657 -0.0128542 -0.0147505 -0.0171636 -0.0198935 -0.0227277 -0.0253694 -0.0274915 -0.0287596 -0.0287625 -0.0272629 -0.0240725 -0.0193007 -0.0131896 -0.0062204 0.00110591 0.00822008 0.0146243 0.0199272 0.0238671 0.0264448 0.0276952 0.0278389 0.0270868 0.0257569 0.0240462 0.0222299 0.0204504 0.0188023 0.0173776 0.0162108 0.0153042 0.0146689 0.0143108 0.0141766 0.0143108 0.0146689 0.0153042 0.0162108 0.0173776 0.0188023 0.0204504 0.0222299 0.0240462 0.0257569 0.0270868 0.0278389 0.0276952 0.0264448 0.0238671 0.0199272 0.0146243 0.00822008 0.00110591 -0.00622036 -0.0131896 -0.0193007 -0.0240725 -0.0272623 -0.0287606 -0.0287571 -0.0274903 -0.0253694 -0.0227249 -0.0198885 -0.0171636 -0.0147546 -0.0128567 -0.0116597 -0.0114813 -0.0126687 -0.0155777 -0.020554 -0.0276902 -0.0368332 -0.0474877 -0.0587915 -0.0696672 -0.0789367 -0.0854402 -0.088278 -0.0867743 -0.0806167 -0.0696113 -0.0535472 -0.03206 -0.00465236 0.0297065 0.0721586 0.124162 0.187245 0.26265 0.351102 0.452362 0.56432 0.681644 0.794302 0.885255 0.928608 0.889001 0.724036 0.390907 -0.141703 -0.877441 -1.77617 -2.74506 -3.64293 -4.30219 -4.56764 -4.34437 -3.62885 -2.52265 -1.21553 0.0617772 1.10004 1.76583 2.0277 1.94718 1.64247 1.2429 0.852473 0.532643 0.303828 0.15824 0.075133 0.032411 0.0126231 0.00437928 0.00128796 0.000196206 5.17535e-05 4.36135e-06 0 0 
0 0 -3.2288e-07 1.1242e-06 8.78836e-06 0.000130803 0.000652334 0.00230401 0.00700524 0.0189785 0.0463659 0.102845 0.208018 0.38467 0.651079 1.0082 1.42492 1.82811 2.10595 2.12994 1.79316 1.05292 -0.0398247 -1.3391 -2.6348 -3.70626 -4.37928 -4.56571 -4.27713 -3.61191 -2.72077 -1.76474 -0.879291 -0.153715 0.373076 0.703958 0.868691 0.908714 0.86574 0.774858 0.66225 0.545286 0.434298 0.334611 0.248237 0.175243 0.114769 0.0653627 0.0254646 -0.00637851 -0.0313667 -0.0504687 -0.064273 -0.0731382 -0.0773476 -0.0770736 -0.0726992 -0.0648525 -0.0543788 -0.0423373 -0.029917 -0.0180905 -0.00768218 0.000713304 0.00696071 0.0111161 0.0133998 0.0141781 0.0138125 0.0125747 0.0106732 0.00834113 0.00575753 0.00315994 0.000867077 -0.000785006 -0.00140128 -0.000680044 0.00156298 0.005361 0.0104937 0.0166552 0.0233422 0.0300816 0.036308 0.0415878 0.0456397 0.04828 0.0495027 0.0494369 0.0483552 0.0465007 0.0441395 0.0415383 0.0389947 0.036631 0.0345969 0.0329546 0.0317765 0.0310761 0.0308307 0.0310761 0.0317765 0.0329546 0.0345969 0.036631 0.0389947 0.0415383 0.0441395 0.0465007 0.0483552 0.0494369 0.0495027 0.04828 0.0456397 0.0415878 0.036308 0.0300816 0.0233422 0.0166552 0.0104937 0.00536105 0.00156299 -0.00068016 -0.00140115 -0.00078377 0.000869621 0.0031622 0.00575802 0.00834248 0.0106778 0.0125768 0.0138086 0.0141761 0.0134013 0.0111139 0.00696092 0.000724561 -0.00767883 -0.018088 -0.0299106 -0.0423496 -0.0543864 -0.0648585 -0.0727161 -0.0770851 -0.0773603 -0.0731416 -0.0642831 -0.0504705 -0.031368 -0.00639452 0.0254478 0.0653318 0.1147 0.17508 0.24787 0.333899 0.433008 0.543132 0.658923 0.770046 0.859277 0.900753 0.859683 0.694844 0.365157 -0.158956 -0.880508 -1.76094 -2.71172 -3.59814 -4.25999 -4.54639 -4.36047 -3.69028 -2.6232 -1.33279 -0.0388176 1.04947 1.78665 2.122 2.09801 1.82118 1.41951 1.00438 0.648613 0.383215 0.207232 0.102457 0.0461915 0.0189071 0.00697881 0.0022952 0.000650384 0.000135789 3.40489e-05 1.98294e-06 0 0 
0 0 -3.02499e-07 -1.287e-07 2.904e-06 6.19374e-05 0.000302075 0.00113507 0.00367161 0.0105358 0.0271783 0.0635373 0.135357 0.263747 0.4711 0.772019 1.15999 1.59392 1.9915 2.23693 2.20612 1.80496 1.00775 -0.119829 -1.42544 -2.703 -3.7437 -4.38593 -4.55066 -4.25437 -3.59511 -2.71932 -1.78202 -0.913359 -0.199279 0.322249 0.653251 0.821885 0.867954 0.83179 0.747759 0.641551 0.53044 0.424681 0.329588 0.247157 0.177491 0.11972 0.0725498 0.0345177 0.00426089 -0.0193036 -0.0370791 -0.0496315 -0.0573545 -0.0605002 -0.0593106 -0.0541007 -0.0455399 -0.0344041 -0.0216793 -0.00846079 0.00424284 0.0156357 0.0251336 0.0325229 0.0377752 0.0410797 0.0427812 0.0431926 0.0425955 0.041223 0.0392579 0.0368414 0.0342041 0.0316211 0.0293387 0.027783 0.0272171 0.0279418 0.0300026 0.0333579 0.037807 0.0429607 0.04842 0.0537301 0.0584271 0.0622716 0.0649598 0.0664873 0.0669288 0.0664054 0.0651355 0.063348 0.0613418 0.0593216 0.0574392 0.0558549 0.0546768 0.0539525 0.053703 0.0539525 0.0546768 0.0558549 0.0574392 0.0593216 0.0613418 0.063348 0.0651355 0.0664054 0.0669288 0.0664873 0.0649598 0.0622716 0.0584271 0.0537301 0.04842 0.0429607 0.037807 0.0333579 0.0300026 0.0279418 0.0272171 0.0277829 0.0293386 0.0316215 0.034206 0.0368439 0.0392593 0.0412237 0.0425981 0.0431951 0.0427805 0.0410775 0.0377757 0.0325269 0.0251377 0.0156411 0.00424607 -0.00845777 -0.0216708 -0.0343999 -0.045546 -0.0540989 -0.0593159 -0.0605006 -0.0573611 -0.0496498 -0.0370884 -0.0193106 0.00425104 0.034496 0.0725431 0.119709 0.177451 0.247071 0.329383 0.424246 0.529617 0.640071 0.745368 0.828152 0.862767 0.815064 0.64493 0.31297 -0.208481 -0.921186 -1.787 -2.72008 -3.59078 -4.24476 -4.53642 -4.36803 -3.72737 -2.69098 -1.41869 -0.118453 1.00449 1.79837 2.19784 2.22843 1.98389 1.58782 1.15555 0.76907 0.469303 0.262742 0.134842 0.0632962 0.0270753 0.0104959 0.00365763 0.00113061 0.000301033 6.42278e-05 1.42421e-05 1.82521e-07 0 0 
0 0 -2.46189e-07 -7.38842e-07 -5.71895e-07 2.23685e-05 0.000126516 0.000522814 0.00181831 0.00555188 0.015159 0.0373997 0.0839525 0.172296 0.324351 0.561167 0.892871 1.30547 1.74919 2.13519 2.34678 2.26646 1.81263 0.973628 -0.175279 -1.48031 -2.74242 -3.76284 -4.38887 -4.54801 -4.25879 -3.61673 -2.76273 -1.84565 -0.990885 -0.282161 0.24214 0.582233 0.763588 0.823661 0.801043 0.729049 0.63303 0.530158 0.430948 0.340891 0.262266 0.195381 0.139603 0.0937652 0.0565416 0.0268736 0.00363886 -0.0138754 -0.0262467 -0.0338069 -0.0368323 -0.0355456 -0.0303163 -0.0216989 -0.0104316 0.00256046 0.0162059 0.0295652 0.0417829 0.0522449 0.0606723 0.0669599 0.0712908 0.0739003 0.0750585 0.0750579 0.0741045 0.0723507 0.0699361 0.0670597 0.0639011 0.0607158 0.0578685 0.0557067 0.0544618 0.0543668 0.0554364 0.057666 0.0608318 0.0646691 0.0687855 0.0728469 0.0765443 0.0796347 0.0820197 0.0836229 0.0844529 0.0846928 0.0844371 0.0838892 0.0831928 0.0824838 0.0818988 0.0815238 0.0813527 0.0815238 0.0818988 0.0824838 0.0831928 0.0838892 0.0844371 0.0846928 0.0844529 0.0836229 0.0820197 0.0796347 0.0765443 0.0728469 0.0687855 0.0646691 0.0608318 0.057666 0.0554364 0.0543668 0.0544618 0.0557067 0.0578685 0.0607158 0.0639011 0.0670595 0.069937 0.072353 0.0741065 0.0750585 0.075059 0.0739009 0.0712919 0.0669598 0.0606711 0.0522491 0.0417924 0.0295749 0.0162194 0.00256999 -0.0104276 -0.0216922 -0.0303107 -0.0355453 -0.0368348 -0.0338147 -0.0262509 -0.0138833 0.00363256 0.0268536 0.0565392 0.0937427 0.139585 0.195363 0.262243 0.340848 0.430822 0.529909 0.632517 0.728105 0.799384 0.821007 0.759648 0.57669 0.234914 -0.290839 -1.00037 -1.85495 -2.77052 -3.62148 -4.25918 -4.54324 -4.37883 -3.74811 -2.73015 -1.47325 -0.173636 0.970486 1.80598 2.25787 2.33779 2.12696 1.74243 1.30043 0.889429 0.559006 0.323104 0.171635 0.0836311 0.0372568 0.0151012 0.00553069 0.00181131 0.000520664 0.000125881 2.29754e-05 3.66266e-06 -5.86237e-07 0 0 
0 0 -1.90995e-07 -8.35991e-07 -1.43889e-06 4.9779e-06 4.58533e-05 0.000221905 0.000845376 0.00276601 0.00802153 0.0209269 0.0495491 0.107128 0.212421 0.387431 0.651081 1.00866 1.43927 1.88628 2.25703 2.43651 2.31482 1.82153 0.955099 -0.204497 -1.50638 -2.75851 -3.76979 -4.39454 -4.56398 -4.29578 -3.68064 -2.85279 -1.95486 -1.10851 -0.396783 0.140197 0.499263 0.702225 0.783573 0.779943 0.723751 0.640152 0.546612 0.454152 0.368804 0.293336 0.228477 0.17379 0.128338 0.0910901 0.0609865 0.0371522 0.0188564 0.00566939 -0.00275374 -0.0066446 -0.00618892 -0.00179505 0.00610902 0.0168605 0.0295266 0.0431458 0.0567731 0.0695341 0.080802 0.0901524 0.0974433 0.10275 0.106214 0.108084 0.108588 0.10797 0.106339 0.103817 0.100611 0.096845 0.0927744 0.0886906 0.0849413 0.0818193 0.0796021 0.0784677 0.0785529 0.0797523 0.0819566 0.0848624 0.0882588 0.0918531 0.0953698 0.0986448 0.101471 0.103817 0.105645 0.107001 0.107942 0.108577 0.108972 0.109179 0.109231 0.109179 0.108972 0.108577 0.107942 0.107001 0.105645 0.103817 0.101471 0.0986448 0.0953698 0.0918531 0.0882588 0.0848624 0.0819566 0.0797523 0.0785529 0.0784677 0.0796021 0.0818193 0.0849413 0.0886906 0.0927744 0.096845 0.10061 0.103817 0.10634 0.107972 0.10859 0.108085 0.106213 0.102749 0.0974436 0.090153 0.080804 0.0695391 0.056784 0.0431649 0.029544 0.0168685 0.00612002 -0.0017867 -0.00619184 -0.00664723 -0.00275593 0.00566042 0.0188444 0.0371301 0.0609728 0.0910747 0.12832 0.173785 0.228464 0.293313 0.368762 0.454096 0.546536 0.640011 0.72344 0.779353 0.782479 0.700389 0.496382 0.135941 -0.402667 -1.11606 -1.96382 -2.8625 -3.69005 -4.30351 -4.56853 -4.39466 -3.76473 -2.74834 -1.49923 -0.202712 0.952015 1.81478 2.30595 2.42707 2.24825 1.87893 1.43366 1.00473 0.648551 0.385927 0.211598 0.106714 0.049358 0.0208463 0.00799068 0.00275536 0.000842081 0.000220938 4.5467e-05 4.89924e-06 -2.08448e-07 -7.37667e-07 0 0 
0 0 -1.14591e-07 -6.8707e-07 -1.69631e-06 -1.15848e-06 1.22159e-05 8.35931e-05 0.000363806 0.00129337 0.00400684 0.0110875 0.0277426 0.0632532 0.132135 0.253905 0.449992 0.736699 1.11458 1.55693 2.00233 2.35673 2.50851 2.35534 1.83558 0.953685 -0.210138 -1.50921 -2.75746 -3.7706 -4.40784 -4.60131 -4.36521 -3.78364 -2.98346 -2.10157 -1.25706 -0.53377 0.024993 0.411447 0.643193 0.751336 0.770585 0.732644 0.662751 0.579014 0.493202 0.412157 0.339255 0.275682 0.221355 0.175585 0.1375 0.106159 0.0808204 0.0608497 0.0458882 0.0356064 0.0298615 0.0284309 0.0310607 0.0373645 0.0467072 0.0582775 0.0711724 0.0844775 0.0973323 0.109016 0.119043 0.127162 0.133291 0.13756 0.140107 0.141154 0.140896 0.139473 0.137021 0.133649 0.129561 0.124923 0.120031 0.115189 0.110678 0.106866 0.103974 0.102201 0.101616 0.102183 0.103769 0.106196 0.109222 0.112582 0.116051 0.1194 0.122476 0.125151 0.127379 0.129109 0.130359 0.13111 0.131366 0.13111 0.130359 0.129109 0.127379 0.125151 0.122476 0.1194 0.116051 0.112582 0.109222 0.106196 0.103769 0.102183 0.101616 0.102201 0.103974 0.106866 0.110678 0.115189 0.120031 0.124923 0.129561 0.133649 0.137021 0.139473 0.140897 0.141155 0.140109 0.137561 0.133289 0.127159 0.119042 0.109017 0.0973386 0.0844896 0.0711871 0.0582976 0.0467209 0.0373712 0.0310798 0.0284532 0.0298659 0.0356137 0.0458916 0.0608382 0.0807943 0.106139 0.137472 0.17557 0.221336 0.275671 0.339249 0.412139 0.493176 0.578973 0.662683 0.732548 0.770414 0.750985 0.642502 0.410234 0.0229989 -0.536836 -1.26157 -2.10772 -2.9913 -3.79288 -4.37512 -4.61082 -4.41556 -3.77508 -2.7575 -1.50437 -0.208449 0.950582 1.82872 2.34624 2.49868 2.34746 1.99445 1.5508 1.11019 0.733807 0.448229 0.252912 0.13162 0.0630071 0.0276348 0.0110445 0.0039913 0.00128834 0.000362373 8.32029e-05 1.2011e-05 -1.37835e-06 -1.62125e-06 -5.63884e-07 0 0 
0 0 -4.93882e-08 -4.20839e-07 -1.28003e-06 -2.39782e-06 1.81633e-07 2.53178e-05 0.000141689 0.000564488 0.00188828 0.00556778 0.0147589 0.0355366 0.0782546 0.158387 0.295723 0.510599 0.816442 1.20943 1.65821 2.09836 2.43617 2.56436 2.38745 1.85018 0.959765 -0.205015 -1.50145 -2.74967 -3.77143 -4.42934 -4.65464 -4.45654 -3.91163 -3.13915 -2.27075 -1.42369 -0.683341 -0.0971321 0.32216 0.587417 0.726178 0.771158 0.753336 0.698275 0.624854 0.545799 0.468861 0.398145 0.335379 0.280887 0.234254 0.194745 0.161584 0.134072 0.111698 0.0941313 0.0811247 0.0725764 0.0683138 0.068206 0.0718926 0.0788418 0.0883791 0.0996703 0.111861 0.124089 0.135569 0.145781 0.154319 0.161064 0.165992 0.169189 0.170824 0.171063 0.17006 0.167915 0.164787 0.160809 0.156135 0.150973 0.145622 0.140354 0.135496 0.131274 0.127937 0.125673 0.124497 0.124388 0.125266 0.126887 0.129066 0.131607 0.134268 0.13684 0.139166 0.141057 0.142547 0.143419 0.143712 0.143419 0.142547 0.141057 0.139166 0.13684 0.134268 0.131607 0.129066 0.126887 0.125266 0.124388 0.124497 0.125673 0.127937 0.131274 0.135496 0.140354 0.145622 0.150973 0.156135 0.160809 0.164787 0.167915 0.17006 0.171063 0.170824 0.169189 0.165994 0.161066 0.154318 0.145776 0.135566 0.124094 0.111876 0.0996847 0.0883888 0.0788575 0.0719048 0.0682129 0.0683357 0.0725938 0.0811278 0.0941395 0.111711 0.134067 0.16156 0.194728 0.234225 0.280888 0.335381 0.398148 0.468856 0.545797 0.624822 0.698234 0.753295 0.771109 0.726071 0.587209 0.321775 -0.0978677 -0.684636 -1.42581 -2.27406 -3.14391 -3.91804 -4.46464 -4.66409 -4.43942 -3.78105 -2.75744 -1.50595 -0.205503 0.956431 1.84319 2.37812 2.55422 2.42648 2.09 1.65161 1.20462 0.813204 0.508579 0.294555 0.157763 0.077947 0.0353972 0.0147011 0.00554601 0.00188089 0.000562274 0.000141124 2.51883e-05 9.16479e-08 -2.57131e-06 -1.4601e-06 -3.17507e-07 0 0 
0 0 -1.24623e-08 -1.98495e-07 -7.29718e-07 -1.9271e-06 -2.86925e-06 3.46783e-06 4.63328e-05 0.000224687 0.000831297 0.00263468 0.00742751 0.0189276 0.043991 0.0938257 0.184486 0.33555 0.565865 0.885961 1.28828 1.73817 2.16999 2.49194 2.60156 2.40927 1.86393 0.973398 -0.185843 -1.47643 -2.72529 -3.7599 -4.44509 -4.70976 -4.55663 -4.05373 -3.31217 -2.45811 -1.6072 -0.846881 -0.229256 0.227301 0.530408 0.703739 0.777672 0.782401 0.743791 0.681673 0.609847 0.537115 0.468408 0.406156 0.351108 0.303164 0.261786 0.226319 0.196178 0.170879 0.150064 0.133651 0.121505 0.113581 0.109785 0.109867 0.113437 0.119934 0.128619 0.138699 0.14935 0.159847 0.169542 0.178 0.18494 0.190259 0.193954 0.196168 0.19698 0.196542 0.194976 0.192349 0.188805 0.184471 0.179499 0.174125 0.16853 0.162989 0.15779 0.153108 0.149211 0.146115 0.143956 0.142657 0.14212 0.142249 0.142858 0.143752 0.144765 0.145727 0.146549 0.14707 0.147265 0.14707 0.146549 0.145727 0.144765 0.143752 0.142858 0.142249 0.14212 0.142657 0.143956 0.146115 0.149211 0.153108 0.15779 0.162989 0.16853 0.174125 0.179499 0.184471 0.188805 0.192349 0.194976 0.196542 0.19698 0.196168 0.193955 0.19026 0.184941 0.178001 0.16954 0.159842 0.149349 0.138705 0.128632 0.11995 0.113445 0.109874 0.1098 0.113594 0.12152 0.133679 0.150077 0.170874 0.196176 0.226328 0.261778 0.303145 0.351098 0.406135 0.468414 0.537124 0.609853 0.681668 0.743795 0.782387 0.777643 0.703707 0.530354 0.227205 -0.229467 -0.847323 -1.60801 -2.45952 -3.31445 -4.0572 -4.56159 -4.71639 -4.4534 -3.76955 -2.73553 -1.48616 -0.193717 0.968268 1.85663 2.39974 2.59114 2.4819 2.16124 1.73118 1.2831 0.882411 0.563603 0.334211 0.183751 0.0934531 0.0438168 0.0188527 0.0073982 0.00262429 0.000828012 0.000223795 4.61459e-05 3.44318e-06 -2.89971e-06 -2.03321e-06 -9.21159e-07 -1.41233e-07 0 0 
0 0 3.71495e-10 -9.39504e-08 -3.22713e-07 -1.13505e-06 -2.67437e-06 -2.93355e-06 9.3939e-06 7.69546e-05 0.000335133 0.00116411 0.00351582 0.00951465 0.0233863 0.0526213 0.109002 0.20876 0.370836 0.612347 0.941147 1.3468 1.79286 2.21409 2.52192 2.61896 2.42043 1.87754 0.997463 -0.147392 -1.42652 -2.67442 -3.7242 -4.44218 -4.75372 -4.65373 -4.20042 -3.49584 -2.66017 -1.80716 -1.02653 -0.375316 0.121842 0.466789 0.678698 0.785206 0.815496 0.795589 0.746263 0.682548 0.614364 0.547752 0.485879 0.430054 0.380527 0.33701 0.298991 0.265922 0.237352 0.212996 0.192764 0.176523 0.164349 0.156206 0.151937 0.151283 0.153814 0.15895 0.165944 0.174118 0.182721 0.191101 0.198763 0.205327 0.210594 0.214489 0.21703 0.218313 0.218423 0.217409 0.215338 0.212336 0.208525 0.203961 0.198758 0.193141 0.18725 0.181366 0.175649 0.170305 0.165477 0.161274 0.157781 0.154947 0.152792 0.151196 0.150091 0.149367 0.148943 0.14871 0.148662 0.14871 0.148943 0.149367 0.150091 0.151196 0.152792 0.154947 0.157781 0.161274 0.165477 0.170305 0.175649 0.181366 0.18725 0.193141 0.198758 0.203961 0.208525 0.212336 0.215338 0.217409 0.218423 0.218313 0.21703 0.214489 0.210594 0.205327 0.198764 0.191101 0.18272 0.174114 0.165944 0.158954 0.15382 0.151297 0.151952 0.156214 0.164363 0.176539 0.192778 0.213014 0.237369 0.265935 0.299 0.337014 0.380528 0.430043 0.485882 0.547743 0.614376 0.682551 0.746276 0.795605 0.815497 0.785208 0.678693 0.466775 0.121819 -0.375387 -1.02666 -1.80743 -2.66066 -3.49674 -4.20189 -4.6561 -4.7573 -4.44728 -3.73102 -2.6829 -1.43632 -0.157787 0.987572 1.86899 2.41059 2.60833 2.51164 2.20506 1.78555 1.34133 0.937331 0.609871 0.36934 0.20792 0.108565 0.0524108 0.023293 0.00947675 0.00350183 0.00115948 0.000333793 7.66439e-05 9.35465e-06 -2.92457e-06 -2.67957e-06 -1.18942e-06 -4.54809e-07 -8.03198e-08 0 0 
0 0 4.64168e-09 -1.45547e-08 -9.4382e-08 -5.18207e-07 -1.681e-06 -3.48466e-06 -2.3509e-06 1.85825e-05 0.000117993 0.000471994 0.00155223 0.00448936 0.0117058 0.0278389 0.0608167 0.122683 0.229456 0.399101 0.646939 0.978564 1.38169 1.8195 2.22876 2.52509 2.61626 2.4212 1.89227 1.03454 -0.0854149 -1.34538 -2.58839 -3.65349 -4.40821 -4.77352 -4.73544 -4.34114 -3.68244 -2.87246 -2.02245 -1.224 -0.539357 0.000353195 0.390392 0.644729 0.787778 0.847135 0.848797 0.814333 0.760094 0.697274 0.63314 0.571715 0.51507 0.463866 0.418123 0.377444 0.341387 0.30954 0.281656 0.257514 0.237143 0.220519 0.207744 0.198771 0.193421 0.191395 0.192254 0.195448 0.200303 0.206181 0.212454 0.218567 0.224111 0.22878 0.232399 0.234919 0.236355 0.236737 0.236096 0.234522 0.23202 0.228689 0.224589 0.219786 0.214389 0.20858 0.202478 0.196276 0.190158 0.18428 0.178825 0.173848 0.16947 0.165775 0.162766 0.160446 0.158784 0.157822 0.157489 0.157822 0.158784 0.160446 0.162766 0.165775 0.16947 0.173848 0.178825 0.18428 0.190158 0.196276 0.202478 0.20858 0.214389 0.219786 0.224589 0.228689 0.23202 0.234522 0.236096 0.236737 0.236355 0.234919 0.232399 0.22878 0.224111 0.218567 0.212454 0.20618 0.200301 0.195445 0.192256 0.191402 0.193427 0.198779 0.207762 0.220532 0.237157 0.257531 0.28167 0.309552 0.341401 0.377459 0.41813 0.463873 0.515072 0.571721 0.633135 0.697278 0.760092 0.814346 0.848808 0.847145 0.787777 0.644732 0.390382 0.00034225 -0.53935 -1.22403 -2.0225 -2.87259 -3.68273 -4.34167 -4.73634 -4.77506 -4.41067 -3.65719 -2.5936 -1.3523 -0.0940078 1.02463 1.88177 2.41074 2.60539 2.51466 2.21954 1.81199 1.376 0.974549 0.644292 0.397473 0.228522 0.122186 0.0605711 0.0277268 0.0116587 0.00447133 0.001546 0.000470093 0.000117514 1.85045e-05 -2.34264e-06 -3.47071e-06 -1.67825e-06 -5.40946e-07 -1.68777e-07 -2.06985e-08 0 0 
0 0 3.39462e-09 9.06109e-09 -2.61541e-09 -1.67722e-07 -8.08445e-07 -2.35653e-06 -4.27251e-06 -8.83337e-07 3.12997e-05 0.000168667 0.000629342 0.00197276 0.00548758 0.0138336 0.0319284 0.0679098 0.133764 0.244951 0.418236 0.667226 0.995816 1.39093 1.81678 2.21343 2.50155 2.59362 2.41162 1.90837 1.08548 0.00231291 -1.2287 -2.46029 -3.53825 -4.33143 -4.75618 -4.78878 -4.46428 -3.86274 -3.08893 -2.25045 -1.44006 -0.724817 -0.142708 0.294437 0.594679 0.778294 0.870752 0.897459 0.880667 0.837868 0.781768 0.720841 0.660325 0.603035 0.550254 0.502312 0.459072 0.420151 0.385252 0.354009 0.326297 0.302011 0.281256 0.264052 0.250439 0.24035 0.23362 0.229952 0.228913 0.229959 0.232554 0.236093 0.240046 0.243965 0.247492 0.25039 0.252516 0.253809 0.254235 0.253801 0.252577 0.250538 0.24776 0.244278 0.24016 0.235448 0.23024 0.224668 0.218898 0.213051 0.207301 0.201811 0.196757 0.192252 0.188418 0.185313 0.183073 0.181727 0.18128 0.181727 0.183073 0.185313 0.188418 0.192252 0.196757 0.201811 0.207301 0.213051 0.218898 0.224668 0.23024 0.235448 0.24016 0.244278 0.24776 0.250538 0.252577 0.253801 0.254235 0.253809 0.252516 0.25039 0.247492 0.243965 0.240046 0.236092 0.232553 0.229958 0.22891 0.229949 0.233622 0.240356 0.250443 0.26406 0.281271 0.302027 0.326316 0.354028 0.385269 0.420162 0.459075 0.502318 0.550265 0.603041 0.660323 0.720837 0.781765 0.837858 0.880655 0.897466 0.870754 0.778305 0.594672 0.294433 -0.142725 -0.724811 -1.44008 -2.25046 -3.08894 -3.86278 -4.4644 -4.78907 -4.75669 -4.33237 -3.53983 -2.4628 -1.23244 -0.00295705 1.07851 1.89975 2.40169 2.58271 2.49099 2.20414 1.80918 1.38513 0.991679 0.664464 0.41651 0.243943 0.133216 0.0676325 0.0317985 0.0137774 0.00546534 0.00196477 0.000626786 0.000167977 3.11685e-05 -8.82216e-07 -4.25608e-06 -2.34659e-06 -8.04929e-07 -1.74177e-07 -3.49153e-08 4.37155e-09 0 0 
0 0 1.45907e-09 9.58819e-09 1.78246e-08 -1.92804e-08 -2.82398e-07 -1.18445e-06 -3.13052e-06 -4.9365e-06 1.5922e-06 4.71788e-05 0.000226119 0.000795911 0.00239152 0.00642335 0.0157058 0.0352825 0.0732638 0.141282 0.253963 0.426758 0.671759 0.991798 1.37403 1.78492 2.16895 2.45188 2.55073 2.39062 1.92423 1.14892 0.115503 -1.07474 -2.28568 -3.37089 -4.20144 -4.68917 -4.80036 -4.55682 -4.02561 -3.30141 -2.48656 -1.67372 -0.934027 -0.312264 0.172252 0.520922 0.748951 0.878813 0.934744 0.939156 0.910592 0.863173 0.806808 0.747988 0.690517 0.636395 0.586457 0.540854 0.499347 0.461673 0.427529 0.396687 0.369069 0.344708 0.323603 0.305884 0.29148 0.280366 0.27234 0.267096 0.264254 0.263345 0.263875 0.265341 0.267289 0.269366 0.271273 0.272769 0.273747 0.274143 0.273922 0.273084 0.271659 0.269642 0.267097 0.264024 0.260498 0.256582 0.252365 0.247951 0.243447 0.239017 0.234809 0.230962 0.227599 0.224828 0.222802 0.221546 0.221133 0.221546 0.222802 0.224828 0.227599 0.230962 0.234809 0.239017 0.243447 0.247951 0.252365 0.256582 0.260498 0.264024 0.267097 0.269642 0.271659 0.273084 0.273922 0.274143 0.273747 0.272769 0.271273 0.269366 0.267289 0.265341 0.263874 0.263345 0.264254 0.267096 0.272337 0.280363 0.291479 0.30589 0.323613 0.344718 0.369079 0.396696 0.427547 0.461701 0.499363 0.540871 0.586468 0.636404 0.690529 0.747999 0.806816 0.863171 0.910594 0.939162 0.934745 0.878832 0.748957 0.520933 0.172277 -0.312253 -0.933999 -1.67369 -2.48655 -3.3014 -4.0256 -4.55683 -4.80042 -4.68931 -4.20173 -3.37144 -2.28664 -1.07635 0.11298 1.14517 1.91899 2.38367 2.54215 2.44175 2.15967 1.77733 1.36821 0.987619 0.668943 0.424976 0.252907 0.140697 0.0729614 0.0351373 0.0156413 0.00639705 0.00238174 0.00079265 0.000225188 4.69809e-05 1.58255e-06 -4.91798e-06 -3.11833e-06 -1.17936e-06 -2.80226e-07 -1.93686e-08 8.61354e-09 7.81214e-09 0 0 
0 0 3.52842e-10 4.94442e-09 1.32202e-08 1.9782e-08 -4.75751e-08 -4.35795e-07 -1.63526e-06 -3.95362e-06 -5.39183e-06 4.98901e-06 6.50644e-05 0.000285378 0.000955953 0.00276695 0.00720186 0.017133 0.0375686 0.0763667 0.144553 0.255725 0.423997 0.660227 0.966804 1.33202 1.72566 2.09682 2.3764 2.48658 2.35579 1.93654 1.22123 0.251197 -0.8848 -2.06311 -3.14668 -4.00997 -4.56122 -4.75684 -4.60488 -4.1581 -3.49921 -2.72336 -1.92128 -1.16704 -0.511622 0.0180782 0.41608 0.691628 0.863212 0.952991 0.98294 0.972257 0.936341 0.886589 0.830806 0.774002 0.719046 0.667441 0.619692 0.575867 0.535757 0.499116 0.465704 0.435409 0.408145 0.383933 0.362824 0.34484 0.330001 0.31818 0.309212 0.302759 0.29857 0.296155 0.295124 0.295071 0.295604 0.296434 0.29727 0.297974 0.298407 0.298524 0.298279 0.29763 0.29664 0.295283 0.293607 0.29166 0.289471 0.287087 0.284606 0.282075 0.279601 0.277291 0.275209 0.273519 0.272247 0.271468 0.271176 0.271468 0.272247 0.273519 0.275209 0.277291 0.279601 0.282075 0.284606 0.287087 0.289471 0.29166 0.293607 0.295283 0.29664 0.29763 0.298279 0.298524 0.298407 0.297974 0.29727 0.296434 0.295604 0.295071 0.295124 0.296155 0.29857 0.302759 0.309212 0.31818 0.329998 0.344836 0.362825 0.383941 0.408155 0.435423 0.465713 0.499124 0.535767 0.575882 0.619714 0.667469 0.719059 0.77402 0.830819 0.886602 0.936346 0.972254 0.982927 0.952988 0.863219 0.69165 0.416091 0.01811 -0.511596 -1.16703 -1.92126 -2.72336 -3.4992 -4.15808 -4.60488 -4.75685 -4.56125 -4.01004 -3.14683 -2.06341 -0.885355 0.250234 1.21964 1.93405 2.3521 2.4814 2.36958 2.08825 1.71818 1.32629 0.962666 0.657419 0.422204 0.254648 0.143947 0.0760477 0.0374122 0.0170619 0.00717206 0.00275551 0.000951997 0.000284192 6.47899e-05 4.96468e-06 -5.37164e-06 -3.93829e-06 -1.62886e-06 -4.33916e-07 -4.66981e-08 2.10268e-08 1.30338e-08 4.62972e-09 0 0 
0 0 5.66526e-11 1.55003e-09 5.63373e-09 1.74825e-08 2.08973e-08 -8.82541e-08 -6.24554e-07 -2.13576e-06 -4.76395e-06 -5.60037e-06 8.96393e-06 8.30548e-05 0.000339906 0.00109145 0.00305658 0.00773608 0.0179598 0.0385476 0.0769106 0.143274 0.250088 0.410185 0.633487 0.922498 1.26742 1.64148 1.99848 2.27524 2.39966 2.30398 1.9406 1.29677 0.403628 -0.663494 -1.7949 -2.86454 -3.75202 -4.36342 -4.64611 -4.59438 -4.24564 -3.669 -2.95012 -2.17563 -1.42074 -0.741511 -0.172102 0.273739 0.598513 0.815587 0.94399 1.00447 1.01626 0.995638 0.955404 0.904765 0.850007 0.795127 0.742361 0.692812 0.646911 0.604652 0.56587 0.530334 0.497897 0.468405 0.441829 0.418161 0.397438 0.379717 0.364854 0.352796 0.343364 0.33631 0.331304 0.328002 0.326063 0.325148 0.324911 0.325115 0.325585 0.3261 0.326592 0.326969 0.327186 0.327268 0.327156 0.326923 0.326525 0.326015 0.32536 0.324679 0.323967 0.323271 0.32261 0.322041 0.321605 0.321328 0.321229 0.321328 0.321605 0.322041 0.32261 0.323271 0.323967 0.324679 0.32536 0.326015 0.326525 0.326923 0.327156 0.327268 0.327186 0.326969 0.326592 0.3261 0.325585 0.325115 0.324911 0.325148 0.326063 0.328002 0.331304 0.33631 0.343364 0.352796 0.364854 0.379717 0.397436 0.418157 0.441828 0.46841 0.497906 0.530344 0.565879 0.60466 0.64692 0.69282 0.742373 0.795139 0.850027 0.904785 0.955424 0.995653 1.01627 1.00448 0.943994 0.815572 0.598518 0.27375 -0.172104 -0.741521 -1.42074 -2.17563 -2.95011 -3.66898 -4.24563 -4.59438 -4.6461 -4.36341 -3.75202 -2.86458 -1.79498 -0.663642 0.403329 1.29622 1.93966 2.30243 2.39723 2.27165 1.99348 1.63483 1.26186 0.918477 0.630745 0.408423 0.24902 0.142666 0.0765855 0.0383854 0.0178844 0.00770371 0.0030438 0.00108688 0.00033848 8.2702e-05 8.92221e-06 -5.57955e-06 -4.74534e-06 -2.12735e-06 -6.22102e-07 -8.78752e-08 2.10825e-08 1.83519e-08 7.28567e-09 1.657e-09 0 0 
0 0 -8.55319e-11 1.44158e-10 1.31857e-09 8.00758e-09 2.29377e-08 1.97295e-08 -1.40832e-07 -8.37211e-07 -2.64725e-06 -5.49768e-06 -5.58826e-06 1.29458e-05 9.87831e-05 0.000382703 0.00118531 0.00322479 0.0079625 0.0180923 0.0381147 0.0748421 0.137568 0.237546 0.386423 0.593462 0.861734 1.18338 1.53502 1.87574 2.14889 2.28876 2.23188 1.93094 1.36818 0.564484 -0.418962 -1.48758 -2.52799 -3.42697 -4.09049 -4.45844 -4.512 -4.27287 -3.79508 -3.15259 -2.4255 -1.68778 -0.998828 -0.399191 0.0897462 0.463072 0.728027 0.899469 0.995763 1.03534 1.03486 1.00812 0.965663 0.915185 0.861819 0.808851 0.758068 0.710424 0.666247 0.625542 0.588158 0.553941 0.522689 0.494341 0.468812 0.446105 0.426201 0.409074 0.394624 0.382798 0.37338 0.366125 0.360828 0.35712 0.354753 0.353423 0.352893 0.352924 0.353316 0.353944 0.35469 0.35551 0.356316 0.3571 0.357808 0.358487 0.35907 0.359576 0.360031 0.360398 0.360693 0.360909 0.361061 0.361146 0.361176 0.361146 0.361061 0.360909 0.360693 0.360398 0.360031 0.359576 0.35907 0.358487 0.357808 0.3571 0.356316 0.35551 0.35469 0.353944 0.353316 0.352924 0.352893 0.353423 0.354753 0.35712 0.360828 0.366125 0.37338 0.382798 0.394624 0.409074 0.426201 0.446104 0.46881 0.494339 0.522688 0.553944 0.58817 0.625551 0.666259 0.710435 0.758072 0.808853 0.861831 0.915186 0.965677 1.00814 1.03488 1.03536 0.995783 0.899489 0.728027 0.463069 0.0897468 -0.399183 -0.998829 -1.68777 -2.42551 -3.15259 -3.79506 -4.27285 -4.51201 -4.45843 -4.09049 -3.42697 -2.52799 -1.48759 -0.418998 0.564408 1.36803 1.93064 2.23136 2.28785 2.14741 1.87343 1.53161 1.17861 0.85791 0.590842 0.384731 0.236515 0.136975 0.0745213 0.0379522 0.0180155 0.00792879 0.00321116 0.0011803 0.000381081 9.83599e-05 1.28864e-05 -5.56769e-06 -5.47605e-06 -2.63674e-06 -8.33878e-07 -1.40273e-07 1.9645e-08 2.2899e-08 8.35136e-09 2.44872e-09 2.62906e-10 0 0 
0 0 -6.67508e-11 -1.54822e-10 -1.07975e-10 2.08485e-09 1.11535e-08 2.85636e-08 1.58357e-08 -2.01439e-07 -1.05466e-06 -3.1224e-06 -6.09948e-06 -5.44068e-06 1.62478e-05 0.000109892 0.000407726 0.00122487 0.00324987 0.00785344 0.0175155 0.0363173 0.0703701 0.127966 0.219164 0.354537 0.542914 0.787862 1.08326 1.40945 1.7312 1.99879 2.15345 2.13658 1.90184 1.42709 0.723257 -0.162684 -1.15202 -2.14562 -3.03958 -3.74221 -4.18811 -4.34696 -4.225 -3.86041 -3.31355 -2.65529 -1.95573 -1.27533 -0.659461 -0.136437 0.281287 0.594177 0.811722 0.94873 1.02179 1.0471 1.03893 1.00891 0.965976 0.916558 0.864987 0.814034 0.765273 0.719517 0.677091 0.638028 0.602168 0.569402 0.539573 0.51258 0.488318 0.466757 0.447843 0.431506 0.417664 0.40619 0.396916 0.389637 0.384128 0.380138 0.377425 0.375727 0.374852 0.374595 0.374786 0.375305 0.376036 0.376918 0.377841 0.378805 0.379743 0.380646 0.381491 0.382222 0.382866 0.383373 0.383754 0.383984 0.384058 0.383984 0.383754 0.383373 0.382866 0.382222 0.381491 0.380646 0.379743 0.378805 0.377841 0.376918 0.376036 0.375305 0.374786 0.374595 0.374852 0.375727 0.377425 0.380138 0.384128 0.389637 0.396916 0.40619 0.417664 0.431506 0.447843 0.466757 0.488318 0.51258 0.539572 0.569401 0.602167 0.638027 0.6771 0.719529 0.765282 0.814046 0.864993 0.916566 0.965972 1.00891 1.03894 1.0471 1.02178 0.948733 0.811736 0.594183 0.281305 -0.136435 -0.659456 -1.27534 -1.95572 -2.65527 -3.31355 -3.86041 -4.22499 -4.34695 -4.1881 -3.7422 -3.03958 -2.1456 -1.15202 -0.16268 0.723247 1.42706 1.90177 2.13644 2.15318 1.9983 1.73035 1.40807 1.08111 0.784703 0.540476 0.352952 0.218194 0.127404 0.070064 0.0361603 0.0174401 0.00781976 0.00323597 0.00121963 0.00040598 0.000109417 1.61734e-05 -5.4208e-06 -6.07529e-06 -3.10989e-06 -1.05042e-06 -2.00621e-07 1.57782e-08 2.84429e-08 1.10985e-08 2.15361e-09 3.23372e-10 -1.00983e-10 0 0 
0 0 -2.42903e-11 -1.06524e-10 -2.56889e-10 -8.43238e-12 3.10426e-09 1.45969e-08 3.38474e-08 9.70814e-09 -2.63277e-07 -1.25271e-06 -3.51235e-06 -6.52887e-06 -5.27255e-06 1.82371e-05 0.000114584 0.00041125 0.00120461 0.00312858 0.00742247 0.0162959 0.0333471 0.0639326 0.115324 0.196429 0.316845 0.484866 0.704317 0.970906 1.26879 1.56853 1.82763 1.99458 2.0163 1.84826 1.46491 0.868156 0.0912897 -0.803108 -1.73123 -2.60061 -3.32451 -3.83513 -4.09283 -4.08985 -3.84838 -3.41385 -2.84565 -2.20715 -1.55712 -0.943487 -0.400162 0.0534187 0.410592 0.674717 0.855884 0.9677 1.02484 1.04124 1.02907 0.998258 0.956377 0.908925 0.85967 0.811049 0.764503 0.720769 0.680168 0.642781 0.608481 0.577181 0.548729 0.522999 0.499889 0.479308 0.461177 0.445415 0.431885 0.420498 0.411068 0.403446 0.397432 0.392783 0.389343 0.386889 0.385239 0.384241 0.383734 0.383598 0.383717 0.384049 0.384488 0.384993 0.385515 0.386022 0.386467 0.386839 0.387117 0.387299 0.387371 0.387299 0.387117 0.386839 0.386467 0.386022 0.385515 0.384993 0.384488 0.384049 0.383717 0.383598 0.383734 0.384241 0.385239 0.386889 0.389343 0.392783 0.397432 0.403446 0.411068 0.420498 0.431885 0.445415 0.461177 0.479308 0.499889 0.522999 0.548729 0.577181 0.60848 0.64278 0.680166 0.720765 0.764504 0.81106 0.859685 0.908939 0.956382 0.998264 1.02908 1.04124 1.02485 0.967706 0.855886 0.674709 0.410579 0.0534072 -0.400174 -0.943498 -1.55712 -2.20715 -2.84564 -3.41385 -3.84838 -4.08986 -4.09283 -3.83512 -3.3245 -2.6006 -1.73123 -0.803103 0.0912937 0.868155 1.46491 1.84825 2.01627 1.99451 1.8275 1.56829 1.26835 0.970136 0.703056 0.482929 0.315406 0.19554 0.114808 0.0636491 0.0332004 0.0162247 0.00739018 0.00311502 0.0011994 0.000409468 0.000114083 1.81532e-05 -5.2534e-06 -6.50276e-06 -3.49814e-06 -1.24763e-06 -2.62199e-07 9.67993e-09 3.37167e-08 1.45361e-08 3.0785e-09 -2.02252e-11 -1.77328e-10 -9.34719e-11 0 0 
0 0 -3.57224e-12 -3.50177e-11 -1.2218e-10 -3.00641e-10 1.28145e-10 4.23824e-09 1.80345e-08 3.83667e-08 2.58886e-09 -3.17714e-07 -1.40626e-06 -3.77457e-06 -6.76147e-06 -5.18503e-06 1.85108e-05 0.00011207 0.000392744 0.00112739 0.00287678 0.00672171 0.0145693 0.0295064 0.0561259 0.100703 0.17105 0.275721 0.422285 0.614796 0.850718 1.11791 1.39261 1.63954 1.81462 1.87089 1.76653 1.47393 0.987342 0.327504 -0.458649 -1.30321 -2.12678 -2.85025 -3.40652 -3.7497 -3.86019 -3.74519 -3.43477 -2.97513 -2.42031 -1.82446 -1.23533 -0.690276 -0.214551 0.178534 0.485823 0.711818 0.866023 0.960416 1.00768 1.01967 1.00676 0.977359 0.938031 0.893569 0.847307 0.801435 0.757306 0.715676 0.676873 0.641001 0.608044 0.57789 0.550398 0.525463 0.50295 0.482771 0.464804 0.448981 0.435166 0.423257 0.413109 0.404581 0.39751 0.391733 0.387082 0.383403 0.38053 0.378325 0.376677 0.37547 0.37462 0.374029 0.37363 0.373386 0.37323 0.373154 0.373104 0.37309 0.373087 0.37309 0.373104 0.373154 0.37323 0.373386 0.37363 0.374029 0.37462 0.37547 0.376677 0.378325 0.38053 0.383403 0.387082 0.391733 0.39751 0.404581 0.413109 0.423257 0.435166 0.448981 0.464804 0.482771 0.50295 0.525463 0.550398 0.57789 0.608044 0.641001 0.676872 0.715675 0.757306 0.801433 0.847308 0.893577 0.938045 0.977367 1.00676 1.01967 1.00769 0.960423 0.866027 0.711827 0.485833 0.178546 -0.214537 -0.690283 -1.23533 -1.82446 -2.42031 -2.97512 -3.43477 -3.74519 -3.86019 -3.7497 -3.40652 -2.85025 -2.12677 -1.30321 -0.458647 0.327504 0.987347 1.47393 1.76654 1.87088 1.81461 1.63951 1.39256 1.11779 0.850502 0.6144 0.421602 0.274622 0.170264 0.100241 0.0558715 0.029374 0.0145045 0.00669201 0.00286413 0.00112245 0.00039102 0.000111574 1.84248e-05 -5.16611e-06 -6.73417e-06 -3.75915e-06 -1.4005e-06 -3.16402e-07 2.59083e-09 3.82181e-08 1.79643e-08 4.22099e-09 1.22056e-10 -3.16411e-10 -1.39617e-10 -3.53441e-11 0 0 
0 0 1.23095e-12 -4.06237e-12 -2.85822e-11 -1.54391e-10 -3.51902e-10 2.93446e-10 5.37298e-09 2.11028e-08 4.18011e-08 -3.81308e-09 -3.56105e-07 -1.49424e-06 -3.87955e-06 -6.78625e-06 -5.22536e-06 1.70131e-05 0.000102777 0.000354998 0.00100382 0.00252612 0.00583165 0.012516 0.0251584 0.0476146 0.0852143 0.144659 0.233364 0.358143 0.523179 0.727481 0.962306 1.20927 1.43997 1.61782 1.70228 1.65527 1.44849 1.0704 0.530841 -0.137696 -0.883021 -1.63986 -2.33902 -2.91721 -3.32571 -3.53616 -3.54276 -3.36097 -3.02289 -2.57132 -2.053 -1.51261 -0.988338 -0.50914 -0.0939052 0.248004 0.515218 0.712244 0.847379 0.93086 0.973308 0.984724 0.97385 0.947913 0.912559 0.872016 0.829321 0.786506 0.744885 0.705226 0.667932 0.633199 0.601032 0.571391 0.544184 0.51931 0.496675 0.476171 0.457707 0.441193 0.426525 0.413622 0.402344 0.392587 0.384197 0.377078 0.371068 0.366036 0.361877 0.35845 0.355671 0.353437 0.351654 0.350263 0.349202 0.348428 0.347887 0.347574 0.347467 0.347574 0.347887 0.348428 0.349202 0.350263 0.351654 0.353437 0.355671 0.35845 0.361877 0.366036 0.371068 0.377078 0.384197 0.392587 0.402344 0.413622 0.426525 0.441193 0.457707 0.476171 0.496675 0.51931 0.544184 0.571391 0.601032 0.633199 0.667932 0.705226 0.744885 0.786506 0.829321 0.872016 0.91256 0.947917 0.973856 0.98473 0.973311 0.930864 0.847385 0.712247 0.515217 0.248006 -0.093908 -0.50913 -0.98832 -1.5126 -2.05299 -2.57133 -3.02289 -3.36095 -3.54276 -3.53615 -3.3257 -2.9172 -2.33901 -1.63986 -0.883019 -0.137693 0.530842 1.0704 1.4485 1.65527 1.70228 1.61781 1.43997 1.20926 0.962285 0.727434 0.523081 0.357955 0.233022 0.144084 0.0848182 0.0473935 0.0250429 0.0124591 0.00580539 0.00251482 0.000999345 0.000353418 0.000102316 1.69328e-05 -5.20596e-06 -6.75854e-06 -3.86353e-06 -1.48805e-06 -3.54621e-07 -3.78348e-09 4.16378e-08 2.10197e-08 5.35191e-09 2.92404e-10 -3.51597e-10 -1.60865e-10 -4.81269e-11 -5.86203e-12 0 0 
0 0 9.57411e-13 2.1379e-12 9.42886e-13 -3.85242e-11 -1.92174e-10 -3.94643e-10 4.65644e-10 6.35751e-09 2.34399e-08 4.39598e-08 -7.82352e-09 -3.71887e-07 -1.50406e-06 -3.81539e-06 -6.60253e-06 -5.36794e-06 1.40518e-05 8.82358e-05 0.000303461 0.000849903 0.00211761 0.00484611 0.0103304 0.0206711 0.0390377 0.0698429 0.11867 0.191816 0.295301 0.433287 0.606041 0.807772 1.02491 1.23547 1.41002 1.51467 1.51582 1.38602 1.10983 0.688417 0.141619 -0.493087 -1.16481 -1.81585 -2.38955 -2.83784 -3.12713 -3.24163 -3.18384 -2.97228 -2.6374 -2.21645 -1.74831 -1.26908 -0.808957 -0.390512 -0.0281486 0.271175 0.506687 0.682276 0.804737 0.882426 0.924059 0.93788 0.931259 0.910325 0.879994 0.844069 0.805301 0.765656 0.726452 0.688543 0.652449 0.61843 0.586622 0.55705 0.529681 0.504482 0.481373 0.460292 0.441156 0.423889 0.408403 0.394603 0.382387 0.37166 0.362303 0.354204 0.347243 0.341331 0.336339 0.332182 0.328769 0.326008 0.323847 0.322223 0.321095 0.320417 0.320201 0.320417 0.321095 0.322223 0.323847 0.326008 0.328769 0.332182 0.336339 0.341331 0.347243 0.354204 0.362303 0.37166 0.382387 0.394603 0.408403 0.423889 0.441156 0.460292 0.481373 0.504482 0.529681 0.55705 0.586622 0.61843 0.652449 0.688543 0.726452 0.765656 0.805301 0.844069 0.879994 0.910325 0.93126 0.937882 0.924061 0.882431 0.804742 0.682283 0.506696 0.271175 -0.0281462 -0.390505 -0.808958 -1.26907 -1.7483 -2.21644 -2.63739 -2.97228 -3.18384 -3.24164 -3.12713 -2.83784 -2.38955 -1.81585 -1.16481 -0.493085 0.141624 0.688424 1.10983 1.38602 1.51583 1.51467 1.41002 1.23547 1.02491 0.80777 0.606033 0.433269 0.295261 0.191733 0.118512 0.0695654 0.0388542 0.0205738 0.0102823 0.0048238 0.00210794 0.000846046 0.000302087 8.78337e-05 1.39841e-05 -5.34741e-06 -6.5752e-06 -3.79946e-06 -1.49777e-06 -3.7032e-07 -7.77608e-09 4.37866e-08 2.33468e-08 6.33219e-09 4.63745e-10 -3.92982e-10 -1.91281e-10 -3.97523e-11 -6.49784e-12 1.32291e-12 0 0 
0 0 2.81584e-13 1.37101e-12 3.56161e-12 -2.36523e-13 -4.96743e-11 -2.25915e-10 -4.25596e-10 6.1139e-10 7.0431e-09 2.47536e-08 4.47585e-08 -8.35211e-09 -3.62272e-07 -1.43433e-06 -3.58957e-06 -6.2194e-06 -5.52493e-06 1.02075e-05 7.06887e-05 0.000244984 0.00068372 0.00169386 0.00385629 0.0081911 0.0163662 0.0309128 0.0553713 0.0942772 0.152855 0.2363 0.34859 0.490904 0.659871 0.846053 1.03315 1.19838 1.31438 1.35258 1.28766 1.10232 0.791405 0.364446 -0.154091 -0.727024 -1.30889 -1.85173 -2.31128 -2.65238 -2.85275 -2.90472 -2.81476 -2.60116 -2.29059 -1.91399 -1.5028 -1.08575 -0.686639 -0.323188 -0.00680553 0.256904 0.467152 0.626777 0.74098 0.816291 0.85966 0.877798 0.876769 0.861824 0.837238 0.806429 0.77199 0.735834 0.699359 0.663498 0.628898 0.595947 0.56487 0.535798 0.508779 0.483817 0.460873 0.439889 0.420815 0.40357 0.388062 0.374203 0.361906 0.351073 0.3416 0.333382 0.326336 0.32035 0.315359 0.311275 0.308018 0.305553 0.30383 0.302798 0.302453 0.302798 0.30383 0.305553 0.308018 0.311275 0.315359 0.32035 0.326336 0.333382 0.3416 0.351073 0.361906 0.374203 0.388062 0.40357 0.420815 0.439889 0.460873 0.483817 0.508779 0.535798 0.56487 0.595947 0.628898 0.663498 0.699359 0.735834 0.77199 0.806429 0.837238 0.861824 0.876769 0.877798 0.859661 0.816292 0.74098 0.626779 0.467154 0.256912 -0.00679747 -0.323186 -0.686635 -1.08575 -1.5028 -1.91399 -2.29058 -2.60116 -2.81475 -2.90472 -2.85275 -2.65238 -2.31128 -1.85173 -1.30889 -0.72702 -0.154089 0.364449 0.791414 1.10232 1.28766 1.35258 1.31437 1.19837 1.03315 0.846054 0.659872 0.490904 0.348588 0.236293 0.15284 0.0942444 0.0553047 0.0307902 0.0162884 0.00815202 0.00383808 0.00168595 0.000680551 0.000243853 7.03607e-05 1.01567e-05 -5.50303e-06 -6.19325e-06 -3.57437e-06 -1.42826e-06 -3.60728e-07 -8.30195e-09 4.45805e-08 2.46543e-08 7.01477e-09 6.08833e-10 -4.23966e-10 -2.24994e-10 -4.93044e-11 -8.21694e-14 2.3348e-12 1.20043e-12 0 0 
0 0 2.16197e-14 3.55943e-13 1.40304e-12 3.91951e-12 -1.40463e-12 -5.93047e-11 -2.51609e-10 -4.4415e-10 6.99235e-10 7.31861e-09 2.48751e-08 4.41782e-08 -5.26651e-09 -3.28992e-07 -1.29516e-06 -3.22774e-06 -5.65802e-06 -5.58159e-06 6.16889e-06 5.25534e-05 0.000186379 0.000522026 0.00129203 0.00293745 0.00623824 0.0124768 0.0236073 0.0423887 0.0724052 0.117876 0.183163 0.271911 0.385864 0.523496 0.678727 0.84008 0.990677 1.10929 1.17262 1.15846 1.04943 0.836446 0.521338 0.11787 -0.349033 -0.845871 -1.33454 -1.777 -2.13981 -2.39784 -2.53665 -2.5532 -2.45502 -2.25829 -1.98499 -1.65996 -1.30801 -0.951729 -0.609869 -0.296552 -0.0211078 0.211608 0.400421 0.547062 0.655229 0.729802 0.776112 0.799508 0.804971 0.796905 0.779053 0.754482 0.72561 0.694348 0.662093 0.629868 0.598401 0.56818 0.539522 0.512624 0.487583 0.464424 0.443152 0.423729 0.406099 0.390181 0.375897 0.363167 0.351909 0.342028 0.333446 0.326085 0.319883 0.314754 0.310641 0.307492 0.305274 0.30396 0.303525 0.30396 0.305274 0.307492 0.310641 0.314754 0.319883 0.326085 0.333446 0.342028 0.351909 0.363167 0.375897 0.390181 0.406099 0.423729 0.443152 0.464424 0.487583 0.512624 0.539522 0.56818 0.598401 0.629868 0.662093 0.694348 0.72561 0.754482 0.779053 0.796905 0.804971 0.799508 0.776112 0.729802 0.655229 0.547062 0.400421 0.211606 -0.0211092 -0.296548 -0.609861 -0.951723 -1.30801 -1.65996 -1.98499 -2.25828 -2.45502 -2.5532 -2.53666 -2.39785 -2.13981 -1.777 -1.33454 -0.845873 -0.349034 0.117867 0.521337 0.836451 1.04943 1.15846 1.17262 1.10929 0.990674 0.840078 0.678727 0.523497 0.385864 0.271911 0.183162 0.117875 0.0724001 0.0423768 0.0235818 0.0124275 0.00620826 0.00292323 0.00128583 0.000519548 0.0001855 5.23042e-05 6.13664e-06 -5.55864e-06 -5.6338e-06 -3.21388e-06 -1.2896e-06 -3.27573e-07 -5.22957e-09 4.40004e-08 2.47742e-08 7.28887e-09 6.96291e-10 -4.42441e-10 -2.50633e-10 -5.90691e-11 -1.34037e-12 4.10886e-12 1.6454e-12 3.65339e-13 0 0 
0 0 -1.68384e-14 1.33729e-14 2.20856e-13 1.61453e-12 4.33053e-12 -2.39273e-12 -6.60325e-11 -2.65989e-10 -4.50541e-10 7.09188e-10 7.13806e-09 2.37896e-08 4.22426e-08 5.64348e-10 -2.77829e-07 -1.10593e-06 -2.76982e-06 -4.95465e-06 -5.4408e-06 2.55542e-06 3.59098e-05 0.000133188 0.000377675 0.000938962 0.00214074 0.00455858 0.00914285 0.0173535 0.031274 0.0536521 0.087796 0.137253 0.205222 0.293698 0.40244 0.527933 0.662607 0.794564 0.908079 0.984979 1.0068 0.957512 0.826253 0.609744 0.31365 -0.0472456 -0.450265 -0.867251 -1.2678 -1.62278 -1.9075 -2.10423 -2.20357 -2.20471 -2.11462 -1.94649 -1.71762 -1.44725 -1.15459 -0.857157 -0.569678 -0.303438 -0.0661912 0.137647 0.306535 0.441222 0.544077 0.618522 0.668528 0.69821 0.711535 0.712103 0.703084 0.687152 0.666509 0.642905 0.617697 0.591923 0.56632 0.541434 0.517626 0.495134 0.474101 0.454604 0.436671 0.420282 0.405411 0.392004 0.380018 0.369398 0.360069 0.352002 0.345125 0.339396 0.334775 0.331214 0.328693 0.327195 0.326695 0.327195 0.328693 0.331214 0.334775 0.339396 0.345125 0.352002 0.360069 0.369398 0.380018 0.392004 0.405411 0.420282 0.436671 0.454604 0.474101 0.495134 0.517626 0.541434 0.56632 0.591923 0.617697 0.642905 0.666509 0.687152 0.703084 0.712103 0.711535 0.69821 0.668528 0.618522 0.544077 0.441222 0.306535 0.137647 -0.0661918 -0.303439 -0.56968 -0.857154 -1.15458 -1.44724 -1.71762 -1.94649 -2.11462 -2.20471 -2.20357 -2.10424 -1.90751 -1.62278 -1.26781 -0.867254 -0.450268 -0.0472466 0.313649 0.609741 0.826252 0.957512 1.0068 0.984978 0.908077 0.794561 0.662604 0.527932 0.40244 0.293698 0.205223 0.137253 0.0877959 0.0536517 0.0312725 0.0173496 0.00913403 0.00454062 0.00213034 0.000934351 0.000375835 0.000132544 3.57355e-05 2.54039e-06 -5.41756e-06 -4.93299e-06 -2.75772e-06 -1.10111e-06 -2.76614e-07 5.75323e-10 4.20703e-08 2.3692e-08 7.10873e-09 7.0617e-10 -4.48791e-10 -2.64944e-10 -6.57739e-11 -2.38521e-12 4.32057e-12 1.67572e-12 4.37851e-13 3.29068e-14 0 0 
0 0 -7.83381e-15 -2.52516e-14 -3.98551e-14 2.67148e-13 1.8231e-12 4.59668e-12 -3.0031e-12 -6.87168e-11 -2.67147e-10 -4.45091e-10 6.3911e-10 6.53225e-09 2.16388e-08 3.90301e-08 7.57371e-09 -2.17099e-07 -8.91184e-07 -2.26366e-06 -4.16072e-06 -5.05763e-06 -2.15788e-07 2.21543e-05 8.89482e-05 0.000258313 0.000649291 0.00149033 0.00318952 0.00642591 0.0122526 0.0221907 0.0382781 0.0630251 0.0992203 0.149546 0.215993 0.299112 0.397219 0.505713 0.616705 0.719141 0.799549 0.843401 0.836953 0.769335 0.634474 0.432543 0.170619 -0.137606 -0.473102 -0.813483 -1.13545 -1.41732 -1.64118 -1.79453 -1.87109 -1.87084 -1.79935 -1.66665 -1.4857 -1.27089 -1.03663 -0.796203 -0.560946 -0.339818 -0.139224 0.0368745 0.186649 0.310029 0.408272 0.483548 0.538568 0.57627 0.599593 0.611303 0.613908 0.60959 0.600196 0.587251 0.571977 0.555325 0.53804 0.520676 0.503642 0.487223 0.471629 0.456993 0.443402 0.430905 0.419527 0.409285 0.400171 0.392176 0.385284 0.379488 0.374775 0.371126 0.368527 0.366969 0.36645 0.366969 0.368527 0.371126 0.374775 0.379488 0.385284 0.392176 0.400171 0.409285 0.419527 0.430905 0.443402 0.456993 0.471629 0.487223 0.503642 0.520676 0.53804 0.555325 0.571977 0.587251 0.600196 0.60959 0.613908 0.611303 0.599593 0.57627 0.538568 0.483548 0.408272 0.310029 0.186649 0.0368745 -0.139224 -0.339818 -0.560946 -0.796203 -1.03663 -1.27089 -1.4857 -1.66665 -1.79935 -1.87083 -1.87109 -1.79454 -1.64118 -1.41732 -1.13546 -0.813485 -0.473106 -0.137609 0.170616 0.432539 0.634473 0.769335 0.836953 0.843399 0.799548 0.719139 0.616703 0.505711 0.397218 0.299112 0.215993 0.149546 0.0992203 0.0630251 0.0382781 0.0221906 0.0122523 0.00642484 0.00318683 0.0014845 0.000646109 0.000257027 8.85075e-05 2.20441e-05 -2.16885e-07 -5.03517e-06 -4.14212e-06 -2.25359e-06 -8.8724e-07 -2.16135e-07 7.55233e-09 3.88685e-08 2.15489e-08 6.50509e-09 6.36351e-10 -4.43344e-10 -2.66087e-10 -6.84436e-11 -2.99047e-12 4.57779e-12 1.81358e-12 2.73819e-13 2.2066e-14 -1.871e-14 0 0 
0 0 -1.36877e-15 -9.8083e-15 -3.18768e-14 -3.72393e-14 3.05153e-13 1.9396e-12 4.6931e-12 -3.07419e-12 -6.68869e-11 -2.54945e-10 -4.27765e-10 5.05425e-10 5.60092e-09 1.86947e-08 3.47094e-08 1.40165e-08 -1.55607e-07 -6.75701e-07 -1.75742e-06 -3.33785e-06 -4.45139e-06 -1.98259e-06 1.18862e-05 5.50531e-05 0.000166414 0.000426018 0.000988236 0.00213098 0.00432095 0.00828982 0.0151083 0.0262354 0.0435092 0.0690419 0.104983 0.153139 0.214458 0.288447 0.372629 0.462156 0.549723 0.625904 0.679916 0.700793 0.678822 0.60701 0.482349 0.306641 0.0867197 -0.165996 -0.436562 -0.70804 -0.963231 -1.18638 -1.36466 -1.48914 -1.55534 -1.56319 -1.51653 -1.42232 -1.28969 -1.12883 -0.950099 -0.763229 -0.576716 -0.397521 -0.230891 -0.0803862 0.0519424 0.165352 0.26011 0.33726 0.398339 0.445169 0.479687 0.503807 0.519347 0.527947 0.53107 0.529968 0.525699 0.519134 0.510989 0.501839 0.492148 0.48227 0.472483 0.463014 0.454025 0.445649 0.437979 0.431084 0.425023 0.419847 0.41558 0.412243 0.40985 0.408409 0.40793 0.408409 0.40985 0.412243 0.41558 0.419847 0.425023 0.431084 0.437979 0.445649 0.454025 0.463014 0.472483 0.48227 0.492148 0.501839 0.510989 0.519134 0.525699 0.529968 0.53107 0.527947 0.519347 0.503807 0.479687 0.445169 0.398339 0.33726 0.26011 0.165352 0.0519424 -0.0803862 -0.230891 -0.397521 -0.576716 -0.763229 -0.950099 -1.12883 -1.28969 -1.42232 -1.51653 -1.56319 -1.55534 -1.48914 -1.36466 -1.18639 -0.963233 -0.708042 -0.436561 -0.165995 0.086719 0.306639 0.482348 0.607008 0.678823 0.700794 0.679915 0.625903 0.549722 0.462155 0.372628 0.288446 0.214457 0.153139 0.104984 0.0690419 0.0435092 0.0262354 0.0151083 0.00828981 0.00432089 0.00213075 0.000987553 0.000424379 0.000165596 5.47758e-05 1.18257e-05 -1.97413e-06 -4.43083e-06 -3.32252e-06 -1.74943e-06 -6.72655e-07 -1.54904e-07 1.3964e-08 3.45633e-08 1.86159e-08 5.57734e-09 5.032e-10 -4.26064e-10 -2.53922e-10 -6.66181e-11 -3.06087e-12 4.67504e-12 1.93186e-12 3.02586e-13 -3.97633e-14 -2.72739e-14 -9.03715e-15 0 0 
0 0 1.16893e-16 -1.3725e-15 -7.60197e-15 -3.30382e-14 -3.6702e-14 3.19937e-13 1.9482e-12 4.61389e-12 -2.59135e-12 -6.08637e-11 -2.30968e-10 -3.98278e-10 3.37741e-10 4.48637e-09 1.53043e-08 2.95606e-08 1.85049e-08 -1.00642e-07 -4.79807e-07 -1.29172e-06 -2.54805e-06 -3.6951e-06 -2.81635e-06 4.9944e-06 3.10821e-05 0.000100266 0.000263899 0.000621786 0.00135529 0.00277226 0.00536132 0.00984792 0.0172382 0.0288293 0.0461611 0.070882 0.104514 0.148122 0.201906 0.264795 0.334106 0.405368 0.472399 0.527684 0.563046 0.570557 0.543552 0.47763 0.37143 0.227085 0.0502458 -0.150337 -0.363608 -0.577264 -0.778942 -0.957339 -1.10317 -1.20982 -1.27368 -1.29413 -1.27329 -1.21546 -1.12655 -1.01339 -0.883146 -0.742732 -0.598448 -0.455683 -0.318774 -0.190979 -0.0745092 0.0293506 0.120096 0.197852 0.263204 0.317055 0.360512 0.39477 0.421057 0.44055 0.454356 0.463483 0.468829 0.471178 0.471216 0.469515 0.466566 0.462779 0.458488 0.45397 0.449452 0.445112 0.441101 0.437538 0.434509 0.432088 0.430325 0.429254 0.428894 0.429254 0.430325 0.432088 0.434509 0.437538 0.441101 0.445112 0.449452 0.45397 0.458488 0.462779 0.466566 0.469515 0.471216 0.471178 0.468829 0.463483 0.454356 0.44055 0.421057 0.39477 0.360512 0.317055 0.263204 0.197852 0.120096 0.0293506 -0.0745092 -0.190979 -0.318774 -0.455683 -0.598448 -0.742732 -0.883146 -1.01339 -1.12655 -1.21546 -1.27329 -1.29414 -1.27368 -1.20982 -1.10317 -0.95734 -0.778942 -0.577265 -0.363608 -0.150338 0.0502449 0.227085 0.37143 0.477629 0.543551 0.570554 0.563045 0.527683 0.472398 0.405367 0.334105 0.264795 0.201905 0.148122 0.104514 0.0708819 0.0461611 0.0288293 0.0172382 0.00984791 0.00536132 0.00277227 0.0013553 0.000621769 0.000263778 9.98983e-05 3.09321e-05 4.96948e-06 -2.80266e-06 -3.67733e-06 -2.53601e-06 -1.28571e-06 -4.776e-07 -1.00178e-07 1.84288e-08 2.94337e-08 1.52388e-08 4.4672e-09 3.36213e-10 -3.96671e-10 -2.3003e-10 -6.06164e-11 -2.57988e-12 4.59596e-12 1.94061e-12 3.18701e-13 -3.68367e-14 -3.43763e-14 -1.07351e-14 -1.59509e-15 0 0 
0 0 1.25053e-16 2.37898e-16 -1.66881e-16 -7.89441e-15 -3.39912e-14 -3.68447e-14 3.08362e-13 1.84594e-12 4.37485e-12 -1.62067e-12 -5.15179e-11 -1.98304e-10 -3.58687e-10 1.63358e-10 3.32962e-09 1.18359e-08 2.40699e-08 2.06701e-08 -5.61811e-08 -3.16339e-07 -8.96367e-07 -1.851e-06 -2.90619e-06 -2.97036e-06 8.62558e-07 1.54283e-05 5.58109e-05 0.000153482 0.000370211 0.000819543 0.00169674 0.00331627 0.00615276 0.0108774 0.0183768 0.0297374 0.0461779 0.0689145 0.0989554 0.136838 0.182332 0.234172 0.289857 0.345599 0.396459 0.436682 0.460223 0.461409 0.435647 0.380068 0.294025 0.179343 0.040283 -0.11676 -0.283819 -0.452066 -0.6126 -0.757191 -0.878919 -0.972629 -1.03518 -1.0655 -1.06438 -1.03428 -0.978864 -0.902625 -0.810462 -0.707314 -0.597861 -0.486293 -0.376185 -0.270402 -0.171115 -0.079824 0.00257048 0.0756655 0.139476 0.194325 0.240764 0.279492 0.311288 0.336968 0.35734 0.373175 0.38519 0.394046 0.400329 0.404555 0.407173 0.408567 0.409068 0.408949 0.408437 0.407719 0.40694 0.40622 0.405647 0.40528 0.405154 0.40528 0.405647 0.40622 0.40694 0.407719 0.408437 0.408949 0.409068 0.408567 0.407173 0.404555 0.400329 0.394046 0.38519 0.373175 0.35734 0.336968 0.311288 0.279492 0.240764 0.194325 0.139476 0.0756655 0.00257048 -0.079824 -0.171115 -0.270402 -0.376185 -0.486293 -0.597861 -0.707314 -0.810462 -0.902625 -0.978864 -1.03428 -1.06438 -1.0655 -1.03518 -0.972629 -0.878919 -0.757191 -0.612601 -0.452067 -0.283819 -0.116761 0.0402826 0.179342 0.294024 0.380067 0.435645 0.461408 0.460221 0.43668 0.396459 0.345599 0.289856 0.234172 0.182332 0.136838 0.0989556 0.0689145 0.0461779 0.0297374 0.0183768 0.0108774 0.00615275 0.00331627 0.00169675 0.00081955 0.000370224 0.000153496 5.58121e-05 1.5383e-05 8.6164e-07 -2.95471e-06 -2.89161e-06 -1.84196e-06 -8.92084e-07 -3.14851e-07 -5.59168e-08 2.05804e-08 2.39643e-08 1.17844e-08 3.31517e-09 1.62575e-10 -3.57215e-10 -1.97489e-10 -5.13059e-11 -1.61309e-12 4.35765e-12 1.83866e-12 3.07147e-13 -3.66866e-14 -3.38522e-14 -8.14328e-15 -1.49688e-15 1.15092e-16 0 0 
0 0 2.94084e-17 1.60697e-16 4.56777e-16 -2.0306e-16 -8.24149e-15 -3.47375e-14 -3.94706e-14 2.83682e-13 1.72232e-12 4.18313e-12 -3.94032e-13 -4.22001e-11 -1.6858e-10 -3.25491e-10 1.35534e-11 2.37878e-09 9.03414e-09 1.95344e-08 2.12341e-08 -2.59466e-08 -2.01563e-07 -6.13129e-07 -1.33252e-06 -2.24585e-06 -2.75523e-06 -1.17177e-06 6.56249e-06 2.95043e-05 8.67564e-05 0.000216279 0.000488815 0.00102782 0.00203521 0.00382086 0.00683122 0.0116692 0.0190942 0.0299909 0.0452931 0.0658604 0.0923061 0.124794 0.162834 0.205103 0.249356 0.292433 0.330421 0.358936 0.37354 0.370214 0.345849 0.298672 0.228545 0.137095 0.02765 -0.095009 -0.225049 -0.356082 -0.481697 -0.59597 -0.69388 -0.771622 -0.826773 -0.858322 -0.866584 -0.853024 -0.819997 -0.770492 -0.707844 -0.635484 -0.556747 -0.474691 -0.392 -0.310909 -0.23319 -0.160159 -0.0927172 -0.031387 0.0236062 0.0722891 0.114881 0.15173 0.183286 0.21004 0.232503 0.251188 0.26659 0.279166 0.289338 0.297488 0.303947 0.30901 0.312925 0.315903 0.318114 0.319696 0.320754 0.321361 0.321557 0.321361 0.320754 0.319696 0.318114 0.315903 0.312925 0.30901 0.303947 0.297488 0.289338 0.279166 0.26659 0.251188 0.232503 0.21004 0.183286 0.15173 0.114881 0.0722891 0.0236062 -0.031387 -0.0927172 -0.160159 -0.23319 -0.310909 -0.392 -0.474691 -0.556747 -0.635484 -0.707844 -0.770492 -0.819997 -0.853024 -0.866584 -0.858322 -0.826773 -0.771622 -0.69388 -0.59597 -0.481697 -0.356082 -0.225049 -0.0950092 0.0276493 0.137094 0.228544 0.298671 0.345848 0.370212 0.373538 0.358935 0.330419 0.292433 0.249355 0.205103 0.162834 0.124794 0.0923062 0.0658605 0.0452932 0.0299909 0.0190942 0.0116692 0.00683122 0.00382086 0.00203521 0.00102782 0.000488816 0.000216282 8.67622e-05 2.95144e-05 6.57635e-06 -1.15908e-06 -2.73935e-06 -2.23402e-06 -1.32578e-06 -6.10116e-07 -2.00593e-07 -2.58219e-08 2.1138e-08 1.94467e-08 8.99402e-09 2.36827e-09 1.34251e-11 -3.24132e-10 -1.67877e-10 -4.20241e-11 -3.9148e-13 4.16649e-12 1.71546e-12 2.82546e-13 -3.93222e-14 -3.45988e-14 -8.18948e-15 -1.91325e-16 2.51912e-16 1.37378e-16 0 0 
0 0 5.21814e-18 4.49595e-17 1.60769e-16 2.38261e-16 -1.52136e-15 -1.08714e-14 -2.75111e-14 2.39594e-14 4.52701e-13 1.68973e-12 2.33316e-12 -7.09751e-12 -5.092e-11 -1.45866e-10 -1.77601e-10 3.78611e-10 2.68737e-09 7.8677e-09 1.37623e-08 7.79548e-09 -4.25925e-08 -1.9464e-07 -5.16153e-07 -1.03356e-06 -1.61563e-06 -1.73449e-06 3.13647e-08 7.02696e-06 2.65785e-05 7.38047e-05 0.000178067 0.000392913 0.000810033 0.00157699 0.0029172 0.00514902 0.00869851 0.014099 0.0219693 0.0329641 0.0476916 0.0666023 0.0898559 0.117186 0.147784 0.180227 0.212481 0.241978 0.265794 0.280892 0.284419 0.27402 0.248122 0.206148 0.148638 0.0772555 -0.00532701 -0.0956339 -0.189669 -0.283236 -0.372255 -0.45305 -0.522574 -0.578561 -0.619604 -0.645144 -0.65541 -0.651302 -0.63424 -0.606015 -0.568631 -0.524164 -0.474648 -0.421976 -0.367841 -0.313694 -0.260729 -0.209882 -0.161846 -0.1171 -0.0759304 -0.038466 -0.00470942 0.0254324 0.0521225 0.0755725 0.0960229 0.113727 0.12894 0.141908 0.152863 0.16202 0.169567 0.175672 0.180476 0.184093 0.186613 0.1881 0.18859 0.1881 0.186613 0.184093 0.180476 0.175672 0.169567 0.16202 0.152863 0.141908 0.12894 0.113727 0.0960229 0.0755725 0.0521225 0.0254324 -0.00470942 -0.038466 -0.0759304 -0.1171 -0.161846 -0.209882 -0.260729 -0.313694 -0.367841 -0.421976 -0.474648 -0.524164 -0.568631 -0.606015 -0.63424 -0.651302 -0.65541 -0.645144 -0.619604 -0.578561 -0.522574 -0.45305 -0.372255 -0.283236 -0.189669 -0.095634 -0.00532707 0.0772555 0.148638 0.206147 0.248122 0.274019 0.284418 0.280891 0.265793 0.241977 0.21248 0.180227 0.147783 0.117186 0.0898558 0.0666023 0.0476916 0.0329641 0.0219693 0.014099 0.0086985 0.00514902 0.0029172 0.00157699 0.000810032 0.000392913 0.000178067 7.38057e-05 2.65807e-05 7.03146e-06 3.89647e-08 -1.72149e-06 -1.60624e-06 -1.02819e-06 -5.13561e-07 -1.93688e-07 -4.23876e-08 7.76023e-09 1.36997e-08 7.83235e-09 2.67541e-09 3.76902e-10 -1.76864e-10 -1.45253e-10 -5.07068e-11 -7.06739e-12 2.32398e-12 1.68298e-12 4.5089e-13 2.3858e-14 -2.74056e-14 -1.08285e-14 -1.50889e-15 2.51912e-16 1.422e-16 4.16577e-17 0 0 
0 0 -3.65054e-19 5.42351e-18 3.04704e-17 1.32714e-16 1.13081e-16 -1.63173e-15 -9.21668e-15 -1.8874e-14 3.54526e-14 3.80939e-13 1.23914e-12 1.29922e-12 -6.44015e-12 -3.77071e-11 -9.8154e-11 -9.96085e-11 3.08306e-10 1.837e-09 5.05064e-09 8.34059e-09 3.7687e-09 -2.81011e-08 -1.20109e-07 -3.09608e-07 -6.09039e-07 -9.4108e-07 -1.00796e-06 -2.7092e-08 3.81285e-06 1.44319e-05 3.98489e-05 9.55295e-05 0.00020951 0.00042953 0.000831992 0.00153196 0.00269249 0.00453072 0.00731709 0.0113639 0.017 0.0245289 0.0341731 0.0460077 0.0598922 0.0754128 0.0918474 0.108165 0.123067 0.135073 0.142644 0.144332 0.138935 0.125645 0.104155 0.0747237 0.0381806 -0.00412647 -0.0504352 -0.0987094 -0.146801 -0.192611 -0.234241 -0.270105 -0.299017 -0.320229 -0.333436 -0.338736 -0.33658 -0.327697 -0.313012 -0.29356 -0.270426 -0.244669 -0.217281 -0.189146 -0.161026 -0.133546 -0.107196 -0.0823394 -0.0592224 -0.0379918 -0.0187136 -0.0013844 0.0140476 0.0276721 0.0396015 0.0499636 0.0588931 0.066523 0.0729816 0.0783884 0.0828509 0.0864641 0.0893103 0.0914546 0.0929494 0.0938311 0.0941225 0.0938311 0.0929494 0.0914546 0.0893103 0.0864641 0.0828509 0.0783884 0.0729816 0.066523 0.0588931 0.0499636 0.0396015 0.0276721 0.0140476 -0.0013844 -0.0187136 -0.0379918 -0.0592224 -0.0823394 -0.107196 -0.133546 -0.161026 -0.189146 -0.217281 -0.244669 -0.270426 -0.29356 -0.313012 -0.327697 -0.33658 -0.338736 -0.333436 -0.320229 -0.299017 -0.270105 -0.234241 -0.192611 -0.146801 -0.0987094 -0.0504352 -0.00412648 0.0381807 0.0747237 0.104155 0.125645 0.138935 0.144331 0.142644 0.135072 0.123067 0.108165 0.0918471 0.0754126 0.0598921 0.0460077 0.0341731 0.0245289 0.017 0.0113639 0.00731708 0.00453072 0.00269249 0.00153196 0.000831991 0.000429529 0.00020951 9.55296e-05 3.9849e-05 1.44321e-05 3.81334e-06 -2.57596e-08 -1.00502e-06 -9.35603e-07 -6.05458e-07 -3.07954e-07 -1.19503e-07 -2.79648e-08 3.75042e-09 8.3016e-09 5.02747e-09 1.82869e-09 3.06909e-10 -9.91889e-11 -9.77361e-11 -3.75473e-11 -6.41271e-12 1.2941e-12 1.23414e-12 3.79402e-13 3.53062e-14 -1.88012e-14 -9.18098e-15 -1.62543e-15 1.13724e-16 1.37824e-16 4.18187e-17 6.12324e-18 0 0 
0 0 0 0 0 0 0 0 0 0 0 0 0 0 0 0 0 0 0 0 0 0 0 0 0 0 0 0 0 0 0 0 0 0 0 0 0 0 0 0 0 0 0 0 0 0 0 0 0 0 0 0 0 0 0 0 0 0 0 0 0 0 0 0 0 0 0 0 0 0 0 0 0 0 0 0 0 0 0 0 0 0 0 0 0 0 0 0 0 0 0 0 0 0 0 0 0 0 0 0 0 0 0 0 0 0 0 0 0 0 0 0 0 0 0 0 0 0 0 0 0 0 0 0 0 0 0 0 0 0 0 0 0 0 0 0 0 0 0 0 0 0 0 0 0 0 0 0 0 0 0 0 0 0 0 0 0 0 0 0 0 0 0 0 0 0 0 0 0 0 0 0 0 0 0 0 0 0 0 0 0 0 0 0 0 0 0 0 0 0 0 0 0 0 0 0 0 0 0 0 
0 0 0 0 0 0 0 0 0 0 0 0 0 0 0 0 0 0 0 0 0 0 0 0 0 0 0 0 0 0 0 0 0 0 0 0 0 0 0 0 0 0 0 0 0 0 0 0 0 0 0 0 0 0 0 0 0 0 0 0 0 0 0 0 0 0 0 0 0 0 0 0 0 0 0 0 0 0 0 0 0 0 0 0 0 0 0 0 0 0 0 0 0 0 0 0 0 0 0 0 0 0 0 0 0 0 0 0 0 0 0 0 0 0 0 0 0 0 0 0 0 0 0 0 0 0 0 0 0 0 0 0 0 0 0 0 0 0 0 0 0 0 0 0 0 0 0 0 0 0 0 0 0 0 0 0 0 0 0 0 0 0 0 0 0 0 0 0 0 0 0 0 0 0 0 0 0 0 0 0 0 0 0 0 0 0 0 0 0 0 0 0 0 0 0 0 0 0 0 0 
</DataArray>
</PointData>
</Piece>
</ImageData>
</VTKFile>
