<?xml version="1.0"?>
<VTKFile type="ImageData" version="0.1" byte_order="LittleEndian">
<ImageData WholeExtent="0 199 0 199 0 0" Origin="0 0 0" Spacing="15 15 0">
<Piece Extent="0 199 0 199 0 0">
<PointData Scalars="Amplitude">
<DataArray type="Float32" Name="Amplitude" format="ascii">
0 0 0 0 0 0 0 0 0 0 0 0 0 0 0 0 0 0 0 0 0 0 0 0 0 0 0 0 0 0 0 0 0 0 0 0 0 0 0 0 0 0 0 0 0 0 0 0 0 0 0 0 0 0 0 0 0 0 0 0 0 0 0 0 0 0 0 0 0 0 0 0 0 0 0 0 0 0 0 0 0 0 0 0 0 0 0 0 0 0 0 0 0 0 0 0 0 0 0 0 0 0 0 0 0 0 0 0 0 0 0 0 0 0 0 0 0 0 0 0 0 0 0 0 0 0 0 0 0 0 0 0 0 0 0 0 0 0 0 0 0 0 0 0 0 0 0 0 0 0 0 0 0 0 0 0 0 0 0 0 0 0 0 0 0 0 0 0 0 0 0 0 0 0 0 0 0 0 0 0 0 0 0 0 0 0 0 0 0 0 0 0 0 0 0 0 0 0 0 0 
0 0 0 0 0 0 0 0 0 0 0 0 0 0 0 0 0 0 0 0 0 0 0 0 0 0 0 0 0 0 0 0 0 0 0 0 0 0 0 0 0 0 0 0 0 0 0 0 0 0 0 0 0 0 0 0 0 0 0 0 0 0 0 0 0 0 0 0 0 0 0 0 0 0 0 0 0 0 0 0 0 0 0 0 0 0 0 0 0 0 0 0 0 0 0 0 0 0 0 0 0 0 0 0 0 0 0 0 0 0 0 0 0 0 0 0 0 0 0 0 0 0 0 0 0 0 0 0 0 0 0 0 0 0 0 0 0 0 0 0 0 0 0 0 0 0 0 0 0 0 0 0 0 0 0 0 0 0 0 0 0 0 0 0 0 0 0 0 0 0 0 0 0 0 0 0 0 0 0 0 0 0 0 0 0 0 0 0 0 0 0 0 0 0 0 0 0 0 0 0 
0 0 0 0 0 0 0 0 0 0 0 0 0 0 0 0 0 0 0 0 0 0 0 0 0 0 0 0 0 0 0 0 0 0 0 0 0 0 0 0 0 0 0 0 0 0 0 0 0 0 0 0 0 0 0 0 0 0 0 0 0 0 0 0 0 0 0 0 0 0 0 0 0 0 0 0 0 0 0 0 0 0 0 0 0 0 0 0 0 0 0 0 0 0 0 0 0 0 0 0 0 0 0 0 0 0 0 0 0 0 0 0 0 0 0 0 0 0 0 0 0 0 0 0 0 0 0 0 0 0 0 0 0 0 0 0 0 0 0 0 0 0 0 0 0 0 0 0 0 0 0 0 0 0 0 0 0 0 0 0 0 0 0 0 0 0 0 0 0 0 0 0 0 0 0 0 0 0 0 0 0 0 0 0 0 0 0 0 0 0 0 0 0 0 0 0 0 0 0 0 
0 0 0 0 0 0 0 0 0 0 0 0 0 0 0 0 0 0 0 0 0 0 0 0 0 0 0 0 0 0 0 0 0 0 0 0 0 0 0 0 0 0 0 0 0 0 0 0 0 0 0 0 0 0 0 0 0 0 0 0 0 0 0 0 0 0 0 0 0 0 0 0 0 0 0 0 0 0 0 0 0 0 0 0 0 0 0 0 0 0 0 0 0 0 0 0 0 0 0 0 0 0 0 0 0 0 0 0 0 0 0 0 0 0 0 0 0 0 0 0 0 0 0 0 0 0 0 0 0 0 0 0 0 0 0 0 0 0 0 0 0 0 0 0 0 0 0 0 0 0 0 0 0 0 0 0 0 0 0 0 0 0 0 0 0 0 0 0 0 0 0 0 0 0 0 0 0 0 0 0 0 0 0 0 0 0 0 0 0 0 0 0 0 0 0 0 0 0 0 0 
0 0 0 0 0 0 0 0 0 0 0 0 0 0 0 0 0 0 0 0 0 0 0 0 0 0 0 0 0 0 0 0 0 0 0 0 0 0 0 0 0 0 0 0 0 0 0 0 0 0 0 0 0 0 0 0 0 0 0 0 0 0 0 0 0 0 0 0 0 0 0 0 0 0 0 0 0 0 0 0 0 0 0 0 0 0 0 0 0 0 0 0 0 0 0 0 0 0 0 0 0 0 0 0 0 0 0 0 0 0 0 0 0 0 0 0 0 0 0 0 0 0 0 0 0 0 0 0 0 0 0 0 0 0 0 0 0 0 0 0 0 0 0 0 0 0 0 0 0 0 0 0 0 0 0 0 0 0 0 0 0 0 0 0 0 0 0 0 0 0 0 0 0 0 0 0 0 0 0 0 0 0 0 0 0 0 0 0 0 0 0 0 0 0 0 0 0 0 0 0 
0 0 0 0 0 0 0 0 0 0 0 0 0 0 0 0 0 0 0 0 0 0 0 0 0 0 0 0 0 0 0 0 0 0 0 0 0 0 0 0 0 0 0 0 0 0 0 0 0 0 0 0 0 0 0 0 0 0 0 0 0 0 0 0 0 0 0 0 0 0 0 0 0 0 0 0 0 0 0 0 0 0 0 0 0 0 0 0 0 0 0 0 0 0 0 0 0 0 0 0 0 0 0 0 0 0 0 0 0 0 0 0 0 0 0 0 0 0 0 0 0 0 0 0 0 0 0 0 0 0 0 0 0 0 0 0 0 0 0 0 0 0 0 0 0 0 0 0 0 0 0 0 0 0 0 0 0 0 0 0 0 0 0 0 0 0 0 0 0 0 0 0 0 0 0 0 0 0 0 0 0 0 0 0 0 0 0 0 0 0 0 0 0 0 0 0 0 0 0 0 
0 0 0 0 0 0 0 0 0 0 0 0 0 0 0 0 0 0 0 0 0 0 0 0 0 0 0 0 0 0 0 0 0 0 0 0 0 0 0 0 0 0 0 0 0 0 0 0 0 0 0 0 0 0 0 0 0 0 0 0 0 0 0 0 0 0 0 0 0 0 0 0 0 0 0 0 0 0 0 0 0 0 0 0 0 0 0 0 0 0 0 0 0 0 0 0 0 0 0 0 0 0 0 0 0 0 0 0 0 0 0 0 0 0 0 0 0 0 0 0 0 0 0 0 0 0 0 0 0 0 0 0 0 0 0 0 0 0 0 0 0 0 0 0 0 0 0 0 0 0 0 0 0 0 0 0 0 0 0 0 0 0 0 0 0 0 0 0 0 0 0 0 0 0 0 0 0 0 0 0 0 0 0 0 0 0 0 0 0 0 0 0 0 0 0 0 0 0 0 0 
0 0 0 0 0 0 0 0 0 0 0 0 0 0 0 0 0 0 0 0 0 0 0 0 0 0 0 0 0 0 0 0 0 0 0 0 0 0 0 0 0 0 0 0 0 0 0 0 0 0 0 0 0 0 0 0 0 0 0 0 0 0 0 0 0 0 0 0 0 0 0 0 0 0 0 0 0 0 0 0 0 0 0 0 0 0 0 0 0 0 0 0 0 0 0 0 0 0 0 0 0 0 0 0 0 0 0 0 0 0 0 0 0 0 0 0 0 0 0 0 0 0 0 0 0 0 0 0 0 0 0 0 0 0 0 0 0 0 0 0 0 0 0 0 0 0 0 0 0 0 0 0 0 0 0 0 0 0 0 0 0 0 0 0 0 0 0 0 0 0 0 0 0 0 0 0 0 0 0 0 0 0 0 0 0 0 0 0 0 0 0 0 0 0 0 0 0 0 0 0 
0 0 0 0 0 0 0 0 0 0 0 0 0 0 0 0 0 0 0 0 0 0 0 0 0 0 0 0 0 0 0 0 0 0 0 0 0 0 0 0 0 0 0 0 0 0 0 0 0 0 0 0 0 0 0 0 0 0 0 0 0 0 0 0 0 0 0 0 0 0 0 0 0 0 0 0 0 0 0 0 0 0 0 0 0 0 0 0 0 0 0 0 0 0 0 0 0 0 0 0 0 0 0 0 0 0 0 0 0 0 0 0 0 0 0 0 0 0 0 0 0 0 0 0 0 0 0 0 0 0 0 0 0 0 0 0 0 0 0 0 0 0 0 0 0 0 0 0 0 0 0 0 0 0 0 0 0 0 0 0 0 0 0 0 0 0 0 0 0 0 0 0 0 0 0 0 0 0 0 0 0 0 0 0 0 0 0 0 0 0 0 0 0 0 0 0 0 0 0 0 
0 0 0 0 0 0 0 0 0 0 0 0 0 0 0 0 0 0 0 0 0 0 0 0 0 0 0 0 0 0 0 0 0 0 0 0 0 0 0 0 0 0 0 0 0 0 0 0 0 0 0 0 0 0 0 0 0 0 0 0 0 0 0 0 0 0 0 0 0 0 0 0 0 0 0 0 0 0 0 0 0 0 0 0 0 0 0 0 0 0 0 0 0 0 0 0 0 0 0 0 0 0 0 0 0 0 0 0 0 0 0 0 0 0 0 0 0 0 0 0 0 0 0 0 0 0 0 0 0 0 0 0 0 0 0 0 0 0 0 0 0 0 0 0 0 0 0 0 0 0 0 0 0 0 0 0 0 0 0 0 0 0 0 0 0 0 0 0 0 0 0 0 0 0 0 0 0 0 0 0 0 0 0 0 0 0 0 0 0 0 0 0 0 0 0 0 0 0 0 0 
0 0 0 0 0 0 0 0 0 0 0 0 0 0 0 0 0 0 0 0 0 0 0 0 0 0 0 0 0 0 0 0 0 0 0 0 0 0 0 0 0 0 0 0 0 0 0 0 0 0 0 0 0 0 0 0 0 0 0 0 0 0 0 0 0 0 0 0 0 0 0 0 0 0 0 0 0 0 0 0 0 0 0 0 0 0 0 0 0 0 0 0 0 0 0 0 0 0 0 0 0 0 0 0 0 0 0 0 0 0 0 0 0 0 0 0 0 0 0 0 0 0 0 0 0 0 0 0 0 0 0 0 0 0 0 0 0 0 0 0 0 0 0 0 0 0 0 0 0 0 0 0 0 0 0 0 0 0 0 0 0 0 0 0 0 0 0 0 0 0 0 0 0 0 0 0 0 0 0 0 0 0 0 0 0 0 0 0 0 0 0 0 0 0 0 0 0 0 0 0 
0 0 0 0 0 0 0 0 0 0 0 0 0 0 0 0 0 0 0 0 0 0 0 0 0 0 0 0 0 0 0 0 0 0 0 0 0 0 0 0 0 0 0 0 0 0 0 0 0 0 0 0 0 0 0 0 0 0 0 0 0 0 0 0 0 0 0 0 0 0 0 0 0 0 0 0 0 0 0 0 0 0 0 0 0 0 0 0 0 0 0 0 0 0 0 0 0 0 0 0 0 0 0 0 0 0 0 0 0 0 0 0 0 0 0 0 0 0 0 0 0 0 0 0 0 0 0 0 0 0 0 0 0 0 0 0 0 0 0 0 0 0 0 0 0 0 0 0 0 0 0 0 0 0 0 0 0 0 0 0 0 0 0 0 0 0 0 0 0 0 0 0 0 0 0 0 0 0 0 0 0 0 0 0 0 0 0 0 0 0 0 0 0 0 0 0 0 0 0 0 
0 0 0 0 0 0 0 0 0 0 0 0 0 0 0 0 0 0 0 0 0 0 0 0 0 0 0 0 0 0 0 0 0 0 0 0 0 0 0 0 0 0 0 0 0 0 0 0 0 0 0 0 0 0 0 0 0 0 0 0 0 0 0 0 0 0 0 0 0 0 0 0 0 0 0 0 0 0 0 0 0 0 0 0 0 0 0 0 0 0 0 0 0 0 0 0 0 0 0 0 0 0 0 0 0 0 0 0 0 0 0 0 0 0 0 0 0 0 0 0 0 0 0 0 0 0 0 0 0 0 0 0 0 0 0 0 0 0 0 0 0 0 0 0 0 0 0 0 0 0 0 0 0 0 0 0 0 0 0 0 0 0 0 0 0 0 0 0 0 0 0 0 0 0 0 0 0 0 0 0 0 0 0 0 0 0 0 0 0 0 0 0 0 0 0 0 0 0 0 0 
0 0 0 0 0 0 0 0 0 0 0 0 0 0 0 0 0 0 0 0 0 0 0 0 0 0 0 0 0 0 0 0 0 0 0 0 0 0 0 0 0 0 0 0 0 0 0 0 0 0 0 0 0 0 0 0 0 0 0 0 0 0 0 0 0 0 0 0 0 0 0 0 0 0 0 0 0 0 0 0 0 0 0 0 0 0 0 0 0 0 0 0 0 0 0 0 0 0 0 0 0 0 0 0 0 0 0 0 0 0 0 0 0 0 0 0 0 0 0 0 0 0 0 0 0 0 0 0 0 0 0 0 0 0 0 0 0 0 0 0 0 0 0 0 0 0 0 0 0 0 0 0 0 0 0 0 0 0 0 0 0 0 0 0 0 0 0 0 0 0 0 0 0 0 0 0 0 0 0 0 0 0 0 0 0 0 0 0 0 0 0 0 0 0 0 0 0 0 0 0 
0 0 0 0 0 0 0 0 0 0 0 0 0 0 0 0 0 0 0 0 0 0 0 0 0 0 0 0 0 0 0 0 0 0 0 0 0 0 0 0 0 0 0 0 0 0 0 0 0 0 0 0 0 0 0 0 0 0 0 0 0 0 0 0 0 0 0 0 0 0 0 0 0 0 0 0 0 0 0 0 0 0 0 0 0 0 0 0 0 0 0 0 0 0 0 0 -0 -0 -0 -0 -0 -0 -0 -0 -0 0 0 0 0 0 0 0 0 0 0 0 0 0 0 0 0 0 0 0 0 0 0 0 0 0 0 0 0 0 0 0 0 0 0 0 0 0 0 0 0 0 0 0 0 0 0 0 0 0 0 0 0 0 0 0 0 0 0 0 0 0 0 0 0 0 0 0 0 0 0 0 0 0 0 0 0 0 0 0 0 0 0 0 0 0 0 0 0 0 0 0 0 0 0 0 
0 0 0 0 0 0 0 0 0 0 0 0 0 0 0 0 0 0 0 0 0 0 0 0 0 0 0 0 0 0 0 0 0 0 0 0 0 0 0 0 0 0 0 0 0 0 0 0 0 0 0 0 0 0 0 0 0 0 0 0 0 0 0 0 0 0 0 0 0 0 0 0 0 0 0 0 0 0 0 0 0 0 0 0 0 0 0 0 0 0 0 0 -0 -0 -0 -0 -0 -0 -0 -0 -0 -0 -0 -0 -0 -0 -0 -0 -0 0 0 0 0 0 0 0 0 0 0 0 0 0 0 0 0 0 0 0 0 0 0 0 0 0 0 0 0 0 0 0 0 0 0 0 0 0 0 0 0 0 0 0 0 0 0 0 0 0 0 0 0 0 0 0 0 0 0 0 0 0 0 0 0 0 0 0 0 0 0 0 0 0 0 0 0 0 0 0 0 0 0 0 0 0 0 0 0 0 0 0 
0 0 0 0 0 0 0 0 0 0 0 0 0 0 0 0 0 0 0 0 0 0 0 0 0 0 0 0 0 0 0 0 0 0 0 0 0 0 0 0 0 0 0 0 0 0 0 0 0 0 0 0 0 0 0 0 0 0 0 0 0 0 0 0 0 0 0 0 0 0 0 0 0 0 0 0 0 0 0 0 0 0 0 0 0 0 0 0 0 -0 -0 -0 -0 -0 0 0 1.39445e-44 3.90445e-44 7.80891e-44 9.62169e-44 1.17134e-43 9.62169e-44 7.80891e-44 3.90445e-44 1.39445e-44 0 0 -0 -0 -0 -0 -0 0 0 0 0 0 0 0 0 0 0 0 0 0 0 0 0 0 0 0 0 0 0 0 0 0 0 0 0 0 0 0 0 0 0 0 0 0 0 0 0 0 0 0 0 0 0 0 0 0 0 0 0 0 0 0 0 0 0 0 0 0 0 0 0 0 0 0 0 0 0 0 0 0 0 0 0 0 0 0 0 0 0 0 0 0 0 0 0 
0 0 0 0 0 0 0 0 0 0 0 0 0 0 0 0 0 0 0 0 0 0 0 0 0 0 0 0 0 0 0 0 0 0 0 0 0 0 0 0 0 0 0 0 0 0 0 0 0 0 0 0 0 0 0 0 0 0 0 0 0 0 0 0 0 0 0 0 0 0 0 0 0 0 0 0 0 0 0 0 0 0 0 0 0 0 0 -0 -0 -0 0 1.39588e-45 6.28147e-44 2.54051e-43 5.96042e-43 1.12927e-42 1.75881e-42 2.41767e-42 2.95648e-42 3.30545e-42 3.45062e-42 3.30545e-42 2.95648e-42 2.41767e-42 1.75881e-42 1.12927e-42 5.96042e-43 2.54051e-43 6.28147e-44 1.39588e-45 0 -0 -0 -0 0 0 0 0 0 0 0 0 0 0 0 0 0 0 0 0 0 0 0 0 0 0 0 0 0 0 0 0 0 0 0 0 0 0 0 0 0 0 0 0 0 0 0 0 0 0 0 0 0 0 0 0 0 0 0 0 0 0 0 0 0 0 0 0 0 0 0 0 0 0 0 0 0 0 0 0 0 0 0 0 0 0 0 0 0 0 
0 0 0 0 0 0 0 0 0 0 0 0 0 0 0 0 0 0 0 0 0 0 0 0 0 0 0 0 0 0 0 0 0 0 0 0 0 0 0 0 0 0 0 0 0 0 0 0 0 0 0 0 0 0 0 0 0 0 0 0 0 0 0 0 0 0 0 0 0 0 0 0 0 0 0 0 0 0 0 0 0 0 0 0 0 -0 -0 0 0 7.68433e-44 3.84216e-43 1.10095e-42 2.27875e-42 3.70664e-42 4.88863e-42 5.05629e-42 3.68568e-42 8.56453e-43 -2.56657e-42 -5.30219e-42 -6.38358e-42 -5.30219e-42 -2.56657e-42 8.56453e-43 3.68568e-42 5.05629e-42 4.88863e-42 3.70664e-42 2.27875e-42 1.10095e-42 3.84216e-43 7.68433e-44 0 0 -0 -0 0 0 0 0 0 0 0 0 0 0 0 0 0 0 0 0 0 0 0 0 0 0 0 0 0 0 0 0 0 0 0 0 0 0 0 0 0 0 0 0 0 0 0 0 0 0 0 0 0 0 0 0 0 0 0 0 0 0 0 0 0 0 0 0 0 0 0 0 0 0 0 0 0 0 0 0 0 0 0 0 0 0 0 0 
0 0 0 0 0 0 0 0 0 0 0 0 0 0 0 0 0 0 0 0 0 0 0 0 0 0 0 0 0 0 0 0 0 0 0 0 0 0 0 0 0 0 0 0 0 0 0 0 0 0 0 0 0 0 0 0 0 0 0 0 0 0 0 0 0 0 0 0 0 0 0 0 0 0 0 0 0 0 0 0 0 0 0 -0 -0 0 1.39825e-45 1.55206e-43 7.10311e-43 1.89882e-42 3.06217e-42 1.89183e-42 -6.39559e-42 -2.7951e-41 -6.78529e-41 -1.26845e-40 -1.99368e-40 -2.74657e-40 -3.39664e-40 -3.83464e-40 -3.98824e-40 -3.83464e-40 -3.39664e-40 -2.74657e-40 -1.99368e-40 -1.26845e-40 -6.78529e-41 -2.7951e-41 -6.39559e-42 1.89183e-42 3.06217e-42 1.89882e-42 7.10311e-43 1.55206e-43 1.39825e-45 0 -0 -0 0 0 0 0 0 0 0 0 0 0 0 0 0 0 0 0 0 0 0 0 0 0 0 0 0 0 0 0 0 0 0 0 0 0 0 0 0 0 0 0 0 0 0 0 0 0 0 0 0 0 0 0 0 0 0 0 0 0 0 0 0 0 0 0 0 0 0 0 0 0 0 0 0 0 0 0 0 0 0 0 0 0 
0 0 0 0 0 0 0 0 0 0 0 0 0 0 0 0 0 0 0 0 0 0 0 0 0 0 0 0 0 0 0 0 0 0 0 0 0 0 0 0 0 0 0 0 0 0 0 0 0 0 0 0 0 0 0 0 0 0 0 0 0 0 0 0 0 0 0 0 0 0 0 0 0 0 0 0 0 0 0 0 0 -0 -0 0 1.39918e-45 1.81893e-43 8.32512e-43 1.8721e-42 8.0313e-43 -1.06869e-41 -4.93981e-41 -1.36868e-40 -2.85674e-40 -4.79892e-40 -6.66357e-40 -7.70192e-40 -7.33492e-40 -5.54355e-40 -2.99854e-40 -7.94972e-41 7.20438e-42 -7.94972e-41 -2.99854e-40 -5.54355e-40 -7.33492e-40 -7.70192e-40 -6.66357e-40 -4.79892e-40 -2.85674e-40 -1.36868e-40 -4.93981e-41 -1.06869e-41 8.0313e-43 1.8721e-42 8.32512e-43 1.81893e-43 1.39918e-45 0 -0 -0 0 0 0 0 0 0 0 0 0 0 0 0 0 0 0 0 0 0 0 0 0 0 0 0 0 0 0 0 0 0 0 0 0 0 0 0 0 0 0 0 0 0 0 0 0 0 0 0 0 0 0 0 0 0 0 0 0 0 0 0 0 0 0 0 0 0 0 0 0 0 0 0 0 0 0 0 0 0 0 0 
0 0 0 0 0 0 0 0 0 0 0 0 0 0 0 0 0 0 0 0 0 0 0 0 0 0 0 0 0 0 0 0 0 0 0 0 0 0 0 0 0 0 0 0 0 0 0 0 0 0 0 0 0 0 0 0 0 0 0 0 0 0 0 0 0 0 0 0 0 0 0 0 0 0 0 0 0 0 0 -0 -0 -0 0 1.31595e-43 7.4477e-43 1.48674e-42 -2.01032e-42 -2.54132e-41 -9.97641e-41 -2.52075e-40 -4.38062e-40 -4.33177e-40 2.42133e-40 2.24943e-39 6.16516e-39 1.21289e-38 1.96239e-38 2.7543e-38 3.45069e-38 3.92545e-38 4.09357e-38 3.92545e-38 3.45069e-38 2.7543e-38 1.96239e-38 1.21289e-38 6.16516e-39 2.24943e-39 2.42133e-40 -4.33177e-40 -4.38062e-40 -2.52075e-40 -9.97641e-41 -2.54132e-41 -2.01032e-42 1.48674e-42 7.4477e-43 1.31595e-43 0 -0 -0 -0 0 0 0 0 0 0 0 0 0 0 0 0 0 0 0 0 0 0 0 0 0 0 0 0 0 0 0 0 0 0 0 0 0 0 0 0 0 0 0 0 0 0 0 0 0 0 0 0 0 0 0 0 0 0 0 0 0 0 0 0 0 0 0 0 0 0 0 0 0 0 0 0 0 0 0 0 0 0 
0 0 0 0 0 0 0 0 0 0 0 0 0 0 0 0 0 0 0 0 0 0 0 0 0 0 0 0 0 0 0 0 0 0 0 0 0 0 0 0 0 0 0 0 0 0 0 0 0 0 0 0 0 0 0 0 0 0 0 0 0 0 0 0 0 0 0 0 0 0 0 0 0 0 0 0 0 0 -0 -0 0 7.70295e-44 5.96628e-43 1.44955e-42 -2.23946e-42 -3.01479e-41 -1.20205e-40 -2.72882e-40 -2.42203e-40 8.50082e-40 4.83767e-39 1.42173e-38 3.08097e-38 5.38072e-38 7.86633e-38 9.82766e-38 1.06422e-37 1.01478e-37 8.79028e-38 7.42244e-38 6.85629e-38 7.42244e-38 8.79028e-38 1.01478e-37 1.06422e-37 9.82766e-38 7.86633e-38 5.38072e-38 3.08097e-38 1.42173e-38 4.83767e-39 8.50082e-40 -2.42203e-40 -2.72882e-40 -1.20205e-40 -3.01479e-41 -2.23946e-42 1.44955e-42 5.96628e-43 7.70295e-44 0 -0 -0 0 0 0 0 0 0 0 0 0 0 0 0 0 0 0 0 0 0 0 0 0 0 0 0 0 0 0 0 0 0 0 0 0 0 0 0 0 0 0 0 0 0 0 0 0 0 0 0 0 0 0 0 0 0 0 0 0 0 0 0 0 0 0 0 0 0 0 0 0 0 0 0 0 0 0 0 0 
0 0 0 0 0 0 0 0 0 0 0 0 0 0 0 0 0 0 0 0 0 0 0 0 0 0 0 0 0 0 0 0 0 0 0 0 0 0 0 0 0 0 0 0 0 0 0 0 0 0 0 0 0 0 0 0 0 0 0 0 0 0 0 0 0 0 0 0 0 0 0 0 0 0 0 0 -0 -0 0 2.10144e-44 4.00674e-43 1.44859e-42 -4.59515e-43 -2.46849e-41 -1.12658e-40 -2.39638e-40 7.52553e-41 2.58519e-39 1.09193e-38 2.89115e-38 5.40925e-38 6.68783e-38 2.25181e-38 -1.43194e-37 -4.89394e-37 -1.03614e-36 -1.74078e-36 -2.50024e-36 -3.17886e-36 -3.64692e-36 -3.81369e-36 -3.64692e-36 -3.17886e-36 -2.50024e-36 -1.74078e-36 -1.03614e-36 -4.89394e-37 -1.43194e-37 2.25181e-38 6.68783e-38 5.40925e-38 2.89115e-38 1.09193e-38 2.58519e-39 7.52553e-41 -2.39638e-40 -1.12658e-40 -2.46849e-41 -4.59515e-43 1.44859e-42 4.00674e-43 2.10144e-44 0 -0 -0 0 0 0 0 0 0 0 0 0 0 0 0 0 0 0 0 0 0 0 0 0 0 0 0 0 0 0 0 0 0 0 0 0 0 0 0 0 0 0 0 0 0 0 0 0 0 0 0 0 0 0 0 0 0 0 0 0 0 0 0 0 0 0 0 0 0 0 0 0 0 0 0 0 0 0 
0 0 0 0 0 0 0 0 0 0 0 0 0 0 0 0 0 0 0 0 0 0 0 0 0 0 0 0 0 0 0 0 0 0 0 0 0 0 0 0 0 0 0 0 0 0 0 0 0 0 0 0 0 0 0 0 0 0 0 0 0 0 0 0 0 0 0 0 0 0 0 0 0 0 0 -0 -0 0 1.97571e-43 1.12237e-42 1.37599e-42 -1.45306e-41 -9.11433e-41 -2.22283e-40 1.39068e-40 3.27536e-39 1.38811e-38 3.37522e-38 4.0884e-38 -5.03351e-38 -4.25389e-37 -1.34964e-36 -3.04894e-36 -5.52457e-36 -8.42993e-36 -1.11429e-35 -1.30435e-35 -1.38408e-35 -1.37319e-35 -1.3274e-35 -1.30414e-35 -1.3274e-35 -1.37319e-35 -1.38408e-35 -1.30435e-35 -1.11429e-35 -8.42993e-36 -5.52457e-36 -3.04894e-36 -1.34964e-36 -4.25389e-37 -5.03351e-38 4.0884e-38 3.37522e-38 1.38811e-38 3.27536e-39 1.39068e-40 -2.22283e-40 -9.11433e-41 -1.45306e-41 1.37599e-42 1.12237e-42 1.97571e-43 0 -0 -0 0 0 0 0 0 0 0 0 0 0 0 0 0 0 0 0 0 0 0 0 0 0 0 0 0 0 0 0 0 0 0 0 0 0 0 0 0 0 0 0 0 0 0 0 0 0 0 0 0 0 0 0 0 0 0 0 0 0 0 0 0 0 0 0 0 0 0 0 0 0 0 0 0 0 
0 0 0 0 0 0 0 0 0 0 0 0 0 0 0 0 0 0 0 0 0 0 0 0 0 0 0 0 0 0 0 0 0 0 0 0 0 0 0 0 0 0 0 0 0 0 0 0 0 0 0 0 0 0 0 0 0 0 0 0 0 0 0 0 0 0 0 0 0 0 0 0 0 -0 -0 0 5.04467e-44 6.86636e-43 2.07252e-42 -4.7434e-42 -6.09663e-41 -2.05523e-40 -2.92297e-41 2.73968e-39 1.32398e-38 3.05987e-38 7.02392e-39 -2.40232e-37 -1.1063e-36 -3.07026e-36 -6.11448e-36 -8.72177e-36 -7.06916e-36 4.59161e-36 3.18589e-35 7.71352e-35 1.37304e-34 2.03591e-34 2.63794e-34 3.05787e-34 3.20837e-34 3.05787e-34 2.63794e-34 2.03591e-34 1.37304e-34 7.71352e-35 3.18589e-35 4.59161e-36 -7.06916e-36 -8.72177e-36 -6.11448e-36 -3.07026e-36 -1.1063e-36 -2.40232e-37 7.02392e-39 3.05987e-38 1.32398e-38 2.73968e-39 -2.92297e-41 -2.05523e-40 -6.09663e-41 -4.7434e-42 2.07252e-42 6.86636e-43 5.04467e-44 0 -0 -0 0 0 0 0 0 0 0 0 0 0 0 0 0 0 0 0 0 0 0 0 0 0 0 0 0 0 0 0 0 0 0 0 0 0 0 0 0 0 0 0 0 0 0 0 0 0 0 0 0 0 0 0 0 0 0 0 0 0 0 0 0 0 0 0 0 0 0 0 0 0 0 0 
0 0 0 0 0 0 0 0 0 0 0 0 0 0 0 0 0 0 0 0 0 0 0 0 0 0 0 0 0 0 0 0 0 0 0 0 0 0 0 0 0 0 0 0 0 0 0 0 0 0 0 0 0 0 0 0 0 0 0 0 0 0 0 0 0 0 0 0 0 0 0 0 -0 -0 0 2.78858e-43 1.67876e-42 1.21212e-42 -2.99962e-41 -1.61333e-40 -2.16169e-40 1.61697e-39 1.0721e-38 2.77296e-38 -4.63417e-39 -3.34918e-37 -1.50454e-36 -3.8912e-36 -5.75836e-36 5.71685e-37 3.24762e-35 1.16006e-34 2.76e-34 5.19656e-34 8.23952e-34 1.13848e-33 1.40582e-33 1.58814e-33 1.68282e-33 1.71676e-33 1.72319e-33 1.71676e-33 1.68282e-33 1.58814e-33 1.40582e-33 1.13848e-33 8.23952e-34 5.19656e-34 2.76e-34 1.16006e-34 3.24762e-35 5.71685e-37 -5.75836e-36 -3.8912e-36 -1.50454e-36 -3.34918e-37 -4.63417e-39 2.77296e-38 1.0721e-38 1.61697e-39 -2.16169e-40 -1.61333e-40 -2.99962e-41 1.21212e-42 1.67876e-42 2.78858e-43 0 -0 -0 0 0 0 0 0 0 0 0 0 0 0 0 0 0 0 0 0 0 0 0 0 0 0 0 0 0 0 0 0 0 0 0 0 0 0 0 0 0 0 0 0 0 0 0 0 0 0 0 0 0 0 0 0 0 0 0 0 0 0 0 0 0 0 0 0 0 0 0 0 0 0 
0 0 0 0 0 0 0 0 0 0 0 0 0 0 0 0 0 0 0 0 0 0 0 0 0 0 0 0 0 0 0 0 0 0 0 0 0 0 0 0 0 0 0 0 0 0 0 0 0 0 0 0 0 0 0 0 0 0 0 0 0 0 0 0 0 0 0 0 0 0 -0 -0 0 5.1848e-44 8.64601e-43 2.88527e-42 -7.68612e-42 -9.70848e-41 -2.84775e-40 5.02427e-40 7.17772e-39 2.49591e-38 9.94189e-39 -2.90409e-37 -1.47816e-36 -3.68433e-36 -2.55472e-36 1.96634e-35 1.03073e-34 3.01784e-34 6.35894e-34 1.00441e-33 1.10958e-33 4.76073e-34 -1.38735e-33 -4.73464e-33 -9.37242e-33 -1.46203e-32 -1.94748e-32 -2.29015e-32 -2.41369e-32 -2.29015e-32 -1.94748e-32 -1.46203e-32 -9.37242e-33 -4.73464e-33 -1.38735e-33 4.76073e-34 1.10958e-33 1.00441e-33 6.35894e-34 3.01784e-34 1.03073e-34 1.96634e-35 -2.55472e-36 -3.68433e-36 -1.47816e-36 -2.90409e-37 9.94189e-39 2.49591e-38 7.17772e-39 5.02427e-40 -2.84775e-40 -9.70848e-41 -7.68612e-42 2.88527e-42 8.64601e-43 5.1848e-44 0 -0 -0 0 0 0 0 0 0 0 0 0 0 0 0 0 0 0 0 0 0 0 0 0 0 0 0 0 0 0 0 0 0 0 0 0 0 0 0 0 0 0 0 0 0 0 0 0 0 0 0 0 0 0 0 0 0 0 0 0 0 0 0 0 0 0 0 0 0 0 0 0 
0 0 0 0 0 0 0 0 0 0 0 0 0 0 0 0 0 0 0 0 0 0 0 0 0 0 0 0 0 0 0 0 0 0 0 0 0 0 0 0 0 0 0 0 0 0 0 0 0 0 0 0 0 0 0 0 0 0 0 0 0 0 0 0 0 0 0 0 0 -0 -0 0 2.76056e-43 2.07672e-42 2.35138e-42 -3.92728e-41 -2.25868e-40 -1.89621e-40 3.53564e-39 1.93648e-38 2.83878e-38 -1.72499e-37 -1.20442e-36 -3.30555e-36 -9.04492e-37 3.1431e-35 1.52257e-34 4.18199e-34 7.14686e-34 4.11744e-34 -1.99823e-33 -8.88405e-33 -2.2717e-32 -4.47035e-32 -7.35978e-32 -1.05633e-31 -1.3586e-31 -1.60147e-31 -1.7661e-31 -1.85591e-31 -1.88367e-31 -1.85591e-31 -1.7661e-31 -1.60147e-31 -1.3586e-31 -1.05633e-31 -7.35978e-32 -4.47035e-32 -2.2717e-32 -8.88405e-33 -1.99823e-33 4.11744e-34 7.14686e-34 4.18199e-34 1.52257e-34 3.1431e-35 -9.04492e-37 -3.30555e-36 -1.20442e-36 -1.72499e-37 2.83878e-38 1.93648e-38 3.53564e-39 -1.89621e-40 -2.25868e-40 -3.92728e-41 2.35138e-42 2.07672e-42 2.76056e-43 0 -0 -0 0 0 0 0 0 0 0 0 0 0 0 0 0 0 0 0 0 0 0 0 0 0 0 0 0 0 0 0 0 0 0 0 0 0 0 0 0 0 0 0 0 0 0 0 0 0 0 0 0 0 0 0 0 0 0 0 0 0 0 0 0 0 0 0 0 0 0 0 
0 0 0 0 0 0 0 0 0 0 0 0 0 0 0 0 0 0 0 0 0 0 0 0 0 0 0 0 0 0 0 0 0 0 0 0 0 0 0 0 0 0 0 0 0 0 0 0 0 0 0 0 0 0 0 0 0 0 0 0 0 0 0 0 0 0 0 -0 -0 -0 2.94273e-44 8.3097e-43 3.7793e-42 -5.7159e-42 -1.17541e-40 -3.77301e-40 8.99648e-40 1.16451e-38 3.46838e-38 -5.14806e-38 -8.08061e-37 -2.90513e-36 -1.951e-36 2.85845e-35 1.55469e-34 4.16814e-34 4.54356e-34 -1.33214e-33 -8.73165e-33 -2.73262e-32 -6.08305e-32 -1.04024e-31 -1.36083e-31 -1.20906e-31 -1.85936e-32 1.95103e-31 5.11286e-31 8.82652e-31 1.23429e-30 1.48607e-30 1.57747e-30 1.48607e-30 1.23429e-30 8.82652e-31 5.11286e-31 1.95103e-31 -1.85936e-32 -1.20906e-31 -1.36083e-31 -1.04024e-31 -6.08305e-32 -2.73262e-32 -8.73165e-33 -1.33214e-33 4.54356e-34 4.16814e-34 1.55469e-34 2.85845e-35 -1.951e-36 -2.90513e-36 -8.08061e-37 -5.14806e-38 3.46838e-38 1.16451e-38 8.99648e-40 -3.77301e-40 -1.17541e-40 -5.7159e-42 3.7793e-42 8.3097e-43 2.94273e-44 -0 -0 -0 0 0 0 0 0 0 0 0 0 0 0 0 0 0 0 0 0 0 0 0 0 0 0 0 0 0 0 0 0 0 0 0 0 0 0 0 0 0 0 0 0 0 0 0 0 0 0 0 0 0 0 0 0 0 0 0 0 0 0 0 0 0 0 0 0 0 
0 0 0 0 0 0 0 0 0 0 0 0 0 0 0 0 0 0 0 0 0 0 0 0 0 0 0 0 0 0 0 0 0 0 0 0 0 0 0 0 0 0 0 0 0 0 0 0 0 0 0 0 0 0 0 0 0 0 0 0 0 0 0 0 0 0 -0 -0 0 1.75162e-43 2.03328e-42 4.68314e-42 -3.494e-41 -2.68003e-40 -3.07257e-40 4.73936e-39 2.71862e-38 2.47793e-38 -3.99364e-37 -2.22618e-36 -3.59275e-36 1.70643e-35 1.28004e-34 3.7401e-34 2.57252e-34 -2.65514e-33 -1.42815e-32 -4.17226e-32 -7.96982e-32 -8.16996e-32 7.24296e-32 5.81244e-31 1.66827e-30 3.47589e-30 5.9618e-30 8.86974e-30 1.18049e-29 1.43729e-29 1.62993e-29 1.74641e-29 1.78502e-29 1.74641e-29 1.62993e-29 1.43729e-29 1.18049e-29 8.86974e-30 5.9618e-30 3.47589e-30 1.66827e-30 5.81244e-31 7.24296e-32 -8.16996e-32 -7.96982e-32 -4.17226e-32 -1.42815e-32 -2.65514e-33 2.57252e-34 3.7401e-34 1.28004e-34 1.70643e-35 -3.59275e-36 -2.22618e-36 -3.99364e-37 2.47793e-38 2.71862e-38 4.73936e-39 -3.07257e-40 -2.68003e-40 -3.494e-41 4.68314e-42 2.03328e-42 1.75162e-43 0 -0 -0 0 0 0 0 0 0 0 0 0 0 0 0 0 0 0 0 0 0 0 0 0 0 0 0 0 0 0 0 0 0 0 0 0 0 0 0 0 0 0 0 0 0 0 0 0 0 0 0 0 0 0 0 0 0 0 0 0 0 0 0 0 0 0 0 0 
0 0 0 0 0 0 0 0 0 0 0 0 0 0 0 0 0 0 0 0 0 0 0 0 0 0 0 0 0 0 0 0 0 0 0 0 0 0 0 0 0 0 0 0 0 0 0 0 0 0 0 0 0 0 0 0 0 0 0 0 0 0 0 0 0 -0 -0 4.2039e-45 5.88545e-43 4.04555e-42 6.37591e-43 -1.092e-40 -4.75124e-40 7.16666e-40 1.42476e-38 4.53374e-38 -1.01284e-37 -1.33632e-36 -4.06675e-36 4.70694e-36 8.60463e-35 3.22116e-34 3.07745e-34 -2.57815e-33 -1.53103e-32 -4.40961e-32 -6.31357e-32 6.01835e-32 6.57145e-31 2.25421e-30 5.31882e-30 9.72582e-30 1.42087e-29 1.62791e-29 1.29559e-29 2.13303e-30 -1.60844e-29 -3.88406e-29 -6.11487e-29 -7.74408e-29 -8.34095e-29 -7.74408e-29 -6.11487e-29 -3.88406e-29 -1.60844e-29 2.13303e-30 1.29559e-29 1.62791e-29 1.42087e-29 9.72582e-30 5.31882e-30 2.25421e-30 6.57145e-31 6.01835e-32 -6.31357e-32 -4.40961e-32 -1.53103e-32 -2.57815e-33 3.07745e-34 3.22116e-34 8.60463e-35 4.70694e-36 -4.06675e-36 -1.33632e-36 -1.01284e-37 4.53374e-38 1.42476e-38 7.16666e-40 -4.75124e-40 -1.092e-40 6.37591e-43 4.04555e-42 5.88545e-43 4.2039e-45 -0 -0 0 0 0 0 0 0 0 0 0 0 0 0 0 0 0 0 0 0 0 0 0 0 0 0 0 0 0 0 0 0 0 0 0 0 0 0 0 0 0 0 0 0 0 0 0 0 0 0 0 0 0 0 0 0 0 0 0 0 0 0 0 0 0 0 
0 0 0 0 0 0 0 0 0 0 0 0 0 0 0 0 0 0 0 0 0 0 0 0 0 0 0 0 0 0 0 0 0 0 0 0 0 0 0 0 0 0 0 0 0 0 0 0 0 0 0 0 0 0 0 0 0 0 0 0 0 0 0 -0 -0 -0 5.88545e-44 1.48958e-42 6.45999e-42 -1.81076e-41 -2.59923e-40 -5.75614e-40 4.32792e-39 3.22849e-38 3.68131e-38 -5.47898e-37 -3.13602e-36 -3.17914e-36 4.25378e-35 2.43693e-34 4.34372e-34 -1.54392e-33 -1.28078e-32 -3.99787e-32 -4.29235e-32 1.94387e-31 1.22808e-30 3.83877e-30 8.03812e-30 1.08294e-29 3.5214e-30 -2.91119e-29 -1.05436e-28 -2.39332e-28 -4.31908e-28 -6.67619e-28 -9.17609e-28 -1.14849e-27 -1.33151e-27 -1.4476e-27 -1.4872e-27 -1.4476e-27 -1.33151e-27 -1.14849e-27 -9.17609e-28 -6.67619e-28 -4.31908e-28 -2.39332e-28 -1.05436e-28 -2.91119e-29 3.5214e-30 1.08294e-29 8.03812e-30 3.83877e-30 1.22808e-30 1.94387e-31 -4.29235e-32 -3.99787e-32 -1.28078e-32 -1.54392e-33 4.34372e-34 2.43693e-34 4.25378e-35 -3.17914e-36 -3.13602e-36 -5.47898e-37 3.68131e-38 3.22849e-38 4.32792e-39 -5.75614e-40 -2.59923e-40 -1.81076e-41 6.45999e-42 1.48958e-42 5.88545e-44 -0 -0 -0 0 0 0 0 0 0 0 0 0 0 0 0 0 0 0 0 0 0 0 0 0 0 0 0 0 0 0 0 0 0 0 0 0 0 0 0 0 0 0 0 0 0 0 0 0 0 0 0 0 0 0 0 0 0 0 0 0 0 0 0 0 0 
0 0 0 0 0 0 0 0 0 0 0 0 0 0 0 0 0 0 0 0 0 0 0 0 0 0 0 0 0 0 0 0 0 0 0 0 0 0 0 0 0 0 0 0 0 0 0 0 0 0 0 0 0 0 0 0 0 0 0 0 0 0 -0 -0 0 2.70451e-43 3.31407e-42 7.4437e-42 -7.13401e-41 -5.06003e-40 -4.31922e-41 1.33811e-38 5.65907e-38 -8.51046e-38 -1.6501e-36 -5.24844e-36 1.05827e-35 1.45744e-34 4.56957e-34 -3.64918e-34 -8.62964e-33 -3.39023e-32 -4.22771e-32 2.0828e-31 1.40038e-30 4.33768e-30 7.5049e-30 9.32228e-31 -4.19763e-29 -1.66513e-28 -4.20871e-28 -8.18931e-28 -1.29825e-27 -1.70611e-27 -1.83936e-27 -1.53143e-27 -7.45203e-28 3.79984e-28 1.55693e-27 2.44592e-27 2.77647e-27 2.44592e-27 1.55693e-27 3.79984e-28 -7.45203e-28 -1.53143e-27 -1.83936e-27 -1.70611e-27 -1.29825e-27 -8.18931e-28 -4.20871e-28 -1.66513e-28 -4.19763e-29 9.32228e-31 7.5049e-30 4.33768e-30 1.40038e-30 2.0828e-31 -4.22771e-32 -3.39023e-32 -8.62964e-33 -3.64918e-34 4.56957e-34 1.45744e-34 1.05827e-35 -5.24844e-36 -1.6501e-36 -8.51046e-38 5.65907e-38 1.33811e-38 -4.31922e-41 -5.06003e-40 -7.13401e-41 7.4437e-42 3.31407e-42 2.70451e-43 0 -0 -0 0 0 0 0 0 0 0 0 0 0 0 0 0 0 0 0 0 0 0 0 0 0 0 0 0 0 0 0 0 0 0 0 0 0 0 0 0 0 0 0 0 0 0 0 0 0 0 0 0 0 0 0 0 0 0 0 0 0 0 0 0 
0 0 0 0 0 0 0 0 0 0 0 0 0 0 0 0 0 0 0 0 0 0 0 0 0 0 0 0 0 0 0 0 0 0 0 0 0 0 0 0 0 0 0 0 0 0 0 0 0 0 0 0 0 0 0 0 0 0 0 0 0 -0 -0 4.2039e-45 7.69313e-43 6.20075e-42 1.32563e-42 -1.89933e-40 -7.92811e-40 2.35534e-39 3.15082e-38 6.69256e-38 -5.10791e-37 -3.72411e-36 -4.34247e-36 5.99454e-35 3.4542e-34 3.95622e-34 -4.25172e-33 -2.53238e-32 -4.99302e-32 1.24574e-31 1.19879e-30 4.01492e-30 5.74747e-30 -1.12422e-29 -9.52306e-29 -3.22795e-28 -7.333e-28 -1.16904e-27 -1.07014e-27 6.20214e-28 5.26633e-27 1.40387e-26 2.7308e-26 4.42668e-26 6.30088e-26 8.10227e-26 9.58342e-26 1.05504e-25 1.08856e-25 1.05504e-25 9.58342e-26 8.10227e-26 6.30088e-26 4.42668e-26 2.7308e-26 1.40387e-26 5.26633e-27 6.20214e-28 -1.07014e-27 -1.16904e-27 -7.333e-28 -3.22795e-28 -9.52306e-29 -1.12422e-29 5.74747e-30 4.01492e-30 1.19879e-30 1.24574e-31 -4.99302e-32 -2.53238e-32 -4.25172e-33 3.95622e-34 3.4542e-34 5.99454e-35 -4.34247e-36 -3.72411e-36 -5.10791e-37 6.69256e-38 3.15082e-38 2.35534e-39 -7.92811e-40 -1.89933e-40 1.32563e-42 6.20075e-42 7.69313e-43 4.2039e-45 -0 -0 0 0 0 0 0 0 0 0 0 0 0 0 0 0 0 0 0 0 0 0 0 0 0 0 0 0 0 0 0 0 0 0 0 0 0 0 0 0 0 0 0 0 0 0 0 0 0 0 0 0 0 0 0 0 0 0 0 0 0 0 
0 0 0 0 0 0 0 0 0 0 0 0 0 0 0 0 0 0 0 0 0 0 0 0 0 0 0 0 0 0 0 0 0 0 0 0 0 0 0 0 0 0 0 0 0 0 0 0 0 0 0 0 0 0 0 0 0 0 0 0 -0 -0 5.88545e-44 1.92118e-42 9.86094e-42 -2.3724e-41 -4.11825e-40 -8.60671e-40 8.96489e-39 6.04589e-38 -3.25564e-41 -1.56643e-36 -6.47654e-36 9.35361e-36 1.81834e-34 5.8359e-34 -1.01564e-33 -1.5063e-32 -4.90593e-32 2.0431e-32 8.1043e-31 3.37222e-30 5.20809e-30 -1.44058e-29 -1.17667e-28 -3.93936e-28 -7.86645e-28 -6.30069e-28 2.01547e-27 1.06858e-26 2.96616e-26 6.15931e-26 1.04528e-25 1.50393e-25 1.86719e-25 2.01545e-25 1.8924e-25 1.54086e-25 1.09478e-25 7.2886e-26 5.88215e-26 7.2886e-26 1.09478e-25 1.54086e-25 1.8924e-25 2.01545e-25 1.86719e-25 1.50393e-25 1.04528e-25 6.15931e-26 2.96616e-26 1.06858e-26 2.01547e-27 -6.30069e-28 -7.86645e-28 -3.93936e-28 -1.17667e-28 -1.44058e-29 5.20809e-30 3.37222e-30 8.1043e-31 2.0431e-32 -4.90593e-32 -1.5063e-32 -1.01564e-33 5.8359e-34 1.81834e-34 9.35361e-36 -6.47654e-36 -1.56643e-36 -3.25564e-41 6.04589e-38 8.96489e-39 -8.60671e-40 -4.11825e-40 -2.3724e-41 9.86094e-42 1.92118e-42 5.88545e-44 -0 -0 0 0 0 0 0 0 0 0 0 0 0 0 0 0 0 0 0 0 0 0 0 0 0 0 0 0 0 0 0 0 0 0 0 0 0 0 0 0 0 0 0 0 0 0 0 0 0 0 0 0 0 0 0 0 0 0 0 0 0 
0 0 0 0 0 0 0 0 0 0 0 0 0 0 0 0 0 0 0 0 0 0 0 0 0 0 0 0 0 0 0 0 0 0 0 0 0 0 0 0 0 0 0 0 0 0 0 0 0 0 0 0 0 0 0 0 0 0 -0 -0 -0 2.39622e-43 4.05536e-42 1.24435e-41 -8.99522e-41 -7.58781e-40 -1.17078e-41 2.34199e-38 9.26978e-38 -2.89503e-37 -3.65209e-36 -7.53914e-36 5.70222e-35 4.10252e-34 5.02277e-34 -6.18678e-33 -3.6248e-32 -4.73424e-32 3.96009e-31 2.48862e-30 5.43063e-30 -8.49704e-30 -1.0405e-28 -3.76301e-28 -6.63854e-28 3.40049e-28 6.47561e-27 2.44843e-26 6.02149e-26 1.08232e-25 1.37469e-25 8.25921e-26 -1.47242e-25 -6.38658e-25 -1.43397e-24 -2.50076e-24 -3.72749e-24 -4.94759e-24 -5.97976e-24 -6.66795e-24 -6.90921e-24 -6.66795e-24 -5.97976e-24 -4.94759e-24 -3.72749e-24 -2.50076e-24 -1.43397e-24 -6.38658e-25 -1.47242e-25 8.25921e-26 1.37469e-25 1.08232e-25 6.02149e-26 2.44843e-26 6.47561e-27 3.40049e-28 -6.63854e-28 -3.76301e-28 -1.0405e-28 -8.49704e-30 5.43063e-30 2.48862e-30 3.96009e-31 -4.73424e-32 -3.6248e-32 -6.18678e-33 5.02277e-34 4.10252e-34 5.70222e-35 -7.53914e-36 -3.65209e-36 -2.89503e-37 9.26978e-38 2.34199e-38 -1.17078e-41 -7.58781e-40 -8.99522e-41 1.24435e-41 4.05536e-42 2.39622e-43 -0 -0 -0 0 0 0 0 0 0 0 0 0 0 0 0 0 0 0 0 0 0 0 0 0 0 0 0 0 0 0 0 0 0 0 0 0 0 0 0 0 0 0 0 0 0 0 0 0 0 0 0 0 0 0 0 0 0 0 0 0 
0 0 0 0 0 0 0 0 0 0 0 0 0 0 0 0 0 0 0 0 0 0 0 0 0 0 0 0 0 0 0 0 0 0 0 0 0 0 0 0 0 0 0 0 0 0 0 0 0 0 0 0 0 0 0 0 0 -0 -0 0 6.71222e-43 7.54319e-42 9.01315e-42 -2.31965e-40 -1.17727e-39 3.23587e-39 4.99036e-38 9.58161e-38 -1.07154e-36 -6.91961e-36 3.27353e-37 1.74347e-34 7.1093e-34 -9.44783e-34 -1.90206e-32 -6.22066e-32 8.78038e-32 1.46974e-30 5.01427e-30 -9.7201e-32 -7.07072e-29 -3.15292e-28 -5.822e-28 7.56298e-28 8.93664e-27 3.27226e-26 7.34581e-26 9.3171e-26 -3.46458e-26 -5.58246e-25 -1.81056e-24 -4.07211e-24 -7.37842e-24 -1.1388e-23 -1.5425e-23 -1.8715e-23 -2.07104e-23 -2.13305e-23 -2.09839e-23 -2.03558e-23 -2.00643e-23 -2.03558e-23 -2.09839e-23 -2.13305e-23 -2.07104e-23 -1.8715e-23 -1.5425e-23 -1.1388e-23 -7.37842e-24 -4.07211e-24 -1.81056e-24 -5.58246e-25 -3.46458e-26 9.3171e-26 7.34581e-26 3.27226e-26 8.93664e-27 7.56298e-28 -5.822e-28 -3.15292e-28 -7.07072e-29 -9.7201e-32 5.01427e-30 1.46974e-30 8.78038e-32 -6.22066e-32 -1.90206e-32 -9.44783e-34 7.1093e-34 1.74347e-34 3.27353e-37 -6.91961e-36 -1.07154e-36 9.58161e-38 4.99036e-38 3.23587e-39 -1.17727e-39 -2.31965e-40 9.01315e-42 7.54319e-42 6.71222e-43 0 -0 -0 0 0 0 0 0 0 0 0 0 0 0 0 0 0 0 0 0 0 0 0 0 0 0 0 0 0 0 0 0 0 0 0 0 0 0 0 0 0 0 0 0 0 0 0 0 0 0 0 0 0 0 0 0 0 0 0 
0 0 0 0 0 0 0 0 0 0 0 0 0 0 0 0 0 0 0 0 0 0 0 0 0 0 0 0 0 0 0 0 0 0 0 0 0 0 0 0 0 0 0 0 0 0 0 0 0 0 0 0 0 0 0 0 -0 -0 2.24208e-44 1.70398e-42 1.24407e-41 -1.14164e-41 -4.94106e-40 -1.41932e-39 1.15328e-38 9.01884e-38 -1.43702e-38 -2.75263e-36 -1.04128e-35 3.34185e-35 4.03723e-34 8.22642e-34 -6.00476e-33 -4.30815e-32 -5.67027e-32 5.99631e-31 3.61375e-30 5.40448e-30 -3.40284e-29 -2.30184e-28 -5.56091e-28 4.17444e-28 8.27042e-27 3.26438e-26 6.78033e-26 2.77007e-26 -3.64518e-25 -1.64084e-24 -4.40459e-24 -8.7236e-24 -1.32176e-23 -1.43848e-23 -6.88134e-24 1.49241e-23 5.45847e-23 1.11481e-22 1.80042e-22 2.50688e-22 3.12073e-22 3.53758e-22 3.68511e-22 3.53758e-22 3.12073e-22 2.50688e-22 1.80042e-22 1.11481e-22 5.45847e-23 1.49241e-23 -6.88134e-24 -1.43848e-23 -1.32176e-23 -8.7236e-24 -4.40459e-24 -1.64084e-24 -3.64518e-25 2.77007e-26 6.78033e-26 3.26438e-26 8.27042e-27 4.17444e-28 -5.56091e-28 -2.30184e-28 -3.40284e-29 5.40448e-30 3.61375e-30 5.99631e-31 -5.67027e-32 -4.30815e-32 -6.00476e-33 8.22642e-34 4.03723e-34 3.34185e-35 -1.04128e-35 -2.75263e-36 -1.43702e-38 9.01884e-38 1.15328e-38 -1.41932e-39 -4.94106e-40 -1.14164e-41 1.24407e-41 1.70398e-42 2.24208e-44 -0 -0 0 0 0 0 0 0 0 0 0 0 0 0 0 0 0 0 0 0 0 0 0 0 0 0 0 0 0 0 0 0 0 0 0 0 0 0 0 0 0 0 0 0 0 0 0 0 0 0 0 0 0 0 0 0 0 
0 0 0 0 0 0 0 0 0 0 0 0 0 0 0 0 0 0 0 0 0 0 0 0 0 0 0 0 0 0 0 0 0 0 0 0 0 0 0 0 0 0 0 0 0 0 0 0 0 0 0 0 0 0 0 -0 -0 1.05097e-43 3.67981e-42 1.78021e-41 -6.8815e-41 -9.14585e-40 -8.37263e-40 2.88974e-38 1.36391e-37 -4.11836e-37 -5.77486e-36 -1.03082e-35 1.21428e-34 7.5751e-34 -3.96132e-35 -1.84122e-32 -7.47558e-32 8.64642e-32 1.88313e-30 6.33996e-30 -6.57877e-30 -1.34736e-28 -4.85789e-28 -1.87352e-28 5.66546e-27 2.75172e-26 5.92812e-26 -1.44983e-26 -5.97281e-25 -2.45391e-24 -6.11275e-24 -9.88777e-24 -6.58685e-24 1.92473e-23 9.03117e-23 2.29529e-22 4.48751e-22 7.39052e-22 1.06916e-21 1.3945e-21 1.67288e-21 1.87876e-21 2.00863e-21 2.07534e-21 2.0952e-21 2.07534e-21 2.00863e-21 1.87876e-21 1.67288e-21 1.3945e-21 1.06916e-21 7.39052e-22 4.48751e-22 2.29529e-22 9.03117e-23 1.92473e-23 -6.58685e-24 -9.88777e-24 -6.11275e-24 -2.45391e-24 -5.97281e-25 -1.44983e-26 5.92812e-26 2.75172e-26 5.66546e-27 -1.87352e-28 -4.85789e-28 -1.34736e-28 -6.57877e-30 6.33996e-30 1.88313e-30 8.64642e-32 -7.47558e-32 -1.84122e-32 -3.96132e-35 7.5751e-34 1.21428e-34 -1.03082e-35 -5.77486e-36 -4.11836e-37 1.36391e-37 2.88974e-38 -8.37263e-40 -9.14585e-40 -6.8815e-41 1.78021e-41 3.67981e-42 1.05097e-43 -0 -0 0 0 0 0 0 0 0 0 0 0 0 0 0 0 0 0 0 0 0 0 0 0 0 0 0 0 0 0 0 0 0 0 0 0 0 0 0 0 0 0 0 0 0 0 0 0 0 0 0 0 0 0 0 0 
0 0 0 0 0 0 0 0 0 0 0 0 0 0 0 0 0 0 0 0 0 0 0 0 0 0 0 0 0 0 0 0 0 0 0 0 0 0 0 0 0 0 0 0 0 0 0 0 0 0 0 0 0 -0 -0 -0 3.78351e-43 6.95605e-42 2.06425e-41 -1.95199e-40 -1.48486e-39 1.91616e-39 6.02156e-38 1.5681e-37 -1.39994e-36 -1.02557e-35 3.03426e-36 3.07855e-34 1.12331e-33 -3.61605e-33 -4.24946e-32 -8.69357e-32 5.94231e-31 4.30277e-30 6.20658e-30 -5.42507e-29 -3.41057e-28 -5.84332e-28 2.65574e-27 1.99178e-26 5.33119e-26 -2.01851e-27 -5.90417e-25 -2.59283e-24 -6.17049e-24 -6.46898e-24 1.43158e-23 9.35621e-23 2.81677e-22 6.10907e-22 1.04314e-21 1.424e-21 1.48262e-21 9.00374e-22 -5.67112e-22 -2.96607e-21 -6.0775e-21 -9.44037e-21 -1.24582e-20 -1.45499e-20 -1.52977e-20 -1.45499e-20 -1.24582e-20 -9.44037e-21 -6.0775e-21 -2.96607e-21 -5.67112e-22 9.00374e-22 1.48262e-21 1.424e-21 1.04314e-21 6.10907e-22 2.81677e-22 9.35621e-23 1.43158e-23 -6.46898e-24 -6.17049e-24 -2.59283e-24 -5.90417e-25 -2.01851e-27 5.33119e-26 1.99178e-26 2.65574e-27 -5.84332e-28 -3.41057e-28 -5.42507e-29 6.20658e-30 4.30277e-30 5.94231e-31 -8.69357e-32 -4.24946e-32 -3.61605e-33 1.12331e-33 3.07855e-34 3.03426e-36 -1.02557e-35 -1.39994e-36 1.5681e-37 6.02156e-38 1.91616e-39 -1.48486e-39 -1.95199e-40 2.06425e-41 6.95605e-42 3.78351e-43 -0 -0 -0 0 0 0 0 0 0 0 0 0 0 0 0 0 0 0 0 0 0 0 0 0 0 0 0 0 0 0 0 0 0 0 0 0 0 0 0 0 0 0 0 0 0 0 0 0 0 0 0 0 0 0 0 
0 0 0 0 0 0 0 0 0 0 0 0 0 0 0 0 0 0 0 0 0 0 0 0 0 0 0 0 0 0 0 0 0 0 0 0 0 0 0 0 0 0 0 0 0 0 0 0 0 0 0 0 -0 -0 0 9.93521e-43 1.21507e-41 1.35772e-41 -4.35703e-40 -2.06553e-39 9.24932e-39 1.09131e-37 7.24763e-38 -3.42398e-36 -1.51456e-35 4.90708e-35 6.3744e-34 1.0752e-33 -1.30219e-32 -7.92258e-32 9.68588e-34 1.8402e-30 7.51673e-30 -6.97718e-30 -1.75814e-28 -6.15762e-28 3.86751e-28 1.15319e-26 4.43792e-26 3.52289e-26 -4.09381e-25 -2.22135e-24 -5.49126e-24 -3.00689e-24 3.33187e-23 1.62869e-22 4.49978e-22 8.55509e-22 1.04011e-21 1.70001e-22 -3.09804e-21 -1.03095e-20 -2.26221e-20 -4.01927e-20 -6.18788e-20 -8.54472e-20 -1.08206e-19 -1.27735e-19 -1.42383e-19 -1.5133e-19 -1.54323e-19 -1.5133e-19 -1.42383e-19 -1.27735e-19 -1.08206e-19 -8.54472e-20 -6.18788e-20 -4.01927e-20 -2.26221e-20 -1.03095e-20 -3.09804e-21 1.70001e-22 1.04011e-21 8.55509e-22 4.49978e-22 1.62869e-22 3.33187e-23 -3.00689e-24 -5.49126e-24 -2.22135e-24 -4.09381e-25 3.52289e-26 4.43792e-26 1.15319e-26 3.86751e-28 -6.15762e-28 -1.75814e-28 -6.97718e-30 7.51673e-30 1.8402e-30 9.68588e-34 -7.92258e-32 -1.30219e-32 1.0752e-33 6.3744e-34 4.90708e-35 -1.51456e-35 -3.42398e-36 7.24763e-38 1.09131e-37 9.24932e-39 -2.06553e-39 -4.35703e-40 1.35772e-41 1.21507e-41 9.93521e-43 0 -0 -0 0 0 0 0 0 0 0 0 0 0 0 0 0 0 0 0 0 0 0 0 0 0 0 0 0 0 0 0 0 0 0 0 0 0 0 0 0 0 0 0 0 0 0 0 0 0 0 0 0 0 0 
0 0 0 0 0 0 0 0 0 0 0 0 0 0 0 0 0 0 0 0 0 0 0 0 0 0 0 0 0 0 0 0 0 0 0 0 0 0 0 0 0 0 0 0 0 0 0 0 0 0 0 -0 -0 1.54143e-44 2.28272e-42 1.90857e-41 -1.67511e-41 -8.42563e-40 -2.24295e-39 2.49278e-38 1.72908e-37 -2.75885e-37 -6.99685e-36 -1.66347e-35 1.60908e-34 1.11491e-33 -4.34049e-34 -3.27098e-32 -1.16337e-31 3.65534e-31 4.25021e-30 8.88639e-30 -5.49827e-29 -4.07545e-28 -6.53665e-28 4.54312e-27 3.03338e-26 5.94387e-26 -1.83153e-25 -1.59942e-24 -4.7535e-24 -2.80244e-24 3.65778e-23 1.85747e-22 4.9953e-22 7.62024e-22 -2.252e-23 -4.16191e-21 -1.52018e-20 -3.65644e-20 -6.89053e-20 -1.07372e-19 -1.40692e-19 -1.53508e-19 -1.31688e-19 -6.8537e-20 3.08907e-20 1.49502e-19 2.62211e-19 3.42958e-19 3.7227e-19 3.42958e-19 2.62211e-19 1.49502e-19 3.08907e-20 -6.8537e-20 -1.31688e-19 -1.53508e-19 -1.40692e-19 -1.07372e-19 -6.89053e-20 -3.65644e-20 -1.52018e-20 -4.16191e-21 -2.252e-23 7.62024e-22 4.9953e-22 1.85747e-22 3.65778e-23 -2.80244e-24 -4.7535e-24 -1.59942e-24 -1.83153e-25 5.94387e-26 3.03338e-26 4.54312e-27 -6.53665e-28 -4.07545e-28 -5.49827e-29 8.88639e-30 4.25021e-30 3.65534e-31 -1.16337e-31 -3.27098e-32 -4.34049e-34 1.11491e-33 1.60908e-34 -1.66347e-35 -6.99685e-36 -2.75885e-37 1.72908e-37 2.49278e-38 -2.24295e-39 -8.42563e-40 -1.67511e-41 1.90857e-41 2.28272e-42 1.54143e-44 -0 -0 0 0 0 0 0 0 0 0 0 0 0 0 0 0 0 0 0 0 0 0 0 0 0 0 0 0 0 0 0 0 0 0 0 0 0 0 0 0 0 0 0 0 0 0 0 0 0 0 0 0 
0 0 0 0 0 0 0 0 0 0 0 0 0 0 0 0 0 0 0 0 0 0 0 0 0 0 0 0 0 0 0 0 0 0 0 0 0 0 0 0 0 0 0 0 0 0 0 0 0 0 -0 -0 8.54792e-44 4.64811e-42 2.70184e-41 -9.40664e-41 -1.45532e-39 -1.1085e-39 5.40252e-38 2.32457e-37 -1.16519e-36 -1.24353e-35 -5.59547e-36 3.85649e-34 1.61222e-33 -5.47431e-33 -6.70279e-32 -1.09092e-31 1.31826e-30 7.90407e-30 5.96628e-31 -1.73493e-28 -7.20994e-28 4.66494e-28 1.54062e-26 5.67542e-26 -1.09176e-26 -9.13632e-25 -3.79887e-24 -4.56957e-24 2.58211e-23 1.63783e-22 4.60279e-22 5.36955e-22 -1.34042e-21 -9.24416e-21 -2.88326e-20 -6.22535e-20 -9.78009e-20 -9.81818e-20 4.06163e-21 2.95852e-19 8.56898e-19 1.72661e-18 2.87982e-18 4.22335e-18 5.61479e-18 6.89466e-18 7.91803e-18 8.57565e-18 8.80201e-18 8.57565e-18 7.91803e-18 6.89466e-18 5.61479e-18 4.22335e-18 2.87982e-18 1.72661e-18 8.56898e-19 2.95852e-19 4.06163e-21 -9.81818e-20 -9.78009e-20 -6.22535e-20 -2.88326e-20 -9.24416e-21 -1.34042e-21 5.36955e-22 4.60279e-22 1.63783e-22 2.58211e-23 -4.56957e-24 -3.79887e-24 -9.13632e-25 -1.09176e-26 5.67542e-26 1.54062e-26 4.66494e-28 -7.20994e-28 -1.73493e-28 5.96628e-31 7.90407e-30 1.31826e-30 -1.09092e-31 -6.70279e-32 -5.47431e-33 1.61222e-33 3.85649e-34 -5.59547e-36 -1.24353e-35 -1.16519e-36 2.32457e-37 5.40252e-38 -1.1085e-39 -1.45532e-39 -9.40664e-41 2.70184e-41 4.64811e-42 8.54792e-44 -0 -0 0 0 0 0 0 0 0 0 0 0 0 0 0 0 0 0 0 0 0 0 0 0 0 0 0 0 0 0 0 0 0 0 0 0 0 0 0 0 0 0 0 0 0 0 0 0 0 0 0 
0 0 0 0 0 0 0 0 0 0 0 0 0 0 0 0 0 0 0 0 0 0 0 0 0 0 0 0 0 0 0 0 0 0 0 0 0 0 0 0 0 0 0 0 0 0 0 0 0 -0 -0 3.37713e-43 8.58155e-42 3.28492e-41 -2.53914e-40 -2.25822e-39 3.03109e-39 1.02015e-37 2.3563e-37 -3.01544e-36 -1.92543e-35 3.58703e-35 7.74618e-34 1.69828e-33 -1.7489e-32 -1.15772e-31 5.02934e-32 3.29519e-30 1.15593e-29 -3.43437e-29 -4.02921e-28 -8.76267e-28 4.72358e-27 3.64753e-26 6.57067e-26 -3.47713e-25 -2.52775e-24 -5.65134e-24 1.05278e-23 1.17858e-22 3.90942e-22 4.48554e-22 -1.82342e-21 -1.17292e-20 -3.56421e-20 -6.80381e-20 -6.27172e-20 1.02642e-19 6.38873e-19 1.79854e-18 3.76038e-18 6.4871e-18 9.63823e-18 1.2611e-17 1.47212e-17 1.54597e-17 1.47113e-17 1.28343e-17 1.05587e-17 8.73778e-18 8.04562e-18 8.73778e-18 1.05587e-17 1.28343e-17 1.47113e-17 1.54597e-17 1.47212e-17 1.2611e-17 9.63823e-18 6.4871e-18 3.76038e-18 1.79854e-18 6.38873e-19 1.02642e-19 -6.27172e-20 -6.80381e-20 -3.56421e-20 -1.17292e-20 -1.82342e-21 4.48554e-22 3.90942e-22 1.17858e-22 1.05278e-23 -5.65134e-24 -2.52775e-24 -3.47713e-25 6.57067e-26 3.64753e-26 4.72358e-27 -8.76267e-28 -4.02921e-28 -3.43437e-29 1.15593e-29 3.29519e-30 5.02934e-32 -1.15772e-31 -1.7489e-32 1.69828e-33 7.74618e-34 3.58703e-35 -1.92543e-35 -3.01544e-36 2.3563e-37 1.02015e-37 3.03109e-39 -2.25822e-39 -2.53914e-40 3.28492e-41 8.58155e-42 3.37713e-43 -0 -0 0 0 0 0 0 0 0 0 0 0 0 0 0 0 0 0 0 0 0 0 0 0 0 0 0 0 0 0 0 0 0 0 0 0 0 0 0 0 0 0 0 0 0 0 0 0 0 0 
0 0 0 0 0 0 0 0 0 0 0 0 0 0 0 0 0 0 0 0 0 0 0 0 0 0 0 0 0 0 0 0 0 0 0 0 0 0 0 0 0 0 0 0 0 0 0 0 -0 -4.2039e-44 9.03838e-43 1.46436e-41 2.9807e-41 -5.44994e-40 -3.10095e-39 1.29732e-38 1.72208e-37 7.27258e-38 -6.36964e-36 -2.50336e-35 1.38072e-34 1.3525e-33 3.74084e-34 -4.12344e-32 -1.64514e-31 5.7103e-31 6.70343e-30 1.07924e-29 -1.25584e-28 -7.50726e-28 -1.59549e-28 1.53656e-26 6.57605e-26 -2.09288e-26 -1.25926e-24 -4.93812e-24 -1.28711e-24 6.61804e-23 3.02301e-22 4.87888e-22 -1.32247e-21 -1.08257e-20 -3.45717e-20 -5.77904e-20 1.16897e-20 4.1686e-19 1.55838e-18 3.80095e-18 7.00711e-18 9.93145e-18 9.83433e-18 2.71221e-18 -1.57079e-17 -4.84781e-17 -9.60252e-17 -1.55425e-16 -2.20652e-16 -2.83706e-16 -3.36196e-16 -3.70913e-16 -3.83047e-16 -3.70913e-16 -3.36196e-16 -2.83706e-16 -2.20652e-16 -1.55425e-16 -9.60252e-17 -4.84781e-17 -1.57079e-17 2.71221e-18 9.83433e-18 9.93145e-18 7.00711e-18 3.80095e-18 1.55838e-18 4.1686e-19 1.16897e-20 -5.77904e-20 -3.45717e-20 -1.08257e-20 -1.32247e-21 4.87888e-22 3.02301e-22 6.61804e-23 -1.28711e-24 -4.93812e-24 -1.25926e-24 -2.09288e-26 6.57605e-26 1.53656e-26 -1.59549e-28 -7.50726e-28 -1.25584e-28 1.07924e-29 6.70343e-30 5.7103e-31 -1.64514e-31 -4.12344e-32 3.74084e-34 1.3525e-33 1.38072e-34 -2.50336e-35 -6.36964e-36 7.27258e-38 1.72208e-37 1.29732e-38 -3.10095e-39 -5.44994e-40 2.9807e-41 1.46436e-41 9.03838e-43 -4.2039e-44 -0 0 0 0 0 0 0 0 0 0 0 0 0 0 0 0 0 0 0 0 0 0 0 0 0 0 0 0 0 0 0 0 0 0 0 0 0 0 0 0 0 0 0 0 0 0 0 0 
0 0 0 0 0 0 0 0 0 0 0 0 0 0 0 0 0 0 0 0 0 0 0 0 0 0 0 0 0 0 0 0 0 0 0 0 0 0 0 0 0 0 0 0 0 0 0 -0 -1.13505e-43 2.01086e-42 2.30864e-41 5.58978e-42 -1.02396e-39 -3.57283e-39 3.28513e-38 2.60436e-37 -4.54457e-37 -1.17702e-35 -2.35826e-35 3.45636e-34 2.04993e-33 -4.27063e-33 -8.16123e-32 -1.67352e-31 1.79422e-30 1.14703e-29 -4.88727e-30 -3.13966e-28 -1.10045e-27 2.97599e-27 3.60896e-26 8.30135e-26 -3.72971e-25 -3.07048e-24 -6.25302e-24 2.38203e-23 1.95858e-22 4.98774e-22 -4.20936e-22 -7.83677e-21 -2.93324e-20 -4.84637e-20 5.6124e-20 6.27001e-19 2.1997e-18 4.95101e-18 7.29786e-18 3.91736e-18 -1.55945e-17 -6.57417e-17 -1.60961e-16 -3.09349e-16 -5.07159e-16 -7.3721e-16 -9.72694e-16 -1.18517e-15 -1.35338e-15 -1.46894e-15 -1.53653e-15 -1.5687e-15 -1.57775e-15 -1.5687e-15 -1.53653e-15 -1.46894e-15 -1.35338e-15 -1.18517e-15 -9.72694e-16 -7.3721e-16 -5.07159e-16 -3.09349e-16 -1.60961e-16 -6.57417e-17 -1.55945e-17 3.91736e-18 7.29786e-18 4.95101e-18 2.1997e-18 6.27001e-19 5.6124e-20 -4.84637e-20 -2.93324e-20 -7.83677e-21 -4.20936e-22 4.98774e-22 1.95858e-22 2.38203e-23 -6.25302e-24 -3.07048e-24 -3.72971e-25 8.30135e-26 3.60896e-26 2.97599e-27 -1.10045e-27 -3.13966e-28 -4.88727e-30 1.14703e-29 1.79422e-30 -1.67352e-31 -8.16123e-32 -4.27063e-33 2.04993e-33 3.45636e-34 -2.35826e-35 -1.17702e-35 -4.54457e-37 2.60436e-37 3.28513e-38 -3.57283e-39 -1.02396e-39 5.58978e-42 2.30864e-41 2.01086e-42 -1.13505e-43 -0 0 0 0 0 0 0 0 0 0 0 0 0 0 0 0 0 0 0 0 0 0 0 0 0 0 0 0 0 0 0 0 0 0 0 0 0 0 0 0 0 0 0 0 0 0 0 
0 0 0 0 0 0 0 0 0 0 0 0 0 0 0 0 0 0 0 0 0 0 0 0 0 0 0 0 0 0 0 0 0 0 0 0 0 0 0 0 0 0 0 0 0 -0 -2.10195e-44 -1.91978e-43 3.96287e-42 3.3428e-41 -6.05641e-41 -1.74106e-39 -2.81719e-39 6.80614e-38 3.45709e-37 -1.66383e-36 -1.94439e-35 -2.34966e-36 7.1388e-34 2.58153e-33 -1.53921e-32 -1.40288e-31 -2.08376e-32 4.17834e-30 1.60902e-29 -5.55401e-29 -6.36358e-28 -1.04151e-27 1.12119e-26 6.7707e-26 2.70516e-26 -1.27145e-24 -5.67961e-24 -2.93339e-25 9.51934e-23 4.0295e-22 2.91824e-22 -4.29938e-21 -2.21336e-20 -4.49841e-20 4.28275e-20 6.22082e-19 2.28996e-18 4.82989e-18 4.26235e-18 -1.16868e-17 -6.63315e-17 -1.88975e-16 -3.97703e-16 -6.73184e-16 -9.36035e-16 -1.04404e-15 -8.19194e-16 -1.00758e-16 1.19313e-15 3.01856e-15 5.19251e-15 7.41958e-15 9.35186e-15 1.06649e-14 1.11301e-14 1.06649e-14 9.35186e-15 7.41958e-15 5.19251e-15 3.01856e-15 1.19313e-15 -1.00758e-16 -8.19194e-16 -1.04404e-15 -9.36035e-16 -6.73184e-16 -3.97703e-16 -1.88975e-16 -6.63315e-17 -1.16868e-17 4.26235e-18 4.82989e-18 2.28996e-18 6.22082e-19 4.28275e-20 -4.49841e-20 -2.21336e-20 -4.29938e-21 2.91824e-22 4.0295e-22 9.51934e-23 -2.93339e-25 -5.67961e-24 -1.27145e-24 2.70516e-26 6.7707e-26 1.12119e-26 -1.04151e-27 -6.36358e-28 -5.55401e-29 1.60902e-29 4.17834e-30 -2.08376e-32 -1.40288e-31 -1.53921e-32 2.58153e-33 7.1388e-34 -2.34966e-36 -1.94439e-35 -1.66383e-36 3.45709e-37 6.80614e-38 -2.81719e-39 -1.74106e-39 -6.05641e-41 3.3428e-41 3.96287e-42 -1.91978e-43 -2.10195e-44 -0 0 0 0 0 0 0 0 0 0 0 0 0 0 0 0 0 0 0 0 0 0 0 0 0 0 0 0 0 0 0 0 0 0 0 0 0 0 0 0 0 0 0 0 0 
0 0 0 0 0 0 0 0 0 0 0 0 0 0 0 0 0 0 0 0 0 0 0 0 0 0 0 0 0 0 0 0 0 0 0 0 0 0 0 0 0 0 0 0 -0 -7.70714e-44 -1.91978e-43 7.39886e-42 4.39419e-41 -1.99709e-40 -2.7094e-39 7.02535e-40 1.24517e-37 3.75669e-37 -4.01028e-36 -2.86822e-35 6.06937e-35 1.29342e-33 2.25463e-33 -3.75055e-32 -2.08606e-31 4.68456e-31 8.17129e-30 1.59676e-29 -1.73316e-28 -1.08274e-27 3.89625e-28 2.82055e-26 1.00169e-25 -2.34963e-25 -3.04179e-24 -7.51371e-24 2.66389e-23 2.41647e-22 5.58762e-22 -1.40381e-21 -1.39654e-20 -4.05383e-20 -7.49856e-22 4.5728e-19 1.97691e-18 4.19978e-18 1.26254e-18 -2.59136e-17 -1.1326e-16 -2.9596e-16 -5.51969e-16 -7.10397e-16 -3.66332e-16 1.13101e-15 4.56691e-15 1.06362e-14 1.96815e-14 3.15034e-14 4.53286e-14 5.99505e-14 7.39892e-14 8.61621e-14 9.5475e-14 1.01284e-13 1.03254e-13 1.01284e-13 9.5475e-14 8.61621e-14 7.39892e-14 5.99505e-14 4.53286e-14 3.15034e-14 1.96815e-14 1.06362e-14 4.56691e-15 1.13101e-15 -3.66332e-16 -7.10397e-16 -5.51969e-16 -2.9596e-16 -1.1326e-16 -2.59136e-17 1.26254e-18 4.19978e-18 1.97691e-18 4.5728e-19 -7.49856e-22 -4.05383e-20 -1.39654e-20 -1.40381e-21 5.58762e-22 2.41647e-22 2.66389e-23 -7.51371e-24 -3.04179e-24 -2.34963e-25 1.00169e-25 2.82055e-26 3.89625e-28 -1.08274e-27 -1.73316e-28 1.59676e-29 8.17129e-30 4.68456e-31 -2.08606e-31 -3.75055e-32 2.25463e-33 1.29342e-33 6.06937e-35 -2.86822e-35 -4.01028e-36 3.75669e-37 1.24517e-37 7.02535e-40 -2.7094e-39 -1.99709e-40 4.39419e-41 7.39886e-42 -1.91978e-43 -7.70714e-44 -0 0 0 0 0 0 0 0 0 0 0 0 0 0 0 0 0 0 0 0 0 0 0 0 0 0 0 0 0 0 0 0 0 0 0 0 0 0 0 0 0 0 0 0 
0 0 0 0 0 0 0 0 0 0 0 0 0 0 0 0 0 0 0 0 0 0 0 0 0 0 0 0 0 0 0 0 0 0 0 0 0 0 0 0 0 0 0 -0 -1.47136e-43 5.60519e-45 1.27364e-41 5.05771e-41 -4.55223e-40 -3.85014e-39 9.46335e-39 2.06701e-37 2.46364e-37 -8.06302e-36 -3.67916e-35 1.99899e-34 2.09395e-33 -2.90672e-34 -7.59752e-32 -2.55164e-31 1.61295e-30 1.3863e-29 9.82894e-31 -4.00411e-28 -1.50757e-27 5.0143e-27 5.71981e-26 9.78308e-26 -9.32926e-25 -5.77873e-24 -3.67621e-24 9.7571e-23 4.62019e-22 2.10827e-22 -6.5738e-21 -3.05799e-20 -3.65467e-20 2.42063e-19 1.46978e-18 3.63185e-18 8.4213e-19 -2.92548e-17 -1.3022e-16 -3.29331e-16 -5.07227e-16 -1.67024e-16 1.78683e-15 7.03056e-15 1.73529e-14 3.37481e-14 5.54037e-14 7.91133e-14 9.95677e-14 1.10636e-13 1.07312e-13 8.76483e-14 5.39549e-14 1.27093e-14 -2.69011e-14 -5.54208e-14 -6.57966e-14 -5.54208e-14 -2.69011e-14 1.27093e-14 5.39549e-14 8.76483e-14 1.07312e-13 1.10636e-13 9.95677e-14 7.91133e-14 5.54037e-14 3.37481e-14 1.73529e-14 7.03056e-15 1.78683e-15 -1.67024e-16 -5.07227e-16 -3.29331e-16 -1.3022e-16 -2.92548e-17 8.4213e-19 3.63185e-18 1.46978e-18 2.42063e-19 -3.65467e-20 -3.05799e-20 -6.5738e-21 2.10827e-22 4.62019e-22 9.7571e-23 -3.67621e-24 -5.77873e-24 -9.32926e-25 9.78308e-26 5.71981e-26 5.0143e-27 -1.50757e-27 -4.00411e-28 9.82894e-31 1.3863e-29 1.61295e-30 -2.55164e-31 -7.59752e-32 -2.90672e-34 2.09395e-33 1.99899e-34 -3.67916e-35 -8.06302e-36 2.46364e-37 2.06701e-37 9.46335e-39 -3.85014e-39 -4.55223e-40 5.05771e-41 1.27364e-41 5.60519e-45 -1.47136e-43 -0 0 0 0 0 0 0 0 0 0 0 0 0 0 0 0 0 0 0 0 0 0 0 0 0 0 0 0 0 0 0 0 0 0 0 0 0 0 0 0 0 0 0 
0 0 0 0 0 0 0 0 0 0 0 0 0 0 0 0 0 0 0 0 0 0 0 0 0 0 0 0 0 0 0 0 0 0 0 0 0 0 0 0 0 0 -0 -2.39622e-43 5.92749e-43 2.05332e-41 4.51148e-41 -8.80577e-40 -4.90696e-39 2.70972e-38 3.13823e-37 -2.22515e-37 -1.44019e-35 -3.75158e-35 4.62859e-34 3.01604e-33 -7.37786e-33 -1.35245e-31 -2.06927e-31 3.84757e-30 2.02826e-29 -4.74219e-29 -7.76112e-28 -1.47908e-27 1.5712e-26 9.71876e-26 -2.25863e-26 -2.37955e-24 -8.69099e-24 1.6554e-23 2.39964e-22 6.45319e-22 -1.67348e-21 -1.76371e-20 -4.64772e-20 6.45624e-20 9.02905e-19 3.0039e-18 2.29381e-18 -2.21675e-17 -1.16883e-16 -3.03333e-16 -3.64097e-16 5.82689e-16 4.48733e-15 1.40965e-14 3.12174e-14 5.33454e-14 6.97387e-14 5.90854e-14 -9.12188e-15 -1.68713e-13 -4.4761e-13 -8.5797e-13 -1.38897e-12 -2.0047e-12 -2.64818e-12 -3.25024e-12 -3.74114e-12 -4.0619e-12 -4.17338e-12 -4.0619e-12 -3.74114e-12 -3.25024e-12 -2.64818e-12 -2.0047e-12 -1.38897e-12 -8.5797e-13 -4.4761e-13 -1.68713e-13 -9.12188e-15 5.90854e-14 6.97387e-14 5.33454e-14 3.12174e-14 1.40965e-14 4.48733e-15 5.82689e-16 -3.64097e-16 -3.03333e-16 -1.16883e-16 -2.21675e-17 2.29381e-18 3.0039e-18 9.02905e-19 6.45624e-20 -4.64772e-20 -1.76371e-20 -1.67348e-21 6.45319e-22 2.39964e-22 1.6554e-23 -8.69099e-24 -2.37955e-24 -2.25863e-26 9.71876e-26 1.5712e-26 -1.47908e-27 -7.76112e-28 -4.74219e-29 2.02826e-29 3.84757e-30 -2.06927e-31 -1.35245e-31 -7.37786e-33 3.01604e-33 4.62859e-34 -3.75158e-35 -1.44019e-35 -2.22515e-37 3.13823e-37 2.70972e-38 -4.90696e-39 -8.80577e-40 4.51148e-41 2.05332e-41 5.92749e-43 -2.39622e-43 -0 0 0 0 0 0 0 0 0 0 0 0 0 0 0 0 0 0 0 0 0 0 0 0 0 0 0 0 0 0 0 0 0 0 0 0 0 0 0 0 0 0 
0 0 0 0 0 0 0 0 0 0 0 0 0 0 0 0 0 0 0 0 0 0 0 0 0 0 0 0 0 0 0 0 0 0 0 0 0 0 0 0 0 -1.4013e-44 -3.46121e-43 1.76143e-42 3.1043e-41 1.39023e-41 -1.53259e-39 -5.32153e-39 5.84383e-38 4.33307e-37 -1.31296e-36 -2.33762e-35 -1.89243e-35 9.06551e-34 3.73956e-33 -2.25344e-32 -2.14935e-31 7.55336e-32 7.66788e-30 2.42024e-29 -1.5862e-28 -1.30338e-27 -6.37167e-29 3.61915e-26 1.35168e-25 -4.17301e-25 -4.85219e-24 -8.89839e-24 7.18021e-23 4.64669e-22 4.28147e-22 -6.8717e-21 -3.51546e-20 -3.13164e-20 4.06797e-19 2.13485e-18 3.57731e-18 -1.09499e-17 -8.66185e-17 -2.56195e-16 -2.8239e-16 9.50665e-16 6.04169e-15 1.82395e-14 3.69003e-14 4.80564e-14 1.27304e-14 -1.39927e-13 -5.06585e-13 -1.18734e-12 -2.25187e-12 -3.70611e-12 -5.47378e-12 -7.40273e-12 -9.29807e-12 -1.09718e-11 -1.22923e-11 -1.32137e-11 -1.37725e-11 -1.40528e-11 -1.41353e-11 -1.40528e-11 -1.37725e-11 -1.32137e-11 -1.22923e-11 -1.09718e-11 -9.29807e-12 -7.40273e-12 -5.47378e-12 -3.70611e-12 -2.25187e-12 -1.18734e-12 -5.06585e-13 -1.39927e-13 1.27304e-14 4.80564e-14 3.69003e-14 1.82395e-14 6.04169e-15 9.50665e-16 -2.8239e-16 -2.56195e-16 -8.66185e-17 -1.09499e-17 3.57731e-18 2.13485e-18 4.06797e-19 -3.13164e-20 -3.51546e-20 -6.8717e-21 4.28147e-22 4.64669e-22 7.18021e-23 -8.89839e-24 -4.85219e-24 -4.17301e-25 1.35168e-25 3.61915e-26 -6.37167e-29 -1.30338e-27 -1.5862e-28 2.42024e-29 7.66788e-30 7.55336e-32 -2.14935e-31 -2.25344e-32 3.73956e-33 9.06551e-34 -1.89243e-35 -2.33762e-35 -1.31296e-36 4.33307e-37 5.84383e-38 -5.32153e-39 -1.53259e-39 1.39023e-41 3.1043e-41 1.76143e-42 -3.46121e-43 -1.4013e-44 0 0 0 0 0 0 0 0 0 0 0 0 0 0 0 0 0 0 0 0 0 0 0 0 0 0 0 0 0 0 0 0 0 0 0 0 0 0 0 0 
0 0 0 0 0 0 0 0 0 0 0 0 0 0 0 0 0 0 0 0 0 0 0 0 0 0 0 0 0 0 0 0 0 0 0 0 0 0 0 -0 -3.92364e-44 -4.4281e-43 3.87459e-42 4.37766e-41 -6.39567e-41 -2.45627e-39 -4.07481e-39 1.09196e-37 5.30923e-37 -3.4255e-36 -3.46543e-35 3.90284e-35 1.58429e-33 3.56208e-33 -5.04927e-32 -3.02762e-31 8.24564e-31 1.34413e-29 1.83717e-29 -3.72476e-28 -1.88318e-27 4.42252e-27 6.97747e-26 1.33177e-25 -1.33095e-24 -8.27354e-24 3.46479e-25 1.87536e-22 7.15623e-22 -9.98708e-22 -1.75921e-20 -5.21625e-20 8.71096e-20 1.18052e-18 3.56311e-18 -1.48389e-18 -5.17234e-17 -2.00175e-16 -2.85865e-16 7.69843e-16 5.8192e-15 1.82146e-14 3.35955e-14 2.07865e-14 -1.03226e-13 -4.84352e-13 -1.30037e-12 -2.67199e-12 -4.53204e-12 -6.50185e-12 -7.83788e-12 -7.49936e-12 -4.35243e-12 2.51844e-12 1.34695e-11 2.80332e-11 4.4836e-11 6.1755e-11 7.63021e-11 8.61443e-11 8.96245e-11 8.61443e-11 7.63021e-11 6.1755e-11 4.4836e-11 2.80332e-11 1.34695e-11 2.51844e-12 -4.35243e-12 -7.49936e-12 -7.83788e-12 -6.50185e-12 -4.53204e-12 -2.67199e-12 -1.30037e-12 -4.84352e-13 -1.03226e-13 2.07865e-14 3.35955e-14 1.82146e-14 5.8192e-15 7.69843e-16 -2.85865e-16 -2.00175e-16 -5.17234e-17 -1.48389e-18 3.56311e-18 1.18052e-18 8.71096e-20 -5.21625e-20 -1.75921e-20 -9.98708e-22 7.15623e-22 1.87536e-22 3.46479e-25 -8.27354e-24 -1.33095e-24 1.33177e-25 6.97747e-26 4.42252e-27 -1.88318e-27 -3.72476e-28 1.83717e-29 1.34413e-29 8.24564e-31 -3.02762e-31 -5.04927e-32 3.56208e-33 1.58429e-33 3.90284e-35 -3.46543e-35 -3.4255e-36 5.30923e-37 1.09196e-37 -4.07481e-39 -2.45627e-39 -6.39567e-41 4.37766e-41 3.87459e-42 -4.4281e-43 -3.92364e-44 -0 0 0 0 0 0 0 0 0 0 0 0 0 0 0 0 0 0 0 0 0 0 0 0 0 0 0 0 0 0 0 0 0 0 0 0 0 0 0 
0 0 0 0 0 0 0 0 0 0 0 0 0 0 0 0 0 0 0 0 0 0 0 0 0 0 0 0 0 0 0 0 0 0 0 0 0 0 -0 -9.24857e-44 -4.84849e-43 7.3372e-42 5.72543e-41 -2.18797e-40 -3.65655e-39 4.99711e-40 1.84954e-37 5.3703e-37 -7.073e-36 -4.64853e-35 1.66784e-34 2.51763e-33 1.18977e-33 -9.6655e-32 -3.63299e-31 2.38403e-30 2.10112e-29 -1.07217e-29 -7.32632e-28 -2.20549e-27 1.45993e-26 1.16389e-25 1.01769e-26 -3.0747e-24 -1.15738e-23 3.16663e-23 3.86843e-22 7.77675e-22 -5.05539e-21 -3.49936e-20 -4.3893e-20 4.37184e-19 2.47942e-18 3.35563e-18 -2.18064e-17 -1.35068e-16 -2.94059e-16 3.05078e-16 4.36489e-15 1.55486e-14 2.79587e-14 -2.93687e-15 -2.01603e-13 -7.8132e-13 -1.93896e-12 -3.56957e-12 -4.82966e-12 -3.70605e-12 3.1815e-12 2.03528e-11 5.27452e-11 1.04585e-10 1.78095e-10 2.72391e-10 3.82958e-10 5.01947e-10 6.19269e-10 7.24177e-10 8.06856e-10 8.59654e-10 8.77792e-10 8.59654e-10 8.06856e-10 7.24177e-10 6.19269e-10 5.01947e-10 3.82958e-10 2.72391e-10 1.78095e-10 1.04585e-10 5.27452e-11 2.03528e-11 3.1815e-12 -3.70605e-12 -4.82966e-12 -3.56957e-12 -1.93896e-12 -7.8132e-13 -2.01603e-13 -2.93687e-15 2.79587e-14 1.55486e-14 4.36489e-15 3.05078e-16 -2.94059e-16 -1.35068e-16 -2.18064e-17 3.35563e-18 2.47942e-18 4.37184e-19 -4.3893e-20 -3.49936e-20 -5.05539e-21 7.77675e-22 3.86843e-22 3.16663e-23 -1.15738e-23 -3.0747e-24 1.01769e-26 1.16389e-25 1.45993e-26 -2.20549e-27 -7.32632e-28 -1.07217e-29 2.10112e-29 2.38403e-30 -3.63299e-31 -9.6655e-32 1.18977e-33 2.51763e-33 1.66784e-34 -4.64853e-35 -7.073e-36 5.3703e-37 1.84954e-37 4.99711e-40 -3.65655e-39 -2.18797e-40 5.72543e-41 7.3372e-42 -4.84849e-43 -9.24857e-44 -0 0 0 0 0 0 0 0 0 0 0 0 0 0 0 0 0 0 0 0 0 0 0 0 0 0 0 0 0 0 0 0 0 0 0 0 0 0 
0 0 0 0 0 0 0 0 0 0 0 0 0 0 0 0 0 0 0 0 0 0 0 0 0 0 0 0 0 0 0 0 0 0 0 0 0 -0 -1.48538e-43 -4.04975e-43 1.26327e-41 6.80232e-41 -4.904e-40 -5.05262e-39 1.09072e-38 2.89218e-37 3.29416e-37 -1.28315e-35 -5.46246e-35 4.06348e-34 3.64699e-33 -5.49203e-33 -1.65609e-31 -3.22282e-31 5.20157e-30 2.90064e-29 -8.51047e-29 -1.26789e-27 -1.59326e-27 3.39461e-26 1.66807e-25 -3.78101e-25 -5.92095e-24 -1.16417e-23 1.04732e-22 6.65627e-22 1.40984e-22 -1.37102e-20 -5.5597e-20 4.63793e-20 1.18673e-18 3.93046e-18 -3.12232e-18 -7.12734e-17 -2.48724e-16 -1.08285e-16 2.51915e-15 1.17518e-14 2.41052e-14 -5.98675e-15 -2.23437e-13 -8.78831e-13 -2.10363e-12 -3.25394e-12 -1.83509e-12 7.5697e-12 3.36273e-11 8.71814e-11 1.78597e-10 3.13962e-10 4.91115e-10 6.96936e-10 9.07434e-10 1.0918e-09 1.2202e-09 1.27334e-09 1.25022e-09 1.17049e-09 1.06959e-09 9.8775e-10 9.56505e-10 9.8775e-10 1.06959e-09 1.17049e-09 1.25022e-09 1.27334e-09 1.2202e-09 1.0918e-09 9.07434e-10 6.96936e-10 4.91115e-10 3.13962e-10 1.78597e-10 8.71814e-11 3.36273e-11 7.5697e-12 -1.83509e-12 -3.25394e-12 -2.10363e-12 -8.78831e-13 -2.23437e-13 -5.98675e-15 2.41052e-14 1.17518e-14 2.51915e-15 -1.08285e-16 -2.48724e-16 -7.12734e-17 -3.12232e-18 3.93046e-18 1.18673e-18 4.63793e-20 -5.5597e-20 -1.37102e-20 1.40984e-22 6.65627e-22 1.04732e-22 -1.16417e-23 -5.92095e-24 -3.78101e-25 1.66807e-25 3.39461e-26 -1.59326e-27 -1.26789e-27 -8.51047e-29 2.90064e-29 5.20157e-30 -3.22282e-31 -1.65609e-31 -5.49203e-33 3.64699e-33 4.06348e-34 -5.46246e-35 -1.28315e-35 3.29416e-37 2.89218e-37 1.09072e-38 -5.05262e-39 -4.904e-40 6.80232e-41 1.26327e-41 -4.04975e-43 -1.48538e-43 -0 0 0 0 0 0 0 0 0 0 0 0 0 0 0 0 0 0 0 0 0 0 0 0 0 0 0 0 0 0 0 0 0 0 0 0 0 
0 0 0 0 0 0 0 0 0 0 0 0 0 0 0 0 0 0 0 0 0 0 0 0 0 0 0 0 0 0 0 0 0 0 0 0 -0 -2.43826e-43 1.4013e-45 2.03665e-41 6.9552e-41 -9.26763e-40 -6.41626e-39 3.05963e-38 4.20048e-37 -2.84148e-37 -2.12119e-35 -5.0947e-35 8.09359e-34 4.75443e-33 -1.95972e-32 -2.58088e-31 -4.74615e-32 9.76326e-30 3.37801e-29 -2.36549e-28 -1.95449e-27 1.18772e-27 6.61314e-26 1.93288e-25 -1.25276e-24 -9.84956e-24 -1.88368e-24 2.44419e-22 9.43465e-22 -2.15116e-21 -2.88222e-20 -6.46814e-20 3.19993e-19 2.44842e-18 4.00493e-18 -2.44688e-17 -1.60103e-16 -2.95875e-16 9.41175e-16 7.57482e-15 2.06616e-14 6.21015e-15 -1.73959e-13 -7.84736e-13 -1.9008e-12 -2.3111e-12 2.45778e-12 2.20458e-11 7.0933e-11 1.63562e-10 3.04056e-10 4.72027e-10 6.07991e-10 6.0344e-10 3.01837e-10 -4.83186e-10 -1.92945e-09 -4.15227e-09 -7.14884e-09 -1.07602e-08 -1.46688e-08 -1.84376e-08 -2.15849e-08 -2.36759e-08 -2.44089e-08 -2.36759e-08 -2.15849e-08 -1.84376e-08 -1.46688e-08 -1.07602e-08 -7.14884e-09 -4.15227e-09 -1.92945e-09 -4.83186e-10 3.01837e-10 6.0344e-10 6.07991e-10 4.72027e-10 3.04056e-10 1.63562e-10 7.0933e-11 2.20458e-11 2.45778e-12 -2.3111e-12 -1.9008e-12 -7.84736e-13 -1.73959e-13 6.21015e-15 2.06616e-14 7.57482e-15 9.41175e-16 -2.95875e-16 -1.60103e-16 -2.44688e-17 4.00493e-18 2.44842e-18 3.19993e-19 -6.46814e-20 -2.88222e-20 -2.15116e-21 9.43465e-22 2.44419e-22 -1.88368e-24 -9.84956e-24 -1.25276e-24 1.93288e-25 6.61314e-26 1.18772e-27 -1.95449e-27 -2.36549e-28 3.37801e-29 9.76326e-30 -4.74615e-32 -2.58088e-31 -1.95972e-32 4.75443e-33 8.09359e-34 -5.0947e-35 -2.12119e-35 -2.84148e-37 4.20048e-37 3.05963e-38 -6.41626e-39 -9.26763e-40 6.9552e-41 2.03665e-41 1.4013e-45 -2.43826e-43 -0 0 0 0 0 0 0 0 0 0 0 0 0 0 0 0 0 0 0 0 0 0 0 0 0 0 0 0 0 0 0 0 0 0 0 0 
0 0 0 0 0 0 0 0 0 0 0 0 0 0 0 0 0 0 0 0 0 0 0 0 0 0 0 0 0 0 0 0 0 0 0 -4.2039e-45 -3.60134e-43 8.3097e-43 3.07781e-41 5.1628e-41 -1.57786e-39 -7.275e-39 6.39076e-38 5.64299e-37 -1.58246e-36 -3.23993e-35 -2.16746e-35 1.42968e-33 5.34879e-33 -4.52768e-32 -3.65661e-31 6.71953e-31 1.64306e-29 2.79371e-29 -5.05145e-28 -2.6516e-27 8.11291e-27 1.13289e-25 1.36399e-25 -2.90246e-24 -1.4072e-23 2.93466e-23 4.7242e-22 9.83615e-22 -7.59184e-21 -5.03582e-20 -2.65379e-20 9.20601e-19 4.04375e-18 -9.55818e-19 -7.26141e-17 -2.72873e-16 -7.62732e-18 3.77966e-15 1.55553e-14 1.86894e-14 -9.49519e-14 -5.87162e-13 -1.57985e-12 -1.68522e-12 4.85976e-12 3.09529e-11 9.42456e-11 2.0267e-10 3.23924e-10 3.42377e-10 1.4009e-11 -1.06597e-09 -3.46536e-09 -7.86687e-09 -1.49536e-08 -2.52328e-08 -3.8837e-08 -5.5375e-08 -7.39019e-08 -9.30407e-08 -1.1122e-07 -1.26944e-07 -1.38997e-07 -1.4654e-07 -1.49104e-07 -1.4654e-07 -1.38997e-07 -1.26944e-07 -1.1122e-07 -9.30407e-08 -7.39019e-08 -5.5375e-08 -3.8837e-08 -2.52328e-08 -1.49536e-08 -7.86687e-09 -3.46536e-09 -1.06597e-09 1.4009e-11 3.42377e-10 3.23924e-10 2.0267e-10 9.42456e-11 3.09529e-11 4.85976e-12 -1.68522e-12 -1.57985e-12 -5.87162e-13 -9.49519e-14 1.86894e-14 1.55553e-14 3.77966e-15 -7.62732e-18 -2.72873e-16 -7.26141e-17 -9.55818e-19 4.04375e-18 9.20601e-19 -2.65379e-20 -5.03582e-20 -7.59184e-21 9.83615e-22 4.7242e-22 2.93466e-23 -1.4072e-23 -2.90246e-24 1.36399e-25 1.13289e-25 8.11291e-27 -2.6516e-27 -5.05145e-28 2.79371e-29 1.64306e-29 6.71953e-31 -3.65661e-31 -4.52768e-32 5.34879e-33 1.42968e-33 -2.16746e-35 -3.23993e-35 -1.58246e-36 5.64299e-37 6.39076e-38 -7.275e-39 -1.57786e-39 5.1628e-41 3.07781e-41 8.3097e-43 -3.60134e-43 -4.2039e-45 0 0 0 0 0 0 0 0 0 0 0 0 0 0 0 0 0 0 0 0 0 0 0 0 0 0 0 0 0 0 0 0 0 0 
0 0 0 0 0 0 0 0 0 0 0 0 0 0 0 0 0 0 0 0 0 0 0 0 0 0 0 0 0 0 0 0 0 0 -2.10195e-44 -4.69435e-43 2.35698e-42 4.36224e-41 -2.16781e-42 -2.48816e-39 -6.79171e-39 1.15984e-37 6.90309e-37 -3.94653e-36 -4.58919e-35 5.45613e-35 2.3102e-33 4.52404e-33 -8.75134e-32 -4.63162e-31 2.14097e-30 2.51485e-29 -1.37226e-30 -9.32845e-28 -3.0078e-27 2.19816e-26 1.72735e-25 -1.10301e-25 -5.62457e-24 -1.62825e-23 9.97237e-23 7.8753e-22 2.85307e-22 -1.80761e-20 -7.28814e-20 1.26473e-19 1.99202e-18 5.06456e-18 -1.76651e-17 -1.57439e-16 -3.26092e-16 1.14329e-15 9.29987e-15 2.22308e-14 -2.55916e-14 -3.62835e-13 -1.23283e-12 -1.60041e-12 4.25526e-12 3.05263e-11 9.53571e-11 1.92287e-10 2.25078e-10 -8.7514e-11 -1.30545e-09 -4.3143e-09 -1.02787e-08 -2.0453e-08 -3.5804e-08 -5.64505e-08 -8.10509e-08 -1.06426e-07 -1.27762e-07 -1.396e-07 -1.37463e-07 -1.19614e-07 -8.82361e-08 -4.9453e-08 -1.20115e-08 1.50271e-08 2.48779e-08 1.50271e-08 -1.20115e-08 -4.9453e-08 -8.82361e-08 -1.19614e-07 -1.37463e-07 -1.396e-07 -1.27762e-07 -1.06426e-07 -8.10509e-08 -5.64505e-08 -3.5804e-08 -2.0453e-08 -1.02787e-08 -4.3143e-09 -1.30545e-09 -8.7514e-11 2.25078e-10 1.92287e-10 9.53571e-11 3.05263e-11 4.25526e-12 -1.60041e-12 -1.23283e-12 -3.62835e-13 -2.55916e-14 2.22308e-14 9.29987e-15 1.14329e-15 -3.26092e-16 -1.57439e-16 -1.76651e-17 5.06456e-18 1.99202e-18 1.26473e-19 -7.28814e-20 -1.80761e-20 2.85307e-22 7.8753e-22 9.97237e-23 -1.62825e-23 -5.62457e-24 -1.10301e-25 1.72735e-25 2.19816e-26 -3.0078e-27 -9.32845e-28 -1.37226e-30 2.51485e-29 2.14097e-30 -4.63162e-31 -8.75134e-32 4.52404e-33 2.3102e-33 5.45613e-35 -4.58919e-35 -3.94653e-36 6.90309e-37 1.15984e-37 -6.79171e-39 -2.48816e-39 -2.16781e-42 4.36224e-41 2.35698e-42 -4.69435e-43 -2.10195e-44 0 0 0 0 0 0 0 0 0 0 0 0 0 0 0 0 0 0 0 0 0 0 0 0 0 0 0 0 0 0 0 0 0 
0 0 0 0 0 0 0 0 0 0 0 0 0 0 0 0 0 0 0 0 0 0 0 0 0 0 0 0 0 0 0 0 -0 -6.30584e-44 -5.85743e-43 4.86391e-42 5.86037e-41 -1.13434e-40 -3.68381e-39 -3.72358e-39 1.91978e-37 7.41776e-37 -7.83346e-36 -6.00142e-35 2.07059e-34 3.45628e-33 8.40024e-34 -1.51166e-31 -4.99041e-31 4.74794e-30 3.49484e-29 -7.38137e-29 -1.54677e-27 -2.34099e-27 4.61915e-26 2.31417e-25 -7.12925e-25 -9.57325e-24 -1.16322e-23 2.31884e-22 1.12869e-21 -2.03004e-21 -3.52732e-20 -7.98288e-20 5.00504e-19 3.55943e-18 3.2165e-18 -5.59269e-17 -2.72548e-16 -1.05669e-16 3.93897e-15 1.71918e-14 1.38369e-14 -1.67495e-13 -8.50768e-13 -1.63931e-12 1.90687e-12 2.32923e-11 8.11155e-11 1.59625e-10 1.04694e-10 -5.36627e-10 -2.65083e-09 -7.52413e-09 -1.64908e-08 -3.01317e-08 -4.68968e-08 -6.11114e-08 -6.06839e-08 -2.54635e-08 7.22707e-08 2.63873e-07 5.76785e-07 1.02498e-06 1.60043e-06 2.26883e-06 2.97163e-06 3.63421e-06 4.17832e-06 4.53582e-06 4.66043e-06 4.53582e-06 4.17832e-06 3.63421e-06 2.97163e-06 2.26883e-06 1.60043e-06 1.02498e-06 5.76785e-07 2.63873e-07 7.22707e-08 -2.54635e-08 -6.06839e-08 -6.11114e-08 -4.68968e-08 -3.01317e-08 -1.64908e-08 -7.52413e-09 -2.65083e-09 -5.36627e-10 1.04694e-10 1.59625e-10 8.11155e-11 2.32923e-11 1.90687e-12 -1.63931e-12 -8.50768e-13 -1.67495e-13 1.38369e-14 1.71918e-14 3.93897e-15 -1.05669e-16 -2.72548e-16 -5.59269e-17 3.2165e-18 3.55943e-18 5.00504e-19 -7.98288e-20 -3.52732e-20 -2.03004e-21 1.12869e-21 2.31884e-22 -1.16322e-23 -9.57325e-24 -7.12925e-25 2.31417e-25 4.61915e-26 -2.34099e-27 -1.54677e-27 -7.38137e-29 3.49484e-29 4.74794e-30 -4.99041e-31 -1.51166e-31 8.40024e-34 3.45628e-33 2.07059e-34 -6.00142e-35 -7.83346e-36 7.41776e-37 1.91978e-37 -3.72358e-39 -3.68381e-39 -1.13434e-40 5.86037e-41 4.86391e-42 -5.85743e-43 -6.30584e-44 -0 0 0 0 0 0 0 0 0 0 0 0 0 0 0 0 0 0 0 0 0 0 0 0 0 0 0 0 0 0 0 0 
0 0 0 0 0 0 0 0 0 0 0 0 0 0 0 0 0 0 0 0 0 0 0 0 0 0 0 0 0 0 0 -0 -1.10703e-43 -6.51604e-43 8.68525e-42 7.3421e-41 -3.08981e-40 -5.11404e-39 3.73867e-39 2.94368e-37 6.19977e-37 -1.36925e-35 -7.07094e-35 4.72824e-34 4.77472e-33 -7.87353e-33 -2.38727e-31 -3.78612e-31 8.92064e-30 4.30586e-29 -2.17072e-28 -2.32635e-27 5.26009e-28 8.40336e-26 2.57136e-25 -1.90308e-24 -1.44685e-23 8.54632e-24 4.48557e-22 1.31586e-21 -7.29581e-21 -5.91827e-20 -3.5661e-20 1.2324e-18 5.29487e-18 -5.9464e-18 -1.26296e-16 -3.6836e-16 7.97963e-16 9.15632e-15 2.35764e-14 -3.87779e-14 -4.72794e-13 -1.42824e-12 -3.59522e-13 1.37678e-11 6.06709e-11 1.30112e-10 5.30479e-11 -7.20366e-10 -3.27812e-09 -8.9786e-09 -1.83171e-08 -2.85661e-08 -2.99049e-08 1.54403e-10 1.03581e-07 3.47639e-07 8.25193e-07 1.64434e-06 2.90509e-06 4.66726e-06 6.92035e-06 9.56823e-06 1.24372e-05 1.53066e-05 1.79503e-05 2.0175e-05 2.18418e-05 2.28678e-05 2.32135e-05 2.28678e-05 2.18418e-05 2.0175e-05 1.79503e-05 1.53066e-05 1.24372e-05 9.56823e-06 6.92035e-06 4.66726e-06 2.90509e-06 1.64434e-06 8.25193e-07 3.47639e-07 1.03581e-07 1.54403e-10 -2.99049e-08 -2.85661e-08 -1.83171e-08 -8.9786e-09 -3.27812e-09 -7.20366e-10 5.30479e-11 1.30112e-10 6.06709e-11 1.37678e-11 -3.59522e-13 -1.42824e-12 -4.72794e-13 -3.87779e-14 2.35764e-14 9.15632e-15 7.97963e-16 -3.6836e-16 -1.26296e-16 -5.9464e-18 5.29487e-18 1.2324e-18 -3.5661e-20 -5.91827e-20 -7.29581e-21 1.31586e-21 4.48557e-22 8.54632e-24 -1.44685e-23 -1.90308e-24 2.57136e-25 8.40336e-26 5.26009e-28 -2.32635e-27 -2.17072e-28 4.30586e-29 8.92064e-30 -3.78612e-31 -2.38727e-31 -7.87353e-33 4.77472e-33 4.72824e-34 -7.07094e-35 -1.36925e-35 6.19977e-37 2.94368e-37 3.73867e-39 -5.11404e-39 -3.08981e-40 7.3421e-41 8.68525e-42 -6.51604e-43 -1.10703e-43 -0 0 0 0 0 0 0 0 0 0 0 0 0 0 0 0 0 0 0 0 0 0 0 0 0 0 0 0 0 0 0 
0 0 0 0 0 0 0 0 0 0 0 0 0 0 0 0 0 0 0 0 0 0 0 0 0 0 0 0 0 0 -0 -1.82169e-43 -5.25487e-43 1.43465e-41 8.41508e-41 -6.30603e-40 -6.63994e-39 1.8544e-38 4.2365e-37 1.57405e-37 -2.2051e-35 -7.04653e-35 9.02543e-34 6.03501e-33 -2.48611e-32 -3.49176e-31 5.39939e-32 1.51103e-29 4.40441e-29 -4.68198e-28 -3.16858e-27 7.42073e-27 1.3768e-25 1.89032e-25 -3.9687e-24 -1.92018e-23 5.77775e-23 7.62365e-22 9.77572e-22 -1.72409e-20 -8.56647e-20 1.21945e-19 2.45068e-18 6.15139e-18 -2.95028e-17 -2.33142e-16 -3.12105e-16 3.00659e-15 1.68086e-14 1.73828e-14 -1.82115e-13 -9.63669e-13 -1.50373e-12 5.48467e-12 3.90983e-11 1.05152e-10 7.09477e-11 -5.98782e-10 -3.04037e-09 -8.45909e-09 -1.58537e-08 -1.71446e-08 1.06454e-08 1.16137e-07 3.86299e-07 9.56482e-07 2.00646e-06 3.72647e-06 6.24323e-06 9.51652e-06 1.3245e-05 1.68369e-05 1.949e-05 2.03863e-05 1.89504e-05 1.50843e-05 9.2873e-06 2.6024e-06 -3.60798e-06 -7.99644e-06 -9.57908e-06 -7.99644e-06 -3.60798e-06 2.6024e-06 9.2873e-06 1.50843e-05 1.89504e-05 2.03863e-05 1.949e-05 1.68369e-05 1.3245e-05 9.51652e-06 6.24323e-06 3.72647e-06 2.00646e-06 9.56482e-07 3.86299e-07 1.16137e-07 1.06454e-08 -1.71446e-08 -1.58537e-08 -8.45909e-09 -3.04037e-09 -5.98782e-10 7.09477e-11 1.05152e-10 3.90983e-11 5.48467e-12 -1.50373e-12 -9.63669e-13 -1.82115e-13 1.73828e-14 1.68086e-14 3.00659e-15 -3.12105e-16 -2.33142e-16 -2.95028e-17 6.15139e-18 2.45068e-18 1.21945e-19 -8.56647e-20 -1.72409e-20 9.77572e-22 7.62365e-22 5.77775e-23 -1.92018e-23 -3.9687e-24 1.89032e-25 1.3768e-25 7.42073e-27 -3.16858e-27 -4.68198e-28 4.40441e-29 1.51103e-29 5.39939e-32 -3.49176e-31 -2.48611e-32 6.03501e-33 9.02543e-34 -7.04653e-35 -2.2051e-35 1.57405e-37 4.2365e-37 1.8544e-38 -6.63994e-39 -6.30603e-40 8.41508e-41 1.43465e-41 -5.25487e-43 -1.82169e-43 -0 0 0 0 0 0 0 0 0 0 0 0 0 0 0 0 0 0 0 0 0 0 0 0 0 0 0 0 0 0 
0 0 0 0 0 0 0 0 0 0 0 0 0 0 0 0 0 0 0 0 0 0 0 0 0 0 0 0 0 -0 -2.78858e-43 -2.90069e-43 2.23451e-41 8.73569e-41 -1.12046e-39 -8.15189e-39 4.35756e-38 5.79923e-37 -8.1872e-37 -3.33553e-35 -5.06131e-35 1.5444e-33 6.9041e-33 -5.35899e-32 -4.75702e-31 9.89581e-31 2.35709e-29 2.98885e-29 -8.6372e-28 -3.84461e-27 2.06073e-26 2.05404e-25 -6.63602e-26 -7.16259e-24 -2.12875e-23 1.53451e-22 1.15233e-21 -5.14247e-22 -3.35003e-20 -1.02388e-19 4.84355e-19 4.17006e-18 3.86465e-18 -7.65194e-17 -3.59727e-16 1.59924e-16 7.22677e-15 2.46012e-14 -2.3794e-14 -4.69272e-13 -1.49858e-12 3.33337e-13 1.99628e-11 7.70425e-11 1.03215e-10 -3.25968e-10 -2.27985e-09 -6.89958e-09 -1.21952e-08 -5.47452e-09 4.87405e-08 2.23288e-07 6.41185e-07 1.47613e-06 2.91457e-06 5.03502e-06 7.56498e-06 9.52898e-06 8.89901e-06 2.44846e-06 -1.39824e-05 -4.47154e-05 -9.30744e-05 -0.000160153 -0.000243906 -0.000338904 -0.000436849 -0.000527771 -0.000601592 -0.000649729 -0.000666447 -0.000649729 -0.000601592 -0.000527771 -0.000436849 -0.000338904 -0.000243906 -0.000160153 -9.30744e-05 -4.47154e-05 -1.39824e-05 2.44846e-06 8.89901e-06 9.52898e-06 7.56498e-06 5.03502e-06 2.91457e-06 1.47613e-06 6.41185e-07 2.23288e-07 4.87405e-08 -5.47452e-09 -1.21952e-08 -6.89958e-09 -2.27985e-09 -3.25968e-10 1.03215e-10 7.70425e-11 1.99628e-11 3.33337e-13 -1.49858e-12 -4.69272e-13 -2.3794e-14 2.46012e-14 7.22677e-15 1.59924e-16 -3.59727e-16 -7.65194e-17 3.86465e-18 4.17006e-18 4.84355e-19 -1.02388e-19 -3.35003e-20 -5.14247e-22 1.15233e-21 1.53451e-22 -2.12875e-23 -7.16259e-24 -6.63602e-26 2.05404e-25 2.06073e-26 -3.84461e-27 -8.6372e-28 2.98885e-29 2.35709e-29 9.89581e-31 -4.75702e-31 -5.35899e-32 6.9041e-33 1.5444e-33 -5.06131e-35 -3.33553e-35 -8.1872e-37 5.79923e-37 4.35756e-38 -8.15189e-39 -1.12046e-39 8.73569e-41 2.23451e-41 -2.90069e-43 -2.78858e-43 -0 0 0 0 0 0 0 0 0 0 0 0 0 0 0 0 0 0 0 0 0 0 0 0 0 0 0 0 0 
0 0 0 0 0 0 0 0 0 0 0 0 0 0 0 0 0 0 0 0 0 0 0 0 0 0 0 0 -1.4013e-45 -3.71344e-43 3.04082e-43 3.18515e-41 7.40796e-41 -1.76509e-39 -9.02021e-39 8.0268e-38 7.29891e-37 -2.51238e-36 -4.63912e-35 4.68662e-36 2.38711e-33 6.49294e-33 -9.65829e-32 -5.82155e-31 2.67823e-30 3.34575e-29 -1.38802e-29 -1.41673e-27 -3.77691e-27 4.26673e-26 2.73134e-25 -6.59134e-25 -1.14953e-23 -1.53641e-23 3.15304e-22 1.51187e-21 -4.18016e-21 -5.65721e-20 -8.12521e-20 1.1708e-18 6.08659e-18 -5.77765e-18 -1.55774e-16 -4.42282e-16 1.49148e-15 1.38826e-14 2.54462e-14 -1.36589e-13 -9.25452e-13 -1.57544e-12 6.58042e-12 4.63977e-11 1.08127e-10 -7.16977e-11 -1.39259e-09 -5.11548e-09 -9.58728e-09 -9.3096e-10 6.24948e-08 2.65359e-07 7.36242e-07 1.60921e-06 2.89312e-06 4.14728e-06 3.84139e-06 -1.62617e-06 -1.9017e-05 -5.88893e-05 -0.000135069 -0.000262486 -0.000453555 -0.000714069 -0.00104003 -0.00141667 -0.00182022 -0.00222172 -0.00259177 -0.00290465 -0.00314075 -0.00328707 -0.00333658 -0.00328707 -0.00314075 -0.00290465 -0.00259177 -0.00222172 -0.00182022 -0.00141667 -0.00104003 -0.000714069 -0.000453555 -0.000262486 -0.000135069 -5.88893e-05 -1.9017e-05 -1.62617e-06 3.84139e-06 4.14728e-06 2.89312e-06 1.60921e-06 7.36242e-07 2.65359e-07 6.24948e-08 -9.3096e-10 -9.58728e-09 -5.11548e-09 -1.39259e-09 -7.16977e-11 1.08127e-10 4.63977e-11 6.58042e-12 -1.57544e-12 -9.25452e-13 -1.36589e-13 2.54462e-14 1.38826e-14 1.49148e-15 -4.42282e-16 -1.55774e-16 -5.77765e-18 6.08659e-18 1.1708e-18 -8.12521e-20 -5.65721e-20 -4.18016e-21 1.51187e-21 3.15304e-22 -1.53641e-23 -1.14953e-23 -6.59134e-25 2.73134e-25 4.26673e-26 -3.77691e-27 -1.41673e-27 -1.38802e-29 3.34575e-29 2.67823e-30 -5.82155e-31 -9.65829e-32 6.49294e-33 2.38711e-33 4.68662e-36 -4.63912e-35 -2.51238e-36 7.29891e-37 8.0268e-38 -9.02021e-39 -1.76509e-39 7.40796e-41 3.18515e-41 3.04082e-43 -3.71344e-43 -1.4013e-45 0 0 0 0 0 0 0 0 0 0 0 0 0 0 0 0 0 0 0 0 0 0 0 0 0 0 0 
0 0 0 0 0 0 0 0 0 0 0 0 0 0 0 0 0 0 0 0 0 0 0 0 0 0 0 -2.10195e-44 -5.14277e-43 1.72079e-42 4.37443e-41 1.57758e-41 -2.67412e-39 -7.82537e-39 1.38883e-37 8.20398e-37 -5.64262e-36 -6.02713e-35 1.3603e-34 3.50011e-33 2.96053e-33 -1.62565e-31 -6.06459e-31 5.70674e-30 4.3731e-29 -1.16006e-28 -2.17076e-27 -1.91841e-27 7.85931e-26 3.16188e-25 -1.85426e-24 -1.69284e-23 7.93958e-24 5.72926e-22 1.63524e-21 -1.16411e-20 -8.58008e-20 2.69507e-20 2.33564e-18 7.43737e-18 -2.94603e-17 -2.7305e-16 -3.46626e-16 4.31375e-15 2.25441e-14 5.05979e-15 -3.68682e-13 -1.48405e-12 -1.21774e-13 2.05617e-11 8.26286e-11 7.70208e-11 -6.28634e-10 -3.37369e-09 -7.86149e-09 -2.97914e-09 5.08577e-08 2.36995e-07 6.64883e-07 1.36768e-06 2.02537e-06 1.33872e-06 -4.2081e-06 -2.23459e-05 -6.73871e-05 -0.000161663 -0.000334033 -0.000613784 -0.00102004 -0.0015495 -0.00216759 -0.00280813 -0.0033843 -0.003809 -0.00401906 -0.00399505 -0.00377014 -0.003424 -0.00306351 -0.00279488 -0.00269587 -0.00279488 -0.00306351 -0.003424 -0.00377014 -0.00399505 -0.00401906 -0.003809 -0.0033843 -0.00280813 -0.00216759 -0.0015495 -0.00102004 -0.000613784 -0.000334033 -0.000161663 -6.73871e-05 -2.23459e-05 -4.2081e-06 1.33872e-06 2.02537e-06 1.36768e-06 6.64883e-07 2.36995e-07 5.08577e-08 -2.97914e-09 -7.86149e-09 -3.37369e-09 -6.28634e-10 7.70208e-11 8.26286e-11 2.05617e-11 -1.21774e-13 -1.48405e-12 -3.68682e-13 5.05979e-15 2.25441e-14 4.31375e-15 -3.46626e-16 -2.7305e-16 -2.94603e-17 7.43737e-18 2.33564e-18 2.69507e-20 -8.58008e-20 -1.16411e-20 1.63524e-21 5.72926e-22 7.93958e-24 -1.69284e-23 -1.85426e-24 3.16188e-25 7.85931e-26 -1.91841e-27 -2.17076e-27 -1.16006e-28 4.3731e-29 5.70674e-30 -6.06459e-31 -1.62565e-31 2.96053e-33 3.50011e-33 1.3603e-34 -6.02713e-35 -5.64262e-36 8.20398e-37 1.38883e-37 -7.82537e-39 -2.67412e-39 1.57758e-41 4.37443e-41 1.72079e-42 -5.14277e-43 -2.10144e-44 0 0 0 0 0 0 0 0 0 0 0 0 0 0 0 0 0 0 0 0 0 0 0 0 0 0 
0 0 0 0 0 0 0 0 0 0 0 0 0 0 0 0 0 0 0 0 0 0 0 0 0 -0 -5.04467e-44 -7.13261e-43 3.64338e-42 6.15717e-41 -7.01784e-41 -4.03783e-39 -5.93999e-39 2.26486e-37 9.37444e-37 -1.03752e-35 -7.94731e-35 3.4194e-34 5.08084e-33 -3.26025e-33 -2.59029e-31 -5.78183e-31 1.03293e-29 5.58641e-29 -2.8479e-28 -3.19205e-27 2.00343e-27 1.3144e-25 3.27049e-25 -3.79498e-24 -2.34323e-23 5.46179e-23 9.40826e-22 1.33347e-21 -2.40037e-20 -1.1809e-19 2.6941e-19 4.04201e-18 7.02115e-18 -7.33049e-17 -4.18172e-16 1.22581e-16 9.11984e-15 3.06195e-14 -5.73825e-14 -7.49666e-13 -1.86385e-12 4.54266e-12 4.44757e-11 1.11376e-10 -1.22046e-10 -1.78823e-09 -5.89998e-09 -6.30988e-09 2.79274e-08 1.70446e-07 5.1002e-07 9.89237e-07 9.78298e-07 -1.63589e-06 -1.22152e-05 -4.22885e-05 -0.000113006 -0.000256443 -0.00050979 -0.000897169 -0.00139776 -0.00190695 -0.00220589 -0.00195874 -0.000751799 0.00182524 0.00607197 0.0120726 0.0196244 0.0282226 0.0371082 0.0453719 0.052092 0.0564796 0.0580043 0.0564796 0.052092 0.0453719 0.0371082 0.0282226 0.0196244 0.0120726 0.00607197 0.00182524 -0.000751799 -0.00195874 -0.00220589 -0.00190695 -0.00139776 -0.000897169 -0.00050979 -0.000256443 -0.000113006 -4.22885e-05 -1.22152e-05 -1.63589e-06 9.78298e-07 9.89237e-07 5.1002e-07 1.70446e-07 2.79274e-08 -6.30988e-09 -5.89998e-09 -1.78823e-09 -1.22046e-10 1.11376e-10 4.44757e-11 4.54266e-12 -1.86385e-12 -7.49666e-13 -5.73825e-14 3.06195e-14 9.11984e-15 1.22581e-16 -4.18172e-16 -7.33049e-17 7.02115e-18 4.04201e-18 2.6941e-19 -1.1809e-19 -2.40037e-20 1.33347e-21 9.40826e-22 5.46179e-23 -2.34323e-23 -3.79498e-24 3.27049e-25 1.3144e-25 2.00343e-27 -3.19205e-27 -2.8479e-28 5.58641e-29 1.03293e-29 -5.78183e-31 -2.59029e-31 -3.26025e-33 5.08084e-33 3.4194e-34 -7.94731e-35 -1.03752e-35 9.37444e-37 2.26486e-37 -5.93999e-39 -4.03783e-39 -7.01784e-41 6.15717e-41 3.64338e-42 -7.04683e-43 -5.04437e-44 -0 0 0 0 0 0 0 0 0 0 0 0 0 0 0 0 0 0 0 0 0 0 0 0 0 
0 0 0 0 0 0 0 0 0 0 0 0 0 0 0 0 0 0 0 0 0 0 0 0 -0 -6.30584e-44 -8.01543e-43 5.41462e-42 7.18446e-41 -1.68373e-40 -4.96641e-39 -1.80852e-39 2.96096e-37 8.58842e-37 -1.47833e-35 -8.64631e-35 5.74935e-34 6.09986e-33 -1.30111e-32 -3.39464e-31 -3.10692e-31 1.50499e-29 5.67988e-29 -4.99871e-28 -3.87325e-27 9.24166e-27 1.81935e-25 1.91098e-25 -6.18375e-24 -2.58848e-23 1.33078e-22 1.28009e-21 -1.78786e-22 -3.99116e-20 -1.24817e-19 7.16465e-19 5.76606e-18 9.20731e-19 -1.39216e-16 -5.02214e-16 1.36394e-15 1.55032e-14 2.79069e-14 -1.95011e-13 -1.21712e-12 -1.19883e-12 1.4932e-11 7.46961e-11 7.87195e-11 -6.66962e-10 -3.59348e-09 -6.93544e-09 9.03048e-09 1.03741e-07 3.56997e-07 6.86679e-07 3.21686e-07 -3.2911e-06 -1.64528e-05 -5.2273e-05 -0.000133729 -0.000291709 -0.000547137 -0.000862969 -0.00105773 -0.000691072 0.00104151 0.00534779 0.0137575 0.0278995 0.0491668 0.0783472 0.115318 0.158889 0.20683 0.256088 0.303127 0.344334 0.376429 0.396803 0.403785 0.396803 0.376429 0.344334 0.303127 0.256088 0.20683 0.158889 0.115318 0.0783472 0.0491668 0.0278995 0.0137575 0.00534779 0.00104151 -0.000691072 -0.00105773 -0.000862969 -0.000547137 -0.000291709 -0.000133729 -5.2273e-05 -1.64528e-05 -3.2911e-06 3.21686e-07 6.86679e-07 3.56997e-07 1.03741e-07 9.03048e-09 -6.93544e-09 -3.59348e-09 -6.66962e-10 7.87195e-11 7.46961e-11 1.4932e-11 -1.19883e-12 -1.21712e-12 -1.95011e-13 2.79069e-14 1.55032e-14 1.36394e-15 -5.02214e-16 -1.39216e-16 9.20731e-19 5.76606e-18 7.16465e-19 -1.24817e-19 -3.99116e-20 -1.78786e-22 1.28009e-21 1.33078e-22 -2.58848e-23 -6.18375e-24 1.91098e-25 1.81935e-25 9.24166e-27 -3.87325e-27 -4.99871e-28 5.67988e-29 1.50499e-29 -3.10692e-31 -3.39464e-31 -1.30111e-32 6.09986e-33 5.74935e-34 -8.64631e-35 -1.47833e-35 8.58842e-37 2.96096e-37 -1.80852e-39 -4.96641e-39 -1.68373e-40 7.18446e-41 5.4021e-42 -8.01494e-43 -6.30584e-44 -0 0 0 0 0 0 0 0 0 0 0 0 0 0 0 0 0 0 0 0 0 0 0 0 
0 0 0 0 0 0 0 0 0 0 0 0 0 0 0 0 0 0 0 0 0 0 0 -0 -1.09295e-43 -4.47014e-43 1.16378e-41 6.98519e-41 -5.82453e-40 -5.91488e-39 2.18315e-38 4.17741e-37 -2.30485e-37 -2.48706e-35 -5.23783e-35 1.22859e-33 6.11127e-33 -4.719e-32 -4.38697e-31 1.0876e-30 2.39285e-29 1.82584e-29 -1.016e-27 -3.76185e-27 3.13927e-26 2.46225e-25 -4.82197e-25 -1.07737e-23 -1.58048e-23 3.28731e-22 1.57568e-21 -5.64305e-21 -6.75276e-20 -5.19315e-20 1.77051e-18 7.3625e-18 -2.17032e-17 -2.59633e-16 -3.78917e-16 4.60408e-15 2.45523e-14 -6.80903e-15 -5.03769e-13 -1.72437e-12 2.34831e-12 3.70316e-11 1.05099e-10 -1.2574e-10 -1.89953e-09 -5.97246e-09 -2.09923e-09 5.53118e-08 2.50902e-07 5.57881e-07 2.89736e-07 -3.10167e-06 -1.60351e-05 -5.14497e-05 -0.000130118 -0.000272311 -0.00045906 -0.000529986 1.19497e-05 0.00228385 0.00832489 0.0212798 0.0453034 0.0850832 0.145012 0.228191 0.335524 0.46519 0.612599 0.770851 0.931551 1.08575 1.22484 1.34122 1.42877 1.48307 1.50147 1.48307 1.42877 1.34122 1.22484 1.08575 0.931551 0.770851 0.612599 0.46519 0.335524 0.228191 0.145012 0.0850832 0.0453034 0.0212798 0.00832489 0.00228385 1.19497e-05 -0.000529986 -0.00045906 -0.000272311 -0.000130118 -5.14497e-05 -1.60351e-05 -3.10167e-06 2.89736e-07 5.57881e-07 2.50902e-07 5.53118e-08 -2.09923e-09 -5.97246e-09 -1.89953e-09 -1.2574e-10 1.05099e-10 3.70316e-11 2.34831e-12 -1.72437e-12 -5.03769e-13 -6.80903e-15 2.45523e-14 4.60408e-15 -3.78917e-16 -2.59633e-16 -2.17032e-17 7.3625e-18 1.77051e-18 -5.19315e-20 -6.75276e-20 -5.64305e-21 1.57568e-21 3.28731e-22 -1.58048e-23 -1.07737e-23 -4.82197e-25 2.46225e-25 3.13927e-26 -3.76185e-27 -1.016e-27 1.82584e-29 2.39285e-29 1.0876e-30 -4.38697e-31 -4.719e-32 6.11127e-33 1.22859e-33 -5.23783e-35 -2.48706e-35 -2.30485e-37 4.17741e-37 2.18315e-38 -5.91487e-39 -5.82496e-40 6.94778e-41 1.15894e-41 -4.47014e-43 -1.09295e-43 -0 0 0 0 0 0 0 0 0 0 0 0 0 0 0 0 0 0 0 0 0 0 0 
0 0 0 0 0 0 0 0 0 0 0 0 0 0 0 0 0 0 0 0 0 0 -0 -2.45168e-43 -1.07893e-42 2.02179e-41 1.33622e-40 -9.98314e-40 -1.10208e-38 3.59961e-38 7.66407e-37 -2.31677e-37 -4.52633e-35 -1.03289e-34 2.22945e-33 1.14218e-32 -8.58244e-32 -8.10649e-31 2.00629e-30 4.42519e-29 3.10263e-29 -1.89756e-27 -6.78853e-27 6.01143e-26 4.52551e-25 -1.01953e-24 -2.02413e-23 -2.41509e-23 6.40498e-22 2.81204e-21 -1.21187e-20 -1.26974e-19 -4.2289e-20 3.53994e-18 1.28145e-17 -5.13235e-17 -4.97484e-16 -4.51331e-16 9.90287e-15 4.43457e-14 -4.95949e-14 -1.04915e-12 -2.85951e-12 7.96258e-12 7.65692e-11 1.63212e-10 -4.89914e-10 -4.08688e-09 -9.77602e-09 8.94107e-09 1.41502e-07 4.91177e-07 7.50869e-07 -9.90688e-07 -1.0391e-05 -3.95573e-05 -0.000108214 -0.00023392 -0.000381425 -0.000308726 0.000771858 0.00476117 0.0153895 0.0388217 0.0837538 0.160638 0.279946 0.449799 0.673653 0.948778 1.26607 1.61124 1.96693 2.31532 2.64026 2.9288 3.17176 3.36352 3.5013 3.58406 3.61164 3.58406 3.5013 3.36352 3.17176 2.9288 2.64026 2.31532 1.96693 1.61124 1.26607 0.948778 0.673653 0.449799 0.279946 0.160638 0.0837538 0.0388217 0.0153895 0.00476117 0.000771858 -0.000308726 -0.000381425 -0.00023392 -0.000108214 -3.95573e-05 -1.0391e-05 -9.90688e-07 7.50869e-07 4.91177e-07 1.41502e-07 8.94107e-09 -9.77602e-09 -4.08688e-09 -4.89914e-10 1.63212e-10 7.65692e-11 7.96258e-12 -2.85951e-12 -1.04915e-12 -4.95949e-14 4.43457e-14 9.90287e-15 -4.51331e-16 -4.97484e-16 -5.13235e-17 1.28145e-17 3.53994e-18 -4.2289e-20 -1.26974e-19 -1.21187e-20 2.81204e-21 6.40498e-22 -2.41509e-23 -2.02413e-23 -1.01953e-24 4.52551e-25 6.01143e-26 -6.78853e-27 -1.89756e-27 3.10263e-29 4.42519e-29 2.00629e-30 -8.10649e-31 -8.58244e-32 1.14218e-32 2.22945e-33 -1.03289e-34 -4.52633e-35 -2.31677e-37 7.66407e-37 3.59961e-38 -1.1021e-38 -9.97e-40 1.33201e-40 2.01535e-41 -1.07893e-42 -2.45168e-43 -0 0 0 0 0 0 0 0 0 0 0 0 0 0 0 0 0 0 0 0 0 0 
0 0 0 0 0 0 0 0 0 0 0 0 0 0 0 0 0 0 0 0 0 -0 -1.23247e-43 -9.87676e-43 1.04615e-41 1.05839e-40 -4.29181e-40 -7.93683e-39 8.12429e-39 5.14687e-37 7.93293e-37 -2.84334e-35 -1.18566e-34 1.28557e-33 9.84075e-33 -4.19416e-32 -6.19658e-31 4.08076e-31 3.12032e-29 6.79253e-29 -1.23244e-27 -6.52904e-27 3.38829e-26 3.69744e-25 -2.62023e-25 -1.5096e-23 -3.59804e-23 4.33659e-22 2.59482e-21 -6.35652e-21 -1.03611e-19 -1.36192e-19 2.62978e-18 1.25041e-17 -3.0029e-17 -4.26067e-16 -7.0136e-16 7.67501e-15 4.2463e-14 -1.49636e-14 -9.14613e-13 -3.00383e-12 5.63655e-12 7.20697e-11 1.78733e-10 -4.07369e-10 -4.07634e-09 -1.05397e-08 7.98081e-09 1.51463e-07 5.38644e-07 7.87484e-07 -1.49772e-06 -1.33783e-05 -4.92145e-05 -0.000128284 -0.000248785 -0.000283513 0.000315339 0.00315001 0.0119254 0.0337484 0.0801574 0.167091 0.313094 0.535647 0.846436 1.24707 1.72687 2.26359 2.82705 3.38436 3.90542 4.36707 4.75536 5.0655 5.30038 5.46788 5.57785 5.63954 5.65932 5.63954 5.57785 5.46788 5.30038 5.0655 4.75536 4.36707 3.90542 3.38436 2.82705 2.26359 1.72687 1.24707 0.846436 0.535647 0.313094 0.167091 0.0801574 0.0337484 0.0119254 0.00315001 0.000315339 -0.000283513 -0.000248785 -0.000128284 -4.92145e-05 -1.33783e-05 -1.49772e-06 7.87484e-07 5.38644e-07 1.51463e-07 7.98081e-09 -1.05397e-08 -4.07634e-09 -4.07369e-10 1.78733e-10 7.20697e-11 5.63655e-12 -3.00383e-12 -9.14613e-13 -1.49636e-14 4.2463e-14 7.67501e-15 -7.0136e-16 -4.26067e-16 -3.0029e-17 1.25041e-17 2.62978e-18 -1.36192e-19 -1.03611e-19 -6.35652e-21 2.59482e-21 4.33659e-22 -3.59804e-23 -1.5096e-23 -2.62023e-25 3.69744e-25 3.38829e-26 -6.52904e-27 -1.23244e-27 6.79253e-29 3.12032e-29 4.08076e-31 -6.19658e-31 -4.19416e-32 9.84075e-33 1.28557e-33 -1.18566e-34 -2.84334e-35 7.93295e-37 5.14687e-37 8.12551e-39 -7.91554e-39 -4.2787e-40 1.05574e-40 1.04334e-41 -9.87676e-43 -1.23247e-43 -0 0 0 0 0 0 0 0 0 0 0 0 0 0 0 0 0 0 0 0 0 
0 0 0 0 0 0 0 0 0 0 0 0 0 0 0 0 0 0 0 0 0 -5.03979e-44 -7.33881e-43 4.80809e-42 7.52858e-41 -1.27413e-40 -5.27562e-39 -4.49929e-39 3.2229e-37 1.0786e-36 -1.66174e-35 -1.054e-34 6.72632e-34 7.59054e-33 -1.60823e-32 -4.4004e-31 -3.77671e-31 2.06656e-29 7.55639e-29 -7.46456e-28 -5.52654e-27 1.65882e-26 2.81499e-25 1.54514e-25 -1.06377e-23 -3.8038e-23 2.74566e-22 2.19689e-21 -2.4953e-21 -8.00387e-20 -1.77444e-19 1.85169e-18 1.12222e-17 -1.44099e-17 -3.47289e-16 -8.09539e-16 5.66015e-15 3.83373e-14 9.91676e-15 -7.64935e-13 -2.94109e-12 3.61065e-12 6.51099e-11 1.8267e-10 -3.23715e-10 -3.90141e-09 -1.07625e-08 6.93053e-09 1.54802e-07 5.59993e-07 7.77351e-07 -1.97059e-06 -1.57482e-05 -5.58052e-05 -0.000136332 -0.000220398 -3.80702e-05 0.00141109 0.00691134 0.0227515 0.0607994 0.139979 0.285731 0.526246 0.88549 1.37479 1.98604 2.68957 3.43793 4.17456 4.84477 5.40549 5.83161 6.11769 6.27584 6.33094 6.31477 6.26048 6.19796 6.15056 6.13309 6.15056 6.19796 6.26048 6.31477 6.33094 6.27584 6.11769 5.83161 5.40549 4.84477 4.17456 3.43793 2.68957 1.98604 1.37479 0.88549 0.526246 0.285731 0.139979 0.0607994 0.0227515 0.00691134 0.00141109 -3.80702e-05 -0.000220398 -0.000136332 -5.58052e-05 -1.57482e-05 -1.97059e-06 7.77351e-07 5.59993e-07 1.54802e-07 6.93053e-09 -1.07625e-08 -3.90141e-09 -3.23715e-10 1.8267e-10 6.51099e-11 3.61065e-12 -2.94109e-12 -7.64935e-13 9.91676e-15 3.83373e-14 5.66015e-15 -8.09539e-16 -3.47289e-16 -1.44099e-17 1.12222e-17 1.85169e-18 -1.77444e-19 -8.00387e-20 -2.4953e-21 2.19689e-21 2.74566e-22 -3.8038e-23 -1.06377e-23 1.54514e-25 2.81499e-25 1.65882e-26 -5.52654e-27 -7.46456e-28 7.55639e-29 2.06656e-29 -3.77671e-31 -4.4004e-31 -1.60823e-32 7.59054e-33 6.72632e-34 -1.054e-34 -1.66174e-35 1.0786e-36 3.22303e-37 -4.45102e-39 -5.26018e-39 -1.27046e-40 7.51107e-41 4.78288e-42 -7.60491e-43 -5.03979e-44 0 0 0 0 0 0 0 0 0 0 0 0 0 0 0 0 0 0 0 0 
0 0 0 0 0 0 0 0 0 0 0 0 0 0 0 0 0 0 0 0 -8.39508e-45 -5.05379e-43 1.72826e-42 4.92311e-41 2.02111e-41 -3.23658e-39 -9.10496e-39 1.85039e-37 1.0263e-36 -8.68274e-36 -8.28516e-35 2.87761e-34 5.40024e-33 -1.46739e-33 -2.90582e-31 -7.10216e-31 1.26125e-29 6.95025e-29 -3.99935e-28 -4.31504e-27 5.31581e-27 2.00631e-25 3.7018e-25 -6.95146e-24 -3.53224e-23 1.52532e-22 1.74672e-21 1.45325e-22 -5.80821e-20 -1.90289e-19 1.18392e-18 9.52704e-18 -2.23365e-18 -2.67369e-16 -8.46125e-16 3.76255e-15 3.3103e-14 3.09064e-14 -6.00772e-13 -2.78201e-12 1.47134e-12 5.5966e-11 1.8306e-10 -2.10076e-10 -3.56497e-09 -1.08848e-08 3.93447e-09 1.49278e-07 5.68217e-07 8.03102e-07 -2.17706e-06 -1.72447e-05 -6.02183e-05 -0.000138758 -0.000173062 0.000283024 0.00279972 0.0116777 0.0365674 0.0955593 0.217126 0.438499 0.798522 1.3253 2.02224 2.8584 3.76822 4.6622 5.44542 6.0374 6.38764 6.4823 6.34229 6.01499 5.56297 5.05312 4.54811 4.10115 3.75343 3.53362 3.45855 3.53362 3.75343 4.10115 4.54811 5.05312 5.56297 6.01499 6.34229 6.4823 6.38764 6.0374 5.44542 4.6622 3.76822 2.8584 2.02224 1.3253 0.798522 0.438499 0.217126 0.0955593 0.0365674 0.0116777 0.00279972 0.000283024 -0.000173062 -0.000138758 -6.02183e-05 -1.72447e-05 -2.17706e-06 8.03102e-07 5.68217e-07 1.49278e-07 3.93447e-09 -1.08848e-08 -3.56497e-09 -2.10076e-10 1.8306e-10 5.5966e-11 1.47134e-12 -2.78201e-12 -6.00772e-13 3.09064e-14 3.3103e-14 3.76255e-15 -8.46125e-16 -2.67369e-16 -2.23365e-18 9.52704e-18 1.18392e-18 -1.90289e-19 -5.80821e-20 1.45325e-22 1.74672e-21 1.52532e-22 -3.53224e-23 -6.95146e-24 3.7018e-25 2.00631e-25 5.31581e-27 -4.31504e-27 -3.99935e-28 6.95025e-29 1.26125e-29 -7.10216e-31 -2.90582e-31 -1.46739e-33 5.40024e-33 2.87761e-34 -8.28517e-35 -8.68273e-36 1.02631e-36 1.8468e-37 -9.08101e-39 -3.22891e-39 2.01817e-41 4.91022e-41 1.71286e-42 -5.05379e-43 -8.39508e-45 0 0 0 0 0 0 0 0 0 0 0 0 0 0 0 0 0 0 0 
0 0 0 0 0 0 0 0 0 0 0 0 0 0 0 0 0 0 0 -0 -2.67243e-43 3.12187e-43 2.95135e-41 7.43615e-41 -1.81004e-39 -9.27506e-39 9.49841e-38 8.20668e-37 -3.80887e-36 -5.8921e-35 7.19178e-35 3.5411e-33 5.31961e-33 -1.76586e-31 -7.54392e-31 6.92253e-30 5.6385e-29 -1.73962e-28 -3.11337e-27 -1.09323e-27 1.32669e-25 4.36066e-25 -4.12282e-24 -2.96299e-23 6.6967e-23 1.29689e-21 1.6688e-21 -3.90641e-20 -1.79611e-19 6.55288e-19 7.59563e-18 6.01396e-18 -1.91868e-16 -8.09388e-16 2.12574e-15 2.70519e-14 4.54362e-14 -4.3517e-13 -2.51014e-12 -4.88693e-13 4.51975e-11 1.76857e-10 -8.35793e-11 -3.07755e-09 -1.07394e-08 -4.45156e-10 1.34908e-07 5.59811e-07 8.62925e-07 -2.07465e-06 -1.77486e-05 -6.28361e-05 -0.000140192 -0.000130445 0.000591391 0.00421104 0.0167447 0.0517752 0.134817 0.305744 0.615394 1.11326 1.82718 2.74167 3.78549 4.83683 5.74707 6.37556 6.62248 6.44886 5.87956 4.99048 3.88745 2.6842 1.48502 0.374109 -0.5876 -1.36077 -1.92301 -2.26322 -2.37699 -2.26322 -1.92301 -1.36077 -0.5876 0.374109 1.48502 2.6842 3.88745 4.99048 5.87956 6.44886 6.62248 6.37556 5.74707 4.83683 3.78549 2.74167 1.82718 1.11326 0.615394 0.305744 0.134817 0.0517752 0.0167447 0.00421104 0.000591391 -0.000130445 -0.000140192 -6.28361e-05 -1.77486e-05 -2.07465e-06 8.62925e-07 5.59811e-07 1.34908e-07 -4.45156e-10 -1.07394e-08 -3.07755e-09 -8.35793e-11 1.76857e-10 4.51975e-11 -4.88693e-13 -2.51014e-12 -4.3517e-13 4.54362e-14 2.70519e-14 2.12574e-15 -8.09388e-16 -1.91868e-16 6.01396e-18 7.59563e-18 6.55288e-19 -1.79611e-19 -3.90641e-20 1.6688e-21 1.29689e-21 6.6967e-23 -2.96299e-23 -4.12282e-24 4.36066e-25 1.32669e-25 -1.09323e-27 -3.11337e-27 -1.73962e-28 5.6385e-29 6.92253e-30 -7.54392e-31 -1.76586e-31 5.31961e-33 3.5411e-33 7.19178e-35 -5.8921e-35 -3.80911e-36 8.18117e-37 9.46956e-38 -9.25674e-39 -1.80593e-39 7.4178e-41 2.94701e-41 2.71589e-43 -2.77038e-43 -0 0 0 0 0 0 0 0 0 0 0 0 0 0 0 0 0 0 0 
0 0 0 0 0 0 0 0 0 0 0 0 0 0 0 0 0 0 -0 -1.27241e-43 -2.95227e-43 1.60419e-41 7.90182e-41 -8.9966e-40 -7.48197e-39 4.11889e-38 5.80821e-37 -1.13125e-36 -3.82028e-35 -3.03087e-35 2.12685e-33 7.26757e-33 -9.69342e-32 -6.4631e-31 3.24499e-30 4.1336e-29 -4.25474e-29 -2.07127e-27 -3.97957e-27 8.031e-26 4.06437e-25 -2.12944e-24 -2.27285e-23 1.34885e-23 8.9322e-22 2.29665e-21 -2.3872e-20 -1.53235e-19 2.75296e-19 5.65022e-18 1.04899e-17 -1.2608e-16 -7.13152e-16 8.50205e-16 2.07218e-14 5.24301e-14 -2.82552e-13 -2.14031e-12 -2.02491e-12 3.37797e-11 1.62765e-10 3.63968e-11 -2.48122e-09 -1.02102e-08 -5.36734e-09 1.13162e-07 5.32546e-07 9.43955e-07 -1.66821e-06 -1.71979e-05 -6.38412e-05 -0.00014418 -0.000114506 0.000792929 0.0053235 0.0211914 0.0661106 0.173713 0.396566 0.800371 1.44456 2.35104 3.47252 4.67803 5.76912 6.52572 6.76543 6.39201 5.41651 3.94559 2.1473 0.208524 -1.70157 -3.45432 -4.96951 -6.21135 -7.17776 -7.88723 -8.36685 -8.64245 -8.7322 -8.64245 -8.36685 -7.88723 -7.17776 -6.21135 -4.96951 -3.45432 -1.70157 0.208524 2.1473 3.94559 5.41651 6.39201 6.76543 6.52572 5.76912 4.67803 3.47252 2.35104 1.44456 0.800371 0.396566 0.173713 0.0661106 0.0211914 0.0053235 0.000792929 -0.000114506 -0.00014418 -6.38412e-05 -1.71979e-05 -1.66821e-06 9.43955e-07 5.32546e-07 1.13162e-07 -5.36734e-09 -1.02102e-08 -2.48122e-09 3.63968e-11 1.62765e-10 3.37797e-11 -2.02491e-12 -2.14031e-12 -2.82552e-13 5.24301e-14 2.07218e-14 8.50205e-16 -7.13152e-16 -1.2608e-16 1.04899e-17 5.65022e-18 2.75296e-19 -1.53235e-19 -2.3872e-20 2.29665e-21 8.9322e-22 1.34885e-23 -2.27285e-23 -2.12944e-24 4.06437e-25 8.031e-26 -3.97957e-27 -2.07127e-27 -4.25474e-29 4.1336e-29 3.24499e-30 -6.4631e-31 -9.69342e-32 7.26757e-33 2.12685e-33 -3.03088e-35 -3.82041e-35 -1.13273e-36 5.7914e-37 4.10769e-38 -7.46446e-39 -8.97498e-40 7.88376e-41 1.60293e-41 -2.95227e-43 -1.27241e-43 -0 0 0 0 0 0 0 0 0 0 0 0 0 0 0 0 0 0 
0 0 0 0 0 0 0 0 0 0 0 0 0 0 0 0 0 -0 -5.02974e-44 -3.6774e-43 7.80183e-42 6.29792e-41 -3.74912e-40 -5.21423e-39 1.25503e-38 3.7015e-37 1.20121e-37 -2.2527e-35 -6.43638e-35 1.15232e-33 6.66679e-33 -4.62269e-32 -4.8274e-31 1.11147e-30 2.76003e-29 2.19075e-29 -1.26055e-27 -4.61621e-27 4.3417e-26 3.28481e-25 -8.5894e-25 -1.59937e-23 -1.47244e-23 5.64415e-22 2.30071e-21 -1.27639e-20 -1.19382e-19 3.39328e-20 3.88572e-18 1.18328e-17 -7.35412e-17 -5.795e-16 -2.44904e-17 1.46969e-14 5.22281e-14 -1.54898e-13 -1.70829e-12 -2.98647e-12 2.28077e-11 1.41193e-10 1.32719e-10 -1.83495e-09 -9.24114e-09 -9.90679e-09 8.63339e-08 4.84405e-07 1.02106e-06 -1.0078e-06 -1.55312e-05 -6.27592e-05 -0.000150725 -0.000135286 0.000822463 0.00586277 0.0241186 0.0771426 0.20667 0.478534 0.974137 1.76228 2.85384 4.15741 5.46405 6.48173 6.91472 6.55671 5.35632 3.42907 1.01589 -1.58833 -4.10699 -6.33211 -8.14526 -9.51297 -10.466 -11.0745 -11.4242 -11.5989 -11.6703 -11.6916 -11.6951 -11.6916 -11.6703 -11.5989 -11.4242 -11.0745 -10.466 -9.51297 -8.14526 -6.33211 -4.10699 -1.58833 1.01589 3.42907 5.35632 6.55671 6.91472 6.48173 5.46405 4.15741 2.85384 1.76228 0.974137 0.478534 0.20667 0.0771426 0.0241186 0.00586277 0.000822463 -0.000135286 -0.000150725 -6.27592e-05 -1.55312e-05 -1.0078e-06 1.02106e-06 4.84405e-07 8.63339e-08 -9.90679e-09 -9.24114e-09 -1.83495e-09 1.32719e-10 1.41193e-10 2.28077e-11 -2.98647e-12 -1.70829e-12 -1.54898e-13 5.22281e-14 1.46969e-14 -2.44904e-17 -5.795e-16 -7.35412e-17 1.18328e-17 3.88572e-18 3.39328e-20 -1.19382e-19 -1.27639e-20 2.30071e-21 5.64415e-22 -1.47244e-23 -1.59937e-23 -8.5894e-25 3.28481e-25 4.3417e-26 -4.61621e-27 -1.26055e-27 2.19075e-29 2.76003e-29 1.11147e-30 -4.8274e-31 -4.62269e-32 6.66679e-33 1.15232e-33 -6.43631e-35 -2.24763e-35 1.20075e-37 3.69297e-37 1.25225e-38 -5.20176e-39 -3.74096e-40 6.28056e-41 7.78784e-42 -3.6774e-43 -5.02974e-44 -0 0 0 0 0 0 0 0 0 0 0 0 0 0 0 0 0 
0 0 0 0 0 0 0 0 0 0 0 0 0 0 0 0 0 -4.18765e-45 -2.83622e-43 3.30546e-42 4.25981e-41 -1.08224e-40 -3.22437e-39 -3.6219e-40 2.126e-37 5.46928e-37 -1.19246e-35 -6.33721e-35 5.44602e-34 5.06799e-33 -1.72513e-32 -3.22631e-31 4.45e-32 1.67575e-29 4.42373e-29 -6.90107e-28 -4.05033e-27 1.98554e-26 2.37381e-25 -1.48385e-25 -1.02925e-23 -2.53193e-23 3.20961e-22 1.94756e-21 -5.43698e-21 -8.51154e-20 -9.33153e-20 2.4363e-18 1.09682e-17 -3.55648e-17 -4.33274e-16 -5.20527e-16 9.48496e-15 4.63909e-14 -5.95298e-14 -1.26267e-12 -3.34342e-12 1.32854e-11 1.14255e-10 1.93939e-10 -1.20625e-09 -7.86295e-09 -1.32158e-08 5.75084e-08 4.15335e-07 1.06048e-06 -2.05799e-07 -1.28101e-05 -5.87531e-05 -0.00015605 -0.000185702 0.000670616 0.00569752 0.0249188 0.0828994 0.228631 0.540921 1.1175 2.0371 3.29713 4.75347 6.10505 6.95421 6.93282 5.83958 3.72059 0.856907 -2.32905 -5.3998 -8.00886 -9.95693 -11.195 -11.7905 -11.8796 -11.6227 -11.1725 -10.6565 -10.1711 -9.78344 -9.53567 -9.45081 -9.53567 -9.78344 -10.1711 -10.6565 -11.1725 -11.6227 -11.8796 -11.7905 -11.195 -9.95693 -8.00886 -5.3998 -2.32905 0.856907 3.72059 5.83958 6.93282 6.95421 6.10505 4.75347 3.29713 2.0371 1.1175 0.540921 0.228631 0.0828994 0.0249188 0.00569752 0.000670616 -0.000185702 -0.00015605 -5.87531e-05 -1.28101e-05 -2.05799e-07 1.06048e-06 4.15335e-07 5.75084e-08 -1.32158e-08 -7.86295e-09 -1.20625e-09 1.93939e-10 1.14255e-10 1.32854e-11 -3.34342e-12 -1.26267e-12 -5.95298e-14 4.63909e-14 9.48496e-15 -5.20527e-16 -4.33274e-16 -3.55648e-17 1.09682e-17 2.4363e-18 -9.33153e-20 -8.51154e-20 -5.43698e-21 1.94756e-21 3.20961e-22 -2.53193e-23 -1.02925e-23 -1.48385e-25 2.37381e-25 1.98554e-26 -4.05033e-27 -6.90107e-28 4.42373e-29 1.67575e-29 4.45e-32 -3.22631e-31 -1.72514e-32 5.06799e-33 5.44632e-34 -6.31453e-35 -1.18889e-35 5.46047e-37 2.12106e-37 -3.62051e-40 -3.21695e-39 -1.08006e-40 4.24903e-41 3.30546e-42 -2.83622e-43 -4.18765e-45 0 0 0 0 0 0 0 0 0 0 0 0 0 0 0 0 
0 0 0 0 0 0 0 0 0 0 0 0 0 0 0 0 -0 -1.1865e-43 1.1764e-42 2.53321e-41 4.74322e-42 -1.77627e-39 -4.57366e-39 1.08662e-37 5.65709e-37 -5.48847e-36 -4.8655e-35 2.05685e-34 3.37338e-33 -2.87733e-33 -1.94213e-31 -3.67157e-31 9.14871e-30 4.39025e-29 -3.27846e-28 -3.02912e-27 6.48253e-27 1.54967e-25 1.7594e-25 -5.99785e-24 -2.53675e-23 1.58048e-22 1.45666e-21 -1.19858e-21 -5.5346e-20 -1.38461e-19 1.36019e-18 8.88459e-18 -1.12717e-17 -2.96414e-16 -7.09537e-16 5.41064e-15 3.72007e-14 2.07026e-15 -8.52343e-13 -3.18142e-12 5.91691e-12 8.52322e-11 2.16374e-10 -6.59403e-10 -6.20073e-09 -1.47068e-08 3.03165e-08 3.29604e-07 1.03159e-06 5.72697e-07 -9.34521e-06 -5.13549e-05 -0.000154794 -0.00024498 0.000387258 0.00488504 0.023462 0.0823952 0.236211 0.575409 1.21444 2.24429 3.6511 5.23588 6.59719 7.22382 6.68121 4.80382 1.78827 -1.86411 -5.52052 -8.61408 -10.7826 -11.9113 -12.0936 -11.5489 -10.5394 -9.30721 -8.04247 -6.87478 -5.88092 -5.09831 -4.54009 -4.20713 -4.09662 -4.20713 -4.54009 -5.09831 -5.88092 -6.87478 -8.04247 -9.30721 -10.5394 -11.5489 -12.0936 -11.9113 -10.7826 -8.61408 -5.52052 -1.86411 1.78827 4.80382 6.68121 7.22382 6.59719 5.23588 3.6511 2.24429 1.21444 0.575409 0.236211 0.0823952 0.023462 0.00488504 0.000387258 -0.00024498 -0.000154794 -5.13549e-05 -9.34521e-06 5.72697e-07 1.03159e-06 3.29604e-07 3.03165e-08 -1.47068e-08 -6.20073e-09 -6.59403e-10 2.16374e-10 8.52322e-11 5.91691e-12 -3.18142e-12 -8.52343e-13 2.07026e-15 3.72007e-14 5.41064e-15 -7.09537e-16 -2.96414e-16 -1.12717e-17 8.88459e-18 1.36019e-18 -1.38461e-19 -5.5346e-20 -1.19858e-21 1.45666e-21 1.58048e-22 -2.53675e-23 -5.99785e-24 1.7594e-25 1.54967e-25 6.48253e-27 -3.02912e-27 -3.27846e-28 4.39025e-29 9.14871e-30 -3.67157e-31 -1.94212e-31 -2.87732e-33 3.37349e-33 2.05546e-34 -4.85149e-35 -5.4742e-36 5.64374e-37 1.08398e-37 -4.56406e-39 -1.77217e-39 4.73902e-42 2.53027e-41 1.16522e-42 -1.1865e-43 -0 0 0 0 0 0 0 0 0 0 0 0 0 0 0 0 
0 0 0 0 0 0 0 0 0 0 0 0 0 0 0 -0 -1.39445e-44 3.5595e-43 1.34615e-41 3.77849e-41 -8.60488e-40 -4.7172e-39 4.77614e-38 4.30762e-37 -2.0153e-36 -3.19836e-35 4.17133e-35 1.99915e-33 2.79067e-33 -1.04633e-31 -4.31538e-31 4.3695e-30 3.41958e-29 -1.22847e-28 -2.00364e-27 2.97773e-29 9.13204e-26 2.67745e-25 -3.09924e-24 -2.04463e-23 6.0969e-23 9.78486e-22 8.17627e-22 -3.25249e-20 -1.33746e-19 6.44301e-19 6.43222e-18 1.86257e-18 -1.83773e-16 -6.89532e-16 2.56608e-15 2.70206e-14 3.38299e-14 -5.14626e-13 -2.66629e-12 9.79537e-13 5.77293e-11 2.04385e-10 -2.42577e-10 -4.45656e-09 -1.42257e-08 8.24223e-09 2.36764e-07 9.22053e-07 1.1579e-06 -5.69406e-06 -4.10834e-05 -0.000143195 -0.000288669 6.00653e-05 0.00364703 0.0201285 0.0758843 0.228467 0.577626 1.25432 2.36593 3.89498 5.59393 6.9603 7.36335 6.30268 3.6704 -0.144941 -4.38226 -8.18992 -10.9109 -12.2442 -12.2456 -11.2159 -9.55361 -7.63411 -5.74222 -4.05393 -2.65107 -1.54902 -0.725132 -0.140593 0.244178 0.46133 0.531442 0.46133 0.244178 -0.140593 -0.725132 -1.54902 -2.65107 -4.05393 -5.74222 -7.63411 -9.55361 -11.2159 -12.2456 -12.2442 -10.9109 -8.18992 -4.38226 -0.144941 3.6704 6.30268 7.36335 6.9603 5.59393 3.89498 2.36593 1.25432 0.577626 0.228467 0.0758843 0.0201285 0.00364703 6.00653e-05 -0.000288669 -0.000143195 -4.10834e-05 -5.69406e-06 1.1579e-06 9.22053e-07 2.36764e-07 8.24223e-09 -1.42257e-08 -4.45656e-09 -2.42577e-10 2.04385e-10 5.77293e-11 9.79537e-13 -2.66629e-12 -5.14626e-13 3.38299e-14 2.70206e-14 2.56608e-15 -6.89532e-16 -1.83773e-16 1.86257e-18 6.43222e-18 6.44301e-19 -1.33746e-19 -3.25249e-20 8.17627e-22 9.78486e-22 6.0969e-23 -2.04463e-23 -3.09924e-24 2.67745e-25 9.13204e-26 2.97773e-29 -2.00364e-27 -1.22847e-28 3.41958e-29 4.3695e-30 -4.31538e-31 -1.04633e-31 2.79049e-33 1.9943e-33 4.15652e-35 -3.19107e-35 -2.01065e-36 4.29725e-37 4.76456e-38 -4.70663e-39 -8.58498e-40 3.77346e-41 1.34266e-41 3.5595e-43 -1.39445e-44 -0 0 0 0 0 0 0 0 0 0 0 0 0 0 0 
0 0 0 0 0 0 0 0 0 0 0 0 0 0 -0 -0 7.39058e-44 6.25076e-42 3.64824e-41 -3.52261e-40 -3.46263e-39 1.64037e-38 2.74948e-37 -4.00995e-37 -1.84832e-35 -2.16806e-35 1.05258e-33 3.97592e-33 -4.93018e-32 -3.49994e-31 1.70108e-30 2.28665e-29 -2.26935e-29 -1.18563e-27 -2.29858e-27 4.8044e-26 2.43612e-25 -1.35371e-24 -1.42828e-23 1.10557e-23 5.92849e-22 1.45041e-21 -1.69582e-20 -1.05892e-19 2.25318e-19 4.19676e-18 7.14288e-18 -1.01566e-16 -5.5896e-16 8.32916e-16 1.77422e-14 4.33018e-14 -2.68049e-13 -1.99293e-12 -1.69243e-12 3.477e-11 1.68759e-10 2.35438e-11 -2.85978e-09 -1.21272e-08 -6.41267e-09 1.49604e-07 7.46638e-07 1.44117e-06 -2.49197e-06 -2.94862e-05 -0.000121322 -0.000299743 -0.000220983 0.00228721 0.0156768 0.0647652 0.207072 0.547915 1.2333 2.39185 4.01535 5.82358 7.22142 7.45305 5.9414 2.63723 -1.85776 -6.49852 -10.2183 -12.3175 -12.6338 -11.4662 -9.36005 -6.88259 -4.47627 -2.40607 -0.777046 0.416435 1.23987 1.77812 2.11269 2.31006 2.41922 2.47258 2.48855 2.47258 2.41922 2.31006 2.11269 1.77812 1.23987 0.416435 -0.777046 -2.40607 -4.47627 -6.88259 -9.36005 -11.4662 -12.6338 -12.3175 -10.2183 -6.49852 -1.85776 2.63723 5.9414 7.45305 7.22142 5.82358 4.01535 2.39185 1.2333 0.547915 0.207072 0.0647652 0.0156768 0.00228721 -0.000220983 -0.000299743 -0.000121322 -2.94862e-05 -2.49197e-06 1.44117e-06 7.46638e-07 1.49604e-07 -6.41267e-09 -1.21272e-08 -2.85978e-09 2.35438e-11 1.68759e-10 3.477e-11 -1.69243e-12 -1.99293e-12 -2.68049e-13 4.33018e-14 1.77422e-14 8.32916e-16 -5.5896e-16 -1.01566e-16 7.14288e-18 4.19676e-18 2.25318e-19 -1.05892e-19 -1.69582e-20 1.45041e-21 5.92849e-22 1.10557e-23 -1.42828e-23 -1.35371e-24 2.43612e-25 4.8044e-26 -2.29858e-27 -1.18563e-27 -2.26935e-29 2.28665e-29 1.70108e-30 -3.49994e-31 -4.93044e-32 3.9598e-33 1.04942e-33 -2.16651e-35 -1.84399e-35 -3.99965e-37 2.74305e-37 1.63643e-38 -3.45475e-39 -3.51328e-40 3.64321e-41 6.22843e-42 7.39058e-44 -0 -0 0 0 0 0 0 0 0 0 0 0 0 0 0 
0 0 0 0 0 0 0 0 0 0 0 0 0 -0 -0 4.17854e-45 2.53092e-42 2.51482e-41 -1.07866e-40 -2.10051e-39 2.72305e-39 1.52195e-37 1.89611e-37 -9.38892e-36 -3.5305e-35 4.81846e-34 3.31443e-33 -1.90842e-32 -2.35159e-31 4.08862e-31 1.35023e-29 1.61315e-29 -6.25767e-28 -2.54629e-27 2.19184e-26 1.79039e-25 -4.30858e-25 -8.88114e-24 -9.3932e-24 3.22635e-22 1.37169e-21 -7.53184e-21 -7.31385e-20 1.79394e-20 2.47112e-18 7.78858e-18 -4.85146e-17 -3.96621e-16 -4.36644e-17 1.04785e-14 3.9288e-14 -1.11248e-13 -1.33437e-12 -2.61311e-12 1.80522e-11 1.2328e-10 1.50604e-10 -1.59526e-09 -9.15527e-09 -1.333e-08 7.9603e-08 5.42294e-07 1.41766e-06 -2.09034e-07 -1.8561e-05 -9.30998e-05 -0.000275049 -0.000396117 0.0010872 0.0110007 0.0511692 0.175874 0.491227 1.15481 2.32022 4.00458 5.92028 7.39908 7.55718 5.71467 1.85378 -3.21574 -8.15228 -11.6728 -13.0685 -12.3723 -10.173 -7.26505 -4.34531 -1.8585 0.012822 1.2772 2.04379 2.45156 2.62715 2.66836 2.64268 2.59296 2.54437 2.51074 2.49888 2.51074 2.54437 2.59296 2.64268 2.66836 2.62715 2.45156 2.04379 1.2772 0.012822 -1.8585 -4.34531 -7.26505 -10.173 -12.3723 -13.0685 -11.6728 -8.15228 -3.21574 1.85378 5.71467 7.55718 7.39908 5.92028 4.00458 2.32022 1.15481 0.491227 0.175874 0.0511692 0.0110007 0.0010872 -0.000396117 -0.000275049 -9.30998e-05 -1.8561e-05 -2.09034e-07 1.41766e-06 5.42294e-07 7.9603e-08 -1.333e-08 -9.15527e-09 -1.59526e-09 1.50604e-10 1.2328e-10 1.80522e-11 -2.61311e-12 -1.33437e-12 -1.11248e-13 3.9288e-14 1.04785e-14 -4.36644e-17 -3.96621e-16 -4.85146e-17 7.78858e-18 2.47112e-18 1.79394e-20 -7.31385e-20 -7.53184e-21 1.37169e-21 3.22635e-22 -9.3932e-24 -8.88114e-24 -4.30858e-25 1.79039e-25 2.19184e-26 -2.54629e-27 -6.25767e-28 1.61315e-29 1.35023e-29 4.08861e-31 -2.35165e-31 -1.90625e-32 3.30487e-33 4.80606e-34 -3.52215e-35 -9.36599e-36 1.8925e-37 1.51842e-37 2.71607e-39 -2.09574e-39 -1.07518e-40 2.51133e-41 2.51977e-42 4.17854e-45 -0 -0 0 0 0 0 0 0 0 0 0 0 0 0 
0 0 0 0 0 0 0 0 0 0 0 0 0 -0 -0 8.45458e-43 1.4268e-41 -1.06366e-41 -1.09201e-39 -1.80457e-39 7.30921e-38 3.00765e-37 -4.09247e-36 -2.93285e-35 1.79721e-34 2.21132e-33 -4.79461e-33 -1.37426e-31 -9.8523e-32 7.07096e-30 2.42925e-29 -2.88652e-28 -1.99202e-27 7.98928e-27 1.14257e-25 -1.96804e-26 -4.95909e-24 -1.41579e-23 1.55261e-22 1.03126e-21 -2.5305e-21 -4.52293e-20 -6.0015e-20 1.30901e-18 6.3358e-18 -1.86202e-17 -2.52041e-16 -3.63268e-16 5.53437e-15 2.96234e-14 -2.73741e-14 -8.03788e-13 -2.46134e-12 7.6419e-12 8.03322e-11 1.76194e-10 -7.43441e-10 -6.14727e-09 -1.41498e-08 3.25671e-08 3.51468e-07 1.17743e-06 1.01564e-06 -9.92988e-06 -6.43322e-05 -0.00022445 -0.000451179 0.000224247 0.00686833 0.0373737 0.139948 0.416116 1.02919 2.15815 3.86113 5.87556 7.49337 7.70795 5.69892 1.42071 -4.14695 -9.36166 -12.7027 -13.4505 -11.8578 -8.82278 -5.3779 -2.3036 0.0102027 1.50701 2.32488 2.66707 2.72165 2.62906 2.47887 2.32176 2.1827 2.07211 1.99315 1.94609 1.93045 1.94609 1.99315 2.07211 2.1827 2.32176 2.47887 2.62906 2.72165 2.66707 2.32488 1.50701 0.0102027 -2.3036 -5.3779 -8.82278 -11.8578 -13.4505 -12.7027 -9.36166 -4.14695 1.42071 5.69892 7.70795 7.49337 5.87556 3.86113 2.15815 1.02919 0.416116 0.139948 0.0373737 0.00686833 0.000224247 -0.000451179 -0.00022445 -6.43322e-05 -9.92988e-06 1.01564e-06 1.17743e-06 3.51468e-07 3.25671e-08 -1.41498e-08 -6.14727e-09 -7.43441e-10 1.76194e-10 8.03322e-11 7.6419e-12 -2.46134e-12 -8.03788e-13 -2.73741e-14 2.96234e-14 5.53437e-15 -3.63268e-16 -2.52041e-16 -1.86202e-17 6.3358e-18 1.30901e-18 -6.0015e-20 -4.52293e-20 -2.5305e-21 1.03126e-21 1.55261e-22 -1.41579e-23 -4.95909e-24 -1.96804e-26 1.14257e-25 7.98928e-27 -1.99202e-27 -2.88652e-28 2.42925e-29 7.07095e-30 -9.85062e-32 -1.3708e-31 -4.77883e-33 2.20628e-33 1.793e-34 -2.92575e-35 -4.08253e-36 3.00091e-37 7.29226e-38 -1.80082e-39 -1.08945e-39 -1.05961e-41 1.42345e-41 8.41279e-43 -0 -0 0 0 0 0 0 0 0 0 0 0 0 0 
0 0 0 0 0 0 0 0 0 0 0 0 -0 -0 2.11444e-43 6.89459e-42 1.66692e-41 -4.84871e-40 -2.3885e-39 2.95366e-38 2.3824e-37 -1.41641e-36 -1.89955e-35 4.22671e-35 1.26326e-33 6.96545e-34 -7.05735e-32 -2.21905e-31 3.22983e-30 2.02823e-29 -1.09396e-28 -1.30318e-27 1.58763e-27 6.49261e-26 1.16241e-25 -2.47715e-24 -1.22585e-23 6.32777e-23 6.74183e-22 -2.79448e-22 -2.53993e-20 -7.2262e-20 6.1816e-19 4.40355e-18 -4.26721e-18 -1.46094e-16 -3.9114e-16 2.60196e-15 1.97004e-14 7.77825e-15 -4.40987e-13 -1.86653e-12 2.2671e-12 4.7414e-11 1.47651e-10 -2.68064e-10 -3.71565e-09 -1.15609e-08 7.20228e-09 2.04121e-07 8.52259e-07 1.36785e-06 -4.27103e-06 -4.00606e-05 -0.000164255 -0.000411734 -0.000259274 0.00373958 0.0252329 0.104388 0.332999 0.872225 1.92188 3.59182 5.67929 7.48357 7.89779 5.92316 1.39751 -4.60742 -10.1596 -13.4519 -13.7035 -11.372 -7.67065 -3.86318 -0.785541 1.26058 2.36168 2.77935 2.78892 2.60141 2.34934 2.10239 1.88986 1.71972 1.59009 1.49621 1.43283 1.39636 1.38453 1.39636 1.43283 1.49621 1.59009 1.71972 1.88986 2.10239 2.34934 2.60141 2.78892 2.77935 2.36168 1.26058 -0.785541 -3.86318 -7.67065 -11.372 -13.7035 -13.4519 -10.1596 -4.60742 1.39751 5.92316 7.89779 7.48357 5.67929 3.59182 1.92188 0.872225 0.332999 0.104388 0.0252329 0.00373958 -0.000259274 -0.000411734 -0.000164255 -4.00606e-05 -4.27103e-06 1.36785e-06 8.52259e-07 2.04121e-07 7.20228e-09 -1.15609e-08 -3.71565e-09 -2.68064e-10 1.47651e-10 4.7414e-11 2.2671e-12 -1.86653e-12 -4.40987e-13 7.77825e-15 1.97004e-14 2.60196e-15 -3.9114e-16 -1.46094e-16 -4.26721e-18 4.40355e-18 6.1816e-19 -7.2262e-20 -2.53993e-20 -2.79448e-22 6.74183e-22 6.32777e-23 -1.22585e-23 -2.47715e-24 1.16241e-25 6.49261e-26 1.58763e-27 -1.30318e-27 -1.09396e-28 2.02823e-29 3.23e-30 -2.20937e-31 -7.03612e-32 6.97285e-34 1.26027e-33 4.21603e-35 -1.89508e-35 -1.41301e-36 2.37697e-37 2.94682e-38 -2.38321e-39 -4.83773e-40 1.65981e-41 6.87787e-42 2.11444e-43 -0 -0 0 0 0 0 0 0 0 0 0 0 0 
0 0 0 0 0 0 0 0 0 0 0 -0 -0 2.50046e-44 2.83223e-42 1.71459e-41 -1.75724e-40 -1.72969e-39 9.02235e-39 1.4563e-37 -2.74317e-37 -1.03709e-35 -7.67836e-36 6.255e-34 2.02019e-33 -3.13032e-32 -1.9386e-31 1.213e-30 1.34974e-29 -2.66028e-29 -7.47532e-28 -7.65005e-28 3.29786e-26 1.28298e-25 -1.0805e-24 -8.61382e-24 1.87283e-23 3.97683e-22 5.06379e-22 -1.30453e-20 -5.93421e-20 2.52467e-19 2.76998e-18 1.33258e-18 -7.88381e-17 -3.11401e-16 1.07696e-15 1.20794e-14 1.7085e-14 -2.26367e-13 -1.25169e-12 7.36111e-14 2.61965e-11 1.04433e-10 -5.69921e-11 -2.0858e-09 -8.07234e-09 -2.7629e-09 1.08959e-07 5.53779e-07 1.20581e-06 -1.28607e-06 -2.2798e-05 -0.000109307 -0.000322733 -0.000431244 0.00171619 0.0158119 0.0732059 0.252015 0.70259 1.63574 3.21476 5.32632 7.33436 8.07948 6.36465 1.80604 -4.55802 -10.5502 -14.01 -13.9879 -11.0841 -6.82586 -2.72416 0.325662 2.1155 2.87427 2.97377 2.74127 2.39354 2.04634 1.74765 1.50948 1.32816 1.19476 1.09984 1.0351 0.993675 0.970905 0.963721 0.970905 0.993675 1.0351 1.09984 1.19476 1.32816 1.50948 1.74765 2.04634 2.39354 2.74127 2.97377 2.87427 2.1155 0.325662 -2.72416 -6.82586 -11.0841 -13.9879 -14.01 -10.5502 -4.55802 1.80604 6.36465 8.07948 7.33436 5.32632 3.21476 1.63574 0.70259 0.252015 0.0732059 0.0158119 0.00171619 -0.000431244 -0.000322733 -0.000109307 -2.2798e-05 -1.28607e-06 1.20581e-06 5.53779e-07 1.08959e-07 -2.7629e-09 -8.07234e-09 -2.0858e-09 -5.69921e-11 1.04433e-10 2.61965e-11 7.36111e-14 -1.25169e-12 -2.26367e-13 1.7085e-14 1.20794e-14 1.07696e-15 -3.11401e-16 -7.88381e-17 1.33258e-18 2.76998e-18 2.52467e-19 -5.93421e-20 -1.30453e-20 5.06379e-22 3.97683e-22 1.87283e-23 -8.61382e-24 -1.0805e-24 1.28298e-25 3.29786e-26 -7.65005e-28 -7.47532e-28 -2.66027e-29 1.34978e-29 1.21148e-30 -1.93293e-31 -3.12221e-32 2.01537e-33 6.23963e-34 -7.66526e-36 -1.03467e-35 -2.73641e-37 1.45299e-37 9.00142e-39 -1.7259e-39 -1.75373e-40 1.70958e-41 2.80998e-42 2.50046e-44 -0 -0 0 0 0 0 0 0 0 0 0 0 
0 0 0 0 0 0 0 0 0 0 0 -0 0 9.43228e-43 1.09993e-41 -4.36226e-41 -9.69922e-40 1.08013e-39 7.40479e-38 9.89911e-38 -4.82218e-36 -1.81365e-35 2.62209e-34 1.75596e-33 -1.11927e-32 -1.28836e-31 2.95554e-31 7.71555e-30 4.67882e-30 -3.79569e-28 -1.25246e-27 1.46773e-26 9.85552e-26 -3.77315e-25 -5.33217e-24 2.04325e-25 2.14908e-22 6.37743e-22 -6.07128e-21 -4.17483e-20 7.76909e-20 1.63309e-18 2.86872e-18 -4.01981e-17 -2.19838e-16 3.61533e-16 7.12232e-15 1.63709e-14 -1.12297e-13 -7.96105e-13 -5.82727e-13 1.42513e-11 6.8362e-11 1.35934e-11 -1.15169e-09 -5.19004e-09 -4.71273e-09 5.69002e-08 3.3786e-07 8.7223e-07 -1.08859e-07 -1.23449e-05 -6.79015e-05 -0.000226273 -0.000412124 0.000620621 0.00932067 0.0486472 0.181054 0.538457 1.32918 2.7606 4.82525 7.00923 8.17495 6.94641 2.62221 -3.96228 -10.4903 -14.3919 -14.3865 -11.0933 -6.33722 -1.92374 1.15019 2.75096 3.24263 3.09994 2.69306 2.23827 1.83254 1.50415 1.25117 1.06199 0.924023 0.826585 0.760836 0.719214 0.694956 0.682787 0.679142 0.682787 0.694956 0.719214 0.760836 0.826585 0.924023 1.06199 1.25117 1.50415 1.83254 2.23827 2.69306 3.09994 3.24263 2.75096 1.15019 -1.92374 -6.33722 -11.0933 -14.3865 -14.3919 -10.4903 -3.96228 2.62221 6.94641 8.17495 7.00923 4.82525 2.7606 1.32918 0.538457 0.181054 0.0486472 0.00932067 0.000620621 -0.000412124 -0.000226273 -6.79015e-05 -1.23449e-05 -1.08859e-07 8.7223e-07 3.3786e-07 5.69002e-08 -4.71273e-09 -5.19004e-09 -1.15169e-09 1.35934e-11 6.8362e-11 1.42513e-11 -5.82727e-13 -7.96105e-13 -1.12297e-13 1.63709e-14 7.12232e-15 3.61533e-16 -2.19838e-16 -4.01981e-17 2.86872e-18 1.63309e-18 7.76909e-20 -4.17483e-20 -6.07128e-21 6.37743e-22 2.14908e-22 2.04325e-25 -5.33217e-24 -3.77315e-25 9.85552e-26 1.46773e-26 -1.25246e-27 -3.79569e-28 4.67784e-30 7.69597e-30 2.94607e-31 -1.28537e-31 -1.11662e-32 1.75167e-33 2.6157e-34 -1.80954e-35 -4.81094e-36 9.87837e-38 7.38805e-38 1.07748e-39 -9.6775e-40 -4.3532e-41 1.09533e-41 9.43228e-43 0 -0 0 0 0 0 0 0 0 0 0 0 
0 0 0 0 0 0 0 0 0 0 -0 -0 2.37185e-43 5.49684e-42 6.74673e-43 -4.46534e-40 -1.08384e-39 3.13614e-38 1.52559e-37 -1.84117e-36 -1.46854e-35 8.46844e-35 1.12681e-33 -2.38382e-33 -7.18868e-32 -4.40656e-32 3.8369e-30 1.21663e-29 -1.66697e-28 -1.04898e-27 5.28317e-27 6.36385e-26 -6.45322e-26 -2.97629e-24 -5.73261e-24 1.05263e-22 5.3546e-22 -2.40236e-21 -2.68734e-20 1.52457e-21 9.1174e-19 2.86147e-18 -1.8968e-17 -1.47601e-16 4.01879e-17 4.12787e-15 1.34112e-14 -5.32558e-14 -5.06261e-13 -7.09594e-13 7.88629e-12 4.48061e-11 3.16926e-11 -6.61776e-10 -3.32896e-09 -4.07322e-09 3.15492e-08 2.06632e-07 5.77319e-07 1.73099e-07 -6.84263e-06 -4.11686e-05 -0.00014795 -0.000316608 0.000144649 0.00532078 0.0311083 0.124511 0.394144 1.03187 2.27024 4.20501 6.48812 8.09476 7.54161 3.76019 -2.80715 -9.8948 -14.5295 -14.9078 -11.4607 -6.25218 -1.45299 1.75012 3.25494 3.55261 3.22498 2.68935 2.16341 1.72698 1.38925 1.13402 0.941725 0.796511 0.687303 0.607196 0.551353 0.515341 0.4946 0.48449 0.481605 0.48449 0.4946 0.515341 0.551353 0.607196 0.687303 0.796511 0.941725 1.13402 1.38925 1.72698 2.16341 2.68935 3.22498 3.55261 3.25494 1.75012 -1.45299 -6.25218 -11.4607 -14.9078 -14.5295 -9.8948 -2.80715 3.76019 7.54161 8.09476 6.48812 4.20501 2.27024 1.03187 0.394144 0.124511 0.0311083 0.00532078 0.000144649 -0.000316608 -0.00014795 -4.11686e-05 -6.84263e-06 1.73099e-07 5.77319e-07 2.06632e-07 3.15492e-08 -4.07322e-09 -3.32896e-09 -6.61776e-10 3.16926e-11 4.48061e-11 7.88629e-12 -7.09594e-13 -5.06261e-13 -5.32558e-14 1.34112e-14 4.12787e-15 4.01879e-17 -1.47601e-16 -1.8968e-17 2.86147e-18 9.1174e-19 1.52457e-21 -2.68734e-20 -2.40236e-21 5.3546e-22 1.05263e-22 -5.73261e-24 -2.97629e-24 -6.45322e-26 6.36385e-26 5.28317e-27 -1.04898e-27 -1.66706e-28 1.21137e-29 3.82532e-30 -4.40829e-32 -7.17151e-32 -2.37788e-33 1.12413e-33 8.44814e-35 -1.46515e-35 -1.8369e-36 1.5222e-37 3.12909e-38 -1.08157e-39 -4.45598e-40 6.59371e-43 5.47739e-42 2.37185e-43 -0 -0 0 0 0 0 0 0 0 0 0 
0 0 0 0 0 0 0 0 0 -0 -0 4.29282e-44 2.31082e-42 9.21141e-42 -1.65893e-40 -1.12954e-39 1.03804e-38 1.08991e-37 -4.95956e-37 -8.7417e-36 1.25e-35 5.93334e-34 6.50805e-34 -3.40142e-32 -1.21217e-31 1.60621e-30 1.06196e-29 -5.75331e-29 -6.91241e-28 1.03229e-27 3.58836e-26 4.92751e-26 -1.47364e-24 -6.24993e-24 4.3891e-23 3.78528e-22 -5.96502e-22 -1.59288e-20 -2.67598e-20 4.67515e-19 2.3491e-18 -7.34879e-18 -9.5088e-17 -1.00666e-16 2.29083e-15 1.04938e-14 -2.07241e-14 -3.23195e-13 -7.08704e-13 4.24969e-12 3.04205e-11 3.80065e-11 -3.91146e-10 -2.25032e-09 -3.37745e-09 1.87505e-08 1.33885e-07 3.87269e-07 1.81206e-07 -4.13403e-06 -2.57093e-05 -9.51088e-05 -0.000219172 -8.34048e-06 0.00307263 0.0195983 0.0831393 0.277817 0.76817 1.78833 3.51511 5.78272 7.76553 7.99322 5.06159 -1.1402 -8.66735 -14.2732 -15.471 -12.2071 -6.63143 -1.34622 2.13259 3.65374 3.82334 3.34561 2.70175 2.1203 1.66787 1.33612 1.09485 0.914971 0.775076 0.661761 0.568122 0.491118 0.430143 0.384814 0.354335 0.337157 0.331625 0.337157 0.354335 0.384814 0.430143 0.491118 0.568122 0.661761 0.775076 0.914971 1.09485 1.33612 1.66787 2.1203 2.70175 3.34561 3.82334 3.65374 2.13259 -1.34622 -6.63143 -12.2071 -15.471 -14.2732 -8.66735 -1.1402 5.06159 7.99322 7.76553 5.78272 3.51511 1.78833 0.76817 0.277817 0.0831393 0.0195983 0.00307263 -8.34048e-06 -0.000219172 -9.51088e-05 -2.57093e-05 -4.13403e-06 1.81206e-07 3.87269e-07 1.33885e-07 1.87505e-08 -3.37745e-09 -2.25032e-09 -3.91146e-10 3.80065e-11 3.04205e-11 4.24969e-12 -7.08704e-13 -3.23195e-13 -2.07241e-14 1.04938e-14 2.29083e-15 -1.00666e-16 -9.5088e-17 -7.34879e-18 2.3491e-18 4.67515e-19 -2.67598e-20 -1.59288e-20 -5.96502e-22 3.78528e-22 4.3891e-23 -6.24993e-24 -1.47364e-24 4.92751e-26 3.58836e-26 1.03229e-27 -6.91264e-28 -5.74705e-29 1.0588e-29 1.602e-30 -1.20922e-31 -3.39304e-32 6.49448e-34 5.91939e-34 1.24697e-35 -8.72168e-36 -4.94814e-37 1.08748e-37 1.03573e-38 -1.12711e-39 -1.65569e-40 9.19335e-42 2.30249e-42 4.29282e-44 -0 -0 0 0 0 0 0 0 0 0 
0 0 0 0 0 0 0 0 0 -0 0 7.32549e-43 6.99486e-42 -4.38886e-41 -6.87387e-40 1.97294e-39 5.78909e-38 -1.31885e-38 -4.17919e-36 -8.89021e-36 2.56187e-34 1.17815e-33 -1.29464e-32 -1.01432e-31 4.94439e-31 6.8571e-30 -9.36009e-30 -3.8125e-28 -5.13321e-28 1.73128e-26 7.05038e-26 -6.02429e-25 -4.78056e-24 1.24007e-23 2.32472e-22 1.77868e-22 -8.3792e-21 -3.1538e-20 2.00813e-19 1.68979e-18 -1.23243e-18 -5.65393e-17 -1.46989e-16 1.1188e-15 7.74375e-15 -2.1837e-15 -1.96667e-13 -6.52074e-13 1.92157e-12 2.06246e-11 4.14158e-11 -2.14699e-10 -1.57481e-09 -3.07566e-09 1.06253e-08 9.12464e-08 2.81123e-07 1.85194e-07 -2.65581e-06 -1.69989e-05 -6.32738e-05 -0.000149501 -4.12935e-05 0.00185785 0.0124757 0.0549305 0.191045 0.552726 1.35409 2.81762 4.94283 7.15899 8.15073 6.30442 0.892128 -6.75852 -13.4173 -15.8849 -13.2803 -7.53382 -1.67406 2.26927 3.95311 4.06713 3.46058 2.70661 2.06177 1.58646 1.25836 1.03534 0.880119 0.765599 0.673676 0.593028 0.517576 0.445507 0.377776 0.31784 0.270105 0.239246 0.228456 0.239246 0.270105 0.31784 0.377776 0.445507 0.517576 0.593028 0.673676 0.765599 0.880119 1.03534 1.25836 1.58646 2.06177 2.70661 3.46058 4.06713 3.95311 2.26927 -1.67406 -7.53382 -13.2803 -15.8849 -13.4173 -6.75852 0.892128 6.30442 8.15073 7.15899 4.94283 2.81762 1.35409 0.552726 0.191045 0.0549305 0.0124757 0.00185785 -4.12935e-05 -0.000149501 -6.32738e-05 -1.69989e-05 -2.65581e-06 1.85194e-07 2.81123e-07 9.12464e-08 1.06253e-08 -3.07566e-09 -1.57481e-09 -2.14699e-10 4.14158e-11 2.06246e-11 1.92157e-12 -6.52074e-13 -1.96667e-13 -2.1837e-15 7.74375e-15 1.1188e-15 -1.46989e-16 -5.65393e-17 -1.23243e-18 1.68979e-18 2.00813e-19 -3.1538e-20 -8.3792e-21 1.77868e-22 2.32472e-22 1.24007e-23 -4.78056e-24 -6.02429e-25 7.05038e-26 1.73128e-26 -5.13287e-28 -3.80322e-28 -9.33094e-30 6.8408e-30 4.93277e-31 -1.01182e-31 -1.29149e-32 1.17542e-33 2.55589e-34 -8.87036e-36 -4.16973e-36 -1.31535e-38 5.77633e-38 1.96858e-39 -6.85906e-40 -4.37914e-41 6.99486e-42 7.32549e-43 0 -0 0 0 0 0 0 0 0 0 
0 0 0 0 0 0 0 0 -0 -0 1.61735e-43 3.54365e-42 -2.77409e-42 -3.13844e-40 -4.88324e-40 2.40549e-38 9.29517e-38 -1.5639e-36 -1.02516e-35 8.28071e-35 8.70017e-34 -3.16801e-33 -6.07249e-32 3.88854e-32 3.54832e-30 6.68354e-30 -1.7201e-28 -7.84265e-28 6.56258e-27 5.52555e-26 -1.5944e-25 -2.93559e-24 -1.13631e-24 1.20739e-22 3.90709e-22 -3.60108e-21 -2.53555e-20 5.45855e-20 1.04901e-18 1.43049e-18 -2.90096e-17 -1.36836e-16 3.98913e-16 5.13179e-15 6.85327e-15 -1.05213e-13 -5.34234e-13 4.46214e-13 1.29993e-11 3.99895e-11 -9.04933e-11 -1.06463e-09 -2.83962e-09 4.57309e-09 6.13405e-08 2.16062e-07 2.24065e-07 -1.63785e-06 -1.1608e-05 -4.43265e-05 -0.000107489 -5.18717e-05 0.00116394 0.00812811 0.0365469 0.130252 0.389151 0.993202 2.17286 4.0481 6.3095 7.91716 7.24519 3.03 -4.23952 -11.7684 -15.8493 -14.5055 -8.98012 -2.54082 2.08968 4.14183 4.30586 3.59929 2.72687 1.99943 1.48085 1.13746 0.917003 0.776732 0.686443 0.625403 0.578625 0.534832 0.486259 0.428883 0.363061 0.293895 0.231149 0.186712 0.17045 0.186712 0.231149 0.293895 0.363061 0.428883 0.486259 0.534832 0.578625 0.625403 0.686443 0.776732 0.917003 1.13746 1.48085 1.99943 2.72687 3.59929 4.30586 4.14183 2.08968 -2.54082 -8.98012 -14.5055 -15.8493 -11.7684 -4.23952 3.03 7.24519 7.91716 6.3095 4.0481 2.17286 0.993202 0.389151 0.130252 0.0365469 0.00812811 0.00116394 -5.18717e-05 -0.000107489 -4.43265e-05 -1.1608e-05 -1.63785e-06 2.24065e-07 2.16062e-07 6.13405e-08 4.57309e-09 -2.83962e-09 -1.06463e-09 -9.04933e-11 3.99895e-11 1.29993e-11 4.46214e-13 -5.34234e-13 -1.05213e-13 6.85327e-15 5.13179e-15 3.98913e-16 -1.36836e-16 -2.90096e-17 1.43049e-18 1.04901e-18 5.45855e-20 -2.53555e-20 -3.60108e-21 3.90709e-22 1.20739e-22 -1.13631e-24 -2.93559e-24 -1.5944e-25 5.52555e-26 6.56301e-27 -7.81377e-28 -1.71493e-28 6.6724e-30 3.53985e-30 3.8796e-32 -6.05795e-32 -3.16046e-33 8.67998e-34 8.26161e-35 -1.02285e-35 -1.56041e-36 9.27482e-38 2.40026e-38 -4.87272e-40 -3.13107e-40 -2.6978e-42 3.54365e-42 1.61735e-43 -0 -0 0 0 0 0 0 0 0 
0 0 0 0 0 0 0 -0 -0 1.37976e-44 1.34779e-42 5.5682e-42 -1.07275e-40 -7.22946e-40 7.24262e-39 7.41325e-38 -3.8223e-37 -6.32453e-36 1.21543e-35 4.57045e-34 2.92144e-34 -2.7977e-32 -8.52136e-32 1.42349e-30 8.30687e-30 -5.67254e-29 -5.80773e-28 1.40413e-27 3.23591e-26 1.84694e-26 -1.44748e-24 -4.77994e-24 4.92184e-23 3.37907e-22 -1.00608e-21 -1.5987e-20 -1.00205e-20 5.4019e-19 1.99975e-18 -1.14712e-17 -9.91604e-17 2.30366e-17 2.90922e-15 9.13574e-15 -4.39562e-14 -3.77378e-13 -3.23884e-13 7.09435e-12 3.30931e-11 -1.17203e-11 -6.49407e-10 -2.4113e-09 3.94686e-10 3.78975e-08 1.63838e-07 2.57582e-07 -8.55239e-07 -7.76047e-06 -3.18204e-05 -8.21716e-05 -6.55916e-05 0.000713373 0.00536613 0.0246587 0.0892605 0.271996 0.714148 1.62472 3.1869 5.30944 7.28661 7.68733 4.93682 -1.35571 -9.25429 -15.0124 -15.5454 -10.8821 -4.06427 1.45517 4.15662 4.53859 3.7896 2.80061 1.97535 1.39739 1.02222 0.785799 0.638403 0.548834 0.497993 0.472264 0.4602 0.45088 0.434163 0.402477 0.353521 0.291626 0.228793 0.181293 0.163615 0.181293 0.228793 0.291626 0.353521 0.402477 0.434163 0.45088 0.4602 0.472264 0.497993 0.548834 0.638403 0.785799 1.02222 1.39739 1.97535 2.80061 3.7896 4.53859 4.15662 1.45517 -4.06427 -10.8821 -15.5454 -15.0124 -9.25429 -1.35571 4.93682 7.68733 7.28661 5.30944 3.1869 1.62472 0.714148 0.271996 0.0892605 0.0246587 0.00536613 0.000713373 -6.55916e-05 -8.21716e-05 -3.18204e-05 -7.76047e-06 -8.55239e-07 2.57582e-07 1.63838e-07 3.78975e-08 3.94686e-10 -2.4113e-09 -6.49407e-10 -1.17203e-11 3.30931e-11 7.09435e-12 -3.23884e-13 -3.77378e-13 -4.39562e-14 9.13574e-15 2.90922e-15 2.30366e-17 -9.91604e-17 -1.14712e-17 1.99975e-18 5.4019e-19 -1.00205e-20 -1.5987e-20 -1.00608e-21 3.37907e-22 4.92184e-23 -4.77994e-24 -1.44748e-24 1.84697e-26 3.23604e-26 1.40469e-27 -5.79034e-28 -5.65714e-29 8.28681e-30 1.42002e-30 -8.50151e-32 -2.79113e-32 2.91478e-34 4.55998e-34 1.21265e-35 -6.31046e-36 -3.81388e-37 7.39718e-38 7.22722e-39 -7.21317e-40 -1.0694e-40 5.54327e-42 1.34779e-42 1.37976e-44 -0 -0 0 0 0 0 0 0 
0 0 0 0 0 0 0 -0 0 3.58738e-43 4.12632e-42 -2.24307e-41 -4.21836e-40 9.6105e-40 3.68898e-38 8.88666e-39 -2.77314e-36 -7.09474e-36 1.77056e-34 8.9373e-34 -9.30663e-33 -7.78469e-32 3.68774e-31 5.39484e-30 -7.211e-30 -3.08416e-28 -4.06004e-28 1.45109e-26 5.77484e-26 -5.324e-25 -4.07462e-24 1.23226e-23 2.07867e-22 8.29672e-23 -7.98088e-21 -2.65365e-20 2.12698e-19 1.57595e-18 -2.2916e-18 -5.79321e-17 -1.14748e-16 1.32726e-15 7.61572e-15 -9.53189e-15 -2.25195e-13 -5.65742e-13 3.0536e-12 2.33092e-11 2.66423e-11 -3.36205e-10 -1.80806e-09 -1.84966e-09 2.01955e-08 1.16033e-07 2.5607e-07 -2.96342e-07 -4.84356e-06 -2.24306e-05 -6.40168e-05 -7.77958e-05 0.000394859 0.00349381 0.0167398 0.0617698 0.190933 0.510262 1.19205 2.4315 4.2814 6.35165 7.5512 6.291 1.48821 -6.03145 -13.1021 -15.9153 -12.9444 -6.28942 0.166195 3.85491 4.71718 4.03083 2.94337 2.00984 1.36351 0.953663 0.698719 0.537605 0.433441 0.368072 0.331836 0.319316 0.324356 0.337684 0.34865 0.347136 0.32757 0.292147 0.250562 0.217179 0.204393 0.217179 0.250562 0.292147 0.32757 0.347136 0.34865 0.337684 0.324356 0.319316 0.331836 0.368072 0.433441 0.537605 0.698719 0.953663 1.36351 2.00984 2.94337 4.03083 4.71718 3.85491 0.166195 -6.28942 -12.9444 -15.9153 -13.1021 -6.03145 1.48821 6.291 7.5512 6.35165 4.2814 2.4315 1.19205 0.510262 0.190933 0.0617698 0.0167398 0.00349381 0.000394859 -7.77958e-05 -6.40168e-05 -2.24306e-05 -4.84356e-06 -2.96342e-07 2.5607e-07 1.16033e-07 2.01955e-08 -1.84966e-09 -1.80806e-09 -3.36205e-10 2.66423e-11 2.33092e-11 3.0536e-12 -5.65742e-13 -2.25195e-13 -9.53189e-15 7.61572e-15 1.32726e-15 -1.14748e-16 -5.79321e-17 -2.2916e-18 1.57595e-18 2.12698e-19 -2.65365e-20 -7.98088e-21 8.29672e-23 2.07867e-22 1.23226e-23 -4.07462e-24 -5.32399e-25 5.77488e-26 1.44809e-26 -4.04782e-28 -3.07658e-28 -7.19496e-30 5.38159e-30 3.67874e-31 -7.76652e-32 -9.28506e-33 8.91695e-34 1.76657e-34 -7.07898e-36 -2.76706e-36 8.8671e-39 3.68109e-38 9.59128e-40 -4.20858e-40 -2.23697e-41 4.11941e-42 3.58738e-43 0 -0 0 0 0 0 0 0 
0 0 0 0 0 0 -0 -0 5.09494e-44 1.77989e-42 1.46253e-42 -1.6363e-40 -5.05311e-40 1.2773e-38 7.03873e-38 -8.37828e-37 -7.21933e-36 4.35935e-35 6.01631e-34 -1.48099e-33 -4.19953e-32 -9.51288e-33 2.46622e-30 6.5731e-30 -1.19715e-28 -6.49604e-28 4.5185e-27 4.40289e-26 -1.02887e-25 -2.3291e-24 -1.65434e-24 9.69025e-23 3.40267e-22 -2.95608e-21 -2.18035e-20 4.6638e-20 9.24019e-19 1.20517e-18 -2.67998e-17 -1.22742e-16 4.13799e-16 4.88879e-15 5.02576e-15 -1.09974e-13 -5.07203e-13 7.57739e-13 1.39241e-11 3.62564e-11 -1.32455e-10 -1.18382e-09 -2.53359e-09 8.36257e-09 7.45917e-08 2.2037e-07 3.91163e-08 -2.71863e-06 -1.50507e-05 -4.85808e-05 -8.11466e-05 0.000174684 0.00217582 0.0112329 0.0428786 0.135062 0.366073 0.869674 1.82037 3.33844 5.27071 6.90542 6.89891 3.83345 -2.51983 -10.1019 -15.1162 -14.6114 -9.0353 -1.95395 3.01223 4.74156 4.31075 3.16794 2.11495 1.38108 0.931128 0.66301 0.498622 0.390045 0.312083 0.255244 0.216315 0.196945 0.196771 0.212772 0.237149 0.260193 0.275103 0.280011 0.278348 0.274856 0.273413 0.274856 0.278348 0.280011 0.275103 0.260193 0.237149 0.212772 0.196771 0.196945 0.216315 0.255244 0.312083 0.390045 0.498622 0.66301 0.931128 1.38108 2.11495 3.16794 4.31075 4.74156 3.01223 -1.95395 -9.0353 -14.6114 -15.1162 -10.1019 -2.51983 3.83345 6.89891 6.90542 5.27071 3.33844 1.82037 0.869674 0.366073 0.135062 0.0428786 0.0112329 0.00217582 0.000174684 -8.11466e-05 -4.85808e-05 -1.50507e-05 -2.71863e-06 3.91163e-08 2.2037e-07 7.45917e-08 8.36257e-09 -2.53359e-09 -1.18382e-09 -1.32455e-10 3.62564e-11 1.39241e-11 7.57739e-13 -5.07203e-13 -1.09974e-13 5.02576e-15 4.88879e-15 4.13799e-16 -1.22742e-16 -2.67998e-17 1.20517e-18 9.24019e-19 4.6638e-20 -2.18035e-20 -2.95608e-21 3.40267e-22 9.69025e-23 -1.65434e-24 -2.3291e-24 -1.02899e-25 4.39019e-26 4.50508e-27 -6.48159e-28 -1.19432e-28 6.55667e-30 2.46031e-30 -9.49282e-33 -4.18982e-32 -1.4776e-33 6.00279e-34 4.3497e-35 -7.2035e-36 -8.36019e-37 7.02366e-38 1.27462e-38 -5.04218e-40 -1.63313e-40 1.46253e-42 1.77989e-42 5.09494e-44 -0 -0 0 0 0 0 0 
0 0 0 0 0 0 -0 0 5.13625e-43 3.81228e-42 -4.08347e-41 -4.46018e-40 2.58575e-39 4.34987e-38 -1.1024e-37 -3.62797e-36 -1.48417e-37 2.58861e-34 6.14286e-34 -1.56195e-32 -7.59597e-32 7.70764e-31 6.32155e-30 -2.81855e-29 -4.14662e-28 4.49088e-28 2.22717e-26 3.51833e-26 -9.70911e-25 -4.20652e-24 3.18955e-23 2.68688e-22 -5.70677e-22 -1.23552e-20 -1.38766e-20 4.15131e-19 1.73818e-18 -8.77582e-18 -8.38092e-17 6.23411e-18 2.50164e-15 8.08734e-15 -3.97759e-14 -3.42562e-13 -2.48532e-13 6.89214e-12 3.07529e-11 -2.24635e-11 -6.69009e-10 -2.28446e-09 1.63788e-09 4.26309e-08 1.67366e-07 1.92998e-07 -1.30296e-06 -9.44806e-06 -3.50531e-05 -7.4631e-05 3.75733e-05 0.00125999 0.0073116 0.0294554 0.0956965 0.264381 0.63712 1.35564 2.5517 4.20976 5.937 6.76834 5.33185 0.694533 -6.37041 -12.8862 -15.1773 -11.768 -4.89356 1.35247 4.41944 4.59879 3.50976 2.33444 1.47958 0.95953 0.666223 0.497781 0.395407 0.323348 0.264778 0.212642 0.165639 0.128274 0.106223 0.10448 0.123129 0.158469 0.203921 0.253332 0.299662 0.333645 0.346311 0.333645 0.299662 0.253332 0.203921 0.158469 0.123129 0.10448 0.106223 0.128274 0.165639 0.212642 0.264778 0.323348 0.395407 0.497781 0.666223 0.95953 1.47958 2.33444 3.50976 4.59879 4.41944 1.35247 -4.89356 -11.768 -15.1773 -12.8862 -6.37041 0.694533 5.33185 6.76834 5.937 4.20976 2.5517 1.35564 0.63712 0.264381 0.0956965 0.0294554 0.0073116 0.00125999 3.75733e-05 -7.4631e-05 -3.50531e-05 -9.44806e-06 -1.30296e-06 1.92998e-07 1.67366e-07 4.26309e-08 1.63788e-09 -2.28446e-09 -6.69009e-10 -2.24635e-11 3.07529e-11 6.89214e-12 -2.48532e-13 -3.42562e-13 -3.97759e-14 8.08734e-15 2.50164e-15 6.23411e-18 -8.38092e-17 -8.77582e-18 1.73818e-18 4.15131e-19 -1.38766e-20 -1.23552e-20 -5.70677e-22 2.68688e-22 3.18955e-23 -4.20652e-24 -9.70965e-25 3.49653e-26 2.22054e-26 4.4738e-28 -4.13673e-28 -2.81179e-29 6.30655e-30 7.68962e-31 -7.57839e-32 -1.55839e-32 6.12904e-34 2.58288e-34 -1.47902e-37 -3.62014e-36 -1.10008e-37 4.34071e-38 2.58049e-39 -4.44999e-40 -4.07241e-41 3.81228e-42 5.13625e-43 0 -0 0 0 0 0 0 
0 0 0 0 0 -0 -0 8.382e-44 1.89339e-42 -2.77332e-42 -1.89587e-40 -1.77021e-40 1.61729e-38 5.12582e-38 -1.18296e-36 -6.64232e-36 7.21624e-35 6.37346e-34 -3.43055e-33 -4.97064e-32 9.82317e-32 3.23951e-30 2.08153e-30 -1.7662e-28 -5.47644e-28 7.8556e-27 4.75172e-26 -2.61393e-25 -2.92769e-24 4.1442e-24 1.40232e-22 2.09895e-22 -5.15558e-21 -2.29784e-20 1.28671e-19 1.21675e-18 -8.23935e-19 -4.31871e-17 -1.08873e-16 9.69432e-16 6.3223e-15 -5.76627e-15 -1.85497e-13 -5.01221e-13 2.57661e-12 2.04982e-11 2.28987e-11 -3.13536e-10 -1.66242e-09 -1.41112e-09 2.08177e-08 1.13598e-07 2.27944e-07 -4.56261e-07 -5.46831e-06 -2.38353e-05 -6.18148e-05 -3.47627e-05 0.000655648 0.00454438 0.0197436 0.0671436 0.191108 0.469671 1.01404 1.94002 3.28791 4.87241 6.09445 5.88267 3.07734 -2.58451 -9.43614 -14.097 -13.6485 -8.25162 -1.31932 3.40404 4.74478 3.97872 2.72068 1.71654 1.07982 0.72366 0.528505 0.417209 0.349858 0.301285 0.259503 0.215908 0.167388 0.115933 0.0687231 0.0381216 0.0347903 0.0662308 0.130019 0.215806 0.30421 0.371603 0.396903 0.371603 0.30421 0.215806 0.130019 0.0662308 0.0347903 0.0381216 0.0687231 0.115933 0.167388 0.215908 0.259503 0.301285 0.349858 0.417209 0.528505 0.72366 1.07982 1.71654 2.72068 3.97872 4.74478 3.40404 -1.31932 -8.25162 -13.6485 -14.097 -9.43614 -2.58451 3.07734 5.88267 6.09445 4.87241 3.28791 1.94002 1.01404 0.469671 0.191108 0.0671436 0.0197436 0.00454438 0.000655648 -3.47627e-05 -6.18148e-05 -2.38353e-05 -5.46831e-06 -4.56261e-07 2.27944e-07 1.13598e-07 2.08177e-08 -1.41112e-09 -1.66242e-09 -3.13536e-10 2.28987e-11 2.04982e-11 2.57661e-12 -5.01221e-13 -1.85497e-13 -5.76627e-15 6.3223e-15 9.69432e-16 -1.08873e-16 -4.31871e-17 -8.23935e-19 1.21675e-18 1.28671e-19 -2.29784e-20 -5.15558e-21 2.09895e-22 1.40231e-22 4.14418e-24 -2.9278e-24 -2.61108e-25 4.73749e-26 7.83528e-27 -5.46308e-28 -1.7619e-28 2.07698e-30 3.23196e-30 9.80078e-32 -4.95934e-32 -3.42289e-33 6.35934e-34 7.20057e-35 -6.62793e-36 -1.18045e-36 5.11489e-38 1.61395e-38 -1.76598e-40 -1.89146e-40 -2.72365e-42 1.89339e-42 8.382e-44 -0 -0 0 0 0 0 
0 0 0 0 0 -0 0 5.75747e-43 3.04044e-42 -4.92465e-41 -4.00168e-40 3.57249e-39 4.27142e-38 -2.01815e-37 -3.8624e-36 6.6917e-36 2.98614e-34 2.14144e-34 -1.9685e-32 -5.97797e-32 1.08756e-30 6.16881e-30 -4.80125e-29 -4.59687e-28 1.44615e-27 2.73951e-26 -3.14948e-27 -1.33338e-24 -3.3358e-24 5.13808e-23 2.8448e-22 -1.3765e-21 -1.53783e-20 9.67953e-21 6.03589e-19 1.44259e-18 -1.64023e-17 -9.80507e-17 2.07241e-16 3.60496e-15 5.90673e-15 -7.79417e-14 -4.18946e-13 4.25523e-13 1.11462e-11 3.19285e-11 -1.05316e-10 -1.02e-09 -2.2392e-09 7.68109e-09 6.86874e-08 1.99907e-07 -1.307e-08 -2.83762e-06 -1.51837e-05 -4.69587e-05 -6.31745e-05 0.000285181 0.00265735 0.0127641 0.046109 0.136859 0.346442 0.763324 1.48231 2.55332 3.89328 5.16285 5.65543 4.36894 0.523946 -5.47004 -11.3511 -13.8533 -11.1602 -4.82673 1.29235 4.35843 4.44318 3.2664 2.11022 1.32252 0.859222 0.606105 0.461078 0.37536 0.323192 0.287191 0.258789 0.227849 0.188247 0.13645 0.0763073 0.0216513 -0.0079627 0.00680524 0.0717642 0.175536 0.28872 0.376502 0.40938 0.376502 0.28872 0.175536 0.0717642 0.00680524 -0.0079627 0.0216513 0.0763073 0.13645 0.188247 0.227849 0.258789 0.287191 0.323192 0.37536 0.461078 0.606105 0.859222 1.32252 2.11022 3.2664 4.44318 4.35843 1.29235 -4.82673 -11.1602 -13.8533 -11.3511 -5.47004 0.523946 4.36894 5.65543 5.16285 3.89328 2.55332 1.48231 0.763324 0.346442 0.136859 0.046109 0.0127641 0.00265735 0.000285181 -6.31745e-05 -4.69587e-05 -1.51837e-05 -2.83762e-06 -1.307e-08 1.99907e-07 6.86874e-08 7.68109e-09 -2.2392e-09 -1.02e-09 -1.05316e-10 3.19285e-11 1.11462e-11 4.25523e-13 -4.18946e-13 -7.79417e-14 5.90673e-15 3.60496e-15 2.07241e-16 -9.80507e-17 -1.64023e-17 1.44259e-18 6.03589e-19 9.67953e-21 -1.53783e-20 -1.3765e-21 2.8448e-22 5.13807e-23 -3.33577e-24 -1.3304e-24 -3.14558e-27 2.73289e-26 1.44284e-27 -4.58562e-28 -4.78975e-29 6.15446e-30 1.08506e-30 -5.96431e-32 -1.96411e-32 2.13647e-34 2.97964e-34 6.67777e-36 -3.85419e-36 -2.01399e-37 4.26255e-38 3.56537e-39 -3.99306e-40 -4.90961e-41 3.04044e-42 5.75747e-43 0 -0 0 0 0 0 
0 0 0 0 -0 -0 7.95195e-44 1.71625e-42 -4.62813e-42 -1.80742e-40 4.05002e-41 1.63855e-38 3.27162e-38 -1.2836e-36 -5.46561e-36 8.53108e-35 5.91825e-34 -4.61847e-33 -5.03655e-32 1.81078e-31 3.54543e-30 -2.41079e-30 -2.09099e-28 -3.72455e-28 1.02199e-26 4.45033e-26 -3.9491e-25 -3.14719e-24 1.00962e-23 1.67714e-22 1.77932e-23 -6.92968e-21 -2.01694e-20 2.09098e-19 1.35551e-18 -3.37949e-18 -5.62516e-17 -6.45551e-17 1.53722e-15 6.8682e-15 -2.04251e-14 -2.51694e-13 -3.55828e-13 4.72807e-12 2.51795e-11 -5.55807e-12 -5.19817e-10 -1.96567e-09 9.21453e-10 3.5987e-08 1.47583e-07 1.7197e-07 -1.22897e-06 -8.94979e-06 -3.30064e-05 -6.58235e-05 7.84645e-05 0.00143159 0.00787749 0.0306929 0.0961054 0.253281 0.575009 1.14041 1.99441 3.0906 4.22768 4.98199 4.67014 2.49557 -1.89906 -7.58555 -12.0647 -12.5522 -8.36527 -1.98873 2.89349 4.52845 3.86219 2.62204 1.66178 1.06167 0.721935 0.531883 0.413556 0.339939 0.293287 0.263004 0.243017 0.223621 0.198212 0.159024 0.104765 0.0438596 -0.00234995 -0.0078231 0.0425067 0.14087 0.255292 0.345716 0.379662 0.345716 0.255292 0.14087 0.0425067 -0.0078231 -0.00234995 0.0438596 0.104765 0.159024 0.198212 0.223621 0.243017 0.263004 0.293287 0.339939 0.413556 0.531883 0.721935 1.06167 1.66178 2.62204 3.86219 4.52845 2.89349 -1.98873 -8.36527 -12.5522 -12.0647 -7.58555 -1.89906 2.49557 4.67014 4.98199 4.22768 3.0906 1.99441 1.14041 0.575009 0.253281 0.0961054 0.0306929 0.00787749 0.00143159 7.84645e-05 -6.58235e-05 -3.30064e-05 -8.94979e-06 -1.22897e-06 1.7197e-07 1.47583e-07 3.5987e-08 9.21453e-10 -1.96567e-09 -5.19817e-10 -5.55807e-12 2.51795e-11 4.72807e-12 -3.55828e-13 -2.51694e-13 -2.04251e-14 6.8682e-15 1.53722e-15 -6.45551e-17 -5.62516e-17 -3.37949e-18 1.35551e-18 2.09098e-19 -2.01694e-20 -6.92968e-21 1.77932e-23 1.67714e-22 1.00971e-23 -3.13782e-24 -3.93757e-25 4.4406e-26 1.01959e-26 -3.71503e-28 -2.08603e-28 -2.40534e-30 3.53729e-30 1.80673e-31 -5.02528e-32 -4.60839e-33 5.90529e-34 8.51291e-35 -5.45385e-36 -1.28093e-36 3.26459e-38 1.63523e-38 4.05527e-41 -1.8036e-40 -4.66807e-42 1.70938e-42 7.95195e-44 -0 0 0 0 0 
0 0 0 0 -0 0 4.70262e-43 2.37444e-42 -4.49677e-41 -3.34459e-40 3.48541e-39 3.76234e-38 -2.17114e-37 -3.57812e-36 9.19028e-36 2.91245e-34 -1.11844e-35 -2.02941e-32 -4.5654e-32 1.19629e-30 5.59942e-30 -5.76975e-29 -4.56474e-28 2.06678e-27 2.91855e-26 -3.31635e-26 -1.52095e-24 -2.31362e-24 6.39165e-23 2.7239e-22 -1.99847e-21 -1.67363e-20 3.21979e-20 7.29771e-19 9.56576e-19 -2.2699e-17 -1.01158e-16 4.11532e-16 4.39277e-15 2.32992e-15 -1.13316e-13 -4.46643e-13 1.23931e-12 1.48443e-11 2.75022e-11 -2.01282e-10 -1.31939e-09 -1.71732e-09 1.50955e-08 9.39824e-08 2.08325e-07 -3.4189e-07 -4.75405e-06 -2.1428e-05 -5.57548e-05 -2.18206e-05 0.000681656 0.00458313 0.0196352 0.0656087 0.181809 0.429539 0.878471 1.57043 2.47104 3.43435 4.191 4.33546 3.31814 0.595667 -3.8457 -8.78401 -11.7777 -10.684 -5.76051 0.0669291 3.65531 4.23298 3.21076 2.07482 1.30704 0.851484 0.601942 0.458428 0.362833 0.300362 0.257629 0.230625 0.214602 0.202092 0.188462 0.166203 0.130443 0.0825327 0.0368302 0.0175081 0.0447095 0.117619 0.210522 0.286406 0.315276 0.286406 0.210522 0.117619 0.0447095 0.0175081 0.0368302 0.0825327 0.130443 0.166203 0.188462 0.202092 0.214602 0.230625 0.257629 0.300362 0.362833 0.458428 0.601942 0.851484 1.30704 2.07482 3.21076 4.23298 3.65531 0.0669291 -5.76051 -10.684 -11.7777 -8.78401 -3.8457 0.595667 3.31814 4.33546 4.191 3.43435 2.47104 1.57043 0.878471 0.429539 0.181809 0.0656087 0.0196352 0.00458313 0.000681656 -2.18206e-05 -5.57548e-05 -2.1428e-05 -4.75405e-06 -3.4189e-07 2.08325e-07 9.39824e-08 1.50955e-08 -1.71732e-09 -1.31939e-09 -2.01282e-10 2.75022e-11 1.48443e-11 1.23931e-12 -4.46643e-13 -1.13316e-13 2.32992e-15 4.39277e-15 4.11532e-16 -1.01158e-16 -2.2699e-17 9.56576e-19 7.29771e-19 3.21979e-20 -1.67363e-20 -1.99847e-21 2.7239e-22 6.39202e-23 -2.29922e-24 -1.51647e-24 -3.3045e-26 2.91163e-26 2.06193e-27 -4.55395e-28 -5.75646e-29 5.58648e-30 1.1936e-30 -4.555e-32 -2.02497e-32 -1.12114e-35 2.90623e-34 9.17168e-36 -3.57064e-36 -2.16677e-37 3.75464e-38 3.47863e-39 -3.33749e-40 -4.48768e-41 2.35933e-42 4.70262e-43 0 0 0 0 0 
0 0 0 0 -0 4.92406e-44 1.36554e-42 -3.51906e-42 -1.47496e-40 2.63245e-41 1.3825e-38 2.75622e-38 -1.1238e-36 -4.72127e-36 7.79204e-35 5.28506e-34 -4.44695e-33 -4.66308e-32 1.89722e-31 3.41145e-30 -3.73402e-30 -2.09816e-28 -2.85189e-28 1.07667e-26 4.11734e-26 -4.44222e-25 -3.12871e-24 1.30134e-23 1.76694e-22 -1.04655e-22 -7.7825e-21 -1.71774e-20 2.57375e-19 1.38622e-18 -5.24599e-18 -6.36705e-17 -2.09697e-17 1.94437e-15 6.84048e-15 -3.3201e-14 -2.96572e-13 -1.66499e-13 6.59629e-12 2.76986e-11 -3.80703e-11 -7.03714e-10 -2.09034e-09 3.74486e-09 5.08206e-08 1.72588e-07 7.01401e-08 -2.1528e-06 -1.27002e-05 -4.1297e-05 -5.82306e-05 0.00025749 0.00246446 0.0119529 0.0432038 0.127112 0.315362 0.671497 1.23935 1.99541 2.81563 3.48888 3.76071 3.33842 1.85226 -1.03376 -5.13198 -9.13071 -10.8182 -8.67817 -3.62066 1.37584 3.8409 3.73707 2.6133 1.63321 1.02025 0.670877 0.488641 0.382632 0.309573 0.258865 0.220842 0.196471 0.182257 0.17328 0.167053 0.158651 0.144033 0.1191 0.0881417 0.0658824 0.0702476 0.107507 0.163597 0.212703 0.231871 0.212703 0.163597 0.107507 0.0702476 0.0658824 0.0881417 0.1191 0.144033 0.158651 0.167053 0.17328 0.182257 0.196471 0.220842 0.258865 0.309573 0.382632 0.488641 0.670877 1.02025 1.63321 2.6133 3.73707 3.8409 1.37584 -3.62066 -8.67817 -10.8182 -9.13071 -5.13198 -1.03376 1.85226 3.33842 3.76071 3.48888 2.81563 1.99541 1.23935 0.671497 0.315362 0.127112 0.0432038 0.0119529 0.00246446 0.00025749 -5.82306e-05 -4.1297e-05 -1.27002e-05 -2.1528e-06 7.01401e-08 1.72588e-07 5.08206e-08 3.74486e-09 -2.09034e-09 -7.03714e-10 -3.80703e-11 2.76986e-11 6.59629e-12 -1.66499e-13 -2.96572e-13 -3.3201e-14 6.84048e-15 1.94437e-15 -2.09697e-17 -6.36705e-17 -5.24599e-18 1.38622e-18 2.57375e-19 -1.71774e-20 -7.7825e-21 -1.04654e-22 1.76701e-22 1.30041e-23 -3.11941e-24 -4.43075e-25 4.10738e-26 1.0741e-26 -2.84515e-28 -2.09333e-28 -3.72613e-30 3.40376e-30 1.89311e-31 -4.65283e-32 -4.4375e-33 5.27367e-34 7.77583e-35 -4.71121e-36 -1.12151e-36 2.75026e-38 1.37975e-38 2.63811e-41 -1.47193e-40 -3.51219e-42 1.36554e-42 4.92406e-44 3.52484e-45 -0 0 0 
0 0 0 0 0 3.0365e-43 2.00855e-42 -3.13418e-41 -2.74709e-40 2.45911e-39 3.08076e-38 -1.53154e-37 -2.9594e-36 6.10343e-36 2.45129e-34 8.06923e-35 -1.74639e-32 -4.45768e-32 1.05626e-30 5.23767e-30 -5.24651e-29 -4.29401e-28 1.95071e-27 2.79772e-26 -3.43752e-26 -1.49524e-24 -2.06116e-24 6.50223e-23 2.62168e-22 -2.15062e-21 -1.68498e-20 4.07646e-20 7.70783e-19 6.89384e-19 -2.55716e-17 -1.00239e-16 5.2908e-16 4.78322e-15 -3.39406e-16 -1.35792e-13 -4.48874e-13 1.8691e-12 1.73231e-11 2.17212e-11 -2.81321e-10 -1.52886e-09 -1.04152e-09 2.19497e-08 1.14604e-07 1.99707e-07 -7.11607e-07 -6.71285e-06 -2.72797e-05 -6.03836e-05 4.42524e-05 0.001182 0.00682937 0.027202 0.0859149 0.225804 0.504891 0.971318 1.61722 2.33777 2.93963 3.21338 3.00446 2.17984 0.518946 -2.20759 -5.74627 -8.8257 -9.52079 -6.8294 -2.03111 2.08939 3.69999 3.22435 2.14274 1.31665 0.817882 0.540614 0.401385 0.319968 0.263788 0.222089 0.18755 0.164643 0.151708 0.145763 0.14474 0.145959 0.147997 0.144986 0.13356 0.116433 0.104521 0.106851 0.1225 0.140242 0.147875 0.140242 0.1225 0.106851 0.104521 0.116433 0.13356 0.144986 0.147997 0.145959 0.14474 0.145763 0.151708 0.164643 0.18755 0.222089 0.263788 0.319968 0.401385 0.540614 0.817882 1.31665 2.14274 3.22435 3.69999 2.08939 -2.03111 -6.8294 -9.52079 -8.8257 -5.74627 -2.20759 0.518946 2.17984 3.00446 3.21338 2.93963 2.33777 1.61722 0.971318 0.504891 0.225804 0.0859149 0.027202 0.00682937 0.001182 4.42524e-05 -6.03836e-05 -2.72797e-05 -6.71285e-06 -7.11607e-07 1.99707e-07 1.14604e-07 2.19497e-08 -1.04152e-09 -1.52886e-09 -2.81321e-10 2.17212e-11 1.73231e-11 1.8691e-12 -4.48874e-13 -1.35792e-13 -3.39406e-16 4.78322e-15 5.2908e-16 -1.00239e-16 -2.55716e-17 6.89384e-19 7.70783e-19 4.07646e-20 -1.68498e-20 -2.15062e-21 2.62171e-22 6.48933e-23 -2.05459e-24 -1.4916e-24 -3.43037e-26 2.79097e-26 1.94615e-27 -4.28409e-28 -5.23475e-29 5.22576e-30 1.05395e-30 -4.44761e-32 -1.74266e-32 8.04585e-35 2.44617e-34 6.09175e-36 -2.95334e-36 -1.52857e-37 3.07457e-38 2.4544e-39 -2.74193e-40 -3.12566e-41 2.00855e-42 3.0365e-43 4.16636e-44 0 0 0 
0 0 -0 8.64002e-46 2.04661e-44 8.95905e-43 -8.58262e-43 -1.00958e-40 -1.31098e-40 9.51019e-39 3.21737e-38 -7.77553e-37 -4.395e-36 5.40007e-35 4.59951e-34 -3.04408e-33 -3.9691e-32 1.21845e-31 2.89356e-30 -1.20366e-30 -1.78919e-28 -3.42069e-28 9.26551e-27 4.04469e-26 -3.8563e-25 -2.97215e-24 1.12979e-23 1.67576e-22 -7.6836e-23 -7.4894e-21 -1.69413e-20 2.54878e-19 1.37039e-18 -5.51246e-18 -6.47884e-17 -7.5163e-18 2.07285e-15 6.7518e-15 -3.89193e-14 -3.16162e-13 -5.14861e-14 7.65835e-12 2.87469e-11 -6.12137e-11 -8.25898e-10 -2.11418e-09 6.09352e-09 6.22591e-08 1.88049e-07 -3.93491e-08 -3.01904e-06 -1.60575e-05 -4.76986e-05 -4.23427e-05 0.000467934 0.00358883 0.0161944 0.0556794 0.156528 0.370566 0.749338 1.30283 1.95179 2.51795 2.7904 2.63883 2.05982 1.06109 -0.510929 -2.87775 -5.80261 -8.10931 -8.14738 -5.28974 -0.959074 2.37661 3.40593 2.7824 1.81498 1.12458 0.70713 0.472841 0.35288 0.281475 0.233478 0.195919 0.162137 0.138848 0.126257 0.123341 0.127412 0.135749 0.148296 0.159966 0.164011 0.154426 0.133563 0.109913 0.0923248 0.0827764 0.0801139 0.0827764 0.0923248 0.109913 0.133563 0.154426 0.164011 0.159966 0.148296 0.135749 0.127412 0.123341 0.126257 0.138848 0.162137 0.195919 0.233478 0.281475 0.35288 0.472841 0.70713 1.12458 1.81498 2.7824 3.40593 2.37661 -0.959074 -5.28974 -8.14738 -8.10931 -5.80261 -2.87775 -0.510929 1.06109 2.05982 2.63883 2.7904 2.51795 1.95179 1.30283 0.749338 0.370566 0.156528 0.0556794 0.0161944 0.00358883 0.000467934 -4.23427e-05 -4.76986e-05 -1.60575e-05 -3.01904e-06 -3.93491e-08 1.88049e-07 6.22591e-08 6.09352e-09 -2.11418e-09 -8.25898e-10 -6.12137e-11 2.87469e-11 7.65835e-12 -5.14861e-14 -3.16162e-13 -3.89193e-14 6.7518e-15 2.07285e-15 -7.5163e-18 -6.47884e-17 -5.51246e-18 1.37039e-18 2.54878e-19 -1.69413e-20 -7.48939e-21 -7.68668e-23 1.67144e-22 1.12664e-23 -2.96529e-24 -3.84746e-25 4.03472e-26 9.24387e-27 -3.41258e-28 -1.78516e-28 -1.20165e-30 2.8872e-30 1.21593e-31 -3.96057e-32 -3.03783e-33 4.5898e-34 5.38916e-35 -4.38584e-36 -7.76011e-37 3.21065e-38 9.49169e-39 -1.30788e-40 -1.00653e-40 -8.52778e-43 8.95905e-43 1.72478e-43 0 0 0 
0 0 0 1.81876e-44 1.56907e-43 1.64135e-42 -1.51964e-41 -2.0543e-40 1.11372e-39 2.21921e-38 -5.73442e-38 -2.09038e-36 4.92819e-37 1.71318e-34 3.25972e-34 -1.21129e-32 -4.95597e-32 7.24504e-31 4.86477e-30 -3.50156e-29 -3.74507e-28 1.18984e-27 2.37668e-26 -8.48496e-27 -1.25507e-24 -2.61448e-24 5.41301e-23 2.57934e-22 -1.76882e-21 -1.58022e-20 3.12821e-20 7.17933e-19 8.10399e-19 -2.40868e-17 -9.91591e-17 5.11645e-16 4.75048e-15 -6.04194e-16 -1.39369e-13 -4.46914e-13 2.07914e-12 1.82281e-11 1.85695e-11 -3.22403e-10 -1.6316e-09 -5.48724e-10 2.64814e-08 1.27492e-07 1.84644e-07 -1.02102e-06 -8.29106e-06 -3.17512e-05 -6.13778e-05 0.000116559 0.00167958 0.00898851 0.0342735 0.104247 0.263614 0.564767 1.03395 1.62163 2.17443 2.47722 2.37068 1.86094 1.09073 0.137319 -1.17283 -3.10758 -5.46994 -7.18955 -6.85735 -4.09696 -0.315505 2.37458 3.04565 2.41561 1.58994 1.01643 0.66026 0.451179 0.336154 0.265301 0.218909 0.182133 0.147789 0.12269 0.109468 0.108806 0.117139 0.130538 0.148319 0.16656 0.178203 0.173409 0.149231 0.111749 0.0743085 0.0479049 0.0387438 0.0479049 0.0743085 0.111749 0.149231 0.173409 0.178203 0.16656 0.148319 0.130538 0.117139 0.108806 0.109468 0.12269 0.147789 0.182133 0.218909 0.265301 0.336154 0.451179 0.66026 1.01643 1.58994 2.41561 3.04565 2.37458 -0.315505 -4.09696 -6.85735 -7.18955 -5.46994 -3.10758 -1.17283 0.137319 1.09073 1.86094 2.37068 2.47722 2.17443 1.62163 1.03395 0.564767 0.263614 0.104247 0.0342735 0.00898851 0.00167958 0.000116559 -6.13778e-05 -3.17512e-05 -8.29106e-06 -1.02102e-06 1.84644e-07 1.27492e-07 2.64814e-08 -5.48724e-10 -1.6316e-09 -3.22403e-10 1.85695e-11 1.82281e-11 2.07914e-12 -4.46914e-13 -1.39369e-13 -6.04194e-16 4.75048e-15 5.11645e-16 -9.91591e-17 -2.40868e-17 8.10399e-19 7.17933e-19 3.12821e-20 -1.58022e-20 -1.76895e-21 2.57052e-22 5.39749e-23 -2.60944e-24 -1.25216e-24 -8.47394e-27 2.37114e-26 1.18722e-27 -3.73658e-28 -3.49395e-29 4.85398e-30 7.22964e-31 -4.9451e-32 -1.20877e-32 3.2524e-34 1.70969e-34 4.92637e-37 -2.0862e-36 -5.72409e-38 2.21486e-38 1.11169e-39 -2.05028e-40 -1.51539e-41 1.66324e-42 4.26373e-43 0 0 0 
0 0 0 7.63434e-44 4.80271e-43 1.2146e-42 -5.30902e-41 -2.32396e-40 4.90314e-39 3.2419e-38 -3.88859e-37 -3.67432e-36 2.54983e-35 3.5216e-34 -1.25301e-33 -2.89714e-32 2.81415e-32 2.05114e-30 2.59923e-30 -1.24013e-28 -4.33487e-28 6.25582e-27 3.8585e-26 -2.47694e-25 -2.58508e-24 6.17168e-24 1.39547e-22 6.16688e-23 -6.09002e-21 -1.85396e-20 2.03012e-19 1.29198e-18 -4.14247e-18 -5.90708e-17 -2.83091e-17 1.88422e-15 6.70294e-15 -3.56454e-14 -3.0757e-13 -6.37816e-14 7.63279e-12 2.86595e-11 -6.68617e-11 -8.60484e-10 -2.08983e-09 7.25662e-09 6.78439e-08 1.93104e-07 -1.21929e-07 -3.61281e-06 -1.82869e-05 -5.1242e-05 -2.41528e-05 0.000657472 0.00456744 0.0198272 0.0661644 0.180484 0.413042 0.802451 1.32878 1.87205 2.22636 2.19829 1.74227 1.01308 0.241339 -0.513284 -1.49567 -3.01917 -4.91328 -6.21263 -5.72166 -3.22051 0.000470741 2.17836 2.64755 2.08747 1.40673 0.936797 0.63571 0.448186 0.335411 0.262418 0.214641 0.177365 0.14321 0.117147 0.10306 0.103229 0.113787 0.129768 0.148722 0.166858 0.178644 0.174767 0.150423 0.110063 0.0672042 0.0359281 0.0253941 0.0359281 0.0672042 0.110063 0.150423 0.174767 0.178644 0.166858 0.148722 0.129768 0.113787 0.103229 0.10306 0.117147 0.14321 0.177365 0.214641 0.262418 0.335411 0.448186 0.63571 0.936797 1.40673 2.08747 2.64755 2.17836 0.000470741 -3.22051 -5.72166 -6.21263 -4.91328 -3.01917 -1.49567 -0.513284 0.241339 1.01308 1.74227 2.19829 2.22636 1.87205 1.32878 0.802451 0.413042 0.180484 0.0661644 0.0198272 0.00456744 0.000657472 -2.41528e-05 -5.1242e-05 -1.82869e-05 -3.61281e-06 -1.21929e-07 1.93104e-07 6.78439e-08 7.25662e-09 -2.08983e-09 -8.60484e-10 -6.68617e-11 2.86595e-11 7.63279e-12 -6.37816e-14 -3.0757e-13 -3.56454e-14 6.70294e-15 1.88422e-15 -2.83091e-17 -5.90708e-17 -4.14247e-18 1.29198e-18 2.03012e-19 -1.85396e-20 -6.09034e-21 6.07009e-23 1.39143e-22 6.15397e-24 -2.57903e-24 -2.47126e-25 3.84949e-26 6.24178e-27 -4.32484e-28 -1.2374e-28 2.59298e-30 2.04675e-30 2.80922e-32 -2.89108e-32 -1.25058e-33 3.51437e-34 2.54489e-35 -3.6669e-36 -3.88115e-37 3.23541e-38 4.89387e-39 -2.31964e-40 -5.29819e-41 1.26384e-42 6.59553e-43 1.36086e-44 0 0 
0 0 0 2.11123e-43 1.03013e-42 -3.70809e-42 -1.20727e-40 1.52965e-40 1.25247e-38 9.89863e-39 -1.14315e-36 -3.16882e-36 9.09143e-35 4.43172e-34 -6.19147e-33 -4.59722e-32 3.48017e-31 3.89576e-30 -1.46345e-29 -2.78118e-28 2.80095e-28 1.68431e-26 2.22452e-26 -8.56594e-25 -3.14792e-24 3.52783e-23 2.36709e-22 -1.05019e-21 -1.32307e-20 1.08987e-20 5.75589e-19 1.13001e-18 -1.87333e-17 -9.44939e-17 3.74298e-16 4.25161e-15 1.31653e-15 -1.22938e-13 -4.38188e-13 1.81582e-12 1.73409e-11 1.91744e-11 -3.13805e-10 -1.61118e-09 -4.04401e-10 2.75774e-08 1.30057e-07 1.68656e-07 -1.19237e-06 -9.10528e-06 -3.37941e-05 -5.87357e-05 0.000177988 0.00206894 0.0106527 0.0396857 0.118078 0.291184 0.605033 1.06602 1.59191 2.0001 2.07738 1.71509 1.0114 0.230512 -0.394609 -0.886164 -1.56083 -2.73993 -4.25901 -5.2631 -4.75376 -2.60175 0.0792071 1.85139 2.22001 1.7681 1.2267 0.852305 0.607403 0.446162 0.339824 0.266089 0.21607 0.178252 0.145687 0.120577 0.106705 0.106498 0.116425 0.13163 0.147925 0.16197 0.1693 0.163467 0.141039 0.105557 0.0682189 0.0415223 0.0351054 0.0415223 0.0682189 0.105557 0.141039 0.163467 0.1693 0.16197 0.147925 0.13163 0.116425 0.106498 0.106705 0.120577 0.145687 0.178252 0.21607 0.266089 0.339824 0.446162 0.607403 0.852305 1.2267 1.7681 2.22001 1.85139 0.0792071 -2.60175 -4.75376 -5.2631 -4.25901 -2.73993 -1.56083 -0.886164 -0.394609 0.230512 1.0114 1.71509 2.07738 2.0001 1.59191 1.06602 0.605033 0.291184 0.118078 0.0396857 0.0106527 0.00206894 0.000177988 -5.87357e-05 -3.37941e-05 -9.10528e-06 -1.19237e-06 1.68656e-07 1.30057e-07 2.75774e-08 -4.04401e-10 -1.61118e-09 -3.13805e-10 1.91744e-11 1.73409e-11 1.81582e-12 -4.38188e-13 -1.22938e-13 1.31653e-15 4.25161e-15 3.74298e-16 -9.44939e-17 -1.87333e-17 1.13001e-18 5.75589e-19 1.08986e-20 -1.32312e-20 -1.04935e-21 2.36016e-22 3.51898e-23 -3.14035e-24 -8.54594e-25 2.21913e-26 1.68052e-26 2.79566e-28 -2.77505e-28 -1.46043e-29 3.88736e-30 3.47306e-31 -4.58748e-32 -6.17904e-33 4.4224e-34 9.07351e-35 -3.16206e-36 -1.14094e-36 9.87333e-39 1.2501e-38 1.52789e-40 -1.20439e-40 -3.60551e-42 2.92004e-43 5.03518e-44 0 0 
0 0 0 3.99284e-43 1.42717e-42 -1.84338e-41 -1.93767e-40 1.58043e-39 2.2687e-38 -1.09921e-37 -2.3242e-36 5.24951e-36 2.08616e-34 -1.43133e-35 -1.63558e-32 -3.2051e-32 1.10984e-30 4.50511e-30 -6.389e-29 -4.21108e-28 2.9805e-27 3.11033e-26 -9.82383e-26 -1.89909e-24 7.31975e-25 9.65106e-23 1.95612e-22 -3.99357e-21 -1.87379e-20 1.23346e-19 1.09728e-18 -1.91914e-18 -4.68788e-17 -6.36296e-17 1.43464e-15 6.39459e-15 -2.5166e-14 -2.69556e-13 -1.75821e-13 6.54128e-12 2.72221e-11 -5.43759e-11 -8.00215e-10 -2.02624e-09 6.97142e-09 6.64603e-08 1.87089e-07 -1.59962e-07 -3.80748e-06 -1.8878e-05 -5.09092e-05 -6.17919e-06 0.00079345 0.00523683 0.0222985 0.0732861 0.196534 0.440193 0.831448 1.32637 1.77685 1.9677 1.73679 1.10498 0.298645 -0.38404 -0.785018 -1.02758 -1.46086 -2.36873 -3.58322 -4.3729 -3.92796 -2.16794 0.00198764 1.44413 1.77513 1.4536 1.04701 0.76086 0.570857 0.439537 0.344326 0.272957 0.221289 0.182648 0.152742 0.130331 0.117907 0.116385 0.123285 0.134428 0.145586 0.15338 0.154439 0.14582 0.126705 0.100424 0.0740194 0.0551967 0.0491035 0.0551967 0.0740194 0.100424 0.126705 0.14582 0.154439 0.15338 0.145586 0.134428 0.123285 0.116385 0.117907 0.130331 0.152742 0.182648 0.221289 0.272957 0.344326 0.439537 0.570857 0.76086 1.04701 1.4536 1.77513 1.44413 0.00198764 -2.16794 -3.92796 -4.3729 -3.58322 -2.36873 -1.46086 -1.02758 -0.785018 -0.38404 0.298645 1.10498 1.73679 1.9677 1.77685 1.32637 0.831448 0.440193 0.196534 0.0732861 0.0222985 0.00523683 0.00079345 -6.17919e-06 -5.09092e-05 -1.8878e-05 -3.80748e-06 -1.59962e-07 1.87089e-07 6.64603e-08 6.97142e-09 -2.02624e-09 -8.00215e-10 -5.43759e-11 2.72221e-11 6.54128e-12 -1.75821e-13 -2.69556e-13 -2.5166e-14 6.39459e-15 1.43464e-15 -6.36296e-17 -4.68788e-17 -1.91914e-18 1.09728e-18 1.23345e-19 -1.87383e-20 -3.98621e-21 1.95008e-22 9.62792e-23 7.31136e-25 -1.89462e-24 -9.80194e-26 3.10329e-26 2.97408e-27 -4.20169e-28 -6.37548e-29 4.49516e-30 1.10755e-30 -3.1978e-32 -1.63227e-32 -1.43858e-35 2.08202e-34 5.24049e-36 -2.31966e-36 -1.09724e-37 2.26434e-38 1.57763e-39 -1.93327e-40 -1.83859e-41 -1.88289e-42 5.98779e-44 0 0 
0 0 0 5.02447e-43 7.87262e-43 -4.85745e-41 -1.80229e-40 4.82755e-39 2.73253e-38 -4.19612e-37 -3.34381e-36 3.1144e-35 3.46071e-34 -1.88232e-33 -3.08643e-32 8.05475e-32 2.38678e-30 -7.32218e-31 -1.597e-28 -2.85737e-28 9.13976e-27 3.63416e-26 -4.34859e-25 -2.93041e-24 1.59664e-23 1.83419e-22 -3.35582e-22 -9.31938e-21 -8.1278e-21 3.7942e-19 1.32525e-18 -1.14406e-17 -8.15891e-17 1.82567e-16 3.34091e-15 4.01366e-15 -9.1575e-14 -4.09317e-13 1.206e-12 1.48283e-11 2.24279e-11 -2.60519e-10 -1.47616e-09 -6.25531e-10 2.52081e-08 1.22797e-07 1.56536e-07 -1.20078e-06 -9.05417e-06 -3.31259e-05 -5.26371e-05 0.000220773 0.00229906 0.0116124 0.0428249 0.126124 0.306874 0.625772 1.07392 1.54552 1.84135 1.76189 1.24963 0.46397 -0.297114 -0.783924 -0.954975 -1.01042 -1.27815 -1.97214 -2.92418 -3.53994 -3.19379 -1.83606 -0.151654 1.00285 1.32428 1.15093 0.880541 0.674647 0.531754 0.428746 0.346177 0.28009 0.228421 0.188568 0.158436 0.137496 0.126266 0.124424 0.129435 0.137353 0.144221 0.146816 0.143147 0.132447 0.115678 0.0960697 0.0778577 0.065319 0.0609717 0.065319 0.0778577 0.0960697 0.115678 0.132447 0.143147 0.146816 0.144221 0.137353 0.129435 0.124424 0.126266 0.137496 0.158436 0.188568 0.228421 0.28009 0.346177 0.428746 0.531754 0.674647 0.880541 1.15093 1.32428 1.00285 -0.151654 -1.83606 -3.19379 -3.53994 -2.92418 -1.97214 -1.27815 -1.01042 -0.954975 -0.783924 -0.297114 0.46397 1.24963 1.76189 1.84135 1.54552 1.07392 0.625772 0.306874 0.126124 0.0428249 0.0116124 0.00229906 0.000220773 -5.26371e-05 -3.31259e-05 -9.05417e-06 -1.20078e-06 1.56536e-07 1.22797e-07 2.52081e-08 -6.25531e-10 -1.47616e-09 -2.60519e-10 2.24279e-11 1.48283e-11 1.206e-12 -4.09317e-13 -9.1575e-14 4.01366e-15 3.34091e-15 1.82567e-16 -8.15891e-17 -1.14406e-17 1.32525e-18 3.7942e-19 -8.12686e-21 -9.2976e-21 -3.34728e-22 1.82996e-22 1.59316e-23 -2.9234e-24 -4.33878e-25 3.6258e-26 9.11984e-27 -2.85058e-28 -1.5936e-28 -7.31737e-31 2.3818e-30 8.03981e-32 -3.08012e-32 -1.87876e-33 3.45375e-34 3.10855e-35 -3.33716e-36 -4.18834e-37 2.72712e-38 4.81876e-39 -1.79748e-40 -4.88125e-41 -7.70854e-42 -4.8991e-44 0 0 
0 0 0 2.48573e-43 -2.50778e-42 -9.43778e-41 1.09564e-40 1.02793e-38 7.33201e-39 -9.93925e-37 -2.51242e-36 8.46283e-35 3.7437e-34 -6.26481e-33 -4.1505e-32 3.93503e-31 3.77646e-30 -1.98495e-29 -2.91329e-28 6.74059e-28 1.92476e-26 8.69946e-28 -1.08527e-24 -2.41751e-24 5.1218e-23 2.3788e-22 -1.91894e-21 -1.56451e-20 4.74937e-20 7.92247e-19 8.99854e-20 -3.10712e-17 -8.83462e-17 8.72481e-16 5.56392e-15 -1.18949e-14 -2.09039e-13 -3.16367e-13 4.74001e-12 2.43973e-11 -2.93116e-11 -6.65598e-10 -1.94108e-09 5.40091e-09 5.92671e-08 1.74622e-07 -1.43596e-07 -3.61101e-06 -1.79953e-05 -4.76233e-05 7.08467e-06 0.000855239 0.0055152 0.0233467 0.076402 0.203568 0.451131 0.83805 1.30373 1.68182 1.756 1.39674 0.681545 -0.12299 -0.724318 -0.981417 -0.967812 -0.912769 -1.07885 -1.59795 -2.30932 -2.75989 -2.50049 -1.52927 -0.310778 0.569563 0.864773 0.856383 0.730733 0.600399 0.494242 0.409663 0.339147 0.279496 0.229986 0.190458 0.160833 0.141165 0.131412 0.130211 0.13464 0.140667 0.144325 0.142961 0.135595 0.123152 0.107815 0.092544 0.0800968 0.0722309 0.0695362 0.0722309 0.0800968 0.092544 0.107815 0.123152 0.135595 0.142961 0.144325 0.140667 0.13464 0.130211 0.131412 0.141165 0.160833 0.190458 0.229986 0.279496 0.339147 0.409663 0.494242 0.600399 0.730733 0.856383 0.864773 0.569563 -0.310778 -1.52927 -2.50049 -2.75989 -2.30932 -1.59795 -1.07885 -0.912769 -0.967812 -0.981417 -0.724318 -0.12299 0.681545 1.39674 1.756 1.68182 1.30373 0.83805 0.451131 0.203568 0.076402 0.0233467 0.0055152 0.000855239 7.08467e-06 -4.76233e-05 -1.79953e-05 -3.61101e-06 -1.43596e-07 1.74622e-07 5.92671e-08 5.40091e-09 -1.94108e-09 -6.65598e-10 -2.93116e-11 2.43973e-11 4.74001e-12 -3.16367e-13 -2.09039e-13 -1.18949e-14 5.56392e-15 8.72481e-16 -8.83462e-17 -3.10712e-17 8.99859e-20 7.92247e-19 4.74983e-20 -1.56007e-20 -1.91367e-21 2.37361e-22 5.11038e-23 -2.41138e-24 -1.08282e-24 8.6093e-28 1.92054e-26 6.72739e-28 -2.90704e-28 -1.981e-29 3.7685e-30 3.92728e-31 -4.14187e-32 -6.25267e-33 3.7359e-34 8.4467e-35 -2.50701e-36 -9.92061e-37 7.31159e-39 1.02603e-38 1.09485e-40 -9.53229e-41 -1.87575e-41 -4.69497e-43 0 0 
0 0 -0 -8.71939e-43 -1.06901e-41 -1.42851e-40 9.52344e-40 1.70118e-38 -6.83277e-38 -1.79786e-36 3.24782e-36 1.68352e-34 2.48027e-35 -1.39116e-32 -2.78254e-32 1.00609e-30 3.9466e-30 -6.26797e-29 -3.87374e-28 3.25552e-27 3.04749e-26 -1.29733e-25 -2.00352e-24 2.78082e-24 1.11121e-22 1.0879e-22 -5.13934e-21 -1.71886e-20 1.89117e-19 1.21203e-18 -4.71623e-18 -6.04111e-17 1.44778e-17 2.22036e-15 5.90605e-15 -5.48366e-14 -3.51171e-13 4.83009e-13 1.12533e-11 2.60762e-11 -1.79463e-10 -1.25889e-09 -1.12991e-09 2.01566e-08 1.08937e-07 1.56668e-07 -1.04422e-06 -8.26166e-06 -3.06001e-05 -4.70394e-05 0.000229697 0.002319 0.0117188 0.0433175 0.127609 0.309448 0.625791 1.05786 1.48497 1.69872 1.51295 0.912178 0.104031 -0.599094 -0.979939 -1.02749 -0.896137 -0.79655 -0.906092 -1.28125 -1.76962 -2.0531 -1.82528 -1.20499 -0.426709 0.199294 0.520498 0.612329 0.584892 0.518379 0.44819 0.383639 0.325031 0.272126 0.225806 0.187657 0.159227 0.1413 0.133637 0.134199 0.139337 0.144676 0.146343 0.141939 0.131589 0.11742 0.102507 0.0898672 0.0811175 0.0764426 0.0749908 0.0764426 0.0811175 0.0898672 0.102507 0.11742 0.131589 0.141939 0.146343 0.144676 0.139337 0.134199 0.133637 0.1413 0.159227 0.187657 0.225806 0.272126 0.325031 0.383639 0.44819 0.518379 0.584892 0.612329 0.520498 0.199294 -0.426709 -1.20499 -1.82528 -2.0531 -1.76962 -1.28125 -0.906092 -0.79655 -0.896137 -1.02749 -0.979939 -0.599094 0.104031 0.912178 1.51295 1.69872 1.48497 1.05786 0.625791 0.309448 0.127609 0.0433175 0.0117188 0.002319 0.000229697 -4.70394e-05 -3.06001e-05 -8.26166e-06 -1.04422e-06 1.56668e-07 1.08937e-07 2.01566e-08 -1.12991e-09 -1.25889e-09 -1.79463e-10 2.60762e-11 1.12533e-11 4.83009e-13 -3.51171e-13 -5.48366e-14 5.90605e-15 2.22036e-15 1.44778e-17 -6.04111e-17 -4.71623e-18 1.21203e-18 1.89129e-19 -1.71219e-20 -5.12505e-21 1.08627e-22 1.10871e-22 2.77558e-24 -1.99899e-24 -1.29461e-25 3.04074e-26 3.24877e-27 -3.8653e-28 -6.25523e-29 3.93802e-30 1.00409e-30 -2.77621e-32 -1.38844e-32 2.46493e-35 1.68029e-34 3.2429e-36 -1.79446e-36 -6.82138e-38 1.698e-38 9.50843e-40 -1.4512e-40 -3.48275e-41 -1.43026e-42 0 0 
0 0 -1.49288e-44 -3.4892e-42 -2.57873e-41 -1.60435e-40 2.63925e-39 2.18028e-38 -2.36988e-37 -2.5704e-36 1.81119e-35 2.6568e-34 -1.11193e-33 -2.41786e-32 4.53585e-32 1.93681e-30 2.58489e-31 -1.35901e-28 -2.77241e-28 8.25879e-27 3.35565e-26 -4.24429e-25 -2.79221e-24 1.74438e-23 1.84805e-22 -4.78001e-22 -1.00927e-20 -9.83307e-22 4.52965e-19 1.15586e-18 -1.58725e-17 -8.73038e-17 3.66921e-16 4.17334e-15 -6.37841e-16 -1.3792e-13 -4.03744e-13 2.72881e-12 2.00778e-11 -1.00407e-12 -4.86166e-10 -1.8076e-09 3.00502e-09 4.78822e-08 1.58973e-07 -7.08053e-08 -3.05703e-06 -1.59517e-05 -4.32428e-05 7.03437e-06 0.000810518 0.00530337 0.0227219 0.0749884 0.200661 0.444461 0.820419 1.2584 1.58206 1.57609 1.13388 0.372019 -0.413113 -0.934114 -1.08939 -0.981022 -0.79758 -0.695807 -0.773764 -1.03822 -1.32817 -1.47456 -1.33668 -0.946382 -0.441233 0.00621301 0.294384 0.427678 0.458847 0.4392 0.399564 0.353391 0.305752 0.259124 0.216176 0.180053 0.153484 0.138091 0.133423 0.136831 0.143914 0.149758 0.150333 0.143742 0.130785 0.114709 0.0993005 0.0878088 0.0811068 0.0783255 0.0776252 0.0783255 0.0811068 0.0878088 0.0993005 0.114709 0.130785 0.143742 0.150333 0.149758 0.143914 0.136831 0.133423 0.138091 0.153484 0.180053 0.216176 0.259124 0.305752 0.353391 0.399564 0.4392 0.458847 0.427678 0.294384 0.00621301 -0.441233 -0.946382 -1.33668 -1.47456 -1.32817 -1.03822 -0.773764 -0.695807 -0.79758 -0.981022 -1.08939 -0.934114 -0.413113 0.372019 1.13388 1.57609 1.58206 1.2584 0.820419 0.444461 0.200661 0.0749884 0.0227219 0.00530337 0.000810518 7.03437e-06 -4.32428e-05 -1.59517e-05 -3.05703e-06 -7.08053e-08 1.58973e-07 4.78822e-08 3.00502e-09 -1.8076e-09 -4.86166e-10 -1.00407e-12 2.00778e-11 2.72881e-12 -4.03744e-13 -1.3792e-13 -6.37841e-16 4.17334e-15 3.66921e-16 -8.73038e-17 -1.58725e-17 1.15587e-18 4.52987e-19 -9.21224e-22 -1.00644e-20 -4.76736e-22 1.84384e-22 1.74059e-23 -2.78585e-24 -4.23521e-25 3.34802e-26 8.24147e-27 -2.76591e-28 -1.35622e-28 2.56827e-31 1.93292e-30 4.52846e-32 -2.41309e-32 -1.10998e-33 2.65164e-34 1.80798e-35 -2.56547e-36 -2.36571e-37 2.17614e-38 2.63465e-39 -1.64475e-40 -5.19102e-41 -3.25382e-42 0 0 
0 0 -1.12644e-43 -8.15949e-42 -4.84623e-41 -9.03578e-41 5.34397e-39 1.84756e-38 -5.29317e-37 -2.72144e-36 4.62801e-35 3.27858e-34 -3.5162e-33 -3.36932e-32 2.25174e-31 3.00524e-30 -1.12957e-29 -2.34137e-28 3.34851e-28 1.5923e-26 9.68111e-27 -9.3778e-25 -2.43964e-24 4.6912e-23 2.28292e-22 -1.9047e-21 -1.5428e-20 5.48182e-20 8.28897e-19 -3.80183e-19 -3.55155e-17 -7.63946e-17 1.14764e-15 5.92624e-15 -2.26099e-14 -2.5995e-13 -9.89076e-14 7.23435e-12 2.66502e-11 -9.27975e-11 -9.7189e-10 -1.63144e-09 1.3584e-08 8.95911e-08 1.62685e-07 -7.56553e-07 -6.83435e-06 -2.65842e-05 -4.37461e-05 0.000195488 0.00209017 0.0108509 0.0408841 0.122075 0.29843 0.604892 1.01796 1.40996 1.56902 1.31894 0.669921 -0.144964 -0.809709 -1.11808 -1.08415 -0.885128 -0.703243 -0.617242 -0.665138 -0.823231 -0.996765 -1.07783 -0.99044 -0.740531 -0.404099 -0.0813606 0.158115 0.298208 0.358841 0.369225 0.352144 0.320812 0.282264 0.241105 0.201562 0.167947 0.144147 0.132189 0.131515 0.138868 0.148936 0.15619 0.156379 0.147981 0.132735 0.114579 0.0980003 0.0863457 0.0801805 0.0780109 0.0776016 0.0780109 0.0801805 0.0863457 0.0980003 0.114579 0.132735 0.147981 0.156379 0.15619 0.148936 0.138868 0.131515 0.132189 0.144147 0.167947 0.201562 0.241105 0.282264 0.320812 0.352144 0.369225 0.358841 0.298208 0.158115 -0.0813606 -0.404099 -0.740531 -0.99044 -1.07783 -0.996765 -0.823231 -0.665138 -0.617242 -0.703243 -0.885128 -1.08415 -1.11808 -0.809709 -0.144964 0.669921 1.31894 1.56902 1.40996 1.01796 0.604892 0.29843 0.122075 0.0408841 0.0108509 0.00209017 0.000195488 -4.37461e-05 -2.65842e-05 -6.83435e-06 -7.56553e-07 1.62685e-07 8.95911e-08 1.3584e-08 -1.63144e-09 -9.7189e-10 -9.27975e-11 2.66502e-11 7.23435e-12 -9.89076e-14 -2.5995e-13 -2.26099e-14 5.92624e-15 1.14764e-15 -7.63946e-17 -3.55155e-17 -3.8018e-19 8.28931e-19 5.47957e-20 -1.53843e-20 -1.90011e-21 2.27758e-22 4.68078e-23 -2.43389e-24 -9.35763e-25 9.65145e-27 1.58894e-26 3.34297e-28 -2.33655e-28 -1.1275e-29 2.99915e-30 2.24758e-31 -3.36258e-32 -3.50975e-33 3.27208e-34 4.61963e-35 -2.71603e-36 -5.28372e-37 1.84381e-38 5.3344e-39 -9.64035e-41 -6.079e-41 -5.94152e-42 0 0 
0 0 -3.63719e-43 -1.50648e-41 -7.66236e-41 1.4368e-40 8.94908e-39 -2.10549e-39 -9.49284e-37 -1.27835e-36 8.99904e-35 2.63489e-34 -7.57178e-33 -3.49523e-32 5.591e-31 3.68351e-30 -3.54971e-29 -3.26827e-28 1.85623e-27 2.49457e-26 -7.08989e-26 -1.64838e-24 9.15608e-25 9.3921e-23 1.43131e-22 -4.53807e-21 -1.69014e-20 1.78304e-19 1.18306e-18 -5.00139e-18 -6.19212e-17 4.30872e-17 2.47948e-15 5.18803e-15 -7.08884e-14 -3.77271e-13 1.03506e-12 1.42296e-11 1.89836e-11 -2.96283e-10 -1.52969e-09 6.65621e-10 3.41534e-08 1.35967e-07 1.86338e-08 -2.27965e-06 -1.29492e-05 -3.73258e-05 -2.51415e-06 0.000670923 0.00461836 0.020425 0.0690346 0.188034 0.421424 0.782019 1.19666 1.48571 1.43638 0.956193 0.186347 -0.565935 -1.05237 -1.16736 -0.997275 -0.761929 -0.572108 -0.486087 -0.513322 -0.618873 -0.735181 -0.790239 -0.736938 -0.574597 -0.345693 -0.110781 0.0817687 0.211721 0.282697 0.309361 0.306827 0.286188 0.254844 0.218448 0.182454 0.152242 0.132223 0.124907 0.129213 0.141228 0.154777 0.163805 0.163959 0.154311 0.136956 0.116661 0.0982982 0.0853214 0.0783081 0.0757033 0.0751414 0.0757033 0.0783081 0.0853214 0.0982982 0.116661 0.136956 0.154311 0.163959 0.163805 0.154777 0.141228 0.129213 0.124907 0.132223 0.152242 0.182454 0.218448 0.254844 0.286188 0.306827 0.309361 0.282697 0.211721 0.0817687 -0.110781 -0.345693 -0.574597 -0.736938 -0.790239 -0.735181 -0.618873 -0.513322 -0.486087 -0.572108 -0.761929 -0.997275 -1.16736 -1.05237 -0.565935 0.186347 0.956193 1.43638 1.48571 1.19666 0.782019 0.421424 0.188034 0.0690346 0.020425 0.00461836 0.000670923 -2.51415e-06 -3.73258e-05 -1.29492e-05 -2.27965e-06 1.86338e-08 1.35967e-07 3.41534e-08 6.65621e-10 -1.52969e-09 -2.96283e-10 1.89836e-11 1.42296e-11 1.03506e-12 -3.77271e-13 -7.08884e-14 5.18803e-15 2.47948e-15 4.30872e-17 -6.19212e-17 -5.00139e-18 1.1831e-18 1.78034e-19 -1.68522e-20 -4.52754e-21 1.42752e-22 9.371e-23 9.14301e-25 -1.64482e-24 -7.07645e-26 2.48927e-26 1.85264e-27 -3.26144e-28 -3.54291e-29 3.67589e-30 5.58044e-31 -3.48798e-32 -7.55771e-33 2.62928e-34 8.98259e-35 -1.27523e-36 -9.47576e-37 -2.10963e-39 8.9327e-39 1.3605e-40 -4.63393e-41 -9.25793e-42 0 0 
0 0 -8.4144e-43 -2.36045e-41 -1.04096e-40 6.23267e-40 1.28412e-38 -5.08665e-38 -1.447e-36 3.04972e-36 1.4641e-34 -6.23306e-35 -1.32585e-32 -1.55102e-32 1.06881e-30 2.96425e-30 -7.60209e-29 -3.4331e-28 4.69646e-27 3.11374e-26 -2.44331e-25 -2.35801e-24 9.93083e-24 1.52276e-22 -2.35647e-22 -8.40253e-21 -5.91753e-21 3.906e-19 1.15185e-18 -1.45708e-17 -8.38179e-17 3.78328e-16 4.20235e-15 -2.51422e-15 -1.52597e-13 -3.61646e-13 3.61525e-12 2.19417e-11 -2.55468e-11 -6.45752e-10 -1.76464e-09 7.32613e-09 6.63674e-08 1.55111e-07 -4.54937e-07 -5.11676e-06 -2.12925e-05 -3.89746e-05 0.000142196 0.00169894 0.00922689 0.0359509 0.110278 0.275386 0.566868 0.9623 1.33305 1.46634 1.19295 0.531406 -0.263534 -0.85175 -1.1584 -1.14503 -0.913606 -0.631118 -0.415102 -0.316919 -0.331264 -0.415666 -0.511435 -0.56402 -0.540043 -0.437124 -0.280617 -0.109291 0.0422753 0.154734 0.224454 0.257438 0.262966 0.249488 0.22391 0.192223 0.160484 0.13471 0.119759 0.117914 0.127775 0.144559 0.161507 0.172268 0.172494 0.161759 0.142755 0.120418 0.0999323 0.0847131 0.0757523 0.0716972 0.0706437 0.0716972 0.0757523 0.0847131 0.0999323 0.120418 0.142755 0.161759 0.172494 0.172268 0.161507 0.144559 0.127775 0.117914 0.119759 0.13471 0.160484 0.192223 0.22391 0.249488 0.262966 0.257438 0.224454 0.154734 0.0422753 -0.109291 -0.280617 -0.437124 -0.540043 -0.56402 -0.511435 -0.415666 -0.331264 -0.316919 -0.415102 -0.631118 -0.913606 -1.14503 -1.1584 -0.85175 -0.263534 0.531406 1.19295 1.46634 1.33305 0.9623 0.566868 0.275386 0.110278 0.0359509 0.00922689 0.00169894 0.000142196 -3.89746e-05 -2.12925e-05 -5.11676e-06 -4.54937e-07 1.55111e-07 6.63674e-08 7.32613e-09 -1.76464e-09 -6.45752e-10 -2.55468e-11 2.19417e-11 3.61525e-12 -3.61646e-13 -1.52597e-13 -2.51422e-15 4.20235e-15 3.78328e-16 -8.38179e-17 -1.45708e-17 1.15185e-18 3.89827e-19 -5.8961e-21 -8.38357e-21 -2.35249e-22 1.51931e-22 9.91034e-24 -2.35286e-24 -2.43839e-25 3.10702e-26 4.68716e-27 -3.4257e-28 -7.58731e-29 2.95768e-30 1.06678e-30 -1.54702e-32 -1.32336e-32 -6.23405e-35 1.4614e-34 3.04552e-36 -1.44437e-36 -5.07888e-38 1.28173e-38 6.15693e-40 1.11085e-41 -1.24832e-41 0 0 
0 0 -1.57838e-42 -3.23072e-41 -1.20151e-40 1.40477e-39 1.57605e-38 -1.37055e-37 -1.89295e-36 1.1537e-35 2.04085e-34 -8.01216e-34 -1.97386e-32 4.03958e-32 1.70888e-30 -5.90347e-31 -1.31873e-28 -1.68688e-28 9.00378e-27 2.65129e-26 -5.36747e-25 -2.59207e-24 2.72363e-23 1.9873e-22 -1.11057e-21 -1.2648e-20 3.02339e-20 6.77532e-19 7.94078e-20 -3.00265e-17 -7.43079e-17 1.03899e-15 5.52687e-15 -2.355e-14 -2.57646e-13 3.22062e-14 8.08145e-12 2.45603e-11 -1.38501e-10 -1.10627e-09 -8.19044e-10 2.09975e-08 1.05003e-07 7.66469e-08 -1.52932e-06 -9.6657e-06 -2.97191e-05 -9.35209e-06 0.000507226 0.00371263 0.0171032 0.0597993 0.167663 0.384924 0.727879 1.12822 1.40626 1.34224 0.865843 0.0954269 -0.66577 -1.18791 -1.36942 -1.22811 -0.892407 -0.527969 -0.257491 -0.129835 -0.130278 -0.20826 -0.30432 -0.36923 -0.374896 -0.317742 -0.214294 -0.0915042 0.0245977 0.116959 0.178932 0.211796 0.220827 0.212105 0.191464 0.164836 0.138472 0.118334 0.109312 0.113293 0.128345 0.149193 0.168685 0.180541 0.180891 0.169499 0.149407 0.125479 0.102784 0.0848462 0.0729663 0.0667269 0.0648024 0.0667269 0.0729663 0.0848462 0.102784 0.125479 0.149407 0.169499 0.180891 0.180541 0.168685 0.149193 0.128345 0.113293 0.109312 0.118334 0.138472 0.164836 0.191464 0.212105 0.220827 0.211796 0.178932 0.116959 0.0245977 -0.0915042 -0.214294 -0.317742 -0.374896 -0.36923 -0.30432 -0.20826 -0.130278 -0.129835 -0.257491 -0.527969 -0.892407 -1.22811 -1.36942 -1.18791 -0.66577 0.0954269 0.865843 1.34224 1.40626 1.12822 0.727879 0.384924 0.167663 0.0597993 0.0171032 0.00371263 0.000507226 -9.35209e-06 -2.97191e-05 -9.6657e-06 -1.52932e-06 7.66469e-08 1.05003e-07 2.09975e-08 -8.19044e-10 -1.10627e-09 -1.38501e-10 2.45603e-11 8.08145e-12 3.22062e-14 -2.57646e-13 -2.355e-14 5.52687e-15 1.03899e-15 -7.43079e-17 -3.00265e-17 7.93348e-20 6.75953e-19 3.01605e-20 -1.26202e-20 -1.10834e-21 1.98272e-22 2.7179e-23 -2.58628e-24 -5.35652e-25 2.64525e-26 8.9858e-27 -1.68253e-28 -1.31615e-28 -5.9058e-31 1.7056e-30 4.03367e-32 -1.97014e-32 -7.99935e-34 2.03705e-34 1.15182e-35 -1.88947e-36 -1.36831e-37 1.57303e-38 1.40056e-39 1.31324e-40 -1.42741e-41 0 0 
0 0 -2.48903e-42 -3.85643e-41 -1.11314e-40 2.47354e-39 1.59804e-38 -2.62291e-37 -2.08695e-36 2.47585e-35 2.42491e-34 -2.05264e-33 -2.51691e-32 1.45798e-31 2.33685e-30 -8.39447e-30 -1.93931e-28 3.28157e-28 1.434e-26 5.69263e-28 -9.3868e-25 -1.62362e-24 5.3741e-23 1.90262e-22 -2.62875e-21 -1.51565e-20 1.04359e-19 9.58333e-19 -2.86694e-18 -4.95603e-17 9.08522e-18 2.05779e-15 4.79713e-15 -6.38125e-14 -3.42471e-13 1.13767e-12 1.40754e-11 1.09487e-11 -3.47975e-10 -1.49512e-09 2.6553e-09 4.3269e-08 1.31012e-07 -2.18789e-07 -3.51989e-06 -1.57766e-05 -3.13687e-05 9.78979e-05 0.0012979 0.00737838 0.02985 0.0946716 0.243668 0.51503 0.893131 1.25864 1.40723 1.12039 0.506001 -0.318461 -1.09785 -1.59579 -1.69682 -1.43816 -0.974246 -0.492455 -0.132193 0.0514797 0.0773944 0.00462586 -0.1006 -0.186379 -0.223688 -0.206591 -0.146514 -0.0637248 0.021106 0.0928528 0.143977 0.173148 0.182858 0.177445 0.161631 0.140664 0.120517 0.106776 0.103714 0.112757 0.131523 0.154609 0.175121 0.187178 0.187522 0.176128 0.155865 0.131181 0.106674 0.0859443 0.0709217 0.0620568 0.0591767 0.0620568 0.0709217 0.0859443 0.106674 0.131181 0.155865 0.176128 0.187522 0.187178 0.175121 0.154609 0.131523 0.112757 0.103714 0.106776 0.120517 0.140664 0.161631 0.177445 0.182858 0.173148 0.143977 0.0928528 0.021106 -0.0637248 -0.146514 -0.206591 -0.223688 -0.186379 -0.1006 0.00462586 0.0773944 0.0514797 -0.132193 -0.492455 -0.974246 -1.43816 -1.69682 -1.59579 -1.09785 -0.318461 0.506001 1.12039 1.40723 1.25864 0.893131 0.51503 0.243668 0.0946716 0.02985 0.00737838 0.0012979 9.78979e-05 -3.13687e-05 -1.57766e-05 -3.51989e-06 -2.18789e-07 1.31012e-07 4.3269e-08 2.6553e-09 -1.49512e-09 -3.47975e-10 1.09487e-11 1.40754e-11 1.13767e-12 -3.42471e-13 -6.38125e-14 4.79713e-15 2.05779e-15 9.08534e-18 -4.95602e-17 -2.86718e-18 9.5574e-19 1.0409e-19 -1.51243e-20 -2.62331e-21 1.89804e-22 5.36275e-23 -1.61959e-24 -9.36753e-25 5.57416e-28 1.43112e-26 3.27673e-28 -1.93549e-28 -8.38048e-30 2.33232e-30 1.45551e-31 -2.5121e-32 -2.04915e-33 2.42033e-34 2.47167e-35 -2.08303e-36 -2.61854e-37 1.59481e-38 2.47718e-39 3.24225e-40 -1.30956e-41 0 0 
0 0 -3.49062e-42 -3.9828e-41 -6.79951e-41 3.7197e-39 1.2062e-38 -4.16329e-37 -1.83733e-36 4.19799e-35 2.39229e-34 -3.78912e-33 -2.72484e-32 3.03059e-31 2.74551e-30 -2.11054e-29 -2.46001e-28 1.23584e-27 1.96293e-26 -5.56822e-26 -1.39225e-24 1.29534e-24 8.72667e-23 7.44759e-23 -4.77634e-21 -1.28364e-20 2.22927e-19 1.08252e-18 -8.38849e-18 -6.75469e-17 2.13697e-16 3.31024e-15 -3.2424e-16 -1.24956e-13 -3.24168e-13 3.26518e-12 1.98536e-11 -3.41475e-11 -6.57691e-10 -1.43051e-09 1.02313e-08 7.24843e-08 1.06001e-07 -8.93574e-07 -6.65873e-06 -2.18707e-05 -1.00768e-05 0.000370751 0.00285272 0.0136632 0.0495107 0.143383 0.339208 0.661269 1.04965 1.33036 1.36232 1.00164 0.2792 -0.64579 -1.50722 -2.04579 -2.12476 -1.78055 -1.18699 -0.562121 -0.0754603 0.198962 0.275545 0.219485 0.106717 -0.00243923 -0.0730662 -0.0945097 -0.0736968 -0.0265765 0.0296162 0.0812432 0.120328 0.144127 0.153248 0.150401 0.139319 0.124353 0.110655 0.102964 0.1047 0.116733 0.136565 0.159356 0.178948 0.190372 0.190758 0.180205 0.161074 0.136855 0.111605 0.0888601 0.0710712 0.059867 0.0560743 0.059867 0.0710712 0.0888601 0.111605 0.136855 0.161074 0.180205 0.190758 0.190372 0.178948 0.159356 0.136565 0.116733 0.1047 0.102964 0.110655 0.124353 0.139319 0.150401 0.153248 0.144127 0.120328 0.0812432 0.0296162 -0.0265765 -0.0736968 -0.0945097 -0.0730662 -0.00243923 0.106717 0.219485 0.275545 0.198962 -0.0754603 -0.562121 -1.18699 -1.78055 -2.12476 -2.04579 -1.50722 -0.64579 0.2792 1.00164 1.36232 1.33036 1.04965 0.661269 0.339208 0.143383 0.0495107 0.0136632 0.00285272 0.000370751 -1.00768e-05 -2.18707e-05 -6.65873e-06 -8.93574e-07 1.06001e-07 7.24843e-08 1.02313e-08 -1.43051e-09 -6.57691e-10 -3.41475e-11 1.98536e-11 3.26518e-12 -3.24168e-13 -1.24956e-13 -3.2424e-16 3.31024e-15 2.13697e-16 -6.7547e-17 -8.38898e-18 1.07897e-18 2.22347e-19 -1.28106e-20 -4.76633e-21 7.42406e-23 8.70822e-23 1.29374e-24 -1.38938e-24 -5.55868e-26 1.95897e-26 1.23366e-27 -2.45511e-28 -2.10682e-29 2.74012e-30 3.02529e-31 -2.71952e-32 -3.78257e-33 2.38761e-34 4.19083e-35 -1.83369e-36 -4.15629e-37 1.20343e-38 3.73594e-39 5.79824e-40 -7.92429e-42 0 0 
0 0 -4.44742e-42 -3.51824e-41 8.57529e-42 4.97986e-39 3.77436e-39 -5.80517e-37 -1.07225e-36 6.13451e-35 1.81996e-34 -5.85368e-33 -2.43562e-32 5.01535e-31 2.7578e-30 -3.82467e-29 -2.71626e-28 2.558e-27 2.35648e-26 -1.45892e-25 -1.80967e-24 6.64845e-24 1.22993e-22 -1.92674e-22 -7.35768e-21 -2.51542e-21 3.82505e-19 8.63768e-19 -1.67816e-17 -7.52316e-17 5.77354e-16 4.49461e-15 -1.23406e-14 -2.01721e-13 -8.96968e-14 6.57213e-12 2.20826e-11 -1.26868e-10 -1.02775e-09 -3.34497e-10 2.32368e-08 1.01576e-07 -3.03476e-08 -2.13314e-06 -1.0916e-05 -2.38417e-05 6.52355e-05 0.000960712 0.0056994 0.0238808 0.078412 0.208924 0.451423 0.813551 1.1954 1.4603 1.44785 1.03141 0.215868 -0.833914 -1.83236 -2.48512 -2.6173 -2.24358 -1.54391 -0.766945 -0.122653 0.281425 0.443 0.426894 0.318465 0.189989 0.086614 0.0268161 0.00931118 0.0222242 0.0509358 0.0828017 0.109635 0.127433 0.135383 0.134751 0.128102 0.118825 0.110722 0.107516 0.11165 0.123644 0.141381 0.161099 0.1779 0.187945 0.188856 0.180415 0.164009 0.142088 0.117907 0.094565 0.0753528 0.0626143 0.0582247 0.0626143 0.0753528 0.094565 0.117907 0.142088 0.164009 0.180415 0.188856 0.187945 0.1779 0.161099 0.141381 0.123644 0.11165 0.107516 0.110722 0.118825 0.128102 0.134751 0.135383 0.127433 0.109635 0.0828017 0.0509358 0.0222242 0.00931118 0.0268161 0.086614 0.189989 0.318465 0.426894 0.443 0.281425 -0.122653 -0.766945 -1.54391 -2.24358 -2.6173 -2.48512 -1.83236 -0.833914 0.215868 1.03141 1.44785 1.4603 1.1954 0.813551 0.451423 0.208924 0.078412 0.0238808 0.0056994 0.000960712 6.52355e-05 -2.38417e-05 -1.0916e-05 -2.13314e-06 -3.03476e-08 1.01576e-07 2.32368e-08 -3.34497e-10 -1.02775e-09 -1.26868e-10 2.20826e-11 6.57213e-12 -8.96968e-14 -2.01721e-13 -1.23406e-14 4.49461e-15 5.77355e-16 -7.52316e-17 -1.67824e-17 8.59686e-19 3.81506e-19 -2.51319e-21 -7.34213e-21 -1.92375e-22 1.22733e-22 6.63644e-24 -1.80591e-24 -1.45625e-25 2.35167e-26 2.55335e-27 -2.71076e-28 -3.81781e-29 2.75222e-30 5.00649e-31 -2.43062e-32 -5.8435e-33 1.81608e-34 6.12401e-35 -1.06974e-36 -5.79538e-37 3.75836e-39 5.01224e-39 8.68672e-40 1.04242e-42 0 0 
0 0 -5.259e-42 -2.59532e-41 1.05755e-40 6.11281e-39 -7.64964e-39 -7.36331e-37 1.14347e-37 8.0719e-35 7.50794e-35 -8.03125e-33 -1.63197e-32 7.22548e-31 2.30426e-30 -5.84603e-29 -2.60825e-28 4.21791e-27 2.51096e-26 -2.67553e-25 -2.10463e-24 1.45271e-23 1.55038e-22 -6.35391e-22 -1.00514e-20 1.82928e-20 5.70284e-19 1.18837e-19 -2.78304e-17 -6.21131e-17 1.11836e-15 5.15129e-15 -3.34165e-14 -2.8055e-13 4.89921e-13 1.09451e-11 1.58361e-11 -2.80115e-10 -1.35551e-09 2.5338e-09 4.20755e-08 1.1544e-07 -3.59476e-07 -4.09166e-06 -1.57227e-05 -1.44782e-05 0.000239909 0.00208103 0.0105974 0.0398222 0.117642 0.293588 0.569883 0.945826 1.34557 1.63121 1.62958 1.20017 0.323435 -0.848326 -2.01793 -2.85195 -3.12119 -2.79527 -2.03958 -1.12427 -0.304098 0.266569 0.553644 0.610912 0.528845 0.392633 0.261107 0.163949 0.107911 0.0861918 0.0869562 0.0986815 0.112668 0.123913 0.130118 0.131073 0.128081 0.123162 0.118897 0.117733 0.121259 0.129917 0.14257 0.156879 0.169809 0.178401 0.180822 0.176041 0.164431 0.14705 0.126165 0.104553 0.085721 0.07279 0.068236 0.07279 0.085721 0.104553 0.126165 0.14705 0.164431 0.176041 0.180822 0.178401 0.169809 0.156879 0.14257 0.129917 0.121259 0.117733 0.118897 0.123162 0.128081 0.131073 0.130118 0.123913 0.112668 0.0986815 0.0869562 0.0861918 0.107911 0.163949 0.261107 0.392633 0.528845 0.610912 0.553644 0.266569 -0.304098 -1.12427 -2.03958 -2.79527 -3.12119 -2.85195 -2.01793 -0.848326 0.323435 1.20017 1.62958 1.63121 1.34557 0.945826 0.569883 0.293588 0.117642 0.0398222 0.0105974 0.00208103 0.000239909 -1.44782e-05 -1.57227e-05 -4.09166e-06 -3.59476e-07 1.1544e-07 4.20755e-08 2.5338e-09 -1.35551e-09 -2.80115e-10 1.58361e-11 1.09451e-11 4.89921e-13 -2.8055e-13 -3.34165e-14 5.15129e-15 1.11836e-15 -6.21132e-17 -2.78316e-17 1.15094e-19 5.68792e-19 1.82499e-20 -1.003e-20 -6.34198e-22 1.54708e-22 1.44998e-23 -2.10019e-24 -2.67053e-25 2.50573e-26 4.21017e-27 -2.60278e-28 -5.83549e-29 2.2993e-30 7.21268e-31 -1.62817e-32 -8.01725e-33 7.48549e-35 8.05805e-35 1.15049e-37 -7.35088e-37 -7.64879e-39 6.16249e-39 1.15398e-39 1.22015e-41 0 0 
0 0 -5.75979e-42 -1.50609e-41 2.04022e-40 7.03446e-39 -1.99993e-38 -8.70406e-37 1.50241e-36 9.83022e-35 -6.29626e-35 -1.01132e-32 -4.37927e-33 9.45173e-31 1.43678e-30 -7.99424e-29 -2.1246e-28 6.08463e-27 2.37499e-26 -4.13073e-25 -2.21268e-24 2.46369e-23 1.77743e-22 -1.25421e-21 -1.24707e-20 5.09646e-20 7.65685e-19 -1.30409e-18 -4.07693e-17 -1.71982e-17 1.82776e-15 4.68886e-15 -6.48685e-14 -3.38464e-13 1.54081e-12 1.58659e-11 -5.21055e-12 -4.97532e-10 -1.45598e-09 7.97221e-09 6.51706e-08 8.876e-08 -9.66463e-07 -6.70994e-06 -1.9088e-05 1.7986e-05 0.00055866 0.00387664 0.0181582 0.0640016 0.16084 0.345835 0.639307 1.03565 1.46945 1.80545 1.86127 1.47309 0.586381 -0.67653 -2.02276 -3.08555 -3.57211 -3.38458 -2.64776 -1.63473 -0.640791 0.123776 0.577594 0.748951 0.724792 0.600885 0.451637 0.321064 0.226828 0.169329 0.140451 0.130138 0.129614 0.132575 0.135486 0.136564 0.135517 0.133043 0.130192 0.128321 0.128455 0.131319 0.137031 0.144903 0.153764 0.161741 0.167048 0.167877 0.163151 0.152691 0.137589 0.120181 0.103936 0.0923206 0.0881234 0.0923206 0.103936 0.120181 0.137589 0.152691 0.163151 0.167877 0.167048 0.161741 0.153764 0.144903 0.137031 0.131319 0.128455 0.128321 0.130192 0.133043 0.135517 0.136564 0.135486 0.132575 0.129614 0.130138 0.140451 0.169329 0.226828 0.321064 0.451637 0.600885 0.724792 0.748951 0.577594 0.123776 -0.640791 -1.63473 -2.64776 -3.38458 -3.57211 -3.08555 -2.02276 -0.67653 0.586381 1.47309 1.86127 1.80545 1.46945 1.03565 0.639307 0.345835 0.16084 0.0640016 0.0181582 0.00387664 0.00055866 1.7986e-05 -1.9088e-05 -6.70994e-06 -9.66463e-07 8.876e-08 6.51706e-08 7.97221e-09 -1.45598e-09 -4.97532e-10 -5.21055e-12 1.58659e-11 1.54081e-12 -3.38464e-13 -6.48685e-14 4.68886e-15 1.82776e-15 -1.71983e-17 -4.07708e-17 -1.30622e-18 7.63683e-19 5.08533e-20 -1.24437e-20 -1.25177e-21 1.77363e-22 2.45901e-23 -2.20792e-24 -4.12297e-25 2.36985e-26 6.07343e-27 -2.11981e-28 -7.97981e-29 1.43312e-30 9.43497e-31 -4.35967e-33 -1.00956e-32 -6.29748e-35 9.81335e-35 1.501e-36 -8.68935e-37 -1.99802e-38 7.09986e-39 1.40269e-39 2.31904e-41 0 0 
0 0 -6.12215e-42 -5.64055e-42 2.84394e-40 7.70815e-39 -3.09311e-38 -9.74877e-37 2.83533e-36 1.12832e-34 -2.07606e-34 -1.19324e-32 9.4725e-33 1.15061e-30 2.84963e-31 -1.0088e-28 -1.32078e-28 8.00904e-27 1.94412e-26 -5.72233e-25 -2.09466e-24 3.64308e-23 1.86243e-22 -2.03123e-21 -1.42065e-20 9.58601e-20 9.42461e-19 -3.5204e-18 -5.43282e-17 7.04919e-17 2.66701e-15 2.39938e-15 -1.06873e-13 -3.42387e-13 3.17199e-12 2.0313e-11 -4.85176e-11 -7.68505e-10 -1.05354e-09 1.67016e-08 8.82003e-08 -1.39466e-08 -1.92226e-06 -9.55007e-06 -1.59472e-05 0.000102207 0.00110433 0.00620266 0.0263341 0.07453 0.175367 0.361822 0.660944 1.07338 1.54488 1.94839 2.0974 1.80392 0.97012 -0.328797 -1.82536 -3.1351 -3.90267 -3.94625 -3.32227 -2.28004 -1.14099 -0.172783 0.482762 0.812022 0.885512 0.803153 0.654092 0.499134 0.369763 0.275918 0.215126 0.179733 0.161334 0.152962 0.149512 0.147816 0.145939 0.143139 0.139117 0.134228 0.129281 0.12544 0.124089 0.126191 0.132031 0.14072 0.15036 0.158312 0.1623 0.160594 0.153445 0.142406 0.130726 0.121834 0.118526 0.121834 0.130726 0.142406 0.153445 0.160594 0.1623 0.158312 0.15036 0.14072 0.132031 0.126191 0.124089 0.12544 0.129281 0.134228 0.139117 0.143139 0.145939 0.147816 0.149512 0.152962 0.161334 0.179733 0.215126 0.275918 0.369763 0.499134 0.654092 0.803153 0.885512 0.812022 0.482762 -0.172783 -1.14099 -2.28004 -3.32227 -3.94625 -3.90267 -3.1351 -1.82536 -0.328797 0.97012 1.80392 2.0974 1.94839 1.54488 1.07338 0.660944 0.361822 0.175367 0.07453 0.0263341 0.00620266 0.00110433 0.000102207 -1.59472e-05 -9.55007e-06 -1.92226e-06 -1.39466e-08 8.82003e-08 1.67016e-08 -1.05354e-09 -7.68505e-10 -4.85176e-11 2.0313e-11 3.17199e-12 -3.42387e-13 -1.06873e-13 2.39938e-15 2.66701e-15 7.04917e-17 -5.433e-17 -3.51927e-18 9.39994e-19 9.56575e-20 -1.41753e-20 -2.02723e-21 1.85838e-22 3.63614e-23 -2.08998e-24 -5.71159e-25 1.93959e-26 7.99432e-27 -1.31722e-28 -1.00698e-28 2.8309e-31 1.14858e-30 9.47082e-33 -1.19117e-32 -2.07398e-34 1.12639e-34 2.83192e-36 -9.73235e-37 -3.0896e-38 7.78535e-39 1.59033e-39 3.17598e-41 0 0 
0 0 -6.24565e-42 3.5064e-43 3.35086e-40 8.11358e-39 -3.88647e-38 -1.04491e-36 3.92376e-36 1.23458e-34 -3.39095e-34 -1.33664e-32 2.34751e-32 1.32394e-30 -1.02289e-30 -1.19713e-28 -2.64028e-29 9.85149e-27 1.2284e-26 -7.34491e-25 -1.72098e-24 4.92653e-23 1.75877e-22 -2.93864e-21 -1.48123e-20 1.52682e-19 1.06816e-18 -6.62024e-18 -6.66749e-17 2.12243e-16 3.56151e-15 -2.56691e-15 -1.57995e-13 -2.46258e-13 5.45554e-12 2.25447e-11 -1.22487e-10 -1.05824e-09 2.49154e-10 2.91507e-08 1.0204e-07 -2.4551e-07 -3.31333e-06 -1.21481e-05 -6.01099e-07 0.000286445 0.00216796 0.00861964 0.0277094 0.0734149 0.169621 0.348723 0.641976 1.05937 1.56136 2.03543 2.2986 2.14381 1.42751 0.164328 -1.42656 -2.96677 -4.05126 -4.40784 -4.00018 -3.02228 -1.79694 -0.64039 0.237847 0.766167 0.982504 0.980009 0.858238 0.694933 0.538101 0.409983 0.315809 0.251954 0.211455 0.187107 0.172918 0.164336 0.15794 0.151615 0.143986 0.134715 0.12435 0.114529 0.107613 0.105759 0.110326 0.120968 0.135827 0.151502 0.164696 0.172668 0.174555 0.171332 0.165507 0.160336 0.158244 0.160336 0.165507 0.171332 0.174555 0.172668 0.164696 0.151502 0.135827 0.120968 0.110326 0.105759 0.107613 0.114529 0.12435 0.134715 0.143986 0.151615 0.15794 0.164336 0.172918 0.187107 0.211455 0.251954 0.315809 0.409983 0.538101 0.694933 0.858238 0.980009 0.982504 0.766167 0.237847 -0.64039 -1.79694 -3.02228 -4.00018 -4.40784 -4.05126 -2.96677 -1.42656 0.164328 1.42751 2.14381 2.2986 2.03543 1.56136 1.05937 0.641976 0.348723 0.169621 0.0734149 0.0277094 0.00861964 0.00216796 0.000286445 -6.01099e-07 -1.21481e-05 -3.31333e-06 -2.4551e-07 1.0204e-07 2.91507e-08 2.49154e-10 -1.05824e-09 -1.22487e-10 2.25447e-11 5.45554e-12 -2.46258e-13 -1.57995e-13 -2.56691e-15 3.56151e-15 2.12242e-16 -6.6677e-17 -6.61386e-18 1.06535e-18 1.52367e-19 -1.47787e-20 -2.93283e-21 1.75483e-22 4.91715e-23 -1.71684e-24 -7.33116e-25 1.22497e-26 9.83345e-27 -2.62109e-29 -1.19498e-28 -1.02276e-30 1.3216e-30 2.34522e-32 -1.33432e-32 -3.38693e-34 1.23247e-34 3.91877e-36 -1.04315e-36 -3.88186e-38 8.19737e-39 1.7025e-39 3.67487e-41 0 0 
0 0 -6.15337e-42 2.75581e-42 3.53991e-40 8.24149e-39 -4.32899e-38 -1.0783e-36 4.68458e-36 1.29747e-34 -4.4673e-34 -1.43449e-32 3.65046e-32 1.45553e-30 -2.39196e-30 -1.35321e-28 9.86819e-29 1.15006e-26 2.44044e-27 -8.90474e-25 -1.07196e-24 6.24901e-23 1.42644e-22 -3.94199e-21 -1.38515e-20 2.20429e-19 1.10732e-18 -1.06476e-17 -7.55336e-17 4.17576e-16 4.39862e-15 -1.1074e-14 -2.14481e-13 4.34624e-15 8.36544e-12 2.00777e-11 -2.33367e-10 -1.29073e-09 2.93201e-09 4.45832e-08 8.86584e-08 -6.75488e-07 -5.10905e-06 -1.34757e-05 2.44478e-05 0.000464958 0.0022763 0.00822811 0.0249093 0.0652913 0.151693 0.31589 0.592327 1.00068 1.51847 2.05348 2.43545 2.44784 1.90584 0.756583 -0.84953 -2.56862 -3.96996 -4.6977 -4.60688 -3.80454 -2.58188 -1.28326 -0.183687 0.574992 0.98035 1.10363 1.0459 0.899325 0.729416 0.57339 0.447007 0.352652 0.286115 0.241087 0.211105 0.190847 0.175816 0.162764 0.149569 0.135284 0.120358 0.106442 0.096256 0.0925067 0.0971031 0.110038 0.129423 0.151773 0.172997 0.189917 0.200588 0.205348 0.205932 0.204889 0.204294 0.204889 0.205932 0.205348 0.200588 0.189917 0.172997 0.151773 0.129423 0.110038 0.0971031 0.0925067 0.096256 0.106442 0.120358 0.135284 0.149569 0.162764 0.175816 0.190847 0.211105 0.241087 0.286115 0.352652 0.447007 0.57339 0.729416 0.899325 1.0459 1.10363 0.98035 0.574992 -0.183687 -1.28326 -2.58188 -3.80454 -4.60688 -4.6977 -3.96996 -2.56862 -0.84953 0.756583 1.90584 2.44784 2.43545 2.05348 1.51847 1.00068 0.592327 0.31589 0.151693 0.0652913 0.0249093 0.00822811 0.0022763 0.000464958 2.44478e-05 -1.34757e-05 -5.10905e-06 -6.75488e-07 8.86584e-08 4.45832e-08 2.93201e-09 -1.29073e-09 -2.33367e-10 2.00777e-11 8.36544e-12 4.34624e-15 -2.14481e-13 -1.1074e-14 4.39862e-15 4.17575e-16 -7.55356e-17 -1.06336e-17 1.10438e-18 2.19984e-19 -1.38184e-20 -3.93419e-21 1.42302e-22 6.23715e-23 -1.06884e-24 -8.88815e-25 2.42161e-27 1.14797e-26 9.86806e-29 -1.35079e-28 -2.38976e-30 1.45298e-30 3.64626e-32 -1.43202e-32 -4.46174e-34 1.29527e-34 4.67856e-36 -1.0765e-36 -4.32384e-38 8.32658e-39 1.736e-39 3.80129e-41 0 0 
0 0 -5.89958e-42 2.46428e-42 3.46368e-40 8.09393e-39 -4.45608e-38 -1.07455e-36 5.12346e-36 1.31481e-34 -5.27668e-34 -1.48193e-32 4.80164e-32 1.53739e-30 -3.76062e-30 -1.46635e-28 2.38506e-28 1.28372e-26 -9.92799e-27 -1.02897e-24 -1.30317e-25 7.52264e-23 8.24157e-23 -4.98601e-21 -1.08279e-20 2.96642e-19 1.01602e-18 -1.55723e-17 -7.78491e-17 6.93984e-16 5.01371e-15 -2.40448e-14 -2.70103e-13 4.74197e-13 1.17959e-11 9.79865e-12 -3.86039e-10 -1.36692e-09 7.48471e-09 6.20213e-08 3.43591e-08 -1.32388e-06 -7.0056e-06 -1.09003e-05 4.44103e-05 0.000409423 0.00188034 0.00671498 0.0203483 0.0540289 0.127838 0.271999 0.522697 0.908092 1.42321 2.00013 2.49016 2.67966 2.35323 1.39173 -0.137332 -1.95306 -3.63133 -4.75316 -5.06229 -4.55284 -3.4473 -2.08681 -0.797601 0.2038 0.838476 1.13739 1.18953 1.09468 0.934726 0.763708 0.610545 0.486359 0.391635 0.322266 0.272368 0.236112 0.208863 0.186458 0.166266 0.146868 0.128378 0.112098 0.100479 0.0960702 0.100711 0.114629 0.136183 0.162154 0.188577 0.211874 0.229747 0.241572 0.248211 0.251206 0.252033 0.251206 0.248211 0.241572 0.229747 0.211874 0.188577 0.162154 0.136183 0.114629 0.100711 0.0960702 0.100479 0.112098 0.128378 0.146868 0.166266 0.186458 0.208863 0.236112 0.272368 0.322266 0.391635 0.486359 0.610545 0.763708 0.934726 1.09468 1.18953 1.13739 0.838476 0.2038 -0.797601 -2.08681 -3.4473 -4.55284 -5.06229 -4.75316 -3.63133 -1.95306 -0.137332 1.39173 2.35323 2.67966 2.49016 2.00013 1.42321 0.908092 0.522697 0.271999 0.127838 0.0540289 0.0203483 0.00671498 0.00188034 0.000409423 4.44103e-05 -1.09003e-05 -7.0056e-06 -1.32388e-06 3.43591e-08 6.20213e-08 7.48471e-09 -1.36692e-09 -3.86039e-10 9.79865e-12 1.17959e-11 4.74197e-13 -2.70103e-13 -2.40448e-14 5.01371e-15 6.93984e-16 -7.78508e-17 -1.55483e-17 1.01327e-18 2.96054e-19 -1.0799e-20 -4.97615e-21 8.21766e-23 7.50843e-23 -1.2875e-25 -1.02706e-24 -9.92703e-27 1.28139e-26 2.38287e-28 -1.46374e-28 -3.75636e-30 1.5347e-30 4.79578e-32 -1.4794e-32 -5.27002e-34 1.3126e-34 5.11693e-36 -1.07278e-36 -4.45085e-38 8.1758e-39 1.69748e-39 3.62765e-41 0 0 
0 0 -5.42321e-42 1.5587e-43 3.13989e-40 7.64665e-39 -4.24429e-38 -1.02906e-36 5.15478e-36 1.2785e-34 -5.66076e-34 -1.46611e-32 5.57921e-32 1.55119e-30 -4.87359e-30 -1.51331e-28 3.6847e-28 1.35988e-26 -2.28574e-26 -1.12371e-24 9.8092e-25 8.51569e-23 8.28778e-26 -5.89279e-21 -5.67351e-21 3.69721e-19 7.58654e-19 -2.07855e-17 -6.95834e-17 1.01978e-15 5.10204e-15 -4.14173e-14 -3.08381e-13 1.22447e-12 1.51821e-11 -1.33976e-11 -5.77628e-10 -1.08636e-09 1.45735e-08 7.8875e-08 -7.22335e-08 -2.09019e-06 -9.26641e-06 -1.48192e-05 2.3463e-05 0.000283177 0.00136386 0.00500207 0.0155225 0.0422448 0.102545 0.224088 0.44302 0.793732 1.28728 1.8816 2.45653 2.81428 2.72401 2.00993 0.651544 -1.15675 -3.03327 -4.52875 -5.28869 -5.18011 -4.32179 -3.01217 -1.60143 -0.373724 0.515073 1.03703 1.25116 1.25301 1.13594 0.971016 0.802674 0.653696 0.531775 0.436618 0.364269 0.309408 0.267247 0.233634 0.205498 0.18089 0.159313 0.14136 0.12867 0.123142 0.126163 0.138197 0.158039 0.183287 0.210595 0.236711 0.25899 0.276068 0.287647 0.294212 0.296305 0.294212 0.287647 0.276068 0.25899 0.236711 0.210595 0.183287 0.158039 0.138197 0.126163 0.123142 0.12867 0.14136 0.159313 0.18089 0.205498 0.233634 0.267247 0.309408 0.364269 0.436618 0.531775 0.653696 0.802674 0.971016 1.13594 1.25301 1.25116 1.03703 0.515073 -0.373724 -1.60143 -3.01217 -4.32179 -5.18011 -5.28869 -4.52875 -3.03327 -1.15675 0.651544 2.00993 2.72401 2.81428 2.45653 1.8816 1.28728 0.793732 0.44302 0.224088 0.102545 0.0422448 0.0155225 0.00500207 0.00136386 0.000283177 2.3463e-05 -1.48192e-05 -9.26641e-06 -2.09019e-06 -7.22335e-08 7.8875e-08 1.45735e-08 -1.08636e-09 -5.77628e-10 -1.33976e-11 1.51821e-11 1.22447e-12 -3.08381e-13 -4.14173e-14 5.10204e-15 1.01978e-15 -6.95846e-17 -2.07501e-17 7.56497e-19 3.69005e-19 -5.6526e-21 -5.8812e-21 -1.59178e-26 8.49969e-23 9.80661e-25 -1.12164e-24 -2.28358e-26 1.35743e-26 3.68052e-28 -1.51064e-28 -4.86769e-30 1.54851e-30 5.57227e-32 -1.46362e-32 -5.65366e-34 1.27637e-34 5.14832e-36 -1.02738e-36 -4.23945e-38 7.72116e-39 1.5854e-39 3.20632e-41 0 0 
0 0 -4.76363e-42 -5.24409e-42 2.51625e-40 6.94607e-39 -3.56871e-38 -9.47587e-37 4.54831e-36 1.19455e-34 -5.26206e-34 -1.39164e-32 5.49979e-32 1.49821e-30 -5.15324e-30 -1.49016e-28 4.27154e-28 1.3686e-26 -3.05281e-26 -1.15942e-24 1.77205e-24 9.04325e-23 -6.812e-23 -6.47407e-21 -6.94907e-22 4.23189e-19 4.55421e-19 -2.50453e-17 -5.51336e-17 1.31596e-15 4.68864e-15 -5.91996e-14 -3.17345e-13 2.1215e-12 1.74364e-11 -4.91651e-11 -7.59122e-10 -1.55343e-10 2.37762e-08 7.44343e-08 -3.95512e-07 -2.90981e-06 -9.83928e-06 -1.82155e-05 -2.80686e-07 0.000165339 0.000902937 0.00348399 0.0112032 0.0314662 0.0787271 0.177305 0.361554 0.669293 1.1246 1.71029 2.33873 2.83931 2.98313 2.55417 1.44933 -0.237918 -2.20197 -4.00401 -5.22044 -5.5936 -5.11273 -3.99179 -2.56627 -1.16665 -0.0257956 0.75435 1.18283 1.3343 1.30372 1.17582 1.01175 0.84859 0.70446 0.585136 0.490049 0.415564 0.357342 0.31127 0.274129 0.243573 0.218285 0.197907 0.182876 0.17433 0.173023 0.179598 0.193545 0.213474 0.237126 0.261917 0.285217 0.304949 0.319853 0.328949 0.332088 0.328949 0.319853 0.304949 0.285217 0.261917 0.237126 0.213474 0.193545 0.179598 0.173023 0.17433 0.182876 0.197907 0.218285 0.243573 0.274129 0.31127 0.357342 0.415564 0.490049 0.585136 0.70446 0.84859 1.01175 1.17582 1.30372 1.3343 1.18283 0.75435 -0.0257956 -1.16665 -2.56627 -3.99179 -5.11273 -5.5936 -5.22044 -4.00401 -2.20197 -0.237918 1.44933 2.55417 2.98313 2.83931 2.33873 1.71029 1.1246 0.669293 0.361554 0.177305 0.0787271 0.0314662 0.0112032 0.00348399 0.000902937 0.000165339 -2.80686e-07 -1.82155e-05 -9.83928e-06 -2.90981e-06 -3.95512e-07 7.44343e-08 2.37762e-08 -1.55343e-10 -7.59122e-10 -4.91651e-11 1.74364e-11 2.1215e-12 -3.17345e-13 -5.91996e-14 4.68864e-15 1.31595e-15 -5.51341e-17 -2.5e-17 4.53939e-19 4.22384e-19 -6.81785e-22 -6.46142e-21 -6.81057e-23 9.02638e-23 1.77053e-24 -1.1573e-24 -3.0495e-26 1.36615e-26 4.26651e-28 -1.48756e-28 -5.14702e-30 1.49564e-30 5.4931e-32 -1.38931e-32 -5.25569e-34 1.19258e-34 4.54286e-36 -9.46056e-37 -3.56488e-38 7.00904e-39 1.40172e-39 2.50208e-41 0 0 
0 0 -4.03077e-42 -1.38118e-41 1.61143e-40 6.06308e-39 -2.41941e-38 -8.40155e-37 3.23612e-36 1.07613e-34 -3.9251e-34 -1.27443e-32 4.30111e-32 1.39571e-30 -4.23191e-30 -1.41358e-28 3.69871e-28 1.32376e-26 -2.81386e-26 -1.14555e-24 1.78219e-24 9.1493e-23 -8.24675e-23 -6.72881e-21 1.02721e-21 4.5384e-19 3.20968e-19 -2.7886e-17 -4.78313e-17 1.5355e-15 4.49396e-15 -7.35403e-14 -3.29055e-13 2.89773e-12 1.95049e-11 -8.23383e-11 -9.26608e-10 7.98028e-10 3.32689e-08 8.87259e-08 -2.76407e-07 -2.41667e-06 -8.58475e-06 -1.84668e-05 -1.55944e-05 7.8949e-05 0.000551152 0.00229 0.00769802 0.0224217 0.0580153 0.134999 0.284485 0.544868 0.949335 1.50226 2.14926 2.75499 3.10916 2.97647 2.18629 0.728905 -1.1918 -3.19005 -4.81514 -5.70621 -5.71301 -4.92894 -3.62942 -2.15602 -0.803876 0.244732 0.93066 1.2873 1.39603 1.3472 1.21666 1.05752 0.901178 0.762595 0.64668 0.552861 0.478103 0.418794 0.371476 0.333499 0.302642 0.277774 0.258167 0.244009 0.2357 0.233763 0.238556 0.249628 0.265905 0.285506 0.30627 0.325572 0.341316 0.351456 0.355003 0.351456 0.341316 0.325572 0.30627 0.285506 0.265905 0.249628 0.238556 0.233763 0.2357 0.244009 0.258167 0.277774 0.302642 0.333499 0.371476 0.418794 0.478103 0.552861 0.64668 0.762595 0.901178 1.05752 1.21666 1.3472 1.39603 1.2873 0.93066 0.244732 -0.803876 -2.15602 -3.62942 -4.92894 -5.71301 -5.70621 -4.81514 -3.19005 -1.1918 0.728905 2.18629 2.97647 3.10916 2.75499 2.14926 1.50226 0.949335 0.544868 0.284485 0.134999 0.0580153 0.0224217 0.00769802 0.00229 0.000551152 7.8949e-05 -1.55944e-05 -1.84668e-05 -8.58475e-06 -2.41667e-06 -2.76407e-07 8.87259e-08 3.32689e-08 7.98028e-10 -9.26608e-10 -8.23383e-11 1.95049e-11 2.89773e-12 -3.29055e-13 -7.35403e-14 4.49396e-15 1.5355e-15 -4.78317e-17 -2.78348e-17 3.19784e-19 4.52993e-19 1.03821e-21 -6.71582e-21 -8.24363e-23 9.13246e-23 1.78075e-24 -1.14348e-24 -2.81105e-26 1.32143e-26 3.69472e-28 -1.41114e-28 -4.22724e-30 1.39336e-30 4.29636e-32 -1.27233e-32 -3.92081e-34 1.07439e-34 3.23266e-36 -8.38824e-37 -2.41723e-38 6.11092e-39 1.16008e-39 1.5473e-41 0 0 
0 0 -3.23004e-42 -2.35059e-41 5.6017e-41 5.01814e-39 -9.67132e-39 -7.09154e-37 1.40803e-36 9.26102e-35 -1.82735e-34 -1.11792e-32 2.11076e-32 1.24764e-30 -2.1557e-30 -1.28751e-28 1.91733e-28 1.22847e-26 -1.43545e-26 -1.08331e-24 8.24393e-25 8.82018e-23 -2.29531e-23 -6.61776e-21 -2.27705e-21 4.5598e-19 4.87113e-19 -2.86865e-17 -5.58035e-17 1.6239e-15 4.90675e-15 -8.05983e-14 -3.55693e-13 3.33911e-12 2.14121e-11 -1.03528e-10 -1.03629e-09 1.89349e-09 4.50041e-08 1.25225e-07 -3.03343e-08 -1.48314e-06 -6.38081e-06 -1.60761e-05 -2.21277e-05 2.41252e-05 0.000307362 0.00142269 0.00504779 0.0153124 0.0410873 0.0989886 0.215905 0.428308 0.774276 1.27491 1.90649 2.57282 3.09583 3.24303 2.79886 1.66079 -0.0818024 -2.13335 -4.06483 -5.45124 -6.01393 -5.70358 -4.69163 -3.28463 -1.80963 -0.521084 0.442521 1.0533 1.35891 1.44164 1.38535 1.25813 1.10664 0.95817 0.825891 0.714252 0.622842 0.54914 0.490035 0.442536 0.403812 0.371952 0.345422 0.323561 0.30647 0.29452 0.28849 0.288813 0.295218 0.306763 0.321552 0.337073 0.350654 0.359907 0.363204 0.359907 0.350654 0.337073 0.321552 0.306763 0.295218 0.288813 0.28849 0.29452 0.30647 0.323561 0.345422 0.371952 0.403812 0.442536 0.490035 0.54914 0.622842 0.714252 0.825891 0.95817 1.10664 1.25813 1.38535 1.44164 1.35891 1.0533 0.442521 -0.521084 -1.80963 -3.28463 -4.69163 -5.70358 -6.01393 -5.45124 -4.06483 -2.13335 -0.0818024 1.66079 2.79886 3.24303 3.09583 2.57282 1.90649 1.27491 0.774276 0.428308 0.215905 0.0989886 0.0410873 0.0153124 0.00504779 0.00142269 0.000307362 2.41252e-05 -2.21277e-05 -1.60761e-05 -6.38081e-06 -1.48314e-06 -3.03343e-08 1.25225e-07 4.50041e-08 1.89349e-09 -1.03629e-09 -1.03528e-10 2.14121e-11 3.33911e-12 -3.55693e-13 -8.05983e-14 4.90675e-15 1.6239e-15 -5.5804e-17 -2.86352e-17 4.85545e-19 4.55143e-19 -2.25946e-21 -6.6052e-21 -2.30329e-23 8.80424e-23 8.2465e-25 -1.08139e-24 -1.43498e-26 1.22635e-26 1.91626e-28 -1.28534e-28 -2.15432e-30 1.24558e-30 2.10937e-32 -1.11612e-32 -1.82618e-34 9.24642e-35 1.40721e-36 -7.0806e-37 -9.66943e-39 5.04893e-39 8.77239e-40 4.82697e-42 0 0 
0 0 -2.36553e-42 -3.00844e-41 -3.66479e-41 3.82887e-39 3.8551e-39 -5.55369e-37 -3.91391e-37 7.43888e-35 3.5916e-35 -9.20338e-33 -3.14253e-33 1.05191e-30 2.96874e-31 -1.11083e-28 -3.42087e-29 1.08371e-26 4.58273e-27 -9.76349e-25 -6.17871e-25 8.11516e-23 7.67726e-23 -6.21123e-21 -8.53821e-21 4.36266e-19 8.44541e-19 -2.79645e-17 -7.44252e-17 1.61309e-15 5.80139e-15 -8.16053e-14 -3.94025e-13 3.48773e-12 2.31974e-11 -1.12605e-10 -1.10525e-09 2.18099e-09 3.48109e-08 1.22567e-07 1.35956e-07 -6.53628e-07 -4.09011e-06 -1.23673e-05 -2.23866e-05 -6.0733e-06 0.000151085 0.000831502 0.00315769 0.0100249 0.0279688 0.0698955 0.158008 0.324973 0.60985 1.04487 1.63181 2.31316 2.95174 3.33783 3.23732 2.47635 1.03224 -0.914571 -3.00404 -4.79841 -5.92331 -6.18608 -5.62136 -4.4516 -2.9912 -1.54179 -0.318816 0.574031 1.12975 1.40304 1.47333 1.41794 1.29819 1.156 1.01584 0.889931 0.78251 0.693423 0.620555 0.561026 0.511978 0.470812 0.435625 0.405 0.37868 0.356782 0.340093 0.329366 0.324896 0.326314 0.332335 0.340915 0.34946 0.355762 0.358045 0.355762 0.34946 0.340915 0.332335 0.326314 0.324896 0.329366 0.340093 0.356782 0.37868 0.405 0.435625 0.470812 0.511978 0.561026 0.620555 0.693423 0.78251 0.889931 1.01584 1.156 1.29819 1.41794 1.47333 1.40304 1.12975 0.574031 -0.318816 -1.54179 -2.9912 -4.4516 -5.62136 -6.18608 -5.92331 -4.79841 -3.00404 -0.914571 1.03224 2.47635 3.23732 3.33783 2.95174 2.31316 1.63181 1.04487 0.60985 0.324973 0.158008 0.0698955 0.0279688 0.0100249 0.00315769 0.000831502 0.000151085 -6.0733e-06 -2.23866e-05 -1.23673e-05 -4.09011e-06 -6.53628e-07 1.35956e-07 1.22567e-07 3.48109e-08 2.18099e-09 -1.10525e-09 -1.12605e-10 2.31974e-11 3.48773e-12 -3.94025e-13 -8.16053e-14 5.80139e-15 1.61309e-15 -7.44264e-17 -2.7917e-17 8.42162e-19 4.35477e-19 -8.50929e-21 -6.19969e-21 7.65162e-23 8.10084e-23 -6.15165e-25 -9.74667e-25 4.55646e-27 1.08189e-26 -3.39599e-29 -1.10901e-28 2.94521e-31 1.05023e-30 -3.12077e-33 -9.18902e-33 3.57213e-35 7.42755e-35 -3.89726e-37 -5.54542e-37 3.83949e-39 3.84376e-39 5.84273e-40 -4.19962e-42 0 0 
0 0 -1.54445e-42 -3.02356e-41 -8.88242e-41 2.63635e-39 1.19479e-38 -3.96307e-37 -1.51759e-36 5.49527e-35 1.78002e-34 -7.03109e-33 -1.93755e-32 8.30371e-31 1.97279e-30 -9.05447e-29 -1.90069e-28 9.1174e-27 1.75806e-26 -8.47756e-25 -1.58405e-24 7.27515e-23 1.40364e-22 -5.75436e-21 -1.22283e-20 4.18297e-19 1.03547e-18 -2.78112e-17 -8.40359e-17 1.66519e-15 6.34926e-15 -8.69651e-14 -4.23091e-13 3.90404e-12 2.58275e-11 -1.29102e-10 -1.41896e-09 -1.15677e-09 1.74299e-08 8.94991e-08 1.85724e-07 -1.17978e-07 -2.21973e-06 -8.49013e-06 -1.90772e-05 -1.93997e-05 5.85246e-05 0.000451197 0.00187891 0.00628596 0.0182876 0.047493 0.111428 0.237813 0.463513 0.82635 1.34692 2.00196 2.69838 3.26398 3.47218 3.10659 2.04967 0.358787 -1.71198 -3.76699 -5.38654 -6.25865 -6.26894 -5.51466 -4.24606 -2.76999 -1.35887 -0.194381 0.645107 1.16523 1.42242 1.49152 1.44356 1.33434 1.20217 1.07007 0.949561 0.845106 0.756959 0.683307 0.621651 0.569362 0.524211 0.484485 0.449245 0.418309 0.392029 0.371022 0.355771 0.346299 0.341919 0.341293 0.342686 0.344411 0.345096 0.344411 0.342686 0.341293 0.341919 0.346299 0.355771 0.371022 0.392029 0.418309 0.449245 0.484485 0.524211 0.569362 0.621651 0.683307 0.756959 0.845106 0.949561 1.07007 1.20217 1.33434 1.44356 1.49152 1.42242 1.16523 0.645107 -0.194381 -1.35887 -2.76999 -4.24606 -5.51466 -6.26894 -6.25865 -5.38654 -3.76699 -1.71198 0.358787 2.04967 3.10659 3.47218 3.26398 2.69838 2.00196 1.34692 0.82635 0.463513 0.237813 0.111428 0.047493 0.0182876 0.00628596 0.00187891 0.000451197 5.85246e-05 -1.93997e-05 -1.90772e-05 -8.49013e-06 -2.21973e-06 -1.17978e-07 1.85724e-07 8.94991e-08 1.74299e-08 -1.15677e-09 -1.41896e-09 -1.29102e-10 2.58275e-11 3.90404e-12 -4.23091e-13 -8.69651e-14 6.34926e-15 1.66519e-15 -8.40374e-17 -2.77656e-17 1.03271e-18 4.17559e-19 -1.21931e-20 -5.74395e-21 1.40001e-22 7.2627e-23 -1.5798e-24 -8.46342e-25 1.75344e-26 9.1026e-27 -1.89591e-28 -9.04017e-29 1.96806e-30 8.29094e-31 -1.93314e-32 -7.02055e-33 1.77619e-34 5.48724e-35 -1.5145e-36 -3.95742e-37 1.19233e-38 2.63983e-39 3.341e-40 -9.01298e-42 0 0 
0 0 -8.97083e-43 -2.50056e-41 -9.85196e-41 1.62367e-39 1.39599e-38 -2.56223e-37 -1.84543e-36 3.7198e-35 2.24009e-34 -4.97203e-33 -2.49895e-32 6.12331e-31 2.567e-30 -6.95343e-29 -2.43742e-28 7.28588e-27 2.15369e-26 -7.04885e-25 -1.79003e-24 6.29979e-23 1.4211e-22 -5.20244e-21 -1.09767e-20 3.96826e-19 8.38081e-19 -2.79209e-17 -6.36417e-17 1.79861e-15 4.68495e-15 -1.05848e-13 -3.4481e-13 5.46368e-12 2.60845e-11 -1.30976e-10 -1.16819e-09 -2.71845e-09 4.41059e-09 5.07665e-08 1.59265e-07 1.37011e-07 -9.398e-07 -5.15992e-06 -1.43305e-05 -2.23431e-05 8.9357e-06 0.000220471 0.00105636 0.00376675 0.0114711 0.0310197 0.0756372 0.167673 0.339598 0.630022 1.07122 1.66711 2.36632 3.0424 3.49781 3.5047 2.8793 1.56611 -0.30627 -2.43199 -4.40527 -5.84136 -6.49136 -6.30511 -5.42148 -4.10054 -2.63299 -1.26268 -0.144546 0.659937 1.16267 1.41823 1.49593 1.46092 1.3647 1.24317 1.11834 1.00187 0.898753 0.809853 0.733965 0.669035 0.612825 0.563504 0.519604 0.480461 0.445705 0.415669 0.390502 0.370562 0.355627 0.345318 0.338832 0.335393 0.334274 0.335393 0.338832 0.345318 0.355627 0.370562 0.390502 0.415669 0.445705 0.480461 0.519604 0.563504 0.612825 0.669035 0.733965 0.809853 0.898753 1.00187 1.11834 1.24317 1.3647 1.46092 1.49593 1.41823 1.16267 0.659937 -0.144546 -1.26268 -2.63299 -4.10054 -5.42148 -6.30511 -6.49136 -5.84136 -4.40527 -2.43199 -0.30627 1.56611 2.8793 3.5047 3.49781 3.0424 2.36632 1.66711 1.07122 0.630022 0.339598 0.167673 0.0756372 0.0310197 0.0114711 0.00376675 0.00105636 0.000220471 8.9357e-06 -2.23431e-05 -1.43305e-05 -5.15992e-06 -9.398e-07 1.37011e-07 1.59265e-07 5.07665e-08 4.41059e-09 -2.71845e-09 -1.16819e-09 -1.30976e-10 2.60845e-11 5.46368e-12 -3.4481e-13 -1.05848e-13 4.68496e-15 1.79861e-15 -6.36429e-17 -2.7875e-17 8.35761e-19 3.96152e-19 -1.09439e-20 -5.19331e-21 1.41747e-22 6.28934e-23 -1.78558e-24 -7.03748e-25 2.14864e-26 7.27448e-27 -2.43205e-28 -6.94288e-29 2.56167e-30 6.1143e-31 -2.49403e-32 -4.96492e-33 2.23589e-34 3.71463e-35 -1.84212e-36 -2.55878e-37 1.39351e-38 1.62122e-39 1.58974e-40 -9.62128e-42 0 0 
0 0 -4.89935e-43 -1.83308e-41 -8.62004e-41 8.919e-40 1.277e-38 -1.5089e-37 -1.75639e-36 2.33278e-35 2.21705e-34 -3.30354e-33 -2.56881e-32 4.2936e-31 2.73432e-30 -5.13004e-29 -2.67901e-28 5.64304e-27 2.42548e-26 -5.72214e-25 -2.04357e-24 5.35462e-23 1.62154e-22 -4.6269e-21 -1.23258e-20 3.69189e-19 9.14667e-19 -2.72234e-17 -6.83516e-17 1.83202e-15 5.07884e-15 -1.087e-13 -2.90552e-13 7.0264e-12 3.29271e-11 -1.04713e-11 -6.0999e-10 -2.38999e-09 -1.78853e-09 2.13623e-08 1.05264e-07 2.01069e-07 -2.06946e-07 -2.6885e-06 -9.57501e-06 -1.97086e-05 -1.35813e-05 8.95482e-05 0.000553499 0.00214841 0.00688962 0.0194459 0.049352 0.113753 0.239549 0.462525 0.820057 1.33481 1.99059 2.70782 3.33231 3.65271 3.45332 2.59171 1.07236 -0.919589 -3.04833 -4.91706 -6.18344 -6.65523 -6.3298 -5.36944 -4.03154 -2.58663 -1.25346 -0.167372 0.620384 1.12288 1.39028 1.48591 1.46961 1.38939 1.27962 1.16208 1.04913 0.946491 0.856052 0.77735 0.708889 0.64901 0.595955 0.548595 0.506073 0.467975 0.4344 0.405497 0.381578 0.362803 0.349385 0.341369 0.338701 0.341369 0.349385 0.362803 0.381578 0.405497 0.4344 0.467975 0.506073 0.548595 0.595955 0.64901 0.708889 0.77735 0.856052 0.946491 1.04913 1.16208 1.27962 1.38939 1.46961 1.48591 1.39028 1.12288 0.620384 -0.167372 -1.25346 -2.58663 -4.03154 -5.36944 -6.3298 -6.65523 -6.18344 -4.91706 -3.04833 -0.919589 1.07236 2.59171 3.45332 3.65271 3.33231 2.70782 1.99059 1.33481 0.820057 0.462525 0.239549 0.113753 0.049352 0.0194459 0.00688962 0.00214841 0.000553499 8.95482e-05 -1.35813e-05 -1.97086e-05 -9.57501e-06 -2.6885e-06 -2.06946e-07 2.01069e-07 1.05264e-07 2.13623e-08 -1.78853e-09 -2.38999e-09 -6.0999e-10 -1.04713e-11 3.29271e-11 7.0264e-12 -2.90552e-13 -1.087e-13 5.07884e-15 1.83202e-15 -6.83529e-17 -2.71798e-17 9.12291e-19 3.68581e-19 -1.22921e-20 -4.61901e-21 1.61777e-22 5.34604e-23 -2.03898e-24 -5.71327e-25 2.42033e-26 5.63457e-27 -2.67365e-28 -5.12262e-29 2.72913e-30 4.2876e-31 -2.56416e-32 -3.29909e-33 2.2132e-34 2.32975e-35 -1.75347e-36 -1.50702e-37 1.2749e-38 8.87291e-40 5.30067e-41 -8.16789e-42 0 0 
0 0 -2.06288e-43 -1.22096e-41 -6.7463e-41 3.77021e-40 1.05449e-38 -7.21501e-38 -1.52611e-36 1.23104e-35 2.03079e-34 -1.89309e-33 -2.48598e-32 2.64186e-31 2.80213e-30 -3.36129e-29 -2.91306e-28 3.91213e-27 2.80068e-26 -4.17541e-25 -2.50065e-24 4.09431e-23 2.08673e-22 -3.69397e-21 -1.6445e-20 3.06379e-19 1.23446e-18 -2.33287e-17 -8.77353e-17 1.65891e-15 6.55335e-15 -1.02436e-13 -5.06204e-13 3.04639e-12 2.42971e-11 4.78274e-11 -1.84295e-10 -1.41839e-09 -3.20028e-09 4.70309e-09 5.50698e-08 1.67921e-07 1.1949e-07 -1.09748e-06 -5.61907e-06 -1.47828e-05 -2.03047e-05 2.16326e-05 0.000262356 0.00115754 0.00395105 0.0116793 0.0309029 0.0741444 0.162459 0.32654 0.603564 1.02663 1.60565 2.30301 3.0136 3.56329 3.73799 3.34387 2.28234 0.609651 -1.44934 -3.54763 -5.30952 -6.43548 -6.77919 -6.36943 -5.37722 -4.04924 -2.63494 -1.33234 -0.263417 0.525144 1.04383 1.33655 1.46029 1.46977 1.41028 1.31524 1.20672 1.09824 0.996678 0.905076 0.82389 0.752335 0.689152 0.632875 0.582508 0.53717 0.496655 0.460934 0.430475 0.405835 0.387675 0.376518 0.372763 0.376518 0.387675 0.405835 0.430475 0.460934 0.496655 0.53717 0.582508 0.632875 0.689152 0.752335 0.82389 0.905076 0.996678 1.09824 1.20672 1.31524 1.41028 1.46977 1.46029 1.33655 1.04383 0.525144 -0.263417 -1.33234 -2.63494 -4.04924 -5.37722 -6.36943 -6.77919 -6.43548 -5.30952 -3.54763 -1.44934 0.609651 2.28234 3.34387 3.73799 3.56329 3.0136 2.30301 1.60565 1.02663 0.603564 0.32654 0.162459 0.0741444 0.0309029 0.0116793 0.00395105 0.00115754 0.000262356 2.16326e-05 -2.03047e-05 -1.47828e-05 -5.61907e-06 -1.09748e-06 1.1949e-07 1.67921e-07 5.50698e-08 4.70309e-09 -3.20028e-09 -1.41839e-09 -1.84295e-10 4.78274e-11 2.42971e-11 3.04639e-12 -5.06204e-13 -1.02436e-13 6.55335e-15 1.65891e-15 -8.77372e-17 -2.32948e-17 1.23149e-18 3.0589e-19 -1.64066e-20 -3.6879e-21 2.08243e-22 4.08804e-23 -2.49564e-24 -4.16923e-25 2.79534e-26 3.90656e-27 -2.90776e-28 -3.35672e-29 2.79724e-30 2.63843e-31 -2.48181e-32 -1.89076e-33 2.02751e-34 1.22961e-35 -1.52373e-36 -7.20729e-38 1.05288e-38 3.71965e-40 -1.05833e-41 -6.20552e-42 0 0 
0 0 -5.56436e-44 -6.89875e-42 -4.60241e-41 3.63587e-41 7.62659e-39 -1.597e-38 -1.1669e-36 3.86223e-36 1.64216e-34 -7.33027e-34 -2.12696e-32 1.18566e-31 2.53769e-30 -1.68897e-29 -2.79233e-28 2.15435e-27 2.83848e-26 -2.48436e-25 -2.67246e-24 2.60485e-23 2.33727e-22 -2.49366e-21 -1.90565e-20 2.19183e-19 1.47173e-18 -1.75067e-17 -1.07607e-16 1.23056e-15 6.18207e-15 -1.008e-13 -5.93293e-13 -5.90418e-14 1.09817e-11 4.53382e-11 1.16224e-11 -5.96938e-10 -2.45937e-09 -2.02738e-09 2.11644e-08 1.05577e-07 1.98123e-07 -2.35766e-07 -2.78423e-06 -9.63439e-06 -1.88218e-05 -8.67827e-06 0.000104328 0.000580214 0.00215331 0.00670534 0.0185364 0.0463526 0.105762 0.221378 0.42653 0.757666 1.24103 1.87197 2.59229 3.27616 3.73797 3.7701 3.20575 1.98729 0.211284 -1.87415 -3.92526 -5.59329 -6.61733 -6.8848 -6.44145 -5.45621 -4.15988 -2.78147 -1.50268 -0.437103 0.368668 0.919455 1.25177 1.41543 1.46017 1.42887 1.35413 1.25896 1.15801 1.05983 0.968744 0.886264 0.812645 0.747055 0.688656 0.636574 0.59033 0.549878 0.515434 0.487591 0.466976 0.454288 0.449977 0.454288 0.466976 0.487591 0.515434 0.549878 0.59033 0.636574 0.688656 0.747055 0.812645 0.886264 0.968744 1.05983 1.15801 1.25896 1.35413 1.42887 1.46017 1.41543 1.25177 0.919455 0.368668 -0.437103 -1.50268 -2.78147 -4.15988 -5.45621 -6.44145 -6.8848 -6.61733 -5.59329 -3.92526 -1.87415 0.211284 1.98729 3.20575 3.7701 3.73797 3.27616 2.59229 1.87197 1.24103 0.757666 0.42653 0.221378 0.105762 0.0463526 0.0185364 0.00670534 0.00215331 0.000580214 0.000104328 -8.67827e-06 -1.88218e-05 -9.63439e-06 -2.78423e-06 -2.35766e-07 1.98123e-07 1.05577e-07 2.11644e-08 -2.02738e-09 -2.45937e-09 -5.96938e-10 1.16224e-11 4.53382e-11 1.09817e-11 -5.90418e-14 -5.93293e-13 -1.008e-13 6.18207e-15 1.23056e-15 -1.07609e-16 -1.74854e-17 1.46842e-18 2.18851e-19 -1.90169e-20 -2.48981e-21 2.33287e-22 2.60117e-23 -2.66756e-24 -2.48101e-25 2.8335e-26 2.1516e-27 -2.78762e-28 -1.68697e-29 2.53356e-30 1.18439e-31 -2.12363e-32 -7.32346e-34 1.63967e-34 3.85954e-36 -1.16519e-36 -1.59667e-38 7.61572e-39 3.20091e-41 -4.23775e-41 -4.1098e-42 0 0 
0 0 -4.07148e-45 -2.8863e-42 -2.53602e-41 -1.27938e-40 4.51248e-39 1.43667e-38 -7.36686e-37 -1.15479e-36 1.10346e-34 1.56986e-35 -1.5183e-32 1.72685e-32 1.92132e-30 -4.42795e-30 -2.23889e-28 7.57448e-28 2.40572e-26 -1.05614e-25 -2.38782e-24 1.27427e-23 2.19673e-22 -1.36027e-21 -1.87537e-20 1.29985e-19 1.47155e-18 -1.16829e-17 -1.13778e-16 9.16227e-16 9.27895e-15 -2.46937e-14 -3.4291e-13 -9.15697e-13 2.46114e-12 2.45913e-11 5.66115e-11 -1.3959e-10 -1.30465e-09 -3.17896e-09 3.71907e-09 5.113e-08 1.60742e-07 1.20286e-07 -1.04534e-06 -5.38861e-06 -1.40009e-05 -1.80736e-05 2.59618e-05 0.000261609 0.00110525 0.00366786 0.0106289 0.0277422 0.0659796 0.143897 0.289007 0.53588 0.918263 1.45376 2.12295 2.84967 3.49335 3.86482 3.76926 3.0679 1.73757 -0.0976661 -2.18073 -4.18088 -5.77801 -6.7429 -6.98487 -6.55491 -5.61171 -4.36703 -3.0306 -1.77112 -0.697798 0.139437 0.737733 1.12463 1.34203 1.43454 1.44208 1.39674 1.32235 1.23491 1.14477 1.05788 0.977223 0.904139 0.838695 0.780717 0.729898 0.686177 0.649501 0.620297 0.598907 0.585874 0.581446 0.585874 0.598907 0.620297 0.649501 0.686177 0.729898 0.780717 0.838695 0.904139 0.977223 1.05788 1.14477 1.23491 1.32235 1.39674 1.44208 1.43454 1.34203 1.12463 0.737733 0.139437 -0.697798 -1.77112 -3.0306 -4.36703 -5.61171 -6.55491 -6.98487 -6.7429 -5.77801 -4.18088 -2.18073 -0.0976661 1.73757 3.0679 3.76926 3.86482 3.49335 2.84967 2.12295 1.45376 0.918263 0.53588 0.289007 0.143897 0.0659796 0.0277422 0.0106289 0.00366786 0.00110525 0.000261609 2.59618e-05 -1.80736e-05 -1.40009e-05 -5.38861e-06 -1.04534e-06 1.20286e-07 1.60742e-07 5.113e-08 3.71907e-09 -3.17896e-09 -1.30465e-09 -1.3959e-10 5.66115e-11 2.45913e-11 2.46114e-12 -9.15697e-13 -3.4291e-13 -2.46937e-14 9.27895e-15 9.16227e-16 -1.13781e-16 -1.16731e-17 1.46833e-18 1.29799e-19 -1.87178e-20 -1.35837e-21 2.19287e-22 1.27274e-23 -2.38372e-24 -1.05501e-25 2.40177e-26 7.56787e-28 -2.23535e-28 -4.42577e-30 1.91838e-30 1.72795e-32 -1.51606e-32 1.54031e-35 1.10189e-34 -1.15128e-36 -7.35677e-37 1.43349e-38 4.50662e-39 -1.30872e-40 -4.64505e-41 -2.2427e-42 0 0 
0 0 0 -5.25834e-43 -1.00857e-41 -1.54803e-40 2.01932e-39 2.25863e-38 -3.63328e-37 -2.9417e-36 5.93435e-35 3.36238e-34 -8.83644e-33 -3.25524e-32 1.20329e-30 2.43027e-30 -1.50236e-28 -8.83448e-29 1.72393e-26 -1.14431e-26 -1.8211e-24 3.23184e-24 1.77269e-22 -4.98162e-22 -1.60646e-20 5.8906e-20 1.36262e-18 -5.34581e-18 -9.3971e-17 6.35388e-16 7.31656e-15 1.235e-14 -1.07564e-13 -6.59671e-13 -6.41273e-13 8.46878e-12 4.18001e-11 3.09027e-11 -4.73818e-10 -2.20889e-09 -2.42921e-09 1.70788e-08 9.39811e-08 1.90158e-07 -1.71084e-07 -2.46256e-06 -8.74666e-06 -1.71277e-05 -7.19481e-06 9.71992e-05 0.000524203 0.00190057 0.00581129 0.0158637 0.0393698 0.0895263 0.187474 0.362744 0.649732 1.07794 1.65558 2.34966 3.06996 3.66741 3.95568 3.75624 2.95601 1.55771 -0.299391 -2.36079 -4.31483 -5.86883 -6.8178 -7.08264 -6.71026 -5.84312 -4.6716 -3.38707 -2.14751 -1.06035 -0.181018 0.478289 0.934676 1.22136 1.37677 1.4374 1.43441 1.39205 1.3279 1.25408 1.17833 1.10548 1.03805 0.977468 0.92432 0.878857 0.841294 0.811727 0.790426 0.777535 0.773214 0.777535 0.790426 0.811727 0.841294 0.878857 0.92432 0.977468 1.03805 1.10548 1.17833 1.25408 1.3279 1.39205 1.43441 1.4374 1.37677 1.22136 0.934676 0.478289 -0.181018 -1.06035 -2.14751 -3.38707 -4.6716 -5.84312 -6.71026 -7.08264 -6.8178 -5.86883 -4.31483 -2.36079 -0.299391 1.55771 2.95601 3.75624 3.95568 3.66741 3.06996 2.34966 1.65558 1.07794 0.649732 0.362744 0.187474 0.0895263 0.0393698 0.0158637 0.00581129 0.00190057 0.000524203 9.71992e-05 -7.19481e-06 -1.71277e-05 -8.74666e-06 -2.46256e-06 -1.71084e-07 1.90158e-07 9.39811e-08 1.70788e-08 -2.42921e-09 -2.20889e-09 -4.73818e-10 3.09027e-11 4.18001e-11 8.46878e-12 -6.41273e-13 -6.59671e-13 -1.07564e-13 1.235e-14 7.31656e-15 6.35387e-16 -9.39732e-17 -5.34647e-18 1.35977e-18 5.88418e-20 -1.60359e-20 -4.97748e-22 1.76972e-22 3.23144e-24 -1.81814e-24 -1.14684e-26 1.72125e-26 -8.78293e-29 -1.50012e-28 2.42353e-30 1.20157e-30 -3.24815e-32 -8.82432e-33 3.35596e-34 5.92657e-35 -2.93655e-36 -3.62874e-37 2.25492e-38 2.01699e-39 -1.56342e-40 -3.44642e-41 -8.81838e-43 0 0 
0 0 8.14296e-45 4.23835e-43 -1.67276e-42 -1.147e-40 5.16667e-40 1.86315e-38 -1.19238e-37 -2.75183e-36 2.32142e-35 3.68285e-34 -3.96218e-33 -4.4407e-32 6.04125e-31 4.77867e-30 -8.31646e-29 -4.50879e-28 1.04072e-26 3.58776e-26 -1.19144e-24 -2.19316e-24 1.25173e-22 6.89797e-23 -1.19188e-20 9.50604e-21 1.07203e-18 -2.3801e-18 -1.06257e-16 -1.0355e-16 2.76287e-15 1.36513e-14 -2.82498e-15 -2.67307e-13 -9.46005e-13 1.0028e-12 1.88897e-11 5.46347e-11 -7.18592e-11 -1.02764e-09 -2.95188e-09 1.471e-09 4.0275e-08 1.41343e-07 1.43842e-07 -7.89001e-07 -4.5326e-06 -1.22755e-05 -1.65243e-05 2.04797e-05 0.00021983 0.00092175 0.00301747 0.00864746 0.0224239 0.0532126 0.116233 0.234665 0.439081 0.762458 1.22912 1.8382 2.54544 3.25109 3.80331 4.02333 3.7497 2.89062 1.4656 -0.3819 -2.40857 -4.32526 -5.8644 -6.83837 -7.17125 -6.89876 -6.14265 -5.07021 -3.85439 -2.6434 -1.54402 -0.618233 0.111111 0.649832 1.02116 1.25618 1.38706 1.44303 1.44821 1.4213 1.3761 1.32225 1.26636 1.21252 1.16338 1.12048 1.08472 1.05649 1.03619 1.02397 1.01994 1.02397 1.03619 1.05649 1.08472 1.12048 1.16338 1.21252 1.26636 1.32225 1.3761 1.4213 1.44821 1.44303 1.38706 1.25618 1.02116 0.649832 0.111111 -0.618233 -1.54402 -2.6434 -3.85439 -5.07021 -6.14265 -6.89876 -7.17125 -6.83837 -5.8644 -4.32526 -2.40857 -0.3819 1.4656 2.89062 3.7497 4.02333 3.80331 3.25109 2.54544 1.8382 1.22912 0.762458 0.439081 0.234665 0.116233 0.0532126 0.0224239 0.00864746 0.00301747 0.00092175 0.00021983 2.04797e-05 -1.65243e-05 -1.22755e-05 -4.5326e-06 -7.89001e-07 1.43842e-07 1.41343e-07 4.0275e-08 1.471e-09 -2.95188e-09 -1.02764e-09 -7.18592e-11 5.46347e-11 1.88897e-11 1.0028e-12 -9.46005e-13 -2.67307e-13 -2.82498e-15 1.36513e-14 2.76287e-15 -1.0355e-16 -1.06259e-16 -2.38412e-18 1.07e-18 9.51169e-21 -1.18997e-20 6.8623e-23 1.24984e-22 -2.18677e-24 -1.18968e-24 3.57969e-26 1.03925e-26 -4.49988e-28 -8.30527e-29 4.77e-30 6.03354e-31 -4.43316e-32 -3.95744e-33 3.67693e-34 2.31887e-35 -2.74762e-36 -1.19123e-37 1.86042e-38 5.16338e-40 -1.15233e-40 -1.92577e-41 -1.55138e-43 0 0 
0 0 0 5.78575e-43 1.57998e-42 -6.29678e-41 -1.43356e-40 1.12616e-38 1.32013e-39 -1.83335e-36 3.40986e-36 2.71732e-34 -1.02118e-33 -3.6635e-32 2.08059e-31 4.48313e-30 -3.47372e-29 -4.96395e-28 5.0268e-27 4.9465e-26 -6.44823e-25 -4.34838e-24 7.49607e-23 3.28877e-22 -8.11682e-21 -2.52579e-20 7.21979e-19 1.10249e-18 -4.93288e-17 -2.32628e-16 2.78705e-16 6.13614e-15 1.74144e-14 -5.22571e-14 -5.05069e-13 -9.35666e-13 4.93131e-12 3.28855e-11 4.73552e-11 -2.94864e-10 -1.7542e-09 -2.86363e-09 1.03615e-08 7.29993e-08 1.74879e-07 -4.10576e-08 -1.81652e-06 -7.11461e-06 -1.49298e-05 -9.02974e-06 7.19789e-05 0.000407216 0.00147608 0.00448008 0.0121652 0.0301548 0.0687512 0.144853 0.283018 0.513916 0.868186 1.36473 1.99475 2.70576 3.3931 3.90704 4.07917 3.76419 2.88614 1.47264 -0.337654 -2.31896 -4.20668 -5.7558 -6.7906 -7.23231 -7.10059 -6.49288 -5.55169 -4.43072 -3.26784 -2.16896 -1.20254 -0.402174 0.225789 0.693577 1.02371 1.24247 1.37587 1.44686 1.4745 1.47377 1.45583 1.42887 1.39859 1.36889 1.34225 1.32038 1.30418 1.29433 1.29101 1.29433 1.30418 1.32038 1.34225 1.36889 1.39859 1.42887 1.45583 1.47377 1.4745 1.44686 1.37587 1.24247 1.02371 0.693577 0.225789 -0.402174 -1.20254 -2.16896 -3.26784 -4.43072 -5.55169 -6.49288 -7.10059 -7.23231 -6.7906 -5.7558 -4.20668 -2.31896 -0.337654 1.47264 2.88614 3.76419 4.07917 3.90704 3.3931 2.70576 1.99475 1.36473 0.868186 0.513916 0.283018 0.144853 0.0687512 0.0301548 0.0121652 0.00448008 0.00147608 0.000407216 7.19789e-05 -9.02974e-06 -1.49298e-05 -7.11461e-06 -1.81652e-06 -4.10576e-08 1.74879e-07 7.29993e-08 1.03615e-08 -2.86363e-09 -1.7542e-09 -2.94864e-10 4.73552e-11 3.28855e-11 4.93131e-12 -9.35666e-13 -5.05069e-13 -5.22571e-14 1.74144e-14 6.13614e-15 2.78706e-16 -2.32628e-16 -4.93311e-17 1.09647e-18 7.20509e-19 -2.52223e-20 -8.1041e-21 3.28271e-22 7.48457e-23 -4.34057e-24 -6.43863e-25 4.93808e-26 5.01976e-27 -4.95577e-28 -3.4692e-29 4.476e-30 2.07816e-31 -3.65787e-32 -1.02022e-33 2.71329e-34 3.40888e-36 -1.83073e-36 1.2925e-39 1.12461e-38 -1.42977e-40 -6.30156e-41 -7.88273e-42 1.23838e-43 0 0 
0 0 0 4.10114e-43 1.94291e-42 -2.49759e-41 -2.94517e-40 5.10349e-39 3.92451e-38 -9.33312e-37 -4.27432e-36 1.5402e-34 3.15952e-34 -2.30321e-32 2.8901e-33 3.12804e-30 -6.57438e-30 -3.85729e-28 1.55164e-27 4.31941e-26 -2.61009e-25 -4.43551e-24 3.53923e-23 4.05081e-22 -4.11025e-21 -2.73748e-20 5.64037e-19 3.32918e-18 -6.23071e-18 -1.12842e-16 -2.90943e-16 1.32909e-15 1.06957e-14 1.2789e-14 -1.5199e-13 -7.73414e-13 -2.10686e-13 1.18227e-11 4.6679e-11 -2.25505e-12 -6.65485e-10 -2.47811e-09 -1.02682e-09 2.55736e-08 1.10904e-07 1.67298e-07 -4.25091e-07 -3.26496e-06 -9.8421e-06 -1.53027e-05 8.65801e-06 0.000153239 0.000667845 0.00219357 0.00627056 0.0162571 0.0387171 0.0851676 0.17374 0.329676 0.58293 0.961276 1.47857 2.11987 2.82779 3.49705 3.98378 4.13139 3.80873 2.95021 1.58407 -0.162945 -2.0872 -3.94988 -5.52664 -6.65024 -7.23544 -7.2826 -6.86268 -6.09165 -5.10228 -4.02034 -2.94915 -1.96215 -1.10301 -0.390141 0.177106 0.611223 0.931252 1.15827 1.31263 1.41242 1.47274 1.50575 1.52073 1.5247 1.52258 1.51794 1.5132 1.50983 1.50859 1.50983 1.5132 1.51794 1.52258 1.5247 1.52073 1.50575 1.47274 1.41242 1.31263 1.15827 0.931252 0.611223 0.177106 -0.390141 -1.10301 -1.96215 -2.94915 -4.02034 -5.10228 -6.09165 -6.86268 -7.2826 -7.23544 -6.65024 -5.52664 -3.94988 -2.0872 -0.162945 1.58407 2.95021 3.80873 4.13139 3.98378 3.49705 2.82779 2.11987 1.47857 0.961276 0.58293 0.329676 0.17374 0.0851676 0.0387171 0.0162571 0.00627056 0.00219357 0.000667845 0.000153239 8.65801e-06 -1.53027e-05 -9.8421e-06 -3.26496e-06 -4.25091e-07 1.67298e-07 1.10904e-07 2.55736e-08 -1.02682e-09 -2.47811e-09 -6.65485e-10 -2.25505e-12 4.6679e-11 1.18227e-11 -2.10686e-13 -7.73414e-13 -1.5199e-13 1.2789e-14 1.06957e-14 1.32909e-15 -2.90942e-16 -1.12842e-16 -6.23194e-18 3.32194e-18 5.62754e-19 -2.73363e-20 -4.10245e-21 4.04359e-22 3.53234e-23 -4.42784e-24 -2.60512e-25 4.31211e-26 1.54877e-27 -3.85087e-28 -6.56225e-30 3.12295e-30 2.88085e-33 -2.29955e-32 3.15452e-34 1.53782e-34 -4.26754e-36 -9.31911e-37 3.91838e-38 5.09606e-39 -2.94036e-40 -2.4887e-41 -1.68307e-42 1.56499e-43 0 0 
0 0 0 2.06208e-43 1.28391e-42 -4.71068e-42 -2.22453e-40 1.40241e-39 3.54896e-38 -3.21899e-37 -5.04149e-36 6.27603e-35 6.26984e-34 -1.07442e-32 -6.57743e-32 1.6421e-30 5.24255e-30 -2.26656e-28 -1.86997e-28 2.83465e-26 -3.33902e-26 -3.16631e-24 1.10897e-23 3.39164e-22 -1.86963e-21 -3.85331e-20 7.45175e-20 1.69049e-18 4.64325e-18 -2.38162e-17 -1.92875e-16 -1.8089e-16 3.31725e-15 1.52885e-14 -8.77497e-15 -3.09889e-13 -9.57423e-13 1.73173e-12 2.16385e-11 5.30504e-11 -1.17974e-10 -1.17355e-09 -2.88508e-09 3.51797e-09 4.71766e-08 1.45145e-07 8.74147e-08 -1.04652e-06 -5.04462e-06 -1.21518e-05 -1.18852e-05 3.92108e-05 0.000267369 0.00100171 0.00305827 0.00831936 0.0207131 0.0476005 0.101411 0.201007 0.371649 0.641965 1.03674 1.56561 2.20962 2.90976 3.56384 4.03659 4.1838 3.88607 3.0834 1.79872 0.141588 -1.70976 -3.54331 -5.15474 -6.38391 -7.13778 -7.39635 -7.20315 -6.64609 -5.83489 -4.88055 -3.88076 -2.91136 -2.02392 -1.24774 -0.593956 -0.0606036 0.362544 0.690138 0.938059 1.12194 1.25566 1.35112 1.41789 1.46354 1.4937 1.5126 1.52286 1.5261 1.52286 1.5126 1.4937 1.46354 1.41789 1.35112 1.25566 1.12194 0.938059 0.690138 0.362544 -0.0606036 -0.593956 -1.24774 -2.02392 -2.91136 -3.88076 -4.88055 -5.83489 -6.64609 -7.20315 -7.39635 -7.13778 -6.38391 -5.15474 -3.54331 -1.70976 0.141588 1.79872 3.0834 3.88607 4.1838 4.03659 3.56384 2.90976 2.20962 1.56561 1.03674 0.641965 0.371649 0.201007 0.101411 0.0476005 0.0207131 0.00831936 0.00305827 0.00100171 0.000267369 3.92108e-05 -1.18852e-05 -1.21518e-05 -5.04462e-06 -1.04652e-06 8.74147e-08 1.45145e-07 4.71766e-08 3.51797e-09 -2.88508e-09 -1.17355e-09 -1.17974e-10 5.30504e-11 2.16385e-11 1.73173e-12 -9.57423e-13 -3.09889e-13 -8.77497e-15 1.52885e-14 3.31725e-15 -1.8089e-16 -1.92875e-16 -2.38161e-17 4.64305e-18 1.68732e-18 7.43152e-20 -3.84585e-20 -1.86534e-21 3.38485e-22 1.10597e-23 -3.16026e-24 -3.32638e-26 2.82929e-26 -1.87135e-28 -2.26232e-28 5.23659e-30 1.63906e-30 -6.56812e-32 -1.07246e-32 6.2604e-34 6.26464e-35 -5.03374e-36 -3.21316e-37 3.54347e-38 1.39989e-39 -2.22083e-40 -4.64503e-42 6.6172e-43 8.98168e-44 0 0 
0 0 0 6.87101e-44 5.53949e-43 2.96675e-42 -1.05949e-40 -2.7004e-40 1.93884e-38 1.70282e-40 -3.20508e-36 7.35041e-36 4.79143e-34 -2.16389e-33 -6.47094e-32 4.39955e-31 7.85169e-30 -7.35727e-29 -8.49465e-28 1.07416e-26 8.31966e-26 -1.35383e-24 -6.89211e-24 1.48971e-22 2.53137e-22 -2.00454e-20 -6.95013e-20 3.19332e-19 3.02748e-18 3.37048e-18 -5.6796e-17 -2.71911e-16 2.42706e-16 6.33517e-15 1.74914e-14 -5.67225e-14 -5.15804e-13 -8.73049e-13 5.33804e-12 3.31882e-11 4.19921e-11 -3.17483e-10 -1.75619e-09 -2.56465e-09 1.14733e-08 7.34697e-08 1.63578e-07 -9.157e-08 -1.90359e-06 -6.96411e-06 -1.33924e-05 -3.44772e-06 8.38075e-05 0.000413 0.00139745 0.00402805 0.0105038 0.0252323 0.0561693 0.116302 0.224713 0.406101 0.687379 1.09053 1.62209 2.26125 2.9504 3.59341 4.06555 4.235 3.99208 3.27868 2.10823 0.569655 -1.18656 -2.97624 -4.6156 -5.95219 -6.88618 -7.37815 -7.44474 -7.14527 -6.56445 -5.7955 -4.92661 -4.03206 -3.16824 -2.373 -1.66796 -1.06165 -0.553391 -0.136327 0.199449 0.465269 0.672144 0.830181 0.947964 1.03254 1.08923 1.12176 1.13236 1.12176 1.08923 1.03254 0.947964 0.830181 0.672144 0.465269 0.199449 -0.136327 -0.553391 -1.06165 -1.66796 -2.373 -3.16824 -4.03206 -4.92661 -5.7955 -6.56445 -7.14527 -7.44474 -7.37815 -6.88618 -5.95219 -4.6156 -2.97624 -1.18656 0.569655 2.10823 3.27868 3.99208 4.235 4.06555 3.59341 2.9504 2.26125 1.62209 1.09053 0.687379 0.406101 0.224713 0.116302 0.0561693 0.0252323 0.0105038 0.00402805 0.00139745 0.000413 8.38075e-05 -3.44772e-06 -1.33924e-05 -6.96411e-06 -1.90359e-06 -9.157e-08 1.63578e-07 7.34697e-08 1.14733e-08 -2.56465e-09 -1.75619e-09 -3.17483e-10 4.19921e-11 3.31882e-11 5.33804e-12 -8.73049e-13 -5.15804e-13 -5.67225e-14 1.74914e-14 6.33517e-15 2.42706e-16 -2.71912e-16 -5.6796e-17 3.37052e-18 3.0276e-18 3.18964e-19 -6.93284e-20 -1.99988e-20 2.52932e-22 1.48636e-22 -6.88116e-24 -1.35088e-24 8.30519e-26 1.0718e-26 -8.47972e-28 -7.34101e-29 7.8378e-30 4.3896e-31 -6.45947e-32 -2.15867e-33 4.78295e-34 7.32887e-36 -3.19943e-36 2.20763e-40 1.93543e-38 -2.6988e-40 -1.05716e-40 2.97632e-42 1.01146e-42 2.04129e-44 0 0 
0 0 0 1.08045e-44 1.33712e-43 3.21158e-42 -2.52406e-41 -5.19126e-40 5.8207e-39 7.59171e-38 -1.15898e-36 -9.57259e-36 2.04467e-34 9.79804e-34 -3.23431e-32 -6.59144e-32 4.62261e-30 -1.26303e-30 -5.94608e-28 1.43171e-27 6.8041e-26 -3.46683e-25 -7.53022e-24 5.24164e-23 8.105e-22 -3.08353e-21 -4.07158e-20 -6.97777e-20 7.81614e-19 4.41866e-18 -2.70808e-18 -1.07241e-16 -3.10736e-16 1.14124e-15 1.0151e-14 1.36853e-14 -1.38542e-13 -7.34599e-13 -2.92223e-13 1.08205e-11 4.39701e-11 2.66824e-12 -6.04495e-10 -2.29831e-09 -1.10332e-09 2.29992e-08 1.01022e-07 1.53573e-07 -3.83181e-07 -2.94677e-06 -8.76582e-06 -1.29941e-05 1.05453e-05 0.000141397 0.000583203 0.00183121 0.00503545 0.0126573 0.029454 0.0637341 0.128667 0.243072 0.430623 0.716322 1.11973 1.6455 2.273 2.9485 3.58424 4.06737 4.2784 4.1159 3.52126 2.49613 1.10695 -0.524725 -2.24368 -3.88811 -5.31553 -6.42222 -7.15256 -7.49851 -7.49166 -7.19079 -6.66851 -5.99969 -5.25266 -4.48422 -3.7374 -3.0418 -2.41527 -1.86623 -1.39634 -1.0027 -0.679883 -0.421277 -0.220263 -0.0707321 0.0324058 0.0927306 0.112628 0.0927306 0.0324058 -0.0707321 -0.220263 -0.421277 -0.679883 -1.0027 -1.39634 -1.86623 -2.41527 -3.0418 -3.7374 -4.48422 -5.25266 -5.99969 -6.66851 -7.19079 -7.49166 -7.49851 -7.15256 -6.42222 -5.31553 -3.88811 -2.24368 -0.524725 1.10695 2.49613 3.52126 4.1159 4.2784 4.06737 3.58424 2.9485 2.273 1.6455 1.11973 0.716322 0.430623 0.243072 0.128667 0.0637341 0.029454 0.0126573 0.00503545 0.00183121 0.000583203 0.000141397 1.05453e-05 -1.29941e-05 -8.76582e-06 -2.94677e-06 -3.83181e-07 1.53573e-07 1.01022e-07 2.29992e-08 -1.10332e-09 -2.29831e-09 -6.04495e-10 2.66824e-12 4.39701e-11 1.08205e-11 -2.92223e-13 -7.34599e-13 -1.38542e-13 1.36853e-14 1.0151e-14 1.14124e-15 -3.10737e-16 -1.07241e-16 -2.70808e-18 4.41867e-18 7.817e-19 -6.952e-20 -4.06088e-20 -3.07442e-21 8.08872e-22 5.22913e-23 -7.5145e-24 -3.45797e-25 6.79007e-26 1.42735e-27 -5.93393e-28 -1.24928e-30 4.6132e-30 -6.58672e-32 -3.22775e-32 9.78466e-34 2.04052e-34 -9.55783e-36 -1.15661e-36 7.57946e-38 5.80873e-39 -5.18288e-40 -2.51926e-41 3.20474e-42 5.84531e-43 0 0 0 
0 0 -0 1.76923e-46 8.18643e-45 1.58254e-42 3.98146e-42 -2.87222e-40 7.89399e-41 5.06362e-38 -1.49343e-37 -8.00097e-36 4.53558e-35 1.1269e-33 -9.82209e-33 -1.39265e-31 1.75553e-30 1.444e-29 -2.75714e-28 -1.17156e-27 3.8808e-26 7.33971e-26 -4.27367e-24 8.65001e-24 4.33574e-22 1.25552e-21 -8.4252e-21 -6.40079e-20 -9.55963e-21 1.51886e-18 5.373e-18 -1.61276e-17 -1.72326e-16 -2.49835e-16 2.64512e-15 1.40912e-14 -4.66883e-16 -2.56564e-13 -9.05342e-13 1.00917e-12 1.801e-11 5.04391e-11 -7.38022e-11 -9.64019e-10 -2.65257e-09 1.79898e-09 3.75639e-08 1.25369e-07 1.05666e-07 -7.81474e-07 -4.08571e-06 -1.01915e-05 -1.06558e-05 2.96073e-05 0.000208318 0.000765388 0.002268 0.005994 0.0145886 0.033002 0.0696357 0.137476 0.25465 0.443455 0.726934 1.12271 1.63467 2.24402 2.90286 3.53347 4.0358 4.30265 4.24018 3.78847 2.93676 1.72884 0.257172 -1.35264 -2.9626 -4.44357 -5.69243 -6.64211 -7.26424 -7.56531 -7.5788 -7.35522 -6.95294 -6.43001 -5.83912 -5.22415 -4.61917 -4.04868 -3.52886 -3.06915 -2.67403 -2.34447 -2.07942 -1.87677 -1.73412 -1.64945 -1.62141 -1.64945 -1.73412 -1.87677 -2.07942 -2.34447 -2.67403 -3.06915 -3.52886 -4.04868 -4.61917 -5.22415 -5.83912 -6.43001 -6.95294 -7.35522 -7.5788 -7.56531 -7.26424 -6.64211 -5.69243 -4.44357 -2.9626 -1.35264 0.257172 1.72884 2.93676 3.78847 4.24018 4.30265 4.0358 3.53347 2.90286 2.24402 1.63467 1.12271 0.726934 0.443455 0.25465 0.137476 0.0696357 0.033002 0.0145886 0.005994 0.002268 0.000765388 0.000208318 2.96073e-05 -1.06558e-05 -1.01915e-05 -4.08571e-06 -7.81474e-07 1.05666e-07 1.25369e-07 3.75639e-08 1.79898e-09 -2.65257e-09 -9.64019e-10 -7.38022e-11 5.04391e-11 1.801e-11 1.00917e-12 -9.05342e-13 -2.56564e-13 -4.66883e-16 1.40912e-14 2.64512e-15 -2.49835e-16 -1.72326e-16 -1.61276e-17 5.373e-18 1.51886e-18 -9.54083e-21 -6.38616e-20 -8.40305e-21 1.25306e-21 4.32595e-22 8.6232e-24 -4.26417e-24 7.33036e-26 3.87222e-26 -1.16958e-27 -2.75102e-28 1.44135e-29 1.75159e-30 -1.39002e-31 -9.79958e-33 1.12476e-33 4.5246e-35 -7.9857e-36 -1.48919e-37 5.05395e-38 7.80462e-41 -2.86684e-40 3.96363e-42 1.58391e-42 2.15202e-43 0 0 0 
0 0 0 0 -0 4.85567e-43 7.32539e-42 -9.57238e-41 -1.05469e-39 2.0558e-38 1.23672e-37 -3.87232e-36 -8.91385e-36 6.46518e-34 -5.41136e-34 -9.61527e-32 3.67092e-31 1.28283e-29 -8.50112e-29 -1.46079e-27 1.48672e-26 1.18148e-25 -2.84164e-24 -1.63654e-23 6.53973e-23 7.93184e-22 1.01149e-21 -1.76021e-20 -8.53015e-20 1.47491e-19 2.52554e-18 5.07661e-18 -3.9187e-17 -2.42612e-16 -1.66622e-17 4.80071e-15 1.70268e-14 -2.9149e-14 -4.05441e-13 -9.48504e-13 3.19302e-12 2.63027e-11 4.86842e-11 -1.91663e-10 -1.36317e-09 -2.67443e-09 6.23038e-09 5.40093e-08 1.42192e-07 1.67902e-08 -1.26011e-06 -5.21006e-06 -1.10587e-05 -6.48804e-06 5.21018e-05 0.000278456 0.000942443 0.00266569 0.00680951 0.0161082 0.0355364 0.073333 0.141966 0.258515 0.443649 0.718488 1.09917 1.5897 2.17443 2.81254 3.43744 3.9624 4.29279 4.34241 4.05048 3.39487 2.39814 1.12483 -0.328871 -1.8503 -3.32733 -4.66265 -5.7838 -6.64788 -7.24095 -7.57364 -7.67493 -7.58476 -7.34783 -7.00842 -6.60686 -6.17754 -5.74804 -5.33958 -4.96743 -4.6421 -4.37047 -4.15655 -4.00267 -3.91007 -3.87913 -3.91007 -4.00267 -4.15655 -4.37047 -4.6421 -4.96743 -5.33958 -5.74804 -6.17754 -6.60686 -7.00842 -7.34783 -7.58476 -7.67493 -7.57364 -7.24095 -6.64788 -5.7838 -4.66265 -3.32733 -1.8503 -0.328871 1.12483 2.39814 3.39487 4.05048 4.34241 4.29279 3.9624 3.43744 2.81254 2.17443 1.5897 1.09917 0.718488 0.443649 0.258515 0.141966 0.073333 0.0355364 0.0161082 0.00680951 0.00266569 0.000942443 0.000278456 5.21018e-05 -6.48804e-06 -1.10587e-05 -5.21006e-06 -1.26011e-06 1.67902e-08 1.42192e-07 5.40093e-08 6.23038e-09 -2.67443e-09 -1.36317e-09 -1.91663e-10 4.86842e-11 2.63027e-11 3.19302e-12 -9.48504e-13 -4.05441e-13 -2.9149e-14 1.70268e-14 4.80071e-15 -1.66622e-17 -2.42612e-16 -3.9187e-17 5.07661e-18 2.52554e-18 1.47489e-19 -8.53034e-20 -1.75731e-20 1.0085e-21 7.91281e-22 6.52286e-23 -1.63305e-23 -2.83508e-24 1.1791e-25 1.48324e-26 -1.45776e-27 -8.4808e-29 1.28017e-29 3.66142e-31 -9.5953e-32 -5.3872e-34 6.45173e-34 -8.90417e-36 -3.86425e-36 1.23474e-37 2.05149e-38 -1.05284e-39 -9.55506e-41 7.31579e-42 4.85567e-43 4.75061e-44 0 0 0 
0 0 0 0 -0 9.43778e-44 4.51753e-42 -1.14023e-41 -7.98517e-40 4.73789e-39 1.28613e-37 -1.24268e-36 -1.78251e-35 2.62513e-34 2.03654e-33 -4.71448e-32 -1.63942e-31 7.27507e-30 -2.58554e-30 -1.0479e-27 3.64848e-27 1.50203e-25 -2.15013e-25 -7.76617e-24 -2.21731e-23 1.56968e-22 1.16782e-21 -2.86846e-22 -3.11359e-20 -9.56929e-20 4.38589e-19 3.70992e-18 2.46754e-18 -7.3179e-17 -3.01442e-16 4.61661e-16 7.52803e-15 1.74937e-14 -7.53521e-14 -5.71404e-13 -7.80488e-13 6.30855e-12 3.47336e-11 3.53412e-11 -3.48885e-10 -1.75785e-09 -2.26142e-09 1.20227e-08 7.08201e-08 1.48584e-07 -1.08086e-07 -1.77725e-06 -6.21714e-06 -1.13207e-05 -1.05895e-06 7.53881e-05 0.000344002 0.00109508 0.00298121 0.00739439 0.0170568 0.0368025 0.0744745 0.141737 0.254341 0.431158 0.691438 1.05019 1.51216 2.06556 2.67742 3.29265 3.8382 4.23223 4.39694 4.27216 3.8268 3.06498 2.02601 0.778128 -0.592081 -1.99217 -3.33571 -4.55132 -5.58829 -6.41821 -7.03347 -7.44366 -7.67082 -7.74458 -7.6979 -7.56369 -7.37245 -7.15094 -6.9215 -6.70204 -6.50644 -6.34496 -6.22492 -6.15109 -6.12619 -6.15109 -6.22492 -6.34496 -6.50644 -6.70204 -6.9215 -7.15094 -7.37245 -7.56369 -7.6979 -7.74458 -7.67082 -7.44366 -7.03347 -6.41821 -5.58829 -4.55132 -3.33571 -1.99217 -0.592081 0.778128 2.02601 3.06498 3.8268 4.27216 4.39694 4.23223 3.8382 3.29265 2.67742 2.06556 1.51216 1.05019 0.691438 0.431158 0.254341 0.141737 0.0744745 0.0368025 0.0170568 0.00739439 0.00298121 0.00109508 0.000344002 7.53881e-05 -1.05895e-06 -1.13207e-05 -6.21714e-06 -1.77725e-06 -1.08086e-07 1.48584e-07 7.08201e-08 1.20227e-08 -2.26142e-09 -1.75785e-09 -3.48885e-10 3.53412e-11 3.47336e-11 6.30855e-12 -7.80488e-13 -5.71404e-13 -7.53521e-14 1.74937e-14 7.52803e-15 4.61661e-16 -3.01442e-16 -7.3179e-17 2.46754e-18 3.70992e-18 4.38589e-19 -9.56933e-20 -3.11384e-20 -2.90472e-22 1.16463e-21 1.56552e-22 -2.21277e-23 -7.74843e-24 -2.14405e-25 1.49875e-25 3.63931e-27 -1.04561e-27 -2.56923e-30 7.25927e-30 -1.63667e-31 -4.70422e-32 2.03272e-33 2.61937e-34 -1.77908e-35 -1.23989e-36 1.28363e-37 4.72675e-39 -7.96983e-40 -1.13913e-41 4.51341e-42 9.43778e-44 6.07051e-45 -0 0 0 
0 0 0 0 -0 4.10338e-45 1.89613e-42 1.16359e-41 -3.72216e-40 -9.05648e-40 7.18543e-38 -8.19352e-38 -1.22545e-35 5.42231e-35 1.82058e-33 -1.47923e-32 -2.31745e-31 3.14451e-30 2.77277e-29 -4.8776e-28 -2.23396e-27 5.44065e-26 2.98308e-25 -9.17105e-25 -1.3126e-23 -1.84113e-23 3.07296e-22 1.50622e-21 -3.15037e-21 -4.86773e-20 -8.21854e-20 8.93103e-19 4.88019e-18 -3.60493e-18 -1.17687e-16 -3.26205e-16 1.24223e-15 1.06042e-14 1.39348e-14 -1.39972e-13 -7.3386e-13 -3.3198e-13 1.02666e-11 4.21671e-11 8.4689e-12 -5.37144e-10 -2.10328e-09 -1.38359e-09 1.87753e-08 8.64979e-08 1.43943e-07 -2.56498e-07 -2.28436e-06 -7.03628e-06 -1.10874e-05 4.68584e-06 9.62417e-05 0.000396705 0.00120498 0.00317768 0.00768216 0.0173308 0.0366691 0.0729478 0.136802 0.242446 0.406844 0.647418 0.978242 1.40511 1.92035 2.49892 3.09718 3.65561 4.10542 4.37819 4.41656 4.18369 3.66942 2.89167 1.89363 0.736903 -0.507309 -1.76713 -2.97803 -4.08809 -5.06106 -5.87669 -6.52944 -7.02549 -7.3798 -7.61271 -7.74713 -7.80626 -7.81214 -7.78427 -7.73933 -7.69079 -7.64894 -7.62096 -7.61119 -7.62096 -7.64894 -7.69079 -7.73933 -7.78427 -7.81214 -7.80626 -7.74713 -7.61271 -7.3798 -7.02549 -6.52944 -5.87669 -5.06106 -4.08809 -2.97803 -1.76713 -0.507309 0.736903 1.89363 2.89167 3.66942 4.18369 4.41656 4.37819 4.10542 3.65561 3.09718 2.49892 1.92035 1.40511 0.978242 0.647418 0.406844 0.242446 0.136802 0.0729478 0.0366691 0.0173308 0.00768216 0.00317768 0.00120498 0.000396705 9.62417e-05 4.68584e-06 -1.10874e-05 -7.03628e-06 -2.28436e-06 -2.56498e-07 1.43943e-07 8.64979e-08 1.87753e-08 -1.38359e-09 -2.10328e-09 -5.37144e-10 8.4689e-12 4.21671e-11 1.02666e-11 -3.3198e-13 -7.3386e-13 -1.39972e-13 1.39348e-14 1.06042e-14 1.24223e-15 -3.26205e-16 -1.17687e-16 -3.60493e-18 4.88019e-18 8.93103e-19 -8.21854e-20 -4.86773e-20 -3.15104e-21 1.50232e-21 3.0649e-22 -1.8378e-23 -1.30959e-23 -9.14829e-25 2.97657e-25 5.42823e-26 -2.2297e-27 -4.86674e-28 2.7671e-29 3.13746e-30 -2.3127e-31 -1.47585e-32 1.81684e-33 5.40917e-35 -1.22293e-35 -8.1648e-38 7.17063e-38 -9.04434e-40 -3.7145e-40 1.16414e-41 1.89613e-42 4.10338e-45 4.49332e-47 -0 0 0 
0 0 0 0 -0 -0 3.22191e-43 1.04596e-41 -7.38601e-41 -1.73812e-39 1.92485e-38 2.48318e-37 -4.14008e-36 -2.90319e-35 7.64929e-34 2.44295e-33 -1.19672e-31 5.48299e-32 1.74667e-29 -6.85467e-29 -2.78722e-27 5.87077e-28 1.13322e-25 3.94872e-25 -2.19177e-24 -1.89938e-23 2.71621e-25 5.22844e-22 1.68269e-21 -8.08414e-21 -6.8697e-20 -2.9152e-20 1.52263e-18 5.75026e-18 -1.41662e-17 -1.70191e-16 -2.91547e-16 2.35108e-15 1.36827e-14 5.01384e-15 -2.21325e-13 -8.69127e-13 4.34799e-13 1.48472e-11 4.75537e-11 -3.18596e-11 -7.43353e-10 -2.36495e-09 -9.63021e-11 2.59332e-08 9.99027e-08 1.30193e-07 -4.10905e-07 -2.7357e-06 -7.64044e-06 -1.05951e-05 9.62095e-06 0.000111472 0.000429385 0.00125808 0.00323101 0.0076389 0.0168992 0.0351485 0.0688953 0.127585 0.223765 0.372416 0.589139 0.88712 1.27318 1.74361 2.28083 2.85201 3.41063 3.90089 4.26474 4.44985 4.41743 4.14756 3.64192 2.92287 2.02969 1.01289 -0.0722932 -1.17198 -2.2387 -3.23434 -4.13214 -4.91623 -5.58079 -6.12803 -6.56619 -6.90731 -7.1654 -7.3549 -7.48941 -7.58083 -7.63898 -7.67097 -7.68113 -7.67097 -7.63898 -7.58083 -7.48941 -7.3549 -7.1654 -6.90731 -6.56619 -6.12803 -5.58079 -4.91623 -4.13214 -3.23434 -2.2387 -1.17198 -0.0722932 1.01289 2.02969 2.92287 3.64192 4.14756 4.41743 4.44985 4.26474 3.90089 3.41063 2.85201 2.28083 1.74361 1.27318 0.88712 0.589139 0.372416 0.223765 0.127585 0.0688953 0.0351485 0.0168992 0.0076389 0.00323101 0.00125808 0.000429385 0.000111472 9.62095e-06 -1.05951e-05 -7.64044e-06 -2.7357e-06 -4.10905e-07 1.30193e-07 9.99027e-08 2.59332e-08 -9.63021e-11 -2.36495e-09 -7.43353e-10 -3.18596e-11 4.75537e-11 1.48472e-11 4.34799e-13 -8.69127e-13 -2.21325e-13 5.01384e-15 1.36827e-14 2.35108e-15 -2.91547e-16 -1.70191e-16 -1.41662e-17 5.75026e-18 1.52263e-18 -2.9152e-20 -6.8697e-20 -8.0841e-21 1.68268e-21 5.21872e-22 2.82633e-25 -1.89486e-23 -2.18642e-24 3.94006e-25 1.13062e-25 5.84147e-28 -2.78114e-27 -6.83826e-29 1.74288e-29 5.45735e-32 -1.19415e-31 2.43869e-33 7.63288e-34 -2.89769e-35 -4.13117e-36 2.47837e-37 1.92067e-38 -1.73473e-39 -7.3648e-41 1.04459e-41 3.22191e-43 -0 0 0 0 0 
0 0 0 0 0 -0 -1.39845e-43 3.86396e-42 2.13492e-41 -8.15787e-40 -1.26849e-39 1.52883e-37 -2.72124e-37 -2.50419e-35 1.30341e-34 3.57515e-33 -3.45458e-32 -4.84592e-31 6.02179e-30 4.98521e-29 -6.86632e-28 -4.79096e-27 7.5812e-27 1.85906e-25 3.85909e-25 -4.26942e-24 -2.47505e-23 4.00455e-23 7.99618e-22 1.52544e-21 -1.54708e-20 -8.84068e-20 7.92637e-20 2.31324e-18 5.97059e-18 -2.98884e-17 -2.2615e-16 -1.73932e-16 3.77324e-15 1.63496e-14 -1.00749e-14 -3.15252e-13 -9.55453e-13 1.51453e-12 1.9739e-11 5.01807e-11 -8.34001e-11 -9.52186e-10 -2.52658e-09 1.46707e-09 3.28893e-08 1.10443e-07 1.11291e-07 -5.52093e-07 -3.09506e-06 -8.041e-06 -1.0132e-05 1.27081e-05 0.000118591 0.000437344 0.0012473 0.00313435 0.00726937 0.0158092 0.0323949 0.0626953 0.114875 0.199744 0.330274 0.520216 0.781781 1.12256 1.54225 2.02984 2.56223 3.10481 3.61433 4.04357 4.34731 4.48814 4.44133 4.19755 3.76355 3.16044 2.42031 1.58207 0.68692 -0.225553 -1.12039 -1.96928 -2.7513 -3.45282 -4.06673 -4.59123 -5.0285 -5.38334 -5.66184 -5.87037 -6.0147 -6.09935 -6.12725 -6.09935 -6.0147 -5.87037 -5.66184 -5.38334 -5.0285 -4.59123 -4.06673 -3.45282 -2.7513 -1.96928 -1.12039 -0.225553 0.68692 1.58207 2.42031 3.16044 3.76355 4.19755 4.44133 4.48814 4.34731 4.04357 3.61433 3.10481 2.56223 2.02984 1.54225 1.12256 0.781781 0.520216 0.330274 0.199744 0.114875 0.0626953 0.0323949 0.0158092 0.00726937 0.00313435 0.0012473 0.000437344 0.000118591 1.27081e-05 -1.0132e-05 -8.041e-06 -3.09506e-06 -5.52093e-07 1.11291e-07 1.10443e-07 3.28893e-08 1.46707e-09 -2.52658e-09 -9.52186e-10 -8.34001e-11 5.01807e-11 1.9739e-11 1.51453e-12 -9.55453e-13 -3.15252e-13 -1.00749e-14 1.63496e-14 3.77324e-15 -1.73932e-16 -2.2615e-16 -2.98884e-17 5.97059e-18 2.31324e-18 7.92637e-20 -8.84068e-20 -1.54708e-20 1.52545e-21 7.99672e-22 4.00635e-23 -2.46822e-23 -4.25854e-24 3.85098e-25 1.85478e-25 7.56166e-27 -4.78045e-27 -6.85074e-28 4.97498e-29 6.00843e-30 -4.83579e-31 -3.44685e-32 3.56773e-33 1.30039e-34 -2.49901e-35 -2.71373e-37 1.52568e-37 -1.26696e-39 -8.14134e-40 2.13175e-41 3.86396e-42 -1.39845e-43 -0 0 0 0 0 
0 0 0 0 0 -0 -1.0694e-43 5.62006e-43 2.21657e-41 -1.86766e-40 -3.5576e-39 4.78667e-38 4.61939e-37 -1.03215e-35 -4.2666e-35 1.91983e-33 1.56006e-33 -2.70643e-31 1.37284e-30 3.74802e-29 5.25799e-29 -1.32402e-27 -6.46313e-27 2.17836e-26 2.72042e-25 2.11389e-25 -7.25761e-24 -2.89998e-23 1.07401e-22 1.12032e-21 8.35714e-22 -2.54573e-20 -1.03935e-19 2.56262e-19 3.22259e-18 5.18188e-18 -5.09061e-17 -2.7959e-16 4.34529e-17 5.45136e-15 1.82034e-14 -3.13805e-14 -4.1579e-13 -9.78021e-13 2.85582e-12 2.45975e-11 4.98483e-11 -1.42022e-10 -1.14877e-09 -2.59306e-09 3.11835e-09 3.90751e-08 1.18072e-07 9.22254e-08 -6.62458e-07 -3.33807e-06 -8.26849e-06 -9.94394e-06 1.32588e-05 0.000116366 0.000419332 0.00117388 0.00289942 0.00661616 0.0141778 0.0286814 0.0549114 0.0997238 0.172193 0.283287 0.444878 0.668025 0.960672 1.3251 1.7557 2.23756 2.74653 3.25078 3.7139 4.09893 4.37274 4.5098 4.49498 4.32473 4.00686 3.55872 3.00494 2.37422 1.69663 1.00103 0.313322 -0.344795 -0.956275 -1.50858 -1.99331 -2.40549 -2.74265 -3.00409 -3.19009 -3.30129 -3.3383 -3.30129 -3.19009 -3.00409 -2.74265 -2.40549 -1.99331 -1.50858 -0.956275 -0.344795 0.313322 1.00103 1.69663 2.37422 3.00494 3.55872 4.00686 4.32473 4.49498 4.5098 4.37274 4.09893 3.7139 3.25078 2.74653 2.23756 1.7557 1.3251 0.960672 0.668025 0.444878 0.283287 0.172193 0.0997238 0.0549114 0.0286814 0.0141778 0.00661616 0.00289942 0.00117388 0.000419332 0.000116366 1.32588e-05 -9.94394e-06 -8.26849e-06 -3.33807e-06 -6.62458e-07 9.22254e-08 1.18072e-07 3.90751e-08 3.11835e-09 -2.59306e-09 -1.14877e-09 -1.42022e-10 4.98483e-11 2.45975e-11 2.85582e-12 -9.78021e-13 -4.1579e-13 -3.13805e-14 1.82034e-14 5.45136e-15 4.34529e-17 -2.7959e-16 -5.09061e-17 5.18188e-18 3.22259e-18 2.56262e-19 -1.03935e-19 -2.54573e-20 8.35714e-22 1.12032e-21 1.07417e-22 -2.89182e-23 -7.23852e-24 2.11088e-25 2.71418e-25 2.17314e-26 -6.44878e-27 -1.321e-27 5.24796e-29 3.73985e-29 1.3696e-30 -2.70063e-31 1.55838e-33 1.91574e-33 -4.25863e-35 -1.02995e-35 4.61037e-37 4.77643e-38 -3.55054e-39 -1.86393e-40 2.2101e-41 5.62006e-43 -1.0694e-43 -0 0 0 0 0 
0 0 0 0 0 0 -1.37103e-44 -2.80316e-43 7.83794e-42 3.35931e-41 -1.62634e-39 -6.68611e-40 2.94274e-37 -8.81249e-37 -4.54336e-35 3.40373e-34 6.84489e-33 -6.99855e-32 -9.6055e-31 5.84604e-30 6.42454e-29 7.41658e-30 -2.19012e-27 -7.333e-27 4.55938e-26 3.66206e-25 -1.98938e-25 -1.11545e-23 -2.98272e-23 2.07468e-22 1.45366e-21 -5.82811e-22 -3.78731e-20 -1.10789e-19 5.09582e-19 4.18346e-18 3.08093e-18 -7.67265e-17 -3.24137e-16 3.66595e-16 7.29337e-15 1.89413e-14 -5.81091e-14 -5.16244e-13 -9.3263e-13 4.36713e-12 2.91056e-11 4.69272e-11 -2.02333e-10 -1.32075e-09 -2.58782e-09 4.64658e-09 4.40212e-08 1.23113e-07 7.78347e-08 -7.28436e-07 -3.45081e-06 -8.34834e-06 -1.01505e-05 1.11157e-05 0.000105102 0.000377822 0.0010472 0.00255432 0.00575217 0.0121735 0.0243599 0.0462165 0.0833245 0.143083 0.234518 0.367604 0.552062 0.795685 1.10245 1.47073 1.89211 2.35102 2.82551 3.28911 3.71346 4.07136 4.3396 4.50141 4.54777 4.47793 4.29878 4.02365 3.67047 3.25992 2.81358 2.35244 1.89573 1.46019 1.0598 0.705667 0.406348 0.168054 -0.00488433 -0.109682 -0.144785 -0.109682 -0.00488433 0.168054 0.406348 0.705667 1.0598 1.46019 1.89573 2.35244 2.81358 3.25992 3.67047 4.02365 4.29878 4.47793 4.54777 4.50141 4.3396 4.07136 3.71346 3.28911 2.82551 2.35102 1.89211 1.47073 1.10245 0.795685 0.552062 0.367604 0.234518 0.143083 0.0833245 0.0462165 0.0243599 0.0121735 0.00575217 0.00255432 0.0010472 0.000377822 0.000105102 1.11157e-05 -1.01505e-05 -8.34834e-06 -3.45081e-06 -7.28436e-07 7.78347e-08 1.23113e-07 4.40212e-08 4.64658e-09 -2.58782e-09 -1.32075e-09 -2.02333e-10 4.69272e-11 2.91056e-11 4.36713e-12 -9.3263e-13 -5.16244e-13 -5.81091e-14 1.89413e-14 7.29337e-15 3.66595e-16 -3.24137e-16 -7.67265e-17 3.08093e-18 4.18346e-18 5.09582e-19 -1.10789e-19 -3.78731e-20 -5.82811e-22 1.45366e-21 2.07468e-22 -2.98267e-23 -1.11329e-23 -1.98643e-25 3.65343e-25 4.54853e-26 -7.31655e-27 -2.18509e-27 7.42446e-30 6.41042e-29 5.83275e-30 -9.58534e-31 -6.98319e-32 6.83053e-33 3.39614e-34 -4.53393e-35 -8.79136e-37 2.93666e-37 -6.68828e-40 -1.62296e-39 3.3542e-41 7.83106e-42 -2.80316e-43 -1.37103e-44 0 0 0 0 0 
0 0 0 0 0 0 -0 -1.81381e-43 7.69749e-43 3.99358e-41 -2.95077e-40 -6.42189e-39 8.06283e-38 8.65051e-37 -1.78894e-35 -1.00409e-34 2.90499e-33 -1.1457e-34 -4.10466e-31 -1.37773e-30 1.16368e-29 8.97491e-29 -1.09569e-28 -3.30212e-27 -6.82418e-27 8.0622e-26 4.55927e-25 -9.20527e-25 -1.58311e-23 -2.50386e-23 3.42789e-22 1.75669e-21 -2.89006e-21 -5.22071e-20 -1.0456e-19 8.39399e-19 5.11332e-18 -5.15246e-19 -1.06261e-16 -3.5425e-16 7.88314e-16 9.18733e-15 1.84291e-14 -8.8692e-14 -6.10329e-13 -8.27127e-13 5.92956e-12 3.30196e-11 4.22847e-11 -2.58464e-10 -1.45938e-09 -2.54578e-09 5.85122e-09 4.7381e-08 1.26006e-07 7.17505e-08 -7.41916e-07 -3.42681e-06 -8.28254e-06 -1.07026e-05 6.69931e-06 8.65836e-05 0.00031851 0.000882952 0.00213837 0.00476818 0.00998948 0.0198097 0.0373043 0.0668653 0.114334 0.186906 0.292699 0.439939 0.635805 0.885063 1.18874 1.54307 1.93907 2.36273 2.79607 3.21874 3.60995 3.95065 4.22523 4.42292 4.53842 4.57207 4.52925 4.41948 4.25536 4.05123 3.82215 3.58286 3.34707 3.12703 2.9331 2.77371 2.65532 2.5825 2.55793 2.5825 2.65532 2.77371 2.9331 3.12703 3.34707 3.58286 3.82215 4.05123 4.25536 4.41948 4.52925 4.57207 4.53842 4.42292 4.22523 3.95065 3.60995 3.21874 2.79607 2.36273 1.93907 1.54307 1.18874 0.885063 0.635805 0.439939 0.292699 0.186906 0.114334 0.0668653 0.0373043 0.0198097 0.00998948 0.00476818 0.00213837 0.000882952 0.00031851 8.65836e-05 6.69931e-06 -1.07026e-05 -8.28254e-06 -3.42681e-06 -7.41916e-07 7.17505e-08 1.26006e-07 4.7381e-08 5.85122e-09 -2.54578e-09 -1.45938e-09 -2.58464e-10 4.22847e-11 3.30196e-11 5.92956e-12 -8.27127e-13 -6.10329e-13 -8.8692e-14 1.84291e-14 9.18733e-15 7.88314e-16 -3.5425e-16 -1.06261e-16 -5.15246e-19 5.11332e-18 8.39399e-19 -1.0456e-19 -5.22071e-20 -2.89006e-21 1.75669e-21 3.42789e-22 -2.50388e-23 -1.58321e-23 -9.2056e-25 4.54667e-25 8.04186e-26 -6.80957e-27 -3.29451e-27 -1.09291e-28 8.95501e-29 1.16103e-29 -1.37484e-30 -4.09573e-31 -1.1188e-34 2.89878e-33 -1.0021e-34 -1.78513e-35 8.63318e-37 8.0456e-38 -6.40897e-39 -2.94387e-40 3.98986e-41 7.69749e-43 -1.81381e-43 -0 0 0 0 0 0 
0 0 0 0 0 0 -0 -4.94675e-44 -5.7559e-43 1.53526e-41 5.71202e-41 -3.31478e-39 1.84684e-39 6.09675e-37 -2.48849e-36 -8.35041e-35 1.10184e-33 1.32433e-32 -2.40627e-32 -6.87325e-31 -1.42083e-30 2.0244e-29 1.12912e-28 -3.22274e-28 -4.63148e-27 -4.23364e-27 1.27587e-25 5.23647e-25 -2.01809e-24 -2.10172e-23 -1.24642e-23 5.12425e-22 1.98009e-21 -6.17745e-21 -6.76557e-20 -8.17267e-20 1.23747e-18 5.92835e-18 -5.62116e-18 -1.37969e-16 -3.66374e-16 1.28817e-15 1.10195e-14 1.67388e-14 -1.20981e-13 -6.931e-13 -6.80306e-13 7.41295e-12 3.61895e-11 3.71024e-11 -3.04852e-10 -1.55938e-09 -2.50367e-09 6.57147e-09 4.89323e-08 1.27063e-07 7.56568e-08 -7.00882e-07 -3.26547e-06 -8.04593e-06 -1.13956e-05 9.03582e-07 6.36866e-05 0.000249183 0.000700232 0.00169527 0.00375805 0.00781442 0.0153864 0.0288034 0.0513957 0.0876113 0.142983 0.223873 0.336949 0.488419 0.683084 0.923379 1.20856 1.53423 1.89228 2.27138 2.6579 3.03707 3.39445 3.71716 3.99494 4.2209 4.39187 4.50821 4.5736 4.59423 4.57822 4.53479 4.47347 4.4036 4.33375 4.27135 4.22236 4.19117 4.18047 4.19117 4.22236 4.27135 4.33375 4.4036 4.47347 4.53479 4.57822 4.59423 4.5736 4.50821 4.39187 4.2209 3.99494 3.71716 3.39445 3.03707 2.6579 2.27138 1.89228 1.53423 1.20856 0.923379 0.683084 0.488419 0.336949 0.223873 0.142983 0.0876113 0.0513957 0.0288034 0.0153864 0.00781442 0.00375805 0.00169527 0.000700232 0.000249183 6.36866e-05 9.03582e-07 -1.13956e-05 -8.04593e-06 -3.26547e-06 -7.00882e-07 7.56568e-08 1.27063e-07 4.89323e-08 6.57147e-09 -2.50367e-09 -1.55938e-09 -3.04852e-10 3.71024e-11 3.61895e-11 7.41295e-12 -6.80306e-13 -6.931e-13 -1.20981e-13 1.67388e-14 1.10195e-14 1.28817e-15 -3.66374e-16 -1.37969e-16 -5.62116e-18 5.92835e-18 1.23747e-18 -8.17269e-20 -6.76557e-20 -6.17745e-21 1.98009e-21 5.12425e-22 -1.24642e-23 -2.10172e-23 -2.01837e-24 5.22165e-25 1.2725e-25 -4.22711e-27 -4.62089e-27 -3.21512e-28 1.12659e-28 2.01978e-29 -1.41788e-30 -6.85818e-31 -2.40056e-32 1.32153e-32 1.09944e-33 -8.33305e-35 -2.48286e-36 6.08412e-37 1.8406e-39 -3.30787e-39 5.71174e-41 1.53181e-41 -5.7559e-43 -4.94675e-44 -0 0 0 0 0 0 
0 0 0 0 0 0 0 -0 -3.53892e-43 1.31767e-42 6.90665e-41 -5.28942e-40 -1.07913e-38 1.50513e-37 1.65733e-36 -2.80119e-35 -1.79368e-34 3.23677e-33 2.09197e-32 -6.25216e-32 -1.00306e-30 -9.07593e-31 3.21051e-29 1.29208e-28 -6.5088e-28 -6.09243e-27 1.20532e-27 1.86148e-25 5.48703e-25 -3.53196e-24 -2.63207e-23 9.68526e-24 7.11639e-22 2.07578e-21 -1.0444e-20 -8.32351e-20 -4.04036e-20 1.6877e-18 6.55889e-18 -1.20607e-17 -1.70084e-16 -3.59745e-16 1.83453e-15 1.26908e-14 1.41448e-14 -1.52524e-13 -7.61436e-13 -5.1857e-13 8.69167e-12 3.85511e-11 3.26296e-11 -3.36891e-10 -1.61808e-09 -2.49036e-09 6.70862e-09 4.8568e-08 1.26306e-07 8.89434e-08 -6.09653e-07 -2.97312e-06 -7.59886e-06 -1.19348e-05 -5.12907e-06 3.97584e-05 0.000178227 0.000518172 0.001266 0.00280484 0.00580751 0.011378 0.0212071 0.037718 0.0641639 0.10463 0.163894 0.247104 0.359295 0.504762 0.686397 0.905087 1.15928 1.44486 1.75525 2.08192 2.41507 2.74449 3.06038 3.35418 3.61911 3.85059 4.04631 4.20616 4.33192 4.42689 4.49539 4.54229 4.57248 4.59057 4.60047 4.60516 4.60652 4.60516 4.60047 4.59057 4.57248 4.54229 4.49539 4.42689 4.33192 4.20616 4.04631 3.85059 3.61911 3.35418 3.06038 2.74449 2.41507 2.08192 1.75525 1.44486 1.15928 0.905087 0.686397 0.504762 0.359295 0.247104 0.163894 0.10463 0.0641639 0.037718 0.0212071 0.011378 0.00580751 0.00280484 0.001266 0.000518172 0.000178227 3.97584e-05 -5.12907e-06 -1.19348e-05 -7.59886e-06 -2.97312e-06 -6.09653e-07 8.89434e-08 1.26306e-07 4.8568e-08 6.70862e-09 -2.49036e-09 -1.61808e-09 -3.36891e-10 3.26296e-11 3.85511e-11 8.69167e-12 -5.1857e-13 -7.61436e-13 -1.52524e-13 1.41448e-14 1.26908e-14 1.83453e-15 -3.59745e-16 -1.70084e-16 -1.20607e-17 6.55889e-18 1.6877e-18 -4.04036e-20 -8.32352e-20 -1.0444e-20 2.07578e-21 7.11639e-22 9.68528e-24 -2.63207e-23 -3.53195e-24 5.48699e-25 1.85793e-25 1.20582e-27 -6.07807e-27 -6.49337e-28 1.28915e-28 3.20313e-29 -9.05839e-31 -1.00084e-30 -6.23776e-32 2.08752e-32 3.22975e-33 -1.79009e-34 -2.79525e-35 1.65395e-36 1.50193e-37 -1.07694e-38 -5.27844e-40 6.89863e-41 1.31215e-42 -3.53892e-43 -0 0 0 0 0 0 0 
0 0 0 0 0 0 0 0 -8.95057e-44 -1.15762e-42 2.30756e-41 1.4054e-40 -5.13529e-39 -9.90911e-39 8.4993e-37 -4.2625e-36 -1.37889e-34 -1.90207e-34 5.56653e-33 2.6364e-32 -1.27951e-31 -1.35741e-30 3.46496e-31 4.72808e-29 1.32786e-28 -1.10948e-27 -7.55577e-27 1.01941e-26 2.5465e-25 5.10146e-25 -5.46809e-24 -3.12742e-23 4.24764e-23 9.32273e-22 2.00551e-21 -1.55858e-20 -9.79362e-20 1.91305e-20 2.16805e-18 6.96275e-18 -1.94755e-17 -2.00852e-16 -3.36663e-16 2.38831e-15 1.41282e-14 1.1081e-14 -1.80848e-13 -8.14009e-13 -3.71184e-13 9.65767e-12 4.00979e-11 2.99291e-11 -3.51388e-10 -1.6342e-09 -2.51915e-09 6.23954e-09 4.62931e-08 1.23435e-07 1.08788e-07 -4.78738e-07 -2.56634e-06 -6.91109e-06 -1.20306e-05 -1.02871e-05 1.79379e-05 0.000113142 0.000352954 0.000883144 0.00197056 0.0040808 0.00797701 0.0148302 0.0263248 0.0447353 0.0729438 0.114369 0.172782 0.252009 0.355532 0.486061 0.645095 0.832603 1.04682 1.28429 1.53999 1.80777 2.0808 2.3521 2.61503 2.86379 3.09368 3.30126 3.48442 3.64228 3.77498 3.88344 3.96904 4.0334 4.07806 4.1043 4.11297 4.1043 4.07806 4.0334 3.96904 3.88344 3.77498 3.64228 3.48442 3.30126 3.09368 2.86379 2.61503 2.3521 2.0808 1.80777 1.53999 1.28429 1.04682 0.832603 0.645095 0.486061 0.355532 0.252009 0.172782 0.114369 0.0729438 0.0447353 0.0263248 0.0148302 0.00797701 0.0040808 0.00197056 0.000883144 0.000352954 0.000113142 1.79379e-05 -1.02871e-05 -1.20306e-05 -6.91109e-06 -2.56634e-06 -4.78738e-07 1.08788e-07 1.23435e-07 4.62931e-08 6.23954e-09 -2.51915e-09 -1.6342e-09 -3.51388e-10 2.99291e-11 4.00979e-11 9.65767e-12 -3.71184e-13 -8.14009e-13 -1.80848e-13 1.1081e-14 1.41282e-14 2.38831e-15 -3.36663e-16 -2.00852e-16 -1.94755e-17 6.96275e-18 2.16805e-18 1.91305e-20 -9.79362e-20 -1.55858e-20 2.00551e-21 9.32273e-22 4.24764e-23 -3.12742e-23 -5.46809e-24 5.10149e-25 2.54666e-25 1.02049e-26 -7.53498e-27 -1.10666e-27 1.32495e-28 4.71721e-29 3.45374e-31 -1.35439e-30 -1.27659e-31 2.63076e-32 5.55437e-33 -1.89841e-34 -1.37598e-34 -4.253e-36 8.48162e-37 -9.89166e-39 -5.12464e-39 1.40249e-40 2.30134e-41 -1.15762e-42 -8.95057e-44 0 0 0 0 0 0 0 
0 0 0 0 0 0 0 0 -4.13103e-45 -7.14717e-43 2.21729e-42 1.33569e-40 -1.00869e-39 -1.83533e-38 3.73534e-37 3.19991e-36 -1.5577e-35 -2.18985e-34 -7.0684e-35 8.56102e-33 2.92615e-32 -2.2567e-31 -1.72568e-30 2.5463e-30 6.5416e-29 1.17008e-28 -1.70422e-27 -8.86248e-27 2.32439e-26 3.30186e-25 3.90003e-25 -7.79286e-24 -3.54038e-23 8.59875e-23 1.16374e-21 1.74862e-21 -2.14011e-20 -1.10889e-19 9.4225e-20 2.65319e-18 7.13334e-18 -2.73608e-17 -2.28741e-16 -3.02167e-16 2.90748e-15 1.52884e-14 8.06746e-15 -2.03723e-13 -8.50814e-13 -2.65047e-13 1.02297e-11 4.08441e-11 2.96655e-11 -3.46835e-10 -1.60698e-09 -2.58418e-09 5.2204e-09 4.2231e-08 1.17937e-07 1.3067e-07 -3.2404e-07 -2.07501e-06 -5.98627e-06 -1.14907e-05 -1.37443e-05 5.77127e-07 5.93897e-05 0.000215739 0.000567481 0.00129112 0.00269238 0.00527186 0.00979969 0.0173887 0.0295507 0.0482182 0.0757112 0.114636 0.167709 0.23752 0.32625 0.435392 0.565506 0.716059 0.88536 1.07062 1.26812 1.47347 1.6819 1.88859 2.08893 2.27879 2.45466 2.61374 2.75392 2.87375 2.97233 3.04918 3.1041 3.13703 3.14801 3.13703 3.1041 3.04918 2.97233 2.87375 2.75392 2.61374 2.45466 2.27879 2.08893 1.88859 1.6819 1.47347 1.26812 1.07062 0.88536 0.716059 0.565506 0.435392 0.32625 0.23752 0.167709 0.114636 0.0757112 0.0482182 0.0295507 0.0173887 0.00979969 0.00527186 0.00269238 0.00129112 0.000567481 0.000215739 5.93897e-05 5.77127e-07 -1.37443e-05 -1.14907e-05 -5.98627e-06 -2.07501e-06 -3.2404e-07 1.3067e-07 1.17937e-07 4.2231e-08 5.2204e-09 -2.58418e-09 -1.60698e-09 -3.46835e-10 2.96655e-11 4.08441e-11 1.02297e-11 -2.65047e-13 -8.50814e-13 -2.03723e-13 8.06746e-15 1.52884e-14 2.90748e-15 -3.02167e-16 -2.28741e-16 -2.73608e-17 7.13334e-18 2.65319e-18 9.4225e-20 -1.10889e-19 -2.14011e-20 1.74862e-21 1.16374e-21 8.59875e-23 -3.54039e-23 -7.79286e-24 3.90003e-25 3.30186e-25 2.32477e-26 -8.83884e-27 -1.69975e-27 1.16779e-28 6.52664e-29 2.5402e-30 -1.72179e-30 -2.25154e-31 2.91987e-32 8.54218e-33 -7.05914e-35 -2.18519e-34 -1.55429e-35 3.19332e-36 3.72746e-37 -1.83161e-38 -1.00655e-39 1.33257e-40 2.209e-42 -7.14717e-43 -4.13103e-45 0 0 0 0 0 0 0 
0 0 0 0 0 0 0 0 -0 -1.61432e-43 -1.99473e-42 3.7065e-41 3.0725e-40 -7.0799e-39 -2.16893e-38 9.8678e-37 4.83705e-36 -2.95044e-35 -3.0127e-34 2.42289e-34 1.23411e-32 2.82999e-32 -3.58723e-31 -2.06926e-30 5.86371e-30 8.57809e-29 7.55494e-29 -2.43055e-27 -9.83904e-27 4.05654e-26 4.08907e-25 1.76539e-25 -1.04339e-23 -3.83077e-23 1.3917e-22 1.39446e-21 1.30753e-21 -2.76093e-20 -1.21499e-19 1.80016e-19 3.11739e-18 7.10093e-18 -3.51222e-17 -2.52572e-16 -2.63182e-16 3.35162e-15 1.61538e-14 5.62106e-15 -2.19352e-13 -8.72449e-13 -2.19933e-13 1.0359e-11 4.07937e-11 3.1973e-11 -3.23543e-10 -1.53607e-09 -2.66148e-09 3.78043e-09 3.6639e-08 1.09308e-07 1.49293e-07 -1.64971e-07 -1.54225e-06 -4.87593e-06 -1.02796e-05 -1.5121e-05 -1.11012e-05 1.98027e-05 0.000111852 0.000327303 0.000776703 0.00164983 0.00325684 0.00607608 0.0108022 0.018385 0.0300483 0.0472764 0.0717606 0.105299 0.149658 0.206401 0.276708 0.361218 0.459895 0.571963 0.6959 0.829514 0.970045 1.11434 1.25906 1.40079 1.53628 1.66254 1.77693 1.8772 1.96152 2.02847 2.077 2.10639 2.11624 2.10639 2.077 2.02847 1.96152 1.8772 1.77693 1.66254 1.53628 1.40079 1.25906 1.11434 0.970045 0.829514 0.6959 0.571963 0.459895 0.361218 0.276708 0.206401 0.149658 0.105299 0.0717606 0.0472764 0.0300483 0.018385 0.0108022 0.00607608 0.00325684 0.00164983 0.000776703 0.000327303 0.000111852 1.98027e-05 -1.11012e-05 -1.5121e-05 -1.02796e-05 -4.87593e-06 -1.54225e-06 -1.64971e-07 1.49293e-07 1.09308e-07 3.6639e-08 3.78043e-09 -2.66148e-09 -1.53607e-09 -3.23543e-10 3.1973e-11 4.07937e-11 1.0359e-11 -2.19933e-13 -8.72449e-13 -2.19352e-13 5.62106e-15 1.61538e-14 3.35162e-15 -2.63182e-16 -2.52572e-16 -3.51222e-17 7.10093e-18 3.11739e-18 1.80016e-19 -1.21499e-19 -2.76093e-20 1.30753e-21 1.39446e-21 1.3917e-22 -3.83077e-23 -1.04339e-23 1.7654e-25 4.08907e-25 4.05653e-26 -9.83916e-27 -2.42623e-27 7.5298e-29 8.55766e-29 5.84958e-30 -2.06456e-30 -3.57897e-31 2.82394e-32 1.23137e-32 2.4168e-34 -3.00623e-34 -2.94398e-35 4.82705e-36 9.84701e-37 -2.16486e-38 -7.06519e-39 3.0663e-40 3.69625e-41 -1.99473e-42 -1.61432e-43 -0 0 0 0 0 0 0 0 
0 0 0 0 0 0 0 0 0 -8.27857e-45 -1.07824e-42 -3.48965e-43 1.79112e-40 -1.38094e-39 -3.23907e-38 -7.81985e-39 1.61622e-36 5.73851e-36 -5.01229e-35 -3.84932e-34 7.87686e-34 1.6833e-32 2.18603e-32 -5.27703e-31 -2.34116e-30 1.04146e-29 1.07382e-28 3.3415e-30 -3.27168e-27 -1.0325e-26 6.19983e-26 4.86515e-25 -1.33057e-25 -1.32866e-23 -3.97277e-23 1.99867e-22 1.61336e-21 7.09691e-22 -3.38796e-20 -1.2953e-19 2.69921e-19 3.53708e-18 6.92649e-18 -4.2141e-17 -2.71548e-16 -2.27316e-16 3.68578e-15 1.67235e-14 4.16825e-15 -2.26505e-13 -8.79403e-13 -2.45024e-13 1.00325e-11 3.99254e-11 3.64226e-11 -2.83649e-10 -1.42221e-09 -2.71477e-09 2.10538e-09 2.99192e-08 9.73303e-08 1.59788e-07 -2.13827e-08 -1.0195e-06 -3.67631e-06 -8.52572e-06 -1.45145e-05 -1.70548e-05 -5.41062e-06 4.1165e-05 0.000160037 0.000416537 0.000921596 0.00185582 0.0034982 0.0062558 0.0106887 0.017524 0.0276512 0.0420948 0.0619593 0.0883499 0.122273 0.16453 0.215609 0.275603 0.34415 0.420411 0.503096 0.590507 0.680633 0.771252 0.860037 0.944669 1.02293 1.0928 1.15248 1.20047 1.2356 1.25702 1.26422 1.25702 1.2356 1.20047 1.15248 1.0928 1.02293 0.944669 0.860037 0.771252 0.680633 0.590507 0.503096 0.420411 0.34415 0.275603 0.215609 0.16453 0.122273 0.0883499 0.0619593 0.0420948 0.0276512 0.017524 0.0106887 0.0062558 0.0034982 0.00185582 0.000921596 0.000416537 0.000160037 4.1165e-05 -5.41062e-06 -1.70548e-05 -1.45145e-05 -8.52572e-06 -3.67631e-06 -1.0195e-06 -2.13827e-08 1.59788e-07 9.73303e-08 2.99192e-08 2.10538e-09 -2.71477e-09 -1.42221e-09 -2.83649e-10 3.64226e-11 3.99254e-11 1.00325e-11 -2.45024e-13 -8.79403e-13 -2.26505e-13 4.16825e-15 1.67235e-14 3.68578e-15 -2.27316e-16 -2.71548e-16 -4.2141e-17 6.92649e-18 3.53708e-18 2.69921e-19 -1.2953e-19 -3.38796e-20 7.09691e-22 1.61336e-21 1.99867e-22 -3.97277e-23 -1.32866e-23 -1.33057e-25 4.86515e-25 6.19983e-26 -1.0325e-26 -3.27191e-27 2.89628e-30 1.07089e-28 1.03871e-29 -2.33596e-30 -5.26487e-31 2.18143e-32 1.67953e-32 7.85842e-34 -3.84099e-34 -5.00126e-35 5.72661e-36 1.61279e-36 -7.81184e-39 -3.23239e-38 -1.37797e-39 1.78777e-40 -3.46195e-43 -1.06441e-42 -8.27857e-45 0 0 0 0 0 0 0 0 
0 0 0 0 0 0 0 0 0 0 -1.90765e-43 -3.6212e-42 3.53169e-41 6.18536e-40 -4.25472e-39 -5.05262e-38 3.46337e-38 2.36533e-36 5.8109e-36 -7.86952e-35 -4.63786e-34 1.60416e-33 2.18552e-32 8.38941e-33 -7.30226e-31 -2.49293e-30 1.62345e-29 1.29031e-28 -1.02595e-28 -4.19989e-27 -1.01994e-26 8.69873e-26 5.58868e-25 -5.31079e-25 -1.62251e-23 -3.96016e-23 2.64975e-22 1.81126e-21 5.65403e-24 -3.98637e-20 -1.35106e-19 3.56373e-19 3.89246e-18 6.68981e-18 -4.78406e-17 -2.85203e-16 -2.01537e-16 3.8835e-15 1.70021e-14 3.97258e-15 -2.24596e-13 -8.7157e-13 -3.37222e-13 9.27394e-12 3.81993e-11 4.20973e-11 -2.30974e-10 -1.26849e-09 -2.70456e-09 4.11701e-10 2.2611e-08 8.2316e-08 1.58928e-07 9.02003e-08 -5.57284e-07 -2.50814e-06 -6.47874e-06 -1.24047e-05 -1.82041e-05 -1.81431e-05 -6.14214e-07 5.53709e-05 0.000186066 0.000452263 0.000952297 0.00183802 0.00333177 0.00574125 0.00946851 0.0150091 0.0229382 0.0338815 0.0484716 0.067293 0.0908194 0.119352 0.152967 0.191472 0.234394 0.280974 0.330197 0.380837 0.431514 0.480758 0.527087 0.569071 0.605396 0.634916 0.656695 0.670045 0.674542 0.670045 0.656695 0.634916 0.605396 0.569071 0.527087 0.480758 0.431514 0.380837 0.330197 0.280974 0.234394 0.191472 0.152967 0.119352 0.0908194 0.067293 0.0484716 0.0338815 0.0229382 0.0150091 0.00946851 0.00574125 0.00333177 0.00183802 0.000952297 0.000452263 0.000186066 5.53709e-05 -6.14214e-07 -1.81431e-05 -1.82041e-05 -1.24047e-05 -6.47874e-06 -2.50814e-06 -5.57284e-07 9.02003e-08 1.58928e-07 8.2316e-08 2.2611e-08 4.11701e-10 -2.70456e-09 -1.26849e-09 -2.30974e-10 4.20973e-11 3.81993e-11 9.27394e-12 -3.37222e-13 -8.7157e-13 -2.24596e-13 3.97258e-15 1.70021e-14 3.8835e-15 -2.01537e-16 -2.85203e-16 -4.78406e-17 6.68981e-18 3.89246e-18 3.56373e-19 -1.35106e-19 -3.98637e-20 5.65403e-24 1.81126e-21 2.64975e-22 -3.96016e-23 -1.62251e-23 -5.31079e-25 5.58868e-25 8.69874e-26 -1.01994e-26 -4.19989e-27 -1.02632e-28 1.28718e-28 1.61924e-29 -2.48752e-30 -7.28549e-31 8.37292e-33 2.18057e-32 1.60043e-33 -4.62775e-34 -7.85211e-35 5.79886e-36 2.36027e-36 3.4548e-38 -5.04212e-38 -4.24572e-39 6.17276e-40 3.52767e-41 -3.59766e-42 -1.79706e-43 0 0 0 0 0 0 0 0 0 
0 0 0 0 0 0 0 0 0 0 -4.14706e-45 -1.17429e-42 -4.07514e-42 2.04042e-40 9.29034e-40 -7.48037e-39 -6.81469e-38 1.21127e-37 3.26977e-36 4.79693e-36 -1.15488e-34 -5.27878e-34 2.7179e-33 2.71459e-32 -1.33463e-32 -9.61252e-31 -2.48304e-30 2.32599e-29 1.49442e-28 -2.42309e-28 -5.17914e-27 -9.40443e-27 1.14609e-25 6.22562e-25 -9.99088e-25 -1.91152e-23 -3.80822e-23 3.30728e-22 1.98166e-21 -7.36523e-22 -4.52265e-20 -1.38645e-19 4.3169e-19 4.1683e-18 6.47376e-18 -5.17435e-17 -2.93297e-16 -1.90953e-16 3.92883e-15 1.69903e-14 5.08989e-15 -2.13718e-13 -8.4816e-13 -4.81542e-13 8.14343e-12 3.55839e-11 4.77641e-11 -1.707e-10 -1.08161e-09 -2.59862e-09 -1.08672e-09 1.5347e-08 6.52112e-08 1.45997e-07 1.59983e-07 -1.94597e-07 -1.4869e-06 -4.43321e-06 -9.47511e-06 -1.60415e-05 -2.15592e-05 -2.01991e-05 -1.0952e-06 5.44855e-05 0.0001776 0.000418032 0.000852402 0.00159306 0.00279615 0.00466684 0.00745944 0.0114707 0.0170251 0.0244519 0.0340558 0.0460832 0.0606885 0.0779028 0.0976115 0.119541 0.14326 0.168188 0.193626 0.218784 0.242823 0.264905 0.28423 0.300079 0.311854 0.319105 0.321554 0.319105 0.311854 0.300079 0.28423 0.264905 0.242823 0.218784 0.193626 0.168188 0.14326 0.119541 0.0976115 0.0779028 0.0606885 0.0460832 0.0340558 0.0244519 0.0170251 0.0114707 0.00745944 0.00466684 0.00279615 0.00159306 0.000852402 0.000418032 0.0001776 5.44855e-05 -1.0952e-06 -2.01991e-05 -2.15592e-05 -1.60415e-05 -9.47511e-06 -4.43321e-06 -1.4869e-06 -1.94597e-07 1.59983e-07 1.45997e-07 6.52112e-08 1.5347e-08 -1.08672e-09 -2.59862e-09 -1.08161e-09 -1.707e-10 4.77641e-11 3.55839e-11 8.14343e-12 -4.81542e-13 -8.4816e-13 -2.13718e-13 5.08989e-15 1.69903e-14 3.92883e-15 -1.90953e-16 -2.93297e-16 -5.17435e-17 6.47376e-18 4.1683e-18 4.3169e-19 -1.38645e-19 -4.52265e-20 -7.36523e-22 1.98166e-21 3.30728e-22 -3.80822e-23 -1.91152e-23 -9.99088e-25 6.22562e-25 1.14609e-25 -9.40442e-27 -5.17915e-27 -2.42307e-28 1.49447e-28 2.32258e-29 -2.47585e-30 -9.58921e-31 -1.33072e-32 2.70839e-32 2.71157e-33 -5.2672e-34 -1.15231e-34 4.78715e-36 3.2627e-36 1.20851e-37 -6.80042e-38 -7.46445e-39 9.27141e-40 2.03585e-40 -4.06681e-42 -1.17014e-42 -4.14706e-45 0 0 0 0 0 0 0 0 0 
0 0 0 0 0 0 0 0 0 0 0 -1.38478e-43 -5.67162e-42 -2.09761e-43 3.28702e-40 1.09643e-39 -1.19748e-38 -8.54233e-38 2.59213e-37 4.31258e-36 2.39293e-36 -1.60141e-34 -5.66353e-34 4.1352e-33 3.23952e-32 -4.40486e-32 -1.21369e-30 -2.28183e-30 3.13199e-29 1.67448e-28 -4.12503e-28 -6.16892e-27 -7.96025e-27 1.43645e-25 6.75388e-25 -1.50917e-24 -2.18271e-23 -3.55225e-23 3.93046e-22 2.12102e-21 -1.43965e-21 -4.9671e-20 -1.40734e-19 4.88943e-19 4.3538e-18 6.34825e-18 -5.35169e-17 -2.95705e-16 -1.97922e-16 3.81747e-15 1.66812e-14 7.35728e-15 -1.9465e-13 -8.08041e-13 -6.53567e-13 6.73403e-12 3.20947e-11 5.21167e-11 -1.08816e-10 -8.72488e-10 -2.38115e-09 -2.21462e-09 8.76869e-09 4.74969e-08 1.22982e-07 1.86749e-07 4.93887e-08 -6.94507e-07 -2.64787e-06 -6.41362e-06 -1.21898e-05 -1.91969e-05 -2.49782e-05 -2.45125e-05 -8.93938e-06 3.63896e-05 0.000134745 0.000321715 0.000649393 0.00119032 0.00204013 0.00331784 0.00516278 0.00772739 0.0111661 0.0156206 0.0212029 0.0279784 0.0359496 0.0450452 0.0551129 0.0659199 0.0771602 0.0884678 0.0994369 0.109644 0.118673 0.126144 0.13173 0.135186 0.136355 0.135186 0.13173 0.126144 0.118673 0.109644 0.0994369 0.0884678 0.0771602 0.0659199 0.0551129 0.0450452 0.0359496 0.0279784 0.0212029 0.0156206 0.0111661 0.00772739 0.00516278 0.00331784 0.00204013 0.00119032 0.000649393 0.000321715 0.000134745 3.63896e-05 -8.93938e-06 -2.45125e-05 -2.49782e-05 -1.91969e-05 -1.21898e-05 -6.41362e-06 -2.64787e-06 -6.94507e-07 4.93887e-08 1.86749e-07 1.22982e-07 4.74969e-08 8.76869e-09 -2.21462e-09 -2.38115e-09 -8.72488e-10 -1.08816e-10 5.21167e-11 3.20947e-11 6.73403e-12 -6.53567e-13 -8.08041e-13 -1.9465e-13 7.35728e-15 1.66812e-14 3.81747e-15 -1.97922e-16 -2.95705e-16 -5.35169e-17 6.34825e-18 4.3538e-18 4.88943e-19 -1.40734e-19 -4.9671e-20 -1.43965e-21 2.12102e-21 3.93046e-22 -3.55225e-23 -2.18271e-23 -1.50917e-24 6.75388e-25 1.43645e-25 -7.96025e-27 -6.16891e-27 -4.12504e-28 1.67448e-28 3.13226e-29 -2.27236e-30 -1.21041e-30 -4.39107e-32 3.23223e-32 4.12563e-33 -5.65098e-34 -1.5978e-34 2.3886e-36 4.30318e-36 2.58631e-37 -8.52431e-38 -1.19492e-38 1.0942e-39 3.28012e-40 -2.06982e-43 -5.6522e-42 -1.38478e-43 0 0 0 0 0 0 0 0 0 0 
0 0 0 0 0 0 0 0 0 0 0 -1.38478e-45 -8.98804e-43 -9.31282e-42 7.14875e-42 4.73863e-40 1.10631e-39 -1.80156e-38 -1.0141e-37 4.54828e-37 5.44989e-36 -1.67618e-36 -2.11629e-34 -5.6927e-34 5.83978e-33 3.72925e-32 -8.37101e-32 -1.47863e-30 -1.87563e-30 4.01456e-29 1.82164e-28 -6.06532e-28 -7.12842e-27 -5.9701e-27 1.72681e-25 7.16556e-25 -2.02646e-24 -2.42453e-23 -3.24238e-23 4.4791e-22 2.2283e-21 -2.02713e-21 -5.29552e-20 -1.41969e-19 5.22725e-19 4.4421e-18 6.35661e-18 -5.30023e-17 -2.92338e-16 -2.21614e-16 3.5572e-15 1.60614e-14 1.0417e-14 -1.68829e-13 -7.50413e-13 -8.23597e-13 5.16516e-12 2.78313e-11 5.40453e-11 -5.13556e-11 -6.55829e-10 -2.05843e-09 -2.8673e-09 3.41496e-09 3.08878e-08 9.39764e-08 1.77404e-07 1.78028e-07 -1.62562e-07 -1.28638e-06 -3.75072e-06 -8.03192e-06 -1.42156e-05 -2.16123e-05 -2.83118e-05 -3.06257e-05 -2.23063e-05 6.56805e-06 7.10774e-05 0.000193192 0.000403458 0.000742178 0.00125958 0.00201444 0.00307096 0.00449361 0.00634048 0.00865554 0.0114607 0.0147489 0.0184787 0.022572 0.0269145 0.0313606 0.0357403 0.0398696 0.043563 0.0466456 0.048966 0.0504076 0.0508966 0.0504076 0.048966 0.0466456 0.043563 0.0398696 0.0357403 0.0313606 0.0269145 0.022572 0.0184787 0.0147489 0.0114607 0.00865554 0.00634048 0.00449361 0.00307096 0.00201444 0.00125958 0.000742178 0.000403458 0.000193192 7.10774e-05 6.56805e-06 -2.23063e-05 -3.06257e-05 -2.83118e-05 -2.16123e-05 -1.42156e-05 -8.03192e-06 -3.75072e-06 -1.28638e-06 -1.62562e-07 1.78028e-07 1.77404e-07 9.39764e-08 3.08878e-08 3.41496e-09 -2.8673e-09 -2.05843e-09 -6.55829e-10 -5.13556e-11 5.40453e-11 2.78313e-11 5.16516e-12 -8.23597e-13 -7.50413e-13 -1.68829e-13 1.0417e-14 1.60614e-14 3.5572e-15 -2.21614e-16 -2.92338e-16 -5.30023e-17 6.35661e-18 4.4421e-18 5.22725e-19 -1.41969e-19 -5.29552e-20 -2.02713e-21 2.2283e-21 4.4791e-22 -3.24238e-23 -2.42453e-23 -2.02646e-24 7.16556e-25 1.72681e-25 -5.9701e-27 -7.12842e-27 -6.06532e-28 1.82164e-28 4.01456e-29 -1.87543e-30 -1.47544e-30 -8.35055e-32 3.72073e-32 5.82623e-33 -5.67988e-34 -2.11146e-34 -1.67105e-36 5.4379e-36 4.53807e-37 -1.01194e-37 -1.79767e-38 1.10413e-39 4.72841e-40 7.09032e-42 -9.29754e-42 -8.98804e-43 -1.38478e-45 0 0 0 0 0 0 0 0 0 0 
0 0 0 0 0 0 0 0 0 0 0 0 -9.70931e-45 -1.48777e-42 -1.26324e-41 2.18245e-41 6.47367e-40 9.18176e-40 -2.56443e-38 -1.14375e-37 7.10947e-37 6.62341e-36 -7.58437e-36 -2.68333e-34 -5.29166e-34 7.79395e-33 4.15785e-32 -1.31534e-31 -1.7458e-30 -1.27252e-30 4.93895e-29 1.93117e-28 -8.14794e-28 -8.02038e-27 -3.61258e-27 2.0023e-25 7.46653e-25 -2.51257e-24 -2.62749e-23 -2.93612e-23 4.91696e-22 2.30413e-21 -2.43284e-21 -5.49028e-20 -1.42808e-19 5.29744e-19 4.42967e-18 6.507e-18 -5.02306e-17 -2.83135e-16 -2.58123e-16 3.16755e-15 1.51194e-14 1.37741e-14 -1.38264e-13 -6.75608e-13 -9.61867e-13 3.57123e-12 2.29985e-11 5.28741e-11 -3.51904e-12 -4.48345e-10 -1.65894e-09 -3.0295e-09 -3.8492e-10 1.69205e-08 6.39674e-08 1.44313e-07 2.13491e-07 1.28012e-07 -3.95582e-07 -1.77621e-06 -4.49145e-06 -8.92681e-06 -1.51731e-05 -2.27971e-05 -3.05908e-05 -3.62706e-05 -3.60841e-05 -2.42952e-05 7.42816e-06 7.06265e-05 0.000180487 0.000355896 0.00061889 0.000993368 0.00150301 0.00216854 0.00300453 0.0040163 0.00519703 0.00652595 0.00796762 0.00947281 0.0109808 0.0124232 0.0137288 0.0148288 0.0156628 0.0161833 0.0163603 0.0161833 0.0156628 0.0148288 0.0137288 0.0124232 0.0109808 0.00947281 0.00796762 0.00652595 0.00519703 0.0040163 0.00300453 0.00216854 0.00150301 0.000993368 0.00061889 0.000355896 0.000180487 7.06265e-05 7.42816e-06 -2.42952e-05 -3.60841e-05 -3.62706e-05 -3.05908e-05 -2.27971e-05 -1.51731e-05 -8.92681e-06 -4.49145e-06 -1.77621e-06 -3.95582e-07 1.28012e-07 2.13491e-07 1.44313e-07 6.39674e-08 1.69205e-08 -3.8492e-10 -3.0295e-09 -1.65894e-09 -4.48345e-10 -3.51904e-12 5.28741e-11 2.29985e-11 3.57123e-12 -9.61867e-13 -6.75608e-13 -1.38264e-13 1.37741e-14 1.51194e-14 3.16755e-15 -2.58123e-16 -2.83135e-16 -5.02306e-17 6.507e-18 4.42967e-18 5.29744e-19 -1.42808e-19 -5.49028e-20 -2.43284e-21 2.30413e-21 4.91696e-22 -2.93612e-23 -2.62749e-23 -2.51257e-24 7.46653e-25 2.0023e-25 -3.61258e-27 -8.02038e-27 -8.14794e-28 1.93117e-28 4.93896e-29 -1.27254e-30 -1.74589e-30 -1.31458e-31 4.14625e-32 7.77446e-33 -5.28036e-34 -2.67718e-34 -7.56551e-36 6.60872e-36 7.09346e-37 -1.1413e-37 -2.55885e-38 9.16375e-40 6.4603e-40 2.17423e-41 -1.26171e-41 -1.48777e-42 -9.70931e-45 0 0 0 0 0 0 0 0 0 0 0 
0 0 0 0 0 0 0 0 0 0 0 0 0 -3.47286e-44 -2.26328e-42 -1.59425e-41 4.50407e-41 8.47716e-40 4.87084e-40 -3.47649e-38 -1.22415e-37 1.02638e-36 7.76852e-36 -1.53637e-35 -3.28224e-34 -4.42378e-34 9.94175e-33 4.50583e-32 -1.85918e-31 -2.00493e-30 -5.03662e-31 5.86532e-29 2.00306e-28 -1.0255e-27 -8.81385e-27 -1.12273e-27 2.24846e-25 7.67351e-25 -2.92948e-24 -2.78435e-23 -2.68933e-23 5.21469e-22 2.34973e-21 -2.60965e-21 -5.54077e-20 -1.4345e-19 5.09185e-19 4.3161e-18 6.77035e-18 -4.54215e-17 -2.6812e-16 -3.01098e-16 2.67854e-15 1.38572e-14 1.68787e-14 -1.05379e-13 -5.85767e-13 -1.04396e-12 2.08615e-12 1.79007e-11 4.85098e-11 3.11389e-11 -2.6606e-10 -1.22742e-09 -2.77414e-09 -2.57523e-09 6.57692e-09 3.74411e-08 1.01405e-07 1.88258e-07 2.32736e-07 7.84696e-08 -5.41173e-07 -1.9861e-06 -4.64825e-06 -8.8535e-06 -1.47438e-05 -2.2155e-05 -3.04926e-05 -3.85986e-05 -4.4594e-05 -4.56985e-05 -3.8051e-05 -1.65831e-05 2.49806e-05 9.3917e-05 0.000198036 0.000344934 0.000541005 0.000790321 0.00109352 0.00144689 0.00184181 0.00226469 0.00269753 0.00311901 0.00350611 0.00383604 0.00408831 0.00424666 0.00430065 0.00424666 0.00408831 0.00383604 0.00350611 0.00311901 0.00269753 0.00226469 0.00184181 0.00144689 0.00109352 0.000790321 0.000541005 0.000344934 0.000198036 9.3917e-05 2.49806e-05 -1.65831e-05 -3.8051e-05 -4.56985e-05 -4.4594e-05 -3.85986e-05 -3.04926e-05 -2.2155e-05 -1.47438e-05 -8.8535e-06 -4.64825e-06 -1.9861e-06 -5.41173e-07 7.84696e-08 2.32736e-07 1.88258e-07 1.01405e-07 3.74411e-08 6.57692e-09 -2.57523e-09 -2.77414e-09 -1.22742e-09 -2.6606e-10 3.11389e-11 4.85098e-11 1.79007e-11 2.08615e-12 -1.04396e-12 -5.85767e-13 -1.05379e-13 1.68787e-14 1.38572e-14 2.67854e-15 -3.01098e-16 -2.6812e-16 -4.54215e-17 6.77035e-18 4.3161e-18 5.09185e-19 -1.4345e-19 -5.54077e-20 -2.60965e-21 2.34973e-21 5.21469e-22 -2.68933e-23 -2.78435e-23 -2.92948e-24 7.67351e-25 2.24846e-25 -1.12273e-27 -8.81385e-27 -1.0255e-27 2.00306e-28 5.86532e-29 -5.03663e-31 -2.00493e-30 -1.8594e-31 4.49286e-32 9.9152e-33 -4.41622e-34 -3.27478e-34 -1.53276e-35 7.75104e-36 1.02404e-36 -1.22151e-37 -3.46886e-38 4.86271e-40 8.45933e-40 4.49291e-41 -1.59105e-41 -2.23964e-42 -2.77829e-44 0 0 0 0 0 0 0 0 0 0 0 0 
0 0 0 0 0 0 0 0 0 0 0 0 0 1.38914e-45 -3.33859e-44 -3.26762e-42 -1.91974e-41 7.76488e-41 1.06827e-39 -2.2707e-40 -4.51566e-38 -1.23882e-37 1.3951e-36 8.823e-36 -2.48871e-35 -3.89133e-34 -3.10178e-34 1.22094e-32 4.76103e-32 -2.44518e-31 -2.24671e-30 3.7837e-31 6.75182e-29 2.04188e-28 -1.22567e-27 -9.48543e-27 1.23541e-27 2.45226e-25 7.80907e-25 -3.2434e-24 -2.88995e-23 -2.54747e-23 5.35201e-22 2.36591e-21 -2.53557e-21 -5.44367e-20 -1.43785e-19 4.62813e-19 4.10429e-18 7.08529e-18 -3.89665e-17 -2.47519e-16 -3.4281e-16 2.12842e-15 1.23012e-14 1.92196e-14 -7.27797e-14 -4.8514e-13 -1.05533e-12 8.25389e-13 1.29053e-11 4.14604e-11 5.12648e-11 -1.21278e-10 -8.14319e-10 -2.23916e-09 -3.36666e-09 8.4277e-11 1.72957e-08 6.04511e-08 1.35232e-07 2.21789e-07 2.49625e-07 7.57405e-08 -5.22175e-07 -1.82918e-06 -4.15259e-06 -7.76489e-06 -1.28407e-05 -1.93967e-05 -2.7238e-05 -3.59081e-05 -4.46425e-05 -5.23277e-05 -5.7476e-05 -5.82387e-05 -5.24768e-05 -3.79114e-05 -1.23553e-05 2.5982e-05 7.8157e-05 0.000144165 0.000222691 0.000310988 0.000404932 0.000499266 0.000588022 0.00066508 0.000724795 0.000762608 0.000775556 0.000762608 0.000724795 0.00066508 0.000588022 0.000499266 0.000404932 0.000310988 0.000222691 0.000144165 7.8157e-05 2.5982e-05 -1.23553e-05 -3.79114e-05 -5.24768e-05 -5.82387e-05 -5.7476e-05 -5.23277e-05 -4.46425e-05 -3.59081e-05 -2.7238e-05 -1.93967e-05 -1.28407e-05 -7.76489e-06 -4.15259e-06 -1.82918e-06 -5.22175e-07 7.57405e-08 2.49625e-07 2.21789e-07 1.35232e-07 6.04511e-08 1.72957e-08 8.4277e-11 -3.36666e-09 -2.23916e-09 -8.14319e-10 -1.21278e-10 5.12648e-11 4.14604e-11 1.29053e-11 8.25389e-13 -1.05533e-12 -4.8514e-13 -7.27797e-14 1.92196e-14 1.23012e-14 2.12842e-15 -3.4281e-16 -2.47519e-16 -3.89665e-17 7.08529e-18 4.10429e-18 4.62813e-19 -1.43785e-19 -5.44367e-20 -2.53557e-21 2.36591e-21 5.35201e-22 -2.54747e-23 -2.88995e-23 -3.2434e-24 7.80907e-25 2.45226e-25 1.23541e-27 -9.48543e-27 -1.22567e-27 2.04188e-28 6.75182e-29 3.78367e-31 -2.24671e-30 -2.44518e-31 4.76107e-32 1.21872e-32 -3.0914e-34 -3.88211e-34 -2.48276e-35 8.80289e-36 1.39188e-36 -1.23615e-37 -4.50566e-38 -2.26317e-40 1.06598e-39 7.74603e-41 -1.91402e-41 -3.22165e-42 2.78216e-45 4.16743e-45 0 -0 0 0 0 0 0 0 0 0 0 0 
0 0 0 0 0 0 0 0 0 0 0 0 -0 0 2.08662e-44 -3.76068e-44 -4.4706e-42 -2.21959e-41 1.20095e-40 1.2995e-39 -1.24647e-39 -5.64893e-38 -1.17679e-37 1.80653e-36 9.73552e-36 -3.58751e-35 -4.49042e-34 -1.38614e-34 1.45077e-32 4.92232e-32 -3.0441e-31 -2.46347e-30 1.30419e-30 7.55763e-29 2.05577e-28 -1.40229e-27 -1.00192e-26 3.2014e-27 2.60289e-25 7.89582e-25 -3.42814e-24 -2.94101e-23 -2.53836e-23 5.3191e-22 2.35244e-21 -2.21668e-21 -5.20316e-20 -1.43409e-19 3.94812e-19 3.80118e-18 7.36945e-18 -3.13947e-17 -2.21884e-16 -3.75478e-16 1.56018e-15 1.05105e-14 2.04127e-14 -4.29525e-14 -3.79858e-13 -9.93928e-13 -1.30851e-13 8.38222e-12 3.27114e-11 5.78278e-11 -2.01535e-11 -4.63497e-10 -1.58827e-09 -3.15704e-09 -3.04212e-09 4.41011e-09 2.87344e-08 7.99459e-08 1.59377e-07 2.45089e-07 2.75552e-07 1.37728e-07 -3.3444e-07 -1.34815e-06 -3.12777e-06 -5.88354e-06 -9.77912e-06 -1.49026e-05 -2.12436e-05 -2.86767e-05 -3.69508e-05 -4.56865e-05 -5.43838e-05 -6.24448e-05 -6.92162e-05 -7.40517e-05 -7.63928e-05 -7.58552e-05 -7.23101e-05 -6.5942e-05 -5.72682e-05 -4.71116e-05 -3.65238e-05 -2.66641e-05 -1.86557e-05 -1.34348e-05 -1.1622e-05 -1.34348e-05 -1.86557e-05 -2.66641e-05 -3.65238e-05 -4.71116e-05 -5.72682e-05 -6.5942e-05 -7.23101e-05 -7.58552e-05 -7.63928e-05 -7.40517e-05 -6.92162e-05 -6.24448e-05 -5.43838e-05 -4.56865e-05 -3.69508e-05 -2.86767e-05 -2.12436e-05 -1.49026e-05 -9.77912e-06 -5.88354e-06 -3.12777e-06 -1.34815e-06 -3.3444e-07 1.37728e-07 2.75552e-07 2.45089e-07 1.59377e-07 7.99459e-08 2.87344e-08 4.41011e-09 -3.04212e-09 -3.15704e-09 -1.58827e-09 -4.63497e-10 -2.01535e-11 5.78278e-11 3.27114e-11 8.38222e-12 -1.30851e-13 -9.93928e-13 -3.79858e-13 -4.29525e-14 2.04127e-14 1.05105e-14 1.56018e-15 -3.75478e-16 -2.21884e-16 -3.13947e-17 7.36945e-18 3.80118e-18 3.94812e-19 -1.43409e-19 -5.20316e-20 -2.21668e-21 2.35244e-21 5.3191e-22 -2.53836e-23 -2.94101e-23 -3.42814e-24 7.89582e-25 2.60289e-25 3.2014e-27 -1.00192e-26 -1.40229e-27 2.05577e-28 7.55763e-29 1.30419e-30 -2.46347e-30 -3.0441e-31 4.92233e-32 1.45086e-32 -1.36381e-34 -4.47811e-34 -3.57781e-35 9.7138e-36 1.80236e-36 -1.17424e-37 -5.63629e-38 -1.24346e-39 1.29669e-39 1.19845e-40 -2.2122e-41 -4.4204e-42 1.39285e-44 2.92126e-44 0 -0 0 0 0 0 0 0 0 0 0 0 0 
0 0 0 0 0 0 0 0 0 0 0 0 0 -0 0 5.01425e-44 -4.60168e-44 -5.96042e-42 -2.46332e-41 1.71955e-40 1.53066e-39 -2.56764e-39 -6.83539e-38 -1.03471e-37 2.24649e-36 1.04732e-35 -4.7908e-35 -5.06036e-34 6.209e-35 1.67408e-32 4.9996e-32 -3.62313e-31 -2.64951e-30 2.19466e-30 8.24553e-29 2.05496e-28 -1.54345e-27 -1.04052e-26 4.55089e-27 2.69232e-25 7.95079e-25 -3.46779e-24 -2.93577e-23 -2.66764e-23 5.11741e-22 2.30789e-21 -1.68661e-21 -4.83098e-20 -1.41712e-19 3.11354e-19 3.41856e-18 7.53479e-18 -2.33225e-17 -1.92189e-16 -3.9264e-16 1.01704e-15 8.577e-15 2.02677e-14 -1.79482e-14 -2.77145e-13 -8.70235e-13 -7.49084e-13 4.63587e-12 2.34911e-11 5.37382e-11 3.82846e-11 -2.02223e-10 -9.68487e-10 -2.40832e-09 -3.74864e-09 -2.08513e-09 8.61271e-09 3.69751e-08 9.07519e-08 1.69768e-07 2.56324e-07 3.05705e-07 2.40192e-07 -5.06822e-08 -7.02695e-07 -1.86346e-06 -3.67561e-06 -6.25968e-06 -9.69927e-06 -1.40298e-05 -1.92316e-05 -2.52271e-05 -3.18824e-05 -3.90131e-05 -4.6396e-05 -5.37847e-05 -6.09295e-05 -6.75993e-05 -7.36026e-05 -7.88017e-05 -8.31216e-05 -8.65469e-05 -8.91094e-05 -9.08692e-05 -9.1892e-05 -9.22268e-05 -9.1892e-05 -9.08692e-05 -8.91094e-05 -8.65469e-05 -8.31216e-05 -7.88017e-05 -7.36026e-05 -6.75993e-05 -6.09295e-05 -5.37847e-05 -4.6396e-05 -3.90131e-05 -3.18824e-05 -2.52271e-05 -1.92316e-05 -1.40298e-05 -9.69927e-06 -6.25968e-06 -3.67561e-06 -1.86346e-06 -7.02695e-07 -5.06822e-08 2.40192e-07 3.05705e-07 2.56324e-07 1.69768e-07 9.07519e-08 3.69751e-08 8.61271e-09 -2.08513e-09 -3.74864e-09 -2.40832e-09 -9.68487e-10 -2.02223e-10 3.82846e-11 5.37382e-11 2.34911e-11 4.63587e-12 -7.49084e-13 -8.70235e-13 -2.77145e-13 -1.79482e-14 2.02677e-14 8.577e-15 1.01704e-15 -3.9264e-16 -1.92189e-16 -2.33225e-17 7.53479e-18 3.41856e-18 3.11354e-19 -1.41712e-19 -4.83098e-20 -1.68661e-21 2.30789e-21 5.11741e-22 -2.66764e-23 -2.93577e-23 -3.46779e-24 7.95079e-25 2.69232e-25 4.55089e-27 -1.04052e-26 -1.54345e-27 2.05496e-28 8.24553e-29 2.19466e-30 -2.64951e-30 -3.62313e-31 4.9996e-32 1.67408e-32 6.22007e-35 -5.04844e-34 -4.77838e-35 1.045e-35 2.24133e-36 -1.03241e-37 -6.81986e-38 -2.56147e-39 1.52729e-39 1.71596e-40 -2.45661e-41 -5.92832e-42 -3.62557e-44 6.26781e-44 0 -0 0 0 0 0 0 0 0 0 0 0 0 0 
0 0 0 0 0 0 0 0 0 0 0 0 0 0 -0 0 9.20336e-44 -1.36797e-43 -7.64521e-42 -2.62577e-41 2.32239e-40 1.75104e-39 -4.15813e-39 -8.03052e-38 -8.17686e-38 2.6988e-36 1.10285e-35 -6.04404e-35 -5.58287e-34 2.77774e-34 1.88129e-32 5.012e-32 -4.14854e-31 -2.80113e-30 2.96934e-30 8.78393e-29 2.0498e-28 -1.63936e-27 -1.06377e-26 5.1244e-27 2.71568e-25 7.98125e-25 -3.3583e-24 -2.87389e-23 -2.91761e-23 4.7596e-22 2.23016e-21 -1.00251e-21 -4.34647e-20 -1.38017e-19 2.19935e-19 2.97358e-18 7.50463e-18 -1.53891e-17 -1.59852e-16 -3.90282e-16 5.37478e-16 6.6175e-15 1.88172e-14 8.95e-16 -1.84157e-13 -7.04575e-13 -1.04525e-12 1.84733e-12 1.49841e-11 4.3036e-11 6.12673e-11 -3.67367e-11 -4.78267e-10 -1.52521e-09 -3.1029e-09 -4.06889e-09 -1.32458e-09 1.06446e-08 3.898e-08 8.97673e-08 1.63465e-07 2.49325e-07 3.2037e-07 3.3062e-07 2.15747e-07 -1.02567e-07 -7.09272e-07 -1.68691e-06 -3.10637e-06 -5.01877e-06 -7.4492e-06 -1.03927e-05 -1.38129e-05 -1.76422e-05 -2.17854e-05 -2.6124e-05 -3.05226e-05 -3.48369e-05 -3.89215e-05 -4.26375e-05 -4.58592e-05 -4.84796e-05 -5.0413e-05 -5.15977e-05 -5.19967e-05 -5.15977e-05 -5.0413e-05 -4.84796e-05 -4.58592e-05 -4.26375e-05 -3.89215e-05 -3.48369e-05 -3.05226e-05 -2.6124e-05 -2.17854e-05 -1.76422e-05 -1.38129e-05 -1.03927e-05 -7.4492e-06 -5.01877e-06 -3.10637e-06 -1.68691e-06 -7.09272e-07 -1.02567e-07 2.15747e-07 3.3062e-07 3.2037e-07 2.49325e-07 1.63465e-07 8.97673e-08 3.898e-08 1.06446e-08 -1.32458e-09 -4.06889e-09 -3.1029e-09 -1.52521e-09 -4.78267e-10 -3.67367e-11 6.12673e-11 4.3036e-11 1.49841e-11 1.84733e-12 -1.04525e-12 -7.04575e-13 -1.84157e-13 8.95e-16 1.88172e-14 6.6175e-15 5.37478e-16 -3.90282e-16 -1.59852e-16 -1.53891e-17 7.50463e-18 2.97358e-18 2.19935e-19 -1.38017e-19 -4.34647e-20 -1.00251e-21 2.23016e-21 4.7596e-22 -2.91761e-23 -2.87389e-23 -3.3583e-24 7.98125e-25 2.71568e-25 5.1244e-27 -1.06377e-26 -1.63936e-27 2.0498e-28 8.78393e-29 2.96934e-30 -2.80113e-30 -4.14854e-31 5.012e-32 1.88129e-32 2.77769e-34 -5.5831e-34 -6.03721e-35 1.09973e-35 2.69216e-36 -8.1605e-38 -8.01212e-38 -4.14828e-39 1.74716e-39 2.31716e-40 -2.62018e-41 -7.60748e-42 -1.27025e-43 9.20336e-44 0 -0 0 0 0 0 0 0 0 0 0 0 0 0 0 
0 0 0 0 0 0 0 0 0 0 0 0 0 0 0 -0 0 1.08879e-43 -2.48693e-43 -9.43958e-42 -2.69314e-41 2.98863e-40 1.9514e-39 -5.95797e-39 -9.1907e-38 -5.38978e-38 3.14674e-36 1.14124e-35 -7.28339e-35 -6.04325e-34 4.91635e-34 2.0634e-32 4.98471e-32 -4.58844e-31 -2.91623e-30 3.55544e-30 9.14822e-29 2.04886e-28 -1.6832e-27 -1.07133e-26 4.84806e-27 2.67148e-25 7.98267e-25 -3.10798e-24 -2.75663e-23 -3.24983e-23 4.2689e-22 2.11729e-21 -2.37836e-22 -3.77599e-20 -1.31751e-19 1.28532e-19 2.48851e-18 7.22869e-18 -8.18509e-18 -1.26644e-16 -3.67538e-16 1.50433e-16 4.75812e-15 1.63016e-14 1.31186e-14 -1.06696e-13 -5.2234e-13 -1.07737e-12 4.56428e-14 8.07496e-12 2.98764e-11 5.98359e-11 4.55266e-11 -1.55677e-10 -7.76224e-10 -1.99936e-09 -3.59541e-09 -4.35364e-09 -1.52091e-09 9.36351e-09 3.38158e-08 7.67128e-08 1.39709e-07 2.18322e-07 2.995e-07 3.60442e-07 3.69169e-07 2.86912e-07 7.19475e-08 -3.15719e-07 -9.09564e-07 -1.73227e-06 -2.79242e-06 -4.08247e-06 -5.57799e-06 -7.2384e-06 -9.00878e-06 -1.08229e-05 -1.26069e-05 -1.42839e-05 -1.57787e-05 -1.70221e-05 -1.79555e-05 -1.85341e-05 -1.87302e-05 -1.85341e-05 -1.79555e-05 -1.70221e-05 -1.57787e-05 -1.42839e-05 -1.26069e-05 -1.08229e-05 -9.00878e-06 -7.2384e-06 -5.57799e-06 -4.08247e-06 -2.79242e-06 -1.73227e-06 -9.09564e-07 -3.15719e-07 7.19475e-08 2.86912e-07 3.69169e-07 3.60442e-07 2.995e-07 2.18322e-07 1.39709e-07 7.67128e-08 3.38158e-08 9.36351e-09 -1.52091e-09 -4.35364e-09 -3.59541e-09 -1.99936e-09 -7.76224e-10 -1.55677e-10 4.55266e-11 5.98359e-11 2.98764e-11 8.07496e-12 4.56428e-14 -1.07737e-12 -5.2234e-13 -1.06696e-13 1.31186e-14 1.63016e-14 4.75812e-15 1.50433e-16 -3.67538e-16 -1.26644e-16 -8.18509e-18 7.22869e-18 2.48851e-18 1.28532e-19 -1.31751e-19 -3.77599e-20 -2.37836e-22 2.11729e-21 4.2689e-22 -3.24983e-23 -2.75663e-23 -3.10798e-24 7.98267e-25 2.67148e-25 4.84806e-27 -1.07133e-26 -1.6832e-27 2.04886e-28 9.14822e-29 3.55544e-30 -2.91623e-30 -4.58844e-31 4.98471e-32 2.0634e-32 4.91635e-34 -6.04325e-34 -7.28409e-35 1.13761e-35 3.13824e-36 -5.38624e-38 -9.16989e-38 -5.94415e-39 1.94702e-39 2.98214e-40 -2.69034e-41 -9.41022e-42 -2.29133e-43 1.08879e-43 0 -0 0 0 0 0 0 0 0 0 0 0 0 0 0 0 
0 0 0 0 0 0 0 0 0 0 0 0 0 0 0 0 -0 1.39588e-45 1.45304e-43 -3.92908e-43 -1.13809e-41 -2.66479e-41 3.69467e-40 2.12528e-39 -7.88508e-39 -1.02782e-37 -2.19904e-38 3.57263e-36 1.1647e-35 -8.44092e-35 -6.43071e-34 6.85892e-34 2.21252e-32 4.94475e-32 -4.91531e-31 -2.99377e-30 3.896e-30 9.32163e-29 2.05736e-28 -1.6717e-27 -1.06296e-26 3.7434e-27 2.5617e-25 7.93937e-25 -2.7368e-24 -2.58707e-23 -3.61079e-23 3.6775e-22 1.96871e-21 5.26916e-22 -3.15175e-20 -1.22591e-19 4.46811e-20 1.98957e-18 6.69344e-18 -2.18349e-18 -9.45117e-17 -3.26758e-16 -1.28169e-16 3.11465e-15 1.31114e-14 1.91523e-14 -4.8195e-14 -3.48367e-13 -9.29734e-13 -8.83739e-13 3.19339e-12 1.76129e-11 4.56854e-11 6.85943e-11 1.28739e-11 -2.75457e-10 -1.00265e-09 -2.2852e-09 -3.86425e-09 -4.72686e-09 -2.78423e-09 5.17981e-09 2.31052e-08 5.47399e-08 1.0234e-07 1.65283e-07 2.38968e-07 3.14339e-07 3.78225e-07 4.145e-07 4.05896e-07 3.36173e-07 1.92324e-07 -3.34997e-08 -3.42581e-07 -7.28902e-07 -1.17913e-06 -1.67333e-06 -2.18632e-06 -2.68954e-06 -3.15324e-06 -3.54887e-06 -3.85134e-06 -4.04113e-06 -4.10581e-06 -4.04113e-06 -3.85134e-06 -3.54887e-06 -3.15324e-06 -2.68954e-06 -2.18632e-06 -1.67333e-06 -1.17913e-06 -7.28902e-07 -3.42581e-07 -3.34997e-08 1.92324e-07 3.36173e-07 4.05896e-07 4.145e-07 3.78225e-07 3.14339e-07 2.38968e-07 1.65283e-07 1.0234e-07 5.47399e-08 2.31052e-08 5.17981e-09 -2.78423e-09 -4.72686e-09 -3.86425e-09 -2.2852e-09 -1.00265e-09 -2.75457e-10 1.28739e-11 6.85943e-11 4.56854e-11 1.76129e-11 3.19339e-12 -8.83739e-13 -9.29734e-13 -3.48367e-13 -4.8195e-14 1.91523e-14 1.31114e-14 3.11465e-15 -1.28169e-16 -3.26758e-16 -9.45117e-17 -2.18349e-18 6.69344e-18 1.98957e-18 4.46811e-20 -1.22591e-19 -3.15175e-20 5.26916e-22 1.96871e-21 3.6775e-22 -3.61079e-23 -2.58707e-23 -2.7368e-24 7.93937e-25 2.5617e-25 3.7434e-27 -1.06296e-26 -1.6717e-27 2.05736e-28 9.32163e-29 3.896e-30 -2.99377e-30 -4.91531e-31 4.94475e-32 2.21252e-32 6.85892e-34 -6.43071e-34 -8.44089e-35 1.1647e-35 3.56577e-36 -2.18814e-38 -1.02541e-37 -7.86651e-39 2.12045e-39 3.68638e-40 -2.65583e-41 -1.1346e-41 -3.77527e-43 1.46701e-43 1.39588e-45 -0 0 0 0 0 0 0 0 0 0 0 0 0 0 0 0 
0 0 0 0 0 0 0 0 0 0 0 0 0 0 0 0 -0 -0 4.19145e-45 1.66392e-43 -5.76462e-43 -1.33625e-41 -2.53287e-41 4.40925e-40 2.26893e-39 -9.8441e-39 -1.12651e-37 1.12997e-38 3.95818e-36 1.1768e-35 -9.44979e-35 -6.73805e-34 8.43635e-34 2.32218e-32 4.91643e-32 -5.1082e-31 -3.03325e-30 3.95647e-30 9.29572e-29 2.07611e-28 -1.60543e-27 -1.03851e-26 1.92563e-27 2.39176e-25 7.82778e-25 -2.27442e-24 -2.3706e-23 -3.94022e-23 3.02418e-22 1.78623e-21 1.21462e-21 -2.5096e-20 -1.10581e-19 -2.54151e-20 1.50455e-18 5.92528e-18 2.31491e-18 -6.53137e-17 -2.72968e-16 -2.96856e-16 1.77344e-15 9.70171e-15 2.01526e-14 -9.23099e-15 -2.01927e-13 -6.92825e-13 -1.15625e-12 3.0134e-13 8.24858e-12 2.84023e-11 5.88658e-11 7.08882e-11 -1.5839e-11 -3.43803e-10 -1.08217e-09 -2.31589e-09 -3.8571e-09 -5.02163e-09 -4.45684e-09 -1.21835e-10 1.05068e-08 2.99977e-08 6.0368e-08 1.02466e-07 1.5549e-07 2.16778e-07 2.81937e-07 3.4531e-07 4.00699e-07 4.42217e-07 4.65135e-07 4.66587e-07 4.46025e-07 4.05378e-07 3.48892e-07 2.82669e-07 2.13989e-07 1.50476e-07 9.9222e-08 6.59705e-08 5.44544e-08 6.59705e-08 9.9222e-08 1.50476e-07 2.13989e-07 2.82669e-07 3.48892e-07 4.05378e-07 4.46025e-07 4.66587e-07 4.65135e-07 4.42217e-07 4.00699e-07 3.4531e-07 2.81937e-07 2.16778e-07 1.5549e-07 1.02466e-07 6.0368e-08 2.99977e-08 1.05068e-08 -1.21835e-10 -4.45684e-09 -5.02163e-09 -3.8571e-09 -2.31589e-09 -1.08217e-09 -3.43803e-10 -1.5839e-11 7.08882e-11 5.88658e-11 2.84023e-11 8.24858e-12 3.0134e-13 -1.15625e-12 -6.92825e-13 -2.01927e-13 -9.23099e-15 2.01526e-14 9.70171e-15 1.77344e-15 -2.96856e-16 -2.72968e-16 -6.53137e-17 2.31491e-18 5.92528e-18 1.50455e-18 -2.54151e-20 -1.10581e-19 -2.5096e-20 1.21462e-21 1.78623e-21 3.02418e-22 -3.94022e-23 -2.3706e-23 -2.27442e-24 7.82778e-25 2.39176e-25 1.92563e-27 -1.03851e-26 -1.60543e-27 2.07611e-28 9.29572e-29 3.95647e-30 -3.03325e-30 -5.1082e-31 4.91643e-32 2.32218e-32 8.43635e-34 -6.73805e-34 -9.44979e-35 1.17681e-35 3.95843e-36 1.17894e-38 -1.12341e-37 -9.81778e-39 2.26392e-39 4.39984e-40 -2.52573e-41 -1.33163e-41 -5.76462e-43 1.66392e-43 4.19145e-45 -0 -0 0 0 0 0 0 0 0 0 0 0 0 0 0 0 0 
0 0 0 0 0 0 0 0 0 0 0 0 0 0 0 0 0 -0 -0 8.3895e-45 1.86091e-43 -8.02167e-43 -1.52476e-41 -2.31929e-41 5.10274e-40 2.38239e-39 -1.1732e-38 -1.21275e-37 4.31412e-38 4.2866e-36 1.18182e-35 -1.02496e-34 -6.96088e-34 9.50635e-34 2.38763e-32 4.91724e-32 -5.15435e-31 -3.03419e-30 3.72872e-30 9.07069e-29 2.10134e-28 -1.48877e-27 -9.98002e-27 -4.10379e-28 2.17039e-25 7.62159e-25 -1.75738e-24 -2.11522e-23 -4.18032e-23 2.35107e-22 1.57487e-21 1.76142e-21 -1.88604e-20 -9.61662e-20 -7.75963e-20 1.0598e-18 4.9859e-18 5.21043e-18 -4.05569e-17 -2.12797e-16 -3.6753e-16 7.77991e-16 6.49866e-15 1.77089e-14 1.2289e-14 -9.36339e-14 -4.44409e-13 -1.02564e-12 -9.91303e-13 2.37303e-12 1.39455e-11 3.78047e-11 6.80872e-11 7.33609e-11 -1.93852e-11 -3.27283e-10 -9.83254e-10 -2.06545e-09 -3.48969e-09 -4.89145e-09 -5.53981e-09 -4.32687e-09 1.40512e-10 9.34956e-09 2.46247e-08 4.6862e-08 7.63156e-08 1.12488e-07 1.54148e-07 1.99468e-07 2.46262e-07 2.92265e-07 3.35408e-07 3.74041e-07 4.0707e-07 4.33997e-07 4.54855e-07 4.70069e-07 4.80266e-07 4.86076e-07 4.87957e-07 4.86076e-07 4.80266e-07 4.70069e-07 4.54855e-07 4.33997e-07 4.0707e-07 3.74041e-07 3.35408e-07 2.92265e-07 2.46262e-07 1.99468e-07 1.54148e-07 1.12488e-07 7.63156e-08 4.6862e-08 2.46247e-08 9.34956e-09 1.40512e-10 -4.32687e-09 -5.53981e-09 -4.89145e-09 -3.48969e-09 -2.06545e-09 -9.83254e-10 -3.27283e-10 -1.93852e-11 7.33609e-11 6.80872e-11 3.78047e-11 1.39455e-11 2.37303e-12 -9.91303e-13 -1.02564e-12 -4.44409e-13 -9.36339e-14 1.2289e-14 1.77089e-14 6.49866e-15 7.77991e-16 -3.6753e-16 -2.12797e-16 -4.05569e-17 5.21043e-18 4.9859e-18 1.0598e-18 -7.75963e-20 -9.61662e-20 -1.88604e-20 1.76142e-21 1.57487e-21 2.35107e-22 -4.18032e-23 -2.11522e-23 -1.75738e-24 7.62159e-25 2.17039e-25 -4.10379e-28 -9.98002e-27 -1.48877e-27 2.10134e-28 9.07069e-29 3.72872e-30 -3.03419e-30 -5.15435e-31 4.91724e-32 2.38763e-32 9.50635e-34 -6.96088e-34 -1.02496e-34 1.18182e-35 4.2866e-36 4.31686e-38 -1.20985e-37 -1.17013e-38 2.37711e-39 5.09132e-40 -2.31368e-41 -1.52e-41 -7.78368e-43 1.88889e-43 8.3895e-45 -0 -0 0 0 0 0 0 0 0 0 0 0 0 0 0 0 0 0 
0 0 0 0 0 0 0 0 0 0 0 0 0 0 0 0 0 0 -0 -0 1.39918e-44 2.29591e-43 -1.00278e-42 -1.6974e-41 -2.05138e-41 5.74496e-40 2.46913e-39 -1.34422e-38 -1.28424e-37 7.06915e-38 4.54343e-36 1.18399e-35 -1.07911e-34 -7.09661e-34 9.96888e-34 2.40596e-32 4.95484e-32 -5.05026e-31 -2.99596e-30 3.23221e-30 8.65554e-29 2.12523e-28 -1.32959e-27 -9.41867e-27 -3.01415e-27 1.90923e-25 7.29784e-25 -1.22535e-24 -1.83154e-23 -4.28478e-23 1.69991e-22 1.34293e-21 2.12456e-21 -1.31465e-20 -8.0151e-20 -1.10154e-19 6.77011e-19 3.96073e-18 6.60127e-18 -2.11767e-17 -1.53158e-16 -3.62052e-16 1.24634e-16 3.82114e-15 1.34907e-14 2.03511e-14 -2.49002e-14 -2.36915e-13 -7.22249e-13 -1.23785e-12 -4.87915e-13 4.60005e-12 1.84853e-11 4.37259e-11 7.34607e-11 8.06198e-11 8.53156e-12 -2.29212e-10 -7.31665e-10 -1.57277e-09 -2.74777e-09 -4.11728e-09 -5.36783e-09 -6.00599e-09 -5.39578e-09 -2.83686e-09 2.33029e-09 1.06135e-08 2.22755e-08 3.72755e-08 5.5256e-08 7.55737e-08 9.73658e-08 1.19637e-07 1.41351e-07 1.61515e-07 1.7924e-07 1.93785e-07 2.04575e-07 2.11208e-07 2.13445e-07 2.11208e-07 2.04575e-07 1.93785e-07 1.7924e-07 1.61515e-07 1.41351e-07 1.19637e-07 9.73658e-08 7.55737e-08 5.5256e-08 3.72755e-08 2.22755e-08 1.06135e-08 2.33029e-09 -2.83686e-09 -5.39578e-09 -6.00599e-09 -5.36783e-09 -4.11728e-09 -2.74777e-09 -1.57277e-09 -7.31665e-10 -2.29212e-10 8.53156e-12 8.06198e-11 7.34607e-11 4.37259e-11 1.84853e-11 4.60005e-12 -4.87915e-13 -1.23785e-12 -7.22249e-13 -2.36915e-13 -2.49002e-14 2.03511e-14 1.34907e-14 3.82114e-15 1.24634e-16 -3.62052e-16 -1.53158e-16 -2.11767e-17 6.60127e-18 3.96073e-18 6.77011e-19 -1.10154e-19 -8.0151e-20 -1.31465e-20 2.12456e-21 1.34293e-21 1.69991e-22 -4.28478e-23 -1.83154e-23 -1.22535e-24 7.29784e-25 1.90923e-25 -3.01415e-27 -9.41867e-27 -1.32959e-27 2.12523e-28 8.65554e-29 3.23221e-30 -2.99596e-30 -5.05026e-31 4.95484e-32 2.40596e-32 9.96888e-34 -7.09661e-34 -1.07911e-34 1.18399e-35 4.54342e-36 7.06903e-38 -1.28429e-37 -1.34273e-38 2.46212e-39 5.73113e-40 -2.04843e-41 -1.696e-41 -1.00278e-42 2.29591e-43 1.39918e-44 -0 -0 0 0 0 0 0 0 0 0 0 0 0 0 0 0 0 0 0 
0 0 0 0 0 0 0 0 0 0 0 0 0 0 0 0 0 0 0 -0 -0 2.09991e-44 2.63301e-43 -1.23985e-42 -1.85885e-41 -1.77026e-41 6.31066e-40 2.53379e-39 -1.48714e-38 -1.33923e-37 9.13957e-38 4.71726e-36 1.18676e-35 -1.10399e-34 -7.14355e-34 9.77727e-34 2.37619e-32 5.02565e-32 -4.80197e-31 -2.91793e-30 2.51187e-30 8.06802e-29 2.13729e-28 -1.13863e-27 -8.71126e-27 -5.61088e-27 1.62219e-25 6.84286e-25 -7.17046e-25 -1.53242e-23 -4.22579e-23 1.10798e-22 1.10144e-21 2.28703e-21 -8.22561e-21 -6.3583e-20 -1.23856e-19 3.70463e-19 2.94306e-18 6.74748e-18 -7.42506e-18 -9.99569e-17 -3.07249e-16 -2.3148e-16 1.83689e-15 8.92902e-15 1.97256e-14 1.02097e-14 -9.36993e-14 -4.10957e-13 -9.68994e-13 -1.32564e-12 1.50381e-14 5.9909e-12 2.03243e-11 4.48269e-11 7.42705e-11 8.98521e-11 5.40085e-11 -8.96358e-11 -4.07997e-10 -9.61188e-10 -1.77889e-09 -2.83644e-09 -4.03803e-09 -5.21353e-09 -6.1321e-09 -6.53127e-09 -6.15661e-09 -4.80393e-09 -2.35618e-09 1.1919e-09 5.72481e-09 1.10139e-08 1.67389e-08 2.252e-08 2.79543e-08 3.26536e-08 3.62778e-08 3.85636e-08 3.93445e-08 3.85636e-08 3.62778e-08 3.26536e-08 2.79543e-08 2.252e-08 1.67389e-08 1.10139e-08 5.72481e-09 1.1919e-09 -2.35618e-09 -4.80393e-09 -6.15661e-09 -6.53127e-09 -6.1321e-09 -5.21353e-09 -4.03803e-09 -2.83644e-09 -1.77889e-09 -9.61188e-10 -4.07997e-10 -8.96358e-11 5.40085e-11 8.98521e-11 7.42705e-11 4.48269e-11 2.03243e-11 5.9909e-12 1.50381e-14 -1.32564e-12 -9.68994e-13 -4.10957e-13 -9.36993e-14 1.02097e-14 1.97256e-14 8.92902e-15 1.83689e-15 -2.3148e-16 -3.07249e-16 -9.99569e-17 -7.42506e-18 6.74748e-18 2.94306e-18 3.70463e-19 -1.23856e-19 -6.3583e-20 -8.22561e-21 2.28703e-21 1.10144e-21 1.10798e-22 -4.22579e-23 -1.53242e-23 -7.17046e-25 6.84286e-25 1.62219e-25 -5.61088e-27 -8.71126e-27 -1.13863e-27 2.13729e-28 8.06802e-29 2.51187e-30 -2.91793e-30 -4.80197e-31 5.02565e-32 2.37619e-32 9.77727e-34 -7.14355e-34 -1.10399e-34 1.18676e-35 4.71726e-36 9.13957e-38 -1.33924e-37 -1.48729e-38 2.52589e-39 6.29359e-40 -1.7662e-41 -1.85577e-41 -1.23985e-42 2.63301e-43 2.09991e-44 -0 -0 0 0 0 0 0 0 0 0 0 0 0 0 0 0 0 0 0 0 
0 0 0 0 0 0 0 0 0 0 0 0 0 0 0 0 0 0 0 0 -0 0 2.94112e-44 2.88598e-43 -1.42784e-42 -1.99573e-41 -1.49364e-41 6.7757e-40 2.58028e-39 -1.5931e-38 -1.37651e-37 1.03266e-37 4.80026e-36 1.19219e-35 -1.09797e-34 -7.10039e-34 8.94366e-34 2.29936e-32 5.11522e-32 -4.4247e-31 -2.79977e-30 1.63334e-30 7.33434e-29 2.12615e-28 -9.28546e-28 -7.87608e-27 -7.93568e-27 1.32454e-25 6.25666e-25 -2.66259e-25 -1.23208e-23 -3.99797e-23 6.04501e-23 8.62994e-22 2.25802e-21 -4.27567e-21 -4.75845e-20 -1.21584e-19 1.45474e-19 2.01741e-18 6.01008e-18 1.10667e-18 -5.71615e-17 -2.29563e-16 -3.62338e-16 5.59902e-16 5.00656e-15 1.4866e-14 2.1654e-14 -1.37336e-14 -1.77826e-13 -5.70792e-13 -1.14704e-12 -1.38485e-12 1.23507e-13 5.84326e-12 1.87275e-11 4.04575e-11 6.84665e-11 9.24282e-11 9.15724e-11 3.44355e-11 -1.1779e-10 -4.04224e-10 -8.54854e-10 -1.481e-09 -2.26841e-09 -3.17514e-09 -4.13532e-09 -5.06823e-09 -5.89093e-09 -6.53181e-09 -6.94242e-09 -7.10529e-09 -7.03644e-09 -6.78241e-09 -6.41257e-09 -6.00806e-09 -5.64929e-09 -5.40392e-09 -5.31688e-09 -5.40392e-09 -5.64929e-09 -6.00806e-09 -6.41257e-09 -6.78241e-09 -7.03644e-09 -7.10529e-09 -6.94242e-09 -6.53181e-09 -5.89093e-09 -5.06823e-09 -4.13532e-09 -3.17514e-09 -2.26841e-09 -1.481e-09 -8.54854e-10 -4.04224e-10 -1.1779e-10 3.44355e-11 9.15724e-11 9.24282e-11 6.84665e-11 4.04575e-11 1.87275e-11 5.84326e-12 1.23507e-13 -1.38485e-12 -1.14704e-12 -5.70792e-13 -1.77826e-13 -1.37336e-14 2.1654e-14 1.4866e-14 5.00656e-15 5.59902e-16 -3.62338e-16 -2.29563e-16 -5.71615e-17 1.10667e-18 6.01008e-18 2.01741e-18 1.45474e-19 -1.21584e-19 -4.75845e-20 -4.27567e-21 2.25802e-21 8.62994e-22 6.04501e-23 -3.99797e-23 -1.23208e-23 -2.66259e-25 6.25666e-25 1.32454e-25 -7.93568e-27 -7.87608e-27 -9.28546e-28 2.12615e-28 7.33434e-29 1.63334e-30 -2.79977e-30 -4.4247e-31 5.11522e-32 2.29936e-32 8.94366e-34 -7.10039e-34 -1.09797e-34 1.19219e-35 4.80026e-36 1.03266e-37 -1.37651e-37 -1.5931e-38 2.58026e-39 6.76309e-40 -1.48991e-41 -1.99012e-41 -1.42223e-42 2.88598e-43 2.94112e-44 0 -0 0 0 0 0 0 0 0 0 0 0 0 0 0 0 0 0 0 0 0 
0 0 0 0 0 0 0 0 0 0 0 0 0 0 0 0 0 0 0 0 0 -0 0 3.92269e-44 3.32088e-43 -1.59328e-42 -2.10237e-41 -1.26509e-41 7.11955e-40 2.61211e-39 -1.6553e-38 -1.39524e-37 1.05104e-37 4.78849e-36 1.20057e-35 -1.06128e-34 -6.96605e-34 7.53801e-34 2.17849e-32 5.20043e-32 -3.94173e-31 -2.64217e-30 6.75518e-31 6.4882e-29 2.08161e-28 -7.12835e-28 -6.94045e-27 -9.76612e-27 1.03175e-25 5.55495e-25 1.01573e-25 -9.44849e-24 -3.61856e-23 2.0789e-23 6.40114e-22 2.06923e-21 -1.36514e-21 -3.31719e-20 -1.07649e-19 -1.62246e-21 1.24592e-18 4.77853e-18 5.34011e-18 -2.63934e-17 -1.50601e-16 -3.49138e-16 -1.15978e-16 2.19606e-15 9.12216e-15 1.98764e-14 1.86134e-14 -4.27114e-14 -2.48956e-13 -6.75393e-13 -1.24687e-12 -1.49711e-12 -3.12944e-13 4.14269e-12 1.40822e-11 3.11497e-11 5.49382e-11 8.1322e-11 1.01194e-10 1.00228e-10 6.00818e-11 -3.90025e-11 -2.14648e-10 -4.7868e-10 -8.34254e-10 -1.27447e-09 -1.78283e-09 -2.33534e-09 -2.90383e-09 -3.45964e-09 -3.9769e-09 -4.43493e-09 -4.81925e-09 -5.12136e-09 -5.33752e-09 -5.46693e-09 -5.50996e-09 -5.46693e-09 -5.33752e-09 -5.12136e-09 -4.81925e-09 -4.43493e-09 -3.9769e-09 -3.45964e-09 -2.90383e-09 -2.33534e-09 -1.78283e-09 -1.27447e-09 -8.34254e-10 -4.7868e-10 -2.14648e-10 -3.90025e-11 6.00818e-11 1.00228e-10 1.01194e-10 8.1322e-11 5.49382e-11 3.11497e-11 1.40822e-11 4.14269e-12 -3.12944e-13 -1.49711e-12 -1.24687e-12 -6.75393e-13 -2.48956e-13 -4.27114e-14 1.86134e-14 1.98764e-14 9.12216e-15 2.19606e-15 -1.15978e-16 -3.49138e-16 -1.50601e-16 -2.63934e-17 5.34011e-18 4.77853e-18 1.24592e-18 -1.62246e-21 -1.07649e-19 -3.31719e-20 -1.36514e-21 2.06923e-21 6.40114e-22 2.0789e-23 -3.61856e-23 -9.44849e-24 1.01573e-25 5.55495e-25 1.03175e-25 -9.76612e-27 -6.94045e-27 -7.12835e-28 2.08161e-28 6.4882e-29 6.75518e-31 -2.64217e-30 -3.94173e-31 5.20043e-32 2.17849e-32 7.53801e-34 -6.96605e-34 -1.06128e-34 1.20057e-35 4.78849e-36 1.05104e-37 -1.39524e-37 -1.6553e-38 2.61211e-39 7.11956e-40 -1.25778e-41 -2.09692e-41 -1.60869e-42 3.26483e-43 3.92269e-44 0 -0 0 0 0 0 0 0 0 0 0 0 0 0 0 0 0 0 0 0 0 0 
0 0 0 0 0 0 0 0 0 0 0 0 0 0 0 0 0 0 0 0 0 0 -0 0 4.06352e-44 3.43318e-43 -1.71519e-42 -2.1772e-41 -1.10745e-41 7.32268e-40 2.6319e-39 -1.66961e-38 -1.39496e-37 9.6634e-38 4.68208e-36 1.21034e-35 -9.961e-35 -6.74021e-34 5.68097e-34 2.01859e-32 5.25315e-32 -3.38261e-31 -2.44739e-30 -2.78104e-31 5.56927e-29 1.99651e-28 -5.04615e-28 -5.94024e-27 -1.09483e-26 7.58171e-26 4.76831e-25 3.71636e-25 -6.83712e-24 -3.12373e-23 -7.54993e-24 4.43548e-22 1.76788e-21 5.46152e-22 -2.11012e-20 -8.69364e-20 -8.19376e-20 6.60616e-19 3.40296e-18 6.47796e-18 -7.09824e-18 -8.45271e-17 -2.65619e-16 -3.62228e-16 5.34255e-16 4.42961e-15 1.31907e-14 2.31448e-14 1.41335e-14 -6.2301e-14 -2.8014e-13 -6.97098e-13 -1.25419e-12 -1.62493e-12 -1.06896e-12 1.61247e-12 7.91488e-12 1.92082e-11 3.60984e-11 5.77282e-11 8.12469e-11 1.01671e-10 1.1227e-10 1.0546e-10 7.40506e-11 1.25724e-11 -8.16038e-11 -2.07587e-10 -3.60835e-10 -5.33581e-10 -7.15673e-10 -8.95657e-10 -1.06192e-09 -1.20368e-09 -1.31185e-09 -1.37958e-09 -1.40264e-09 -1.37958e-09 -1.31185e-09 -1.20368e-09 -1.06192e-09 -8.95657e-10 -7.15673e-10 -5.33581e-10 -3.60835e-10 -2.07587e-10 -8.16038e-11 1.25724e-11 7.40506e-11 1.0546e-10 1.1227e-10 1.01671e-10 8.12469e-11 5.77282e-11 3.60984e-11 1.92082e-11 7.91488e-12 1.61247e-12 -1.06896e-12 -1.62493e-12 -1.25419e-12 -6.97098e-13 -2.8014e-13 -6.2301e-14 1.41335e-14 2.31448e-14 1.31907e-14 4.42961e-15 5.34255e-16 -3.62228e-16 -2.65619e-16 -8.45271e-17 -7.09824e-18 6.47796e-18 3.40296e-18 6.60616e-19 -8.19376e-20 -8.69364e-20 -2.11012e-20 5.46152e-22 1.76788e-21 4.43548e-22 -7.54993e-24 -3.12373e-23 -6.83712e-24 3.71636e-25 4.76831e-25 7.58171e-26 -1.09483e-26 -5.94024e-27 -5.04615e-28 1.99651e-28 5.56927e-29 -2.78104e-31 -2.44739e-30 -3.38261e-31 5.25315e-32 2.01859e-32 5.68097e-34 -6.74021e-34 -9.961e-35 1.21034e-35 4.68208e-36 9.6634e-38 -1.39496e-37 -1.66961e-38 2.6319e-39 7.32268e-40 -1.10745e-41 -2.17569e-41 -1.74871e-42 3.25101e-43 4.06352e-44 0 -0 0 0 0 0 0 0 0 0 0 0 0 0 0 0 0 0 0 0 0 0 0 
0 0 0 0 0 0 0 0 0 0 0 0 0 0 0 0 0 0 0 0 0 0 0 -0 0 4.06377e-44 3.64338e-43 -1.79086e-42 -2.22624e-41 -1.0528e-41 7.3773e-40 2.64073e-39 -1.63493e-38 -1.3755e-37 7.85443e-38 4.48531e-36 1.2183e-35 -9.06328e-35 -6.4242e-34 3.53101e-34 1.82647e-32 5.2447e-32 -2.78086e-31 -2.21983e-30 -1.14877e-30 4.6208e-29 1.86817e-28 -3.15433e-28 -4.9177e-27 -1.14127e-26 5.15747e-26 3.93855e-25 5.40556e-25 -4.58869e-24 -2.56198e-23 -2.50991e-23 2.80862e-22 1.40765e-21 1.58968e-21 -1.17727e-20 -6.40577e-20 -1.1132e-19 2.62789e-19 2.14525e-18 5.75116e-18 2.83997e-18 -3.76355e-17 -1.66729e-16 -3.58996e-16 -2.18784e-16 1.45395e-15 6.65117e-15 1.63329e-14 2.52159e-14 1.33217e-14 -6.11577e-14 -2.57523e-13 -6.24151e-13 -1.13904e-12 -1.62768e-12 -1.68652e-12 -6.54343e-13 2.32935e-12 8.16283e-12 1.75398e-11 3.06852e-11 4.71492e-11 6.57321e-11 8.45815e-11 1.01456e-10 1.14105e-10 1.20675e-10 1.20069e-10 1.12173e-10 9.79055e-11 7.91047e-11 5.82642e-11 3.81742e-11 2.15295e-11 1.05604e-11 6.73382e-12 1.05604e-11 2.15295e-11 3.81742e-11 5.82642e-11 7.91047e-11 9.79055e-11 1.12173e-10 1.20069e-10 1.20675e-10 1.14105e-10 1.01456e-10 8.45815e-11 6.57321e-11 4.71492e-11 3.06852e-11 1.75398e-11 8.16283e-12 2.32935e-12 -6.54343e-13 -1.68652e-12 -1.62768e-12 -1.13904e-12 -6.24151e-13 -2.57523e-13 -6.11577e-14 1.33217e-14 2.52159e-14 1.63329e-14 6.65117e-15 1.45395e-15 -2.18784e-16 -3.58996e-16 -1.66729e-16 -3.76355e-17 2.83997e-18 5.75116e-18 2.14525e-18 2.62789e-19 -1.1132e-19 -6.40577e-20 -1.17727e-20 1.58968e-21 1.40765e-21 2.80862e-22 -2.50991e-23 -2.56198e-23 -4.58869e-24 5.40556e-25 3.93855e-25 5.15747e-26 -1.14127e-26 -4.9177e-27 -3.15433e-28 1.86817e-28 4.6208e-29 -1.14877e-30 -2.21983e-30 -2.78086e-31 5.2447e-32 1.82647e-32 3.53101e-34 -6.4242e-34 -9.06328e-35 1.2183e-35 4.48531e-36 7.85443e-38 -1.3755e-37 -1.63493e-38 2.64073e-39 7.3773e-40 -1.0528e-41 -2.22624e-41 -1.78762e-42 3.64316e-43 4.06377e-44 0 -0 0 0 0 0 0 0 0 0 0 0 0 0 0 0 0 0 0 0 0 0 0 0 
0 0 0 0 0 0 0 0 0 0 0 0 0 0 0 0 0 0 0 0 0 0 0 0 -0 0 5.46506e-44 3.83956e-43 -1.84691e-42 -2.24124e-41 -1.09035e-41 7.28116e-40 2.6377e-39 -1.55343e-38 -1.3371e-37 5.24504e-38 4.20672e-36 1.22009e-35 -7.97413e-35 -6.02236e-34 1.26921e-34 1.61064e-32 5.15061e-32 -2.17146e-31 -1.96636e-30 -1.87053e-30 3.68689e-29 1.69907e-28 -1.54306e-28 -3.91807e-27 -1.1177e-26 3.13037e-26 3.1132e-25 6.1562e-25 -2.7673e-24 -1.9859e-23 -3.33513e-23 1.5561e-22 1.03973e-21 1.95767e-21 -5.21292e-21 -4.26815e-20 -1.07146e-19 2.87444e-20 1.1574e-18 4.20832e-18 6.27059e-18 -9.77978e-18 -8.45433e-17 -2.52839e-16 -4.03168e-16 1.82706e-17 2.29914e-15 8.17665e-15 1.80281e-14 2.68119e-14 1.84269e-14 -3.83895e-14 -1.87228e-13 -4.68764e-13 -8.91252e-13 -1.39179e-12 -1.80078e-12 -1.82592e-12 -1.0694e-12 9.17011e-13 4.54761e-12 1.01086e-11 1.76793e-11 2.70912e-11 3.79367e-11 4.96261e-11 6.14791e-11 7.28278e-11 8.31079e-11 9.192e-11 9.90488e-11 1.04445e-10 1.08171e-10 1.1034e-10 1.11051e-10 1.1034e-10 1.08171e-10 1.04445e-10 9.90488e-11 9.192e-11 8.31079e-11 7.28278e-11 6.14791e-11 4.96261e-11 3.79367e-11 2.70912e-11 1.76793e-11 1.01086e-11 4.54761e-12 9.17011e-13 -1.0694e-12 -1.82592e-12 -1.80078e-12 -1.39179e-12 -8.91252e-13 -4.68764e-13 -1.87228e-13 -3.83895e-14 1.84269e-14 2.68119e-14 1.80281e-14 8.17665e-15 2.29914e-15 1.82706e-17 -4.03168e-16 -2.52839e-16 -8.45433e-17 -9.77978e-18 6.27059e-18 4.20832e-18 1.1574e-18 2.87444e-20 -1.07146e-19 -4.26815e-20 -5.21292e-21 1.95767e-21 1.03973e-21 1.5561e-22 -3.33513e-23 -1.9859e-23 -2.7673e-24 6.1562e-25 3.1132e-25 3.13037e-26 -1.1177e-26 -3.91807e-27 -1.54306e-28 1.69907e-28 3.68689e-29 -1.87053e-30 -1.96636e-30 -2.17146e-31 5.15061e-32 1.61064e-32 1.26921e-34 -6.02236e-34 -7.97413e-35 1.22009e-35 4.20672e-36 5.24504e-38 -1.3371e-37 -1.55343e-38 2.6377e-39 7.28116e-40 -1.09035e-41 -2.24124e-41 -1.84691e-42 3.83863e-43 5.46473e-44 0 -0 0 0 0 0 0 0 0 0 0 0 0 0 0 0 0 0 0 0 0 0 0 0 0 
0 0 0 0 0 0 0 0 0 0 0 0 0 0 0 0 0 0 0 0 0 0 0 0 0 -0 0 5.46374e-44 3.64249e-43 -1.83666e-42 -2.21772e-41 -1.22486e-41 7.02137e-40 2.61182e-39 -1.42804e-38 -1.2771e-37 2.10772e-38 3.85004e-36 1.20707e-35 -6.74734e-35 -5.52867e-34 -9.02927e-35 1.37775e-32 4.93992e-32 -1.58558e-31 -1.69197e-30 -2.38768e-30 2.80321e-29 1.49272e-28 -2.72314e-29 -2.97824e-27 -1.03085e-26 1.54369e-26 2.33324e-25 6.10849e-25 -1.39163e-24 -1.44046e-23 -3.43391e-23 6.71131e-23 7.03696e-22 1.86152e-21 -1.12755e-21 -2.51003e-20 -8.51472e-20 -8.01545e-20 4.86048e-19 2.58459e-18 5.97978e-18 3.14267e-18 -3.07049e-17 -1.36863e-16 -3.22716e-16 -4.1201e-16 1.96766e-16 2.68686e-15 8.47999e-15 1.78672e-14 2.73754e-14 2.64494e-14 -4.87223e-15 -9.48756e-14 -2.73632e-13 -5.60688e-13 -9.49337e-13 -1.39224e-12 -1.79413e-12 -2.0161e-12 -1.89276e-12 -1.25963e-12 1.51891e-14 2.0026e-12 4.69372e-12 7.99487e-12 1.17365e-11 1.56929e-11 1.9609e-11 2.32268e-11 2.63096e-11 2.86595e-11 3.01296e-11 3.06298e-11 3.01296e-11 2.86595e-11 2.63096e-11 2.32268e-11 1.9609e-11 1.56929e-11 1.17365e-11 7.99487e-12 4.69372e-12 2.0026e-12 1.51891e-14 -1.25963e-12 -1.89276e-12 -2.0161e-12 -1.79413e-12 -1.39224e-12 -9.49337e-13 -5.60688e-13 -2.73632e-13 -9.48756e-14 -4.87223e-15 2.64494e-14 2.73754e-14 1.78672e-14 8.47999e-15 2.68686e-15 1.96766e-16 -4.1201e-16 -3.22716e-16 -1.36863e-16 -3.07049e-17 3.14267e-18 5.97978e-18 2.58459e-18 4.86048e-19 -8.01545e-20 -8.51472e-20 -2.51003e-20 -1.12755e-21 1.86152e-21 7.03696e-22 6.71131e-23 -3.43391e-23 -1.44046e-23 -1.39163e-24 6.10849e-25 2.33324e-25 1.54369e-26 -1.03085e-26 -2.97824e-27 -2.72314e-29 1.49272e-28 2.80321e-29 -2.38768e-30 -1.69197e-30 -1.58558e-31 4.93992e-32 1.37775e-32 -9.02927e-35 -5.52867e-34 -6.74734e-35 1.20707e-35 3.85004e-36 2.10772e-38 -1.2771e-37 -1.42804e-38 2.61182e-39 7.02137e-40 -1.22486e-41 -2.21772e-41 -1.83666e-42 3.64249e-43 5.46242e-44 0 -0 0 0 0 0 0 0 0 0 0 0 0 0 0 0 0 0 0 0 0 0 0 0 0 0 
0 0 0 0 0 0 0 0 0 0 0 0 0 0 0 0 0 0 0 0 0 0 0 0 0 0 -0 0 5.18449e-44 3.64316e-43 -1.80196e-42 -2.1695e-41 -1.47127e-41 6.63399e-40 2.57653e-39 -1.26828e-38 -1.20276e-37 -1.41318e-38 3.4444e-36 1.1832e-35 -5.46406e-35 -4.98218e-34 -2.87753e-34 1.1428e-32 4.63809e-32 -1.05321e-31 -1.41489e-30 -2.70102e-30 2.0128e-29 1.26823e-28 6.47497e-29 -2.1463e-27 -9.02056e-27 3.9815e-27 1.64734e-25 5.51147e-25 -4.41739e-25 -9.69287e-24 -3.06569e-23 1.13234e-23 4.29338e-22 1.51712e-21 9.95748e-22 -1.24e-20 -5.81781e-20 -1.07773e-19 1.02308e-19 1.29923e-18 4.20764e-18 6.64414e-18 -3.26754e-18 -5.39473e-17 -1.80758e-16 -3.69573e-16 -4.29211e-16 1.78097e-16 2.41406e-15 7.41001e-15 1.56396e-14 2.54733e-14 3.14547e-14 2.30549e-14 -1.51531e-14 -1.01202e-13 -2.5132e-13 -4.74301e-13 -7.66279e-13 -1.10773e-12 -1.46406e-12 -1.79014e-12 -2.03801e-12 -2.16599e-12 -2.14726e-12 -1.97569e-12 -1.66801e-12 -1.26185e-12 -8.1022e-13 -3.73608e-13 -1.10571e-14 2.28228e-13 3.1177e-13 2.28228e-13 -1.10571e-14 -3.73608e-13 -8.1022e-13 -1.26185e-12 -1.66801e-12 -1.97569e-12 -2.14726e-12 -2.16599e-12 -2.03801e-12 -1.79014e-12 -1.46406e-12 -1.10773e-12 -7.66279e-13 -4.74301e-13 -2.5132e-13 -1.01202e-13 -1.51531e-14 2.30549e-14 3.14547e-14 2.54733e-14 1.56396e-14 7.41001e-15 2.41406e-15 1.78097e-16 -4.29211e-16 -3.69573e-16 -1.80758e-16 -5.39473e-17 -3.26754e-18 6.64414e-18 4.20764e-18 1.29923e-18 1.02308e-19 -1.07773e-19 -5.81781e-20 -1.24e-20 9.95748e-22 1.51712e-21 4.29338e-22 1.13234e-23 -3.06569e-23 -9.69287e-24 -4.41739e-25 5.51147e-25 1.64734e-25 3.9815e-27 -9.02056e-27 -2.1463e-27 6.47497e-29 1.26823e-28 2.0128e-29 -2.70102e-30 -1.41489e-30 -1.05321e-31 4.63809e-32 1.1428e-32 -2.87753e-34 -4.98218e-34 -5.46406e-35 1.1832e-35 3.4444e-36 -1.41318e-38 -1.20276e-37 -1.26828e-38 2.57653e-39 6.63399e-40 -1.47127e-41 -2.1695e-41 -1.80196e-42 3.64316e-43 5.18449e-44 0 -0 0 0 0 0 0 0 0 0 0 0 0 0 0 0 0 0 0 0 0 0 0 0 0 0 0 
0 0 0 0 0 0 0 0 0 0 0 0 0 0 0 0 0 0 0 0 0 0 0 0 0 0 0 -0 0 5.1848e-44 3.46121e-43 -1.70118e-42 -2.09172e-41 -1.76395e-41 6.13512e-40 2.51901e-39 -1.08588e-38 -1.11394e-37 -4.89805e-38 3.0055e-36 1.14108e-35 -4.20058e-35 -4.39096e-34 -4.47622e-34 9.14956e-33 4.23796e-32 -5.98794e-32 -1.14409e-30 -2.79883e-30 1.34026e-29 1.03613e-28 1.22115e-28 -1.44536e-27 -7.46938e-27 -3.38402e-27 1.07847e-25 4.57413e-25 1.37131e-25 -5.92173e-24 -2.44617e-23 -1.82415e-23 2.26533e-22 1.08624e-21 1.74734e-21 -4.3788e-21 -3.3972e-20 -9.22622e-20 -6.81159e-20 4.73049e-19 2.32597e-18 5.59902e-18 6.21109e-18 -1.00805e-17 -7.09489e-17 -2.04463e-16 -3.91181e-16 -4.73452e-16 -4.91195e-17 1.57199e-15 5.23439e-15 1.15324e-14 2.01408e-14 2.90392e-14 3.39284e-14 2.81707e-14 3.47794e-15 -4.86687e-14 -1.35157e-13 -2.59433e-13 -4.20264e-13 -6.11462e-13 -8.22668e-13 -1.04102e-12 -1.25322e-12 -1.44758e-12 -1.61545e-12 -1.75189e-12 -1.85536e-12 -1.92685e-12 -1.96844e-12 -1.98205e-12 -1.96844e-12 -1.92685e-12 -1.85536e-12 -1.75189e-12 -1.61545e-12 -1.44758e-12 -1.25322e-12 -1.04102e-12 -8.22668e-13 -6.11462e-13 -4.20264e-13 -2.59433e-13 -1.35157e-13 -4.86687e-14 3.47794e-15 2.81707e-14 3.39284e-14 2.90392e-14 2.01408e-14 1.15324e-14 5.23439e-15 1.57199e-15 -4.91195e-17 -4.73452e-16 -3.91181e-16 -2.04463e-16 -7.09489e-17 -1.00805e-17 6.21109e-18 5.59902e-18 2.32597e-18 4.73049e-19 -6.81159e-20 -9.22622e-20 -3.3972e-20 -4.3788e-21 1.74734e-21 1.08624e-21 2.26533e-22 -1.82415e-23 -2.44617e-23 -5.92173e-24 1.37131e-25 4.57413e-25 1.07847e-25 -3.38402e-27 -7.46938e-27 -1.44536e-27 1.22115e-28 1.03613e-28 1.34026e-29 -2.79883e-30 -1.14409e-30 -5.98794e-32 4.23796e-32 9.14956e-33 -4.47622e-34 -4.39096e-34 -4.20058e-35 1.14108e-35 3.0055e-36 -4.89805e-38 -1.11394e-37 -1.08588e-38 2.51901e-39 6.13512e-40 -1.76395e-41 -2.09172e-41 -1.70118e-42 3.46121e-43 5.1848e-44 0 -0 0 0 0 0 0 0 0 0 0 0 0 0 0 0 0 0 0 0 0 0 0 0 0 0 0 0 
0 0 0 0 0 0 0 0 0 0 0 0 0 0 0 0 0 0 0 0 0 0 0 0 0 0 0 0 -0 0 4.06352e-44 3.30686e-43 -1.52592e-42 -1.97515e-41 -2.08038e-41 5.53761e-40 2.43074e-39 -8.89639e-39 -1.01122e-37 -8.06015e-38 2.54718e-36 1.07736e-35 -3.01201e-35 -3.76857e-34 -5.60918e-34 7.01628e-33 3.75149e-32 -2.34327e-32 -8.88634e-31 -2.70168e-30 7.97035e-30 8.08912e-29 1.49089e-28 -8.85959e-28 -5.82961e-27 -7.31761e-27 6.36344e-26 3.50135e-25 4.23604e-25 -3.14592e-24 -1.75799e-23 -2.91173e-23 9.25778e-23 6.81947e-22 1.68857e-21 -1.36264e-22 -1.6186e-20 -6.1843e-20 -1.08326e-19 5.1199e-20 9.60771e-19 3.30713e-18 6.55604e-18 5.65512e-18 -1.33708e-17 -7.44263e-17 -2.00219e-16 -3.79791e-16 -5.13736e-16 -3.54051e-16 5.23999e-16 2.67144e-15 6.60505e-15 1.25463e-14 2.01232e-14 2.81377e-14 3.45084e-14 3.64552e-14 3.09202e-14 1.51436e-14 -1.27441e-14 -5.32589e-14 -1.05337e-13 -1.6639e-13 -2.32608e-13 -2.9943e-13 -3.62079e-13 -4.16051e-13 -4.57516e-13 -4.83585e-13 -4.92476e-13 -4.83585e-13 -4.57516e-13 -4.16051e-13 -3.62079e-13 -2.9943e-13 -2.32608e-13 -1.6639e-13 -1.05337e-13 -5.32589e-14 -1.27441e-14 1.51436e-14 3.09202e-14 3.64552e-14 3.45084e-14 2.81377e-14 2.01232e-14 1.25463e-14 6.60505e-15 2.67144e-15 5.23999e-16 -3.54051e-16 -5.13736e-16 -3.79791e-16 -2.00219e-16 -7.44263e-17 -1.33708e-17 5.65512e-18 6.55604e-18 3.30713e-18 9.60771e-19 5.1199e-20 -1.08326e-19 -6.1843e-20 -1.6186e-20 -1.36264e-22 1.68857e-21 6.81947e-22 9.25778e-23 -2.91173e-23 -1.75799e-23 -3.14592e-24 4.23604e-25 3.50135e-25 6.36344e-26 -7.31761e-27 -5.82961e-27 -8.85959e-28 1.49089e-28 8.08912e-29 7.97035e-30 -2.70168e-30 -8.88634e-31 -2.34327e-32 3.75149e-32 7.01628e-33 -5.60918e-34 -3.76857e-34 -3.01201e-35 1.07736e-35 2.54718e-36 -8.06015e-38 -1.01122e-37 -8.89639e-39 2.43074e-39 5.53761e-40 -2.08038e-41 -1.97515e-41 -1.52592e-42 3.30686e-43 4.06352e-44 0 -0 0 0 0 0 0 0 0 0 0 0 0 0 0 0 0 0 0 0 0 0 0 0 0 0 0 0 0 
0 0 0 0 0 0 0 0 0 0 0 0 0 0 0 0 0 0 0 0 0 0 0 0 0 0 0 0 0 -0 0 4.06278e-44 3.32027e-43 -1.33091e-42 -1.83119e-41 -2.39228e-41 4.86452e-40 2.30818e-39 -6.897e-39 -8.97367e-38 -1.06691e-37 2.08737e-36 9.92392e-36 -1.94834e-35 -3.13731e-34 -6.24318e-34 5.10061e-33 3.20553e-32 3.56944e-33 -6.57867e-31 -2.44992e-30 3.85758e-30 5.99182e-29 1.51917e-28 -4.68357e-28 -4.26325e-27 -8.63262e-27 3.18708e-26 2.46266e-25 5.03286e-25 -1.29926e-24 -1.1311e-23 -2.84898e-23 1.61503e-23 3.65653e-22 1.26737e-21 1.50642e-21 -5.33803e-21 -3.32708e-20 -8.76104e-20 -9.74194e-20 2.14445e-19 1.40963e-18 3.9994e-18 7.13724e-18 6.06148e-18 -1.07839e-17 -6.20141e-17 -1.66405e-16 -3.25037e-16 -4.93209e-16 -5.50404e-16 -2.8345e-16 6.00397e-16 2.42078e-15 5.43684e-15 9.74634e-15 1.52035e-14 2.13869e-14 2.76375e-14 3.31631e-14 3.71895e-14 3.91203e-14 3.86663e-14 3.59169e-14 3.13351e-14 2.56836e-14 1.98964e-14 1.4923e-14 1.15746e-14 1.03948e-14 1.15746e-14 1.4923e-14 1.98964e-14 2.56836e-14 3.13351e-14 3.59169e-14 3.86663e-14 3.91203e-14 3.71895e-14 3.31631e-14 2.76375e-14 2.13869e-14 1.52035e-14 9.74634e-15 5.43684e-15 2.42078e-15 6.00397e-16 -2.8345e-16 -5.50404e-16 -4.93209e-16 -3.25037e-16 -1.66405e-16 -6.20141e-17 -1.07839e-17 6.06148e-18 7.13724e-18 3.9994e-18 1.40963e-18 2.14445e-19 -9.74194e-20 -8.76104e-20 -3.32708e-20 -5.33803e-21 1.50642e-21 1.26737e-21 3.65653e-22 1.61503e-23 -2.84898e-23 -1.1311e-23 -1.29926e-24 5.03286e-25 2.46266e-25 3.18708e-26 -8.63262e-27 -4.26325e-27 -4.68357e-28 1.51917e-28 5.99182e-29 3.85758e-30 -2.44992e-30 -6.57867e-31 3.56944e-33 3.20553e-32 5.10061e-33 -6.24318e-34 -3.13731e-34 -1.94834e-35 9.92392e-36 2.08737e-36 -1.06691e-37 -8.97367e-38 -6.897e-39 2.30818e-39 4.86452e-40 -2.39228e-41 -1.83119e-41 -1.33091e-42 3.32027e-43 4.06278e-44 0 -0 0 0 0 0 0 0 0 0 0 0 0 0 0 0 0 0 0 0 0 0 0 0 0 0 0 0 0 0 
0 0 0 0 0 0 0 0 0 0 0 0 0 0 0 0 0 0 0 0 0 0 0 0 0 0 0 0 0 0 -0 0 2.94112e-44 2.96914e-43 -1.11203e-42 -1.66594e-41 -2.65416e-41 4.14592e-40 2.15009e-39 -4.96994e-39 -7.76222e-38 -1.25376e-37 1.64511e-36 8.88757e-36 -1.05044e-35 -2.52226e-34 -6.39026e-34 3.46074e-33 2.63345e-32 2.14001e-32 -4.59343e-31 -2.09363e-30 9.96531e-31 4.17057e-29 1.37748e-28 -1.81947e-28 -2.89327e-27 -8.17827e-27 1.1212e-26 1.5734e-25 4.56967e-25 -2.24668e-25 -6.37198e-24 -2.22913e-23 -1.84294e-23 1.54809e-22 7.83468e-22 1.67341e-21 -7.52093e-23 -1.34835e-20 -5.15245e-20 -1.05236e-19 -7.25484e-20 3.4393e-19 1.65174e-18 4.23394e-18 7.35926e-18 7.49948e-18 -3.39903e-18 -3.81686e-17 -1.11223e-16 -2.30588e-16 -3.8583e-16 -5.3525e-16 -5.97776e-16 -4.55006e-16 3.37197e-17 1.00483e-15 2.55875e-15 4.73176e-15 7.47993e-15 1.06802e-14 1.41483e-14 1.76693e-14 2.1031e-14 2.40532e-14 2.66061e-14 2.86135e-14 3.00446e-14 3.08975e-14 3.11804e-14 3.08975e-14 3.00446e-14 2.86135e-14 2.66061e-14 2.40532e-14 2.1031e-14 1.76693e-14 1.41483e-14 1.06802e-14 7.47993e-15 4.73176e-15 2.55875e-15 1.00483e-15 3.37197e-17 -4.55006e-16 -5.97776e-16 -5.3525e-16 -3.8583e-16 -2.30588e-16 -1.11223e-16 -3.81686e-17 -3.39903e-18 7.49948e-18 7.35926e-18 4.23394e-18 1.65174e-18 3.4393e-19 -7.25484e-20 -1.05236e-19 -5.15245e-20 -1.34835e-20 -7.52093e-23 1.67341e-21 7.83468e-22 1.54809e-22 -1.84294e-23 -2.22913e-23 -6.37198e-24 -2.24668e-25 4.56967e-25 1.5734e-25 1.1212e-26 -8.17827e-27 -2.89327e-27 -1.81947e-28 1.37748e-28 4.17057e-29 9.96531e-31 -2.09363e-30 -4.59343e-31 2.14001e-32 2.63345e-32 3.46074e-33 -6.39026e-34 -2.52226e-34 -1.05044e-35 8.88757e-36 1.64511e-36 -1.25376e-37 -7.76222e-38 -4.96994e-39 2.15009e-39 4.14592e-40 -2.65416e-41 -1.66594e-41 -1.11203e-42 2.96914e-43 2.94112e-44 0 -0 0 0 0 0 0 0 0 0 0 0 0 0 0 0 0 0 0 0 0 0 0 0 0 0 0 0 0 0 0 
0 0 0 0 0 0 0 0 0 0 0 0 0 0 0 0 0 0 0 0 0 0 0 0 0 0 0 0 0 0 0 -0 0 2.93988e-44 2.64589e-43 -8.62365e-43 -1.47428e-41 -2.84118e-41 3.41545e-40 1.95831e-39 -3.21434e-39 -6.52336e-38 -1.3559e-37 1.23782e-36 7.71173e-36 -3.43171e-36 -1.94782e-34 -6.10882e-34 2.13125e-33 2.07045e-32 3.10505e-32 -2.97623e-31 -1.6859e-30 -7.68008e-31 2.6881e-29 1.1374e-28 -7.01813e-30 -1.79247e-27 -6.73871e-27 -4.77962e-28 8.91371e-26 3.51735e-25 2.81504e-25 -2.971e-24 -1.47244e-23 -2.70681e-23 3.71825e-23 3.93988e-22 1.22434e-21 1.61482e-21 -2.89783e-21 -2.23645e-20 -6.6324e-20 -1.15336e-19 -6.05103e-20 3.65881e-19 1.58072e-18 3.91007e-18 6.98187e-18 8.78049e-18 4.70218e-18 -1.27359e-17 -5.27983e-17 -1.23648e-16 -2.28006e-16 -3.58548e-16 -4.94762e-16 -6.02901e-16 -6.3986e-16 -5.60542e-16 -3.27099e-16 8.22536e-17 6.67058e-16 1.40251e-15 2.24174e-15 3.1217e-15 3.97121e-15 4.71942e-15 5.30349e-15 5.67453e-15 5.80172e-15 5.67453e-15 5.30349e-15 4.71942e-15 3.97121e-15 3.1217e-15 2.24174e-15 1.40251e-15 6.67058e-16 8.22536e-17 -3.27099e-16 -5.60542e-16 -6.3986e-16 -6.02901e-16 -4.94762e-16 -3.58548e-16 -2.28006e-16 -1.23648e-16 -5.27983e-17 -1.27359e-17 4.70218e-18 8.78049e-18 6.98187e-18 3.91007e-18 1.58072e-18 3.65881e-19 -6.05103e-20 -1.15336e-19 -6.6324e-20 -2.23645e-20 -2.89783e-21 1.61482e-21 1.22434e-21 3.93988e-22 3.71825e-23 -2.70681e-23 -1.47244e-23 -2.971e-24 2.81504e-25 3.51735e-25 8.91371e-26 -4.77962e-28 -6.73871e-27 -1.79247e-27 -7.01813e-30 1.1374e-28 2.6881e-29 -7.68008e-31 -1.6859e-30 -2.97623e-31 3.10505e-32 2.07045e-32 2.13125e-33 -6.10882e-34 -1.94782e-34 -3.43171e-36 7.71173e-36 1.23782e-36 -1.3559e-37 -6.52336e-38 -3.21434e-39 1.95831e-39 3.41545e-40 -2.84118e-41 -1.47428e-41 -8.62365e-43 2.64589e-43 2.93988e-44 0 -0 0 0 0 0 0 0 0 0 0 0 0 0 0 0 0 0 0 0 0 0 0 0 0 0 0 0 0 0 0 0 
0 0 0 0 0 0 0 0 0 0 0 0 0 0 0 0 0 0 0 0 0 0 0 0 0 0 0 0 0 0 0 0 -0 0 2.09877e-44 2.3926e-43 -6.57615e-43 -1.27381e-41 -2.91883e-41 2.70564e-40 1.73854e-39 -1.70903e-39 -5.30662e-38 -1.3722e-37 8.79705e-37 6.46051e-36 1.6673e-36 -1.43515e-34 -5.49457e-34 1.12021e-33 1.54904e-32 3.406e-32 -1.73866e-31 -1.27585e-30 -1.65257e-30 1.56444e-29 8.61904e-29 8.16298e-29 -9.83045e-28 -4.94967e-27 -5.67808e-27 4.24103e-26 2.35657e-25 4.24426e-25 -9.53674e-25 -8.21003e-24 -2.28858e-23 -1.36326e-23 1.46361e-22 6.84454e-22 1.54906e-21 1.13088e-21 -5.85784e-21 -2.89435e-20 -7.44625e-20 -1.21404e-19 -7.82589e-20 2.60124e-19 1.20508e-18 3.04459e-18 5.74051e-18 8.4802e-18 9.2276e-18 4.51458e-18 -1.02852e-17 -4.00875e-17 -8.87535e-17 -1.57628e-16 -2.44451e-16 -3.43071e-16 -4.44197e-16 -5.37046e-16 -6.11525e-16 -6.60365e-16 -6.80661e-16 -6.74479e-16 -6.48361e-16 -6.11924e-16 -5.75858e-16 -5.4977e-16 -5.40288e-16 -5.4977e-16 -5.75858e-16 -6.11924e-16 -6.48361e-16 -6.74479e-16 -6.80661e-16 -6.60365e-16 -6.11525e-16 -5.37046e-16 -4.44197e-16 -3.43071e-16 -2.44451e-16 -1.57628e-16 -8.87535e-17 -4.00875e-17 -1.02852e-17 4.51458e-18 9.2276e-18 8.4802e-18 5.74051e-18 3.04459e-18 1.20508e-18 2.60124e-19 -7.82589e-20 -1.21404e-19 -7.44625e-20 -2.89435e-20 -5.85784e-21 1.13088e-21 1.54906e-21 6.84454e-22 1.46361e-22 -1.36326e-23 -2.28858e-23 -8.21003e-24 -9.53674e-25 4.24426e-25 2.35657e-25 4.24103e-26 -5.67808e-27 -4.94967e-27 -9.83045e-28 8.16298e-29 8.61904e-29 1.56444e-29 -1.65257e-30 -1.27585e-30 -1.73866e-31 3.406e-32 1.54904e-32 1.12021e-33 -5.49457e-34 -1.43515e-34 1.6673e-36 6.46051e-36 8.79705e-37 -1.3722e-37 -5.30662e-38 -1.70903e-39 1.73854e-39 2.70564e-40 -2.91883e-41 -1.27381e-41 -6.57615e-43 2.3926e-43 2.09877e-44 0 -0 0 0 0 0 0 0 0 0 0 0 0 0 0 0 0 0 0 0 0 0 0 0 0 0 0 0 0 0 0 0 0 
0 0 0 0 0 0 0 0 0 0 0 0 0 0 0 0 0 0 0 0 0 0 0 0 0 0 0 0 0 0 0 0 0 -0 -0 1.39825e-44 2.06941e-43 -4.20873e-43 -1.0677e-41 -2.89578e-41 2.04652e-40 1.49969e-39 -5.05916e-40 -4.16062e-38 -1.31065e-37 5.80462e-37 5.20603e-36 4.89928e-36 -9.99663e-35 -4.66449e-34 4.10135e-34 1.09473e-32 3.22637e-32 -8.59499e-32 -9.02502e-31 -1.90064e-30 7.80063e-30 5.98917e-29 1.10536e-28 -4.44679e-28 -3.25219e-27 -6.77796e-27 1.43293e-26 1.36889e-25 3.7677e-25 2.55838e-26 -3.68864e-24 -1.48016e-23 -2.55714e-23 2.25984e-23 2.86663e-22 9.48241e-22 1.71887e-21 6.34502e-22 -7.4699e-21 -3.07122e-20 -7.39723e-20 -1.2242e-19 -1.15189e-19 7.97033e-20 6.65706e-19 1.86509e-18 3.79716e-18 6.30201e-18 8.76268e-18 1.00045e-17 8.34513e-18 1.82638e-18 -1.14044e-17 -3.26574e-17 -6.23324e-17 -9.97268e-17 -1.43078e-16 -1.8982e-16 -2.36984e-16 -2.81621e-16 -3.21155e-16 -3.53586e-16 -3.77539e-16 -3.92185e-16 -3.97108e-16 -3.92185e-16 -3.77539e-16 -3.53586e-16 -3.21155e-16 -2.81621e-16 -2.36984e-16 -1.8982e-16 -1.43078e-16 -9.97268e-17 -6.23324e-17 -3.26574e-17 -1.14044e-17 1.82638e-18 8.34513e-18 1.00045e-17 8.76268e-18 6.30201e-18 3.79716e-18 1.86509e-18 6.65706e-19 7.97033e-20 -1.15189e-19 -1.2242e-19 -7.39723e-20 -3.07122e-20 -7.4699e-21 6.34502e-22 1.71887e-21 9.48241e-22 2.86663e-22 2.25984e-23 -2.55714e-23 -1.48016e-23 -3.68864e-24 2.55838e-26 3.7677e-25 1.36889e-25 1.43293e-26 -6.77796e-27 -3.25219e-27 -4.44679e-28 1.10536e-28 5.98917e-29 7.80063e-30 -1.90064e-30 -9.02502e-31 -8.59499e-32 3.22637e-32 1.09473e-32 4.10135e-34 -4.66449e-34 -9.99663e-35 4.89928e-36 5.20603e-36 5.80462e-37 -1.31065e-37 -4.16062e-38 -5.05916e-40 1.49969e-39 2.04652e-40 -2.89578e-41 -1.0677e-41 -4.20873e-43 2.06941e-43 1.39825e-44 -0 -0 0 0 0 0 0 0 0 0 0 0 0 0 0 0 0 0 0 0 0 0 0 0 0 0 0 0 0 0 0 0 0 0 
0 0 0 0 0 0 0 0 0 0 0 0 0 0 0 0 0 0 0 0 0 0 0 0 0 0 0 0 0 0 0 0 0 0 -0 -0 8.3829e-45 1.67658e-43 -2.34721e-43 -8.73079e-42 -2.7637e-41 1.46372e-40 1.25309e-39 3.7446e-40 -3.12755e-38 -1.18662e-37 3.44393e-37 4.01815e-36 6.51591e-36 -6.49299e-35 -3.73877e-34 -3.76288e-35 7.23114e-33 2.75226e-32 -2.9094e-32 -5.91214e-31 -1.74832e-30 2.85379e-30 3.78426e-29 1.03852e-28 -1.28639e-28 -1.8892e-27 -5.75469e-27 2.05308e-28 6.66471e-26 2.61045e-25 3.52112e-25 -1.11644e-24 -7.59182e-24 -2.04803e-23 -2.03817e-23 7.11557e-23 4.13272e-22 1.12372e-21 1.80241e-21 5.94836e-22 -6.78624e-21 -2.6718e-20 -6.38255e-20 -1.11859e-19 -1.40035e-19 -7.99264e-20 1.77988e-19 7.6849e-19 1.81206e-18 3.35731e-18 5.32213e-18 7.45644e-18 9.34676e-18 1.0471e-17 1.02956e-17 8.39207e-18 4.543e-18 -1.18905e-18 -8.44665e-18 -1.66177e-17 -2.49194e-17 -3.2507e-17 -3.85862e-17 -4.25131e-17 -4.38702e-17 -4.25131e-17 -3.85862e-17 -3.2507e-17 -2.49194e-17 -1.66177e-17 -8.44665e-18 -1.18905e-18 4.543e-18 8.39207e-18 1.02956e-17 1.0471e-17 9.34676e-18 7.45644e-18 5.32213e-18 3.35731e-18 1.81206e-18 7.6849e-19 1.77988e-19 -7.99264e-20 -1.40035e-19 -1.11859e-19 -6.38255e-20 -2.6718e-20 -6.78624e-21 5.94836e-22 1.80241e-21 1.12372e-21 4.13272e-22 7.11557e-23 -2.03817e-23 -2.04803e-23 -7.59182e-24 -1.11644e-24 3.52112e-25 2.61045e-25 6.66471e-26 2.05308e-28 -5.75469e-27 -1.8892e-27 -1.28639e-28 1.03852e-28 3.78426e-29 2.85379e-30 -1.74832e-30 -5.91214e-31 -2.9094e-32 2.75226e-32 7.23114e-33 -3.76288e-35 -3.73877e-34 -6.49299e-35 6.51591e-36 4.01815e-36 3.44393e-37 -1.18662e-37 -3.12755e-38 3.7446e-40 1.25309e-39 1.46372e-40 -2.7637e-41 -8.73079e-42 -2.34721e-43 1.67658e-43 8.3829e-45 -0 -0 0 0 0 0 0 0 0 0 0 0 0 0 0 0 0 0 0 0 0 0 0 0 0 0 0 0 0 0 0 0 0 0 0 
0 0 0 0 0 0 0 0 0 0 0 0 0 0 0 0 0 0 0 0 0 0 0 0 0 0 0 0 0 0 0 0 0 0 0 -0 -0 4.18765e-45 1.46568e-43 -7.39818e-44 -6.89008e-42 -2.53409e-41 9.74047e-41 1.01081e-39 9.42408e-40 -2.23863e-38 -1.02024e-37 1.70358e-37 2.95522e-36 6.86628e-36 -3.8416e-35 -2.82439e-34 -2.7564e-34 4.3903e-33 2.14853e-32 3.13229e-33 -3.52971e-31 -1.39648e-30 1.40549e-31 2.13282e-29 8.07494e-29 2.61401e-29 -9.37785e-28 -4.00919e-27 -4.94799e-27 2.44234e-26 1.48116e-25 3.49126e-25 2.5079e-26 -2.90163e-24 -1.16203e-23 -2.3714e-23 -1.1103e-23 1.10067e-22 4.8085e-22 1.17813e-21 1.85259e-21 1.11121e-21 -4.0714e-21 -1.82149e-20 -4.55323e-20 -8.58541e-20 -1.28729e-19 -1.4764e-19 -9.74052e-20 8.23062e-20 4.56159e-19 1.07675e-18 1.96713e-18 3.10814e-18 4.43541e-18 5.84823e-18 7.22833e-18 8.46369e-18 9.47072e-18 1.02091e-17 1.06852e-17 1.09448e-17 1.10558e-17 1.1088e-17 1.10924e-17 1.1088e-17 1.10558e-17 1.09448e-17 1.06852e-17 1.02091e-17 9.47072e-18 8.46369e-18 7.22833e-18 5.84823e-18 4.43541e-18 3.10814e-18 1.96713e-18 1.07675e-18 4.56159e-19 8.23062e-20 -9.74052e-20 -1.4764e-19 -1.28729e-19 -8.58541e-20 -4.55323e-20 -1.82149e-20 -4.0714e-21 1.11121e-21 1.85259e-21 1.17813e-21 4.8085e-22 1.10067e-22 -1.1103e-23 -2.3714e-23 -1.16203e-23 -2.90163e-24 2.5079e-26 3.49126e-25 1.48116e-25 2.44234e-26 -4.94799e-27 -4.00919e-27 -9.37785e-28 2.61401e-29 8.07494e-29 2.13282e-29 1.40549e-31 -1.39648e-30 -3.52971e-31 3.13229e-33 2.14853e-32 4.3903e-33 -2.7564e-34 -2.82439e-34 -3.8416e-35 6.86628e-36 2.95522e-36 1.70358e-37 -1.02024e-37 -2.23863e-38 9.42408e-40 1.01081e-39 9.74047e-41 -2.53409e-41 -6.89008e-42 -7.39818e-44 1.46568e-43 4.18765e-45 -0 -0 0 0 0 0 0 0 0 0 0 0 0 0 0 0 0 0 0 0 0 0 0 0 0 0 0 0 0 0 0 0 0 0 0 0 
0 0 0 0 0 0 0 0 0 0 0 0 0 0 0 0 0 0 0 0 0 0 0 0 0 0 0 0 0 0 0 0 0 0 0 0 -0 -0 1.39445e-45 1.26895e-43 3.34668e-44 -5.23476e-42 -2.22749e-41 5.85863e-41 7.84286e-40 1.2345e-39 -1.51118e-38 -8.33143e-38 5.24934e-38 2.05727e-36 6.33962e-36 -1.97342e-35 -2.00285e-34 -3.61794e-34 2.37634e-33 1.54224e-32 1.76787e-32 -1.86316e-31 -9.93973e-31 -1.03365e-30 1.02773e-29 5.43055e-29 7.89971e-29 -3.61996e-28 -2.36062e-27 -5.33254e-27 3.63411e-27 6.72988e-26 2.33607e-25 3.38547e-25 -5.70417e-25 -4.81389e-24 -1.46853e-23 -2.49088e-23 -5.46576e-24 1.18758e-22 4.62238e-22 1.09193e-21 1.8052e-21 1.78248e-21 -7.41533e-22 -8.49704e-21 -2.45513e-20 -5.08557e-20 -8.61631e-20 -1.23953e-19 -1.51282e-19 -1.4938e-19 -9.63105e-20 2.87094e-20 2.40419e-19 5.43408e-19 9.29958e-19 1.3804e-18 1.86574e-18 2.35183e-18 2.80381e-18 3.18998e-18 3.48448e-18 3.66862e-18 3.73122e-18 3.66862e-18 3.48448e-18 3.18998e-18 2.80381e-18 2.35183e-18 1.86574e-18 1.3804e-18 9.29958e-19 5.43408e-19 2.40419e-19 2.87094e-20 -9.63105e-20 -1.4938e-19 -1.51282e-19 -1.23953e-19 -8.61631e-20 -5.08557e-20 -2.45513e-20 -8.49704e-21 -7.41533e-22 1.78248e-21 1.8052e-21 1.09193e-21 4.62238e-22 1.18758e-22 -5.46576e-24 -2.49088e-23 -1.46853e-23 -4.81389e-24 -5.70417e-25 3.38547e-25 2.33607e-25 6.72988e-26 3.63411e-27 -5.33254e-27 -2.36062e-27 -3.61996e-28 7.89971e-29 5.43055e-29 1.02773e-29 -1.03365e-30 -9.93973e-31 -1.86316e-31 1.76787e-32 1.54224e-32 2.37634e-33 -3.61794e-34 -2.00285e-34 -1.97342e-35 6.33962e-36 2.05727e-36 5.24934e-38 -8.33143e-38 -1.51118e-38 1.2345e-39 7.84286e-40 5.85863e-41 -2.22749e-41 -5.23476e-42 3.34668e-44 1.26895e-43 1.39445e-45 -0 -0 0 0 0 0 0 0 0 0 0 0 0 0 0 0 0 0 0 0 0 0 0 0 0 0 0 0 0 0 0 0 0 0 0 0 0 
0 0 0 0 0 0 0 0 0 0 0 0 0 0 0 0 0 0 0 0 0 0 0 0 0 0 0 0 0 0 0 0 0 0 0 0 0 -0 -0 0 9.19279e-44 6.96423e-44 -3.86376e-42 -1.8848e-41 2.96398e-41 5.82704e-40 1.30583e-39 -9.4783e-39 -6.45406e-38 -1.84711e-38 1.34294e-36 5.30978e-36 -7.68065e-36 -1.32407e-34 -3.51242e-34 1.06957e-33 1.0155e-32 2.10021e-32 -8.10461e-32 -6.33488e-31 -1.28496e-30 3.76561e-30 3.17771e-29 7.81355e-29 -6.91281e-29 -1.15654e-27 -3.86812e-27 -3.78759e-27 2.14957e-26 1.19101e-25 2.93514e-25 2.34369e-25 -1.19603e-24 -6.18058e-24 -1.61624e-23 -2.5388e-23 -8.63346e-24 9.13942e-23 3.60109e-22 8.64464e-22 1.5431e-21 2.04241e-21 1.55697e-21 -1.22338e-21 -7.95441e-21 -2.022e-20 -3.89208e-20 -6.36504e-20 -9.22985e-20 -1.21089e-19 -1.45131e-19 -1.59386e-19 -1.59823e-19 -1.44427e-19 -1.1383e-19 -7.13743e-20 -2.26205e-20 2.55728e-20 6.62025e-20 9.32748e-20 1.0277e-19 9.32748e-20 6.62025e-20 2.55728e-20 -2.26205e-20 -7.13743e-20 -1.1383e-19 -1.44427e-19 -1.59823e-19 -1.59386e-19 -1.45131e-19 -1.21089e-19 -9.22985e-20 -6.36504e-20 -3.89208e-20 -2.022e-20 -7.95441e-21 -1.22338e-21 1.55697e-21 2.04241e-21 1.5431e-21 8.64464e-22 3.60109e-22 9.13942e-23 -8.63346e-24 -2.5388e-23 -1.61624e-23 -6.18058e-24 -1.19603e-24 2.34369e-25 2.93514e-25 1.19101e-25 2.14957e-26 -3.78759e-27 -3.86812e-27 -1.15654e-27 -6.91281e-29 7.81355e-29 3.17771e-29 3.76561e-30 -1.28496e-30 -6.33488e-31 -8.10461e-32 2.10021e-32 1.0155e-32 1.06957e-33 -3.51242e-34 -1.32407e-34 -7.68065e-36 5.30978e-36 1.34294e-36 -1.84711e-38 -6.45406e-38 -9.4783e-39 1.30583e-39 5.82704e-40 2.96398e-41 -1.8848e-41 -3.86376e-42 6.96423e-44 9.19279e-44 0 -0 -0 0 0 0 0 0 0 0 0 0 0 0 0 0 0 0 0 0 0 0 0 0 0 0 0 0 0 0 0 0 0 0 0 0 0 0 0 
0 0 0 0 0 0 0 0 0 0 0 0 0 0 0 0 0 0 0 0 0 0 0 0 0 0 0 0 0 0 0 0 0 0 0 0 0 0 0 -0 0 6.25985e-44 8.20736e-44 -2.70565e-42 -1.52546e-41 9.7904e-42 4.12471e-40 1.22022e-39 -5.37938e-39 -4.73048e-38 -5.35541e-38 8.1014e-37 4.09136e-36 -7.7853e-37 -8.06769e-35 -2.90252e-34 3.12065e-34 6.07545e-33 1.83586e-32 -2.25314e-32 -3.58054e-31 -1.08585e-30 5.15726e-31 1.5851e-29 5.66857e-29 4.43735e-29 -4.3598e-28 -2.19461e-27 -4.58223e-27 1.4959e-27 4.45818e-26 1.64453e-25 3.18639e-25 1.20308e-25 -1.53871e-24 -6.49077e-24 -1.57859e-23 -2.52954e-23 -1.82614e-23 4.20108e-23 2.11606e-22 5.47415e-22 1.06392e-21 1.67e-21 2.10584e-21 1.91131e-21 4.55696e-22 -2.95933e-21 -8.93987e-21 -1.78267e-20 -2.95648e-20 -4.36614e-20 -5.92513e-20 -7.52521e-20 -9.05628e-20 -1.04249e-19 -1.15667e-19 -1.2449e-19 -1.30663e-19 -1.34281e-19 -1.3547e-19 -1.34281e-19 -1.30663e-19 -1.2449e-19 -1.15667e-19 -1.04249e-19 -9.05628e-20 -7.52521e-20 -5.92513e-20 -4.36614e-20 -2.95648e-20 -1.78267e-20 -8.93987e-21 -2.95933e-21 4.55696e-22 1.91131e-21 2.10584e-21 1.67e-21 1.06392e-21 5.47415e-22 2.11606e-22 4.20108e-23 -1.82614e-23 -2.52954e-23 -1.57859e-23 -6.49077e-24 -1.53871e-24 1.20308e-25 3.18639e-25 1.64453e-25 4.45818e-26 1.4959e-27 -4.58223e-27 -2.19461e-27 -4.3598e-28 4.43735e-29 5.66857e-29 1.5851e-29 5.15726e-31 -1.08585e-30 -3.58054e-31 -2.25314e-32 1.83586e-32 6.07545e-33 3.12065e-34 -2.90252e-34 -8.06769e-35 -7.7853e-37 4.09136e-36 8.1014e-37 -5.35541e-38 -4.73048e-38 -5.37938e-39 1.22022e-39 4.12471e-40 9.7904e-42 -1.52546e-41 -2.70565e-42 8.20736e-44 6.25985e-44 0 -0 0 0 0 0 0 0 0 0 0 0 0 0 0 0 0 0 0 0 0 0 0 0 0 0 0 0 0 0 0 0 0 0 0 0 0 0 0 0 
0 0 0 0 0 0 0 0 0 0 0 0 0 0 0 0 0 0 0 0 0 0 0 0 0 0 0 0 0 0 0 0 0 0 0 0 0 0 0 0 -0 0 2.9172e-44 4.72309e-44 -1.85173e-42 -1.18661e-41 -2.37821e-42 2.76152e-40 1.04051e-39 -2.60815e-39 -3.26649e-38 -6.38793e-38 4.40225e-37 2.91395e-36 2.48105e-36 -4.44018e-35 -2.12866e-34 -6.02874e-35 3.23464e-33 1.34824e-32 4.41529e-33 -1.7428e-31 -7.46785e-31 -7.12721e-31 6.29917e-30 3.33887e-29 6.44563e-29 -8.73385e-29 -9.77685e-28 -3.11203e-27 -4.03735e-27 8.86037e-27 6.49076e-26 1.91737e-25 3.22944e-25 9.2693e-26 -1.40872e-24 -5.59378e-24 -1.34506e-23 -2.31393e-23 -2.61802e-23 -3.65379e-24 7.4699e-23 2.4513e-22 5.36493e-22 9.50557e-22 1.44198e-21 1.90646e-21 2.18475e-21 2.08554e-21 1.42371e-21 6.43785e-23 -2.03932e-21 -4.82511e-21 -8.12233e-21 -1.16734e-20 -1.51697e-20 -1.82933e-20 -2.07557e-20 -2.23296e-20 -2.28708e-20 -2.23296e-20 -2.07557e-20 -1.82933e-20 -1.51697e-20 -1.16734e-20 -8.12233e-21 -4.82511e-21 -2.03932e-21 6.43785e-23 1.42371e-21 2.08554e-21 2.18475e-21 1.90646e-21 1.44198e-21 9.50557e-22 5.36493e-22 2.4513e-22 7.4699e-23 -3.65379e-24 -2.61802e-23 -2.31393e-23 -1.34506e-23 -5.59378e-24 -1.40872e-24 9.2693e-26 3.22944e-25 1.91737e-25 6.49076e-26 8.86037e-27 -4.03735e-27 -3.11203e-27 -9.77685e-28 -8.73385e-29 6.44563e-29 3.33887e-29 6.29917e-30 -7.12721e-31 -7.46785e-31 -1.7428e-31 4.41529e-33 1.34824e-32 3.23464e-33 -6.02874e-35 -2.12866e-34 -4.44018e-35 2.48105e-36 2.91395e-36 4.40225e-37 -6.38793e-38 -3.26649e-38 -2.60815e-39 1.04051e-39 2.76152e-40 -2.37821e-42 -1.18661e-41 -1.85173e-42 4.72309e-44 2.9172e-44 0 -0 0 0 0 0 0 0 0 0 0 0 0 0 0 0 0 0 0 0 0 0 0 0 0 0 0 0 0 0 0 0 0 0 0 0 0 0 0 0 0 
0 0 0 0 0 0 0 0 0 0 0 0 0 0 0 0 0 0 0 0 0 0 0 0 0 0 0 0 0 0 0 0 0 0 0 0 0 0 0 0 0 -0 0 4.16113e-45 1.38704e-45 -1.14847e-42 -8.72451e-42 -8.62187e-42 1.73153e-40 8.21186e-40 -8.9951e-40 -2.11101e-38 -5.93292e-38 2.03964e-37 1.91606e-36 3.4442e-36 -2.11912e-35 -1.40404e-34 -1.9287e-34 1.46354e-33 8.62092e-33 1.28181e-32 -6.75158e-32 -4.34912e-31 -8.96039e-31 1.52562e-30 1.60684e-29 4.8487e-29 3.59244e-29 -3.05963e-28 -1.53626e-27 -3.63084e-27 -2.73498e-27 1.47718e-26 7.48266e-26 1.9613e-25 3.19637e-25 1.73711e-25 -8.71835e-25 -3.79688e-24 -9.50976e-24 -1.78035e-23 -2.57531e-23 -2.6071e-23 -6.33905e-24 4.99188e-23 1.5987e-22 3.36207e-22 5.81685e-22 8.85363e-22 1.2223e-21 1.55733e-21 1.85231e-21 2.07466e-21 2.20506e-21 2.24189e-21 2.20138e-21 2.11347e-21 2.01456e-21 1.93892e-21 1.91079e-21 1.93892e-21 2.01456e-21 2.11347e-21 2.20138e-21 2.24189e-21 2.20506e-21 2.07466e-21 1.85231e-21 1.55733e-21 1.2223e-21 8.85363e-22 5.81685e-22 3.36207e-22 1.5987e-22 4.99188e-23 -6.33905e-24 -2.6071e-23 -2.57531e-23 -1.78035e-23 -9.50976e-24 -3.79688e-24 -8.71835e-25 1.73711e-25 3.19637e-25 1.9613e-25 7.48266e-26 1.47718e-26 -2.73498e-27 -3.63084e-27 -1.53626e-27 -3.05963e-28 3.59244e-29 4.8487e-29 1.60684e-29 1.52562e-30 -8.96039e-31 -4.34912e-31 -6.75158e-32 1.28181e-32 8.62092e-33 1.46354e-33 -1.9287e-34 -1.40404e-34 -2.11912e-35 3.4442e-36 1.91606e-36 2.03964e-37 -5.93292e-38 -2.11101e-38 -8.9951e-40 8.21186e-40 1.73153e-40 -8.62187e-42 -8.72451e-42 -1.14847e-42 1.38704e-45 4.16113e-45 0 -0 0 0 0 0 0 0 0 0 0 0 0 0 0 0 0 0 0 0 0 0 0 0 0 0 0 0 0 0 0 0 0 0 0 0 0 0 0 0 0 0 
0 0 0 0 0 0 0 0 0 0 0 0 0 0 0 0 0 0 0 0 0 0 0 0 0 0 0 0 0 0 0 0 0 0 0 0 0 0 0 0 0 0 -0 -0 0 -1.38478e-45 -6.79927e-43 -6.11657e-42 -1.06891e-41 1.00042e-40 6.03367e-40 2.64022e-41 -1.2635e-38 -4.76903e-38 6.80487e-38 1.1554e-36 3.17369e-36 -7.87416e-36 -8.32207e-35 -1.98086e-34 4.92733e-34 4.81817e-33 1.22191e-32 -1.50313e-32 -2.1317e-31 -6.74759e-31 -3.09614e-31 5.92887e-30 2.69658e-29 5.26261e-29 -2.68446e-29 -5.41197e-28 -1.94063e-27 -3.76581e-27 -1.80479e-27 1.60553e-26 7.04518e-26 1.76444e-25 3.00809e-25 2.87574e-25 -2.21288e-25 -1.80237e-24 -5.11363e-24 -1.05407e-23 -1.76577e-23 -2.4662e-23 -2.80411e-23 -2.27222e-23 -2.81835e-24 3.71349e-23 1.00778e-22 1.88785e-22 2.98331e-22 4.23355e-22 5.55489e-22 6.85381e-22 8.04024e-22 9.03749e-22 9.7876e-22 1.02519e-21 1.04089e-21 1.02519e-21 9.7876e-22 9.03749e-22 8.04024e-22 6.85381e-22 5.55489e-22 4.23355e-22 2.98331e-22 1.88785e-22 1.00778e-22 3.71349e-23 -2.81835e-24 -2.27222e-23 -2.80411e-23 -2.4662e-23 -1.76577e-23 -1.05407e-23 -5.11363e-24 -1.80237e-24 -2.21288e-25 2.87574e-25 3.00809e-25 1.76444e-25 7.04518e-26 1.60553e-26 -1.80479e-27 -3.76581e-27 -1.94063e-27 -5.41197e-28 -2.68446e-29 5.26261e-29 2.69658e-29 5.92887e-30 -3.09614e-31 -6.74759e-31 -2.1317e-31 -1.50313e-32 1.22191e-32 4.81817e-33 4.92733e-34 -1.98086e-34 -8.32207e-35 -7.87416e-36 3.17369e-36 1.1554e-36 6.80487e-38 -4.76903e-38 -1.2635e-38 2.64022e-41 6.03367e-40 1.00042e-40 -1.06891e-41 -6.11657e-42 -6.79927e-43 -1.38478e-45 0 -0 -0 0 0 0 0 0 0 0 0 0 0 0 0 0 0 0 0 0 0 0 0 0 0 0 0 0 0 0 0 0 0 0 0 0 0 0 0 0 0 0 0 0 
0 0 0 0 0 0 0 0 0 0 0 0 0 0 0 0 0 0 0 0 0 0 0 0 0 0 0 0 0 0 0 0 0 0 0 0 0 0 0 0 0 0 0 -0 -0 0 -0 -3.71853e-43 -4.07103e-42 -1.02419e-41 5.16903e-41 4.1304e-40 4.27895e-40 -6.87988e-39 -3.43442e-38 6.28467e-40 6.29761e-37 2.40864e-36 -1.27163e-36 -4.37253e-35 -1.51643e-34 4.57044e-35 2.30733e-33 8.5705e-33 4.96922e-33 -8.32626e-32 -3.91618e-31 -6.81557e-31 1.22778e-30 1.14605e-29 3.51217e-29 4.4802e-29 -9.56097e-29 -7.01852e-28 -2.09477e-27 -3.6983e-27 -2.00029e-27 1.20311e-26 5.32477e-26 1.34996e-25 2.48647e-25 3.29641e-25 2.20633e-25 -3.455e-25 -1.7156e-24 -4.2228e-24 -8.0402e-24 -1.30239e-23 -1.86081e-23 -2.38116e-23 -2.73798e-23 -2.80429e-23 -2.48235e-23 -1.73087e-23 -5.81115e-24 8.62527e-24 2.43721e-23 3.94769e-23 5.19794e-23 6.0221e-23 6.30972e-23 6.0221e-23 5.19794e-23 3.94769e-23 2.43721e-23 8.62527e-24 -5.81115e-24 -1.73087e-23 -2.48235e-23 -2.80429e-23 -2.73798e-23 -2.38116e-23 -1.86081e-23 -1.30239e-23 -8.0402e-24 -4.2228e-24 -1.7156e-24 -3.455e-25 2.20633e-25 3.29641e-25 2.48647e-25 1.34996e-25 5.32477e-26 1.20311e-26 -2.00029e-27 -3.6983e-27 -2.09477e-27 -7.01852e-28 -9.56097e-29 4.4802e-29 3.51217e-29 1.14605e-29 1.22778e-30 -6.81557e-31 -3.91618e-31 -8.32626e-32 4.96922e-33 8.5705e-33 2.30733e-33 4.57044e-35 -1.51643e-34 -4.37253e-35 -1.27163e-36 2.40864e-36 6.29761e-37 6.28467e-40 -3.43442e-38 -6.87988e-39 4.27895e-40 4.1304e-40 5.16903e-41 -1.02419e-41 -4.07103e-42 -3.71853e-43 -0 0 -0 -0 0 0 0 0 0 0 0 0 0 0 0 0 0 0 0 0 0 0 0 0 0 0 0 0 0 0 0 0 0 0 0 0 0 0 0 0 0 0 0 0 0 0 
0 0 0 0 0 0 0 0 0 0 0 0 0 0 0 0 0 0 0 0 0 0 0 0 0 0 0 0 0 0 0 0 0 0 0 0 0 0 0 0 0 0 0 0 0 0 0 0 -1.79369e-43 -2.54566e-42 -8.47174e-42 2.23604e-41 2.62721e-40 5.17688e-40 -3.29195e-39 -2.24242e-38 -2.4943e-38 3.01199e-37 1.58991e-36 1.29595e-36 -1.96608e-35 -9.68036e-35 -1.05042e-34 8.88847e-34 4.90694e-33 8.8837e-33 -2.08485e-32 -1.81178e-31 -5.18068e-31 -3.4011e-31 3.33375e-30 1.62922e-29 3.86938e-29 3.33524e-29 -1.33232e-28 -7.24398e-28 -1.97571e-27 -3.48381e-27 -2.98876e-27 5.07911e-27 3.0008e-26 8.21078e-26 1.65089e-25 2.63652e-25 3.29747e-25 2.74085e-25 -2.98885e-26 -7.25579e-25 -1.93882e-24 -3.73881e-24 -6.10773e-24 -8.93074e-24 -1.20119e-23 -1.5112e-23 -1.79975e-23 -2.04846e-23 -2.24672e-23 -2.39207e-23 -2.48828e-23 -2.54202e-23 -2.55917e-23 -2.54202e-23 -2.48828e-23 -2.39207e-23 -2.24672e-23 -2.04846e-23 -1.79975e-23 -1.5112e-23 -1.20119e-23 -8.93074e-24 -6.10773e-24 -3.73881e-24 -1.93882e-24 -7.25579e-25 -2.98885e-26 2.74085e-25 3.29747e-25 2.63652e-25 1.65089e-25 8.21078e-26 3.0008e-26 5.07911e-27 -2.98876e-27 -3.48381e-27 -1.97571e-27 -7.24398e-28 -1.33232e-28 3.33524e-29 3.86938e-29 1.62922e-29 3.33375e-30 -3.4011e-31 -5.18068e-31 -1.81178e-31 -2.08485e-32 8.8837e-33 4.90694e-33 8.88847e-34 -1.05042e-34 -9.68036e-35 -1.96608e-35 1.29595e-36 1.58991e-36 3.01199e-37 -2.4943e-38 -2.24242e-38 -3.29195e-39 5.17688e-40 2.62721e-40 2.23604e-41 -8.47174e-42 -2.54566e-42 -1.79369e-43 0 0 0 0 0 0 0 0 0 0 0 0 0 0 0 0 0 0 0 0 0 0 0 0 0 0 0 0 0 0 0 0 0 0 0 0 0 0 0 0 0 0 0 0 0 0 0 
0 0 0 0 0 0 0 0 0 0 0 0 0 0 0 0 0 0 0 0 0 0 0 0 0 0 0 0 0 0 0 0 0 0 0 0 0 0 0 0 0 0 0 0 0 0 0 0 0 -7.29816e-44 -1.44311e-42 -6.31635e-42 6.36317e-42 1.54156e-40 4.52068e-40 -1.27094e-39 -1.32805e-38 -2.84095e-38 1.17706e-37 9.26207e-37 1.78513e-36 -6.86898e-36 -5.28729e-35 -1.17191e-34 2.17092e-34 2.31953e-33 6.82947e-33 2.00469e-33 -6.31025e-32 -2.75442e-31 -5.33344e-31 2.23479e-31 5.18429e-30 1.89455e-29 3.85979e-29 2.84348e-29 -1.19272e-28 -6.00604e-28 -1.60438e-27 -2.98792e-27 -3.6767e-27 -9.5301e-28 9.90262e-27 3.4961e-26 7.94812e-26 1.44335e-25 2.21983e-25 2.93678e-25 3.29593e-25 2.92824e-25 1.46797e-25 -1.35745e-25 -5.64745e-25 -1.12819e-24 -1.79206e-24 -2.50476e-24 -3.20458e-24 -3.82827e-24 -4.31892e-24 -4.63208e-24 -4.73965e-24 -4.63208e-24 -4.31892e-24 -3.82827e-24 -3.20458e-24 -2.50476e-24 -1.79206e-24 -1.12819e-24 -5.64745e-25 -1.35745e-25 1.46797e-25 2.92824e-25 3.29593e-25 2.93678e-25 2.21983e-25 1.44335e-25 7.94812e-26 3.4961e-26 9.90262e-27 -9.5301e-28 -3.6767e-27 -2.98792e-27 -1.60438e-27 -6.00604e-28 -1.19272e-28 2.84348e-29 3.85979e-29 1.89455e-29 5.18429e-30 2.23479e-31 -5.33344e-31 -2.75442e-31 -6.31025e-32 2.00469e-33 6.82947e-33 2.31953e-33 2.17092e-34 -1.17191e-34 -5.28729e-35 -6.86898e-36 1.78513e-36 9.26207e-37 1.17706e-37 -2.84095e-38 -1.32805e-38 -1.27094e-39 4.52068e-40 1.54156e-40 6.36317e-42 -6.31635e-42 -1.44311e-42 -7.29816e-44 0 0 0 0 0 0 0 0 0 0 0 0 0 0 0 0 0 0 0 0 0 0 0 0 0 0 0 0 0 0 0 0 0 0 0 0 0 0 0 0 0 0 0 0 0 0 0 0 
0 0 0 0 0 0 0 0 0 0 0 0 0 0 0 0 0 0 0 0 0 0 0 0 0 0 0 0 0 0 0 0 0 0 0 0 0 0 0 0 0 0 0 0 0 0 0 0 0 0 -1.78633e-44 -7.94228e-43 -4.32016e-42 -1.05393e-42 8.23332e-41 3.32606e-40 -2.75278e-40 -7.06817e-39 -2.26629e-38 2.88251e-38 4.7344e-37 1.43439e-36 -1.15885e-36 -2.44465e-35 -8.29451e-35 -2.93222e-35 8.62776e-34 3.82773e-33 6.43401e-33 -1.19317e-32 -1.08509e-31 -3.34611e-31 -4.60995e-31 6.98875e-31 6.0028e-30 1.88429e-29 3.62381e-29 3.23574e-29 -6.45106e-29 -3.82553e-28 -1.06655e-27 -2.14495e-27 -3.29178e-27 -3.54162e-27 -1.09793e-27 6.58628e-27 2.23315e-26 4.8389e-26 8.54583e-26 1.31926e-25 1.83679e-25 2.34685e-25 2.78242e-25 3.08578e-25 3.22318e-25 3.19386e-25 3.03088e-25 2.79344e-25 2.55301e-25 2.37683e-25 2.31239e-25 2.37683e-25 2.55301e-25 2.79344e-25 3.03088e-25 3.19386e-25 3.22318e-25 3.08578e-25 2.78242e-25 2.34685e-25 1.83679e-25 1.31926e-25 8.54583e-26 4.8389e-26 2.23315e-26 6.58628e-27 -1.09793e-27 -3.54162e-27 -3.29178e-27 -2.14495e-27 -1.06655e-27 -3.82553e-28 -6.45106e-29 3.23574e-29 3.62381e-29 1.88429e-29 6.0028e-30 6.98875e-31 -4.60995e-31 -3.34611e-31 -1.08509e-31 -1.19317e-32 6.43401e-33 3.82773e-33 8.62776e-34 -2.93222e-35 -8.29451e-35 -2.44465e-35 -1.15885e-36 1.43439e-36 4.7344e-37 2.88251e-38 -2.26629e-38 -7.06817e-39 -2.75278e-40 3.32606e-40 8.23332e-41 -1.05393e-42 -4.32016e-42 -7.94228e-43 -1.78633e-44 0 0 0 0 0 0 0 0 0 0 0 0 0 0 0 0 0 0 0 0 0 0 0 0 0 0 0 0 0 0 0 0 0 0 0 0 0 0 0 0 0 0 0 0 0 0 0 0 0 
0 0 0 0 0 0 0 0 0 0 0 0 0 0 0 0 0 0 0 0 0 0 0 0 0 0 0 0 0 0 0 0 0 0 0 0 0 0 0 0 0 0 0 0 0 0 0 0 0 0 0 -4.11308e-45 -4.12679e-43 -2.72834e-42 -3.50571e-42 3.89591e-41 2.15439e-40 1.20615e-40 -3.30091e-39 -1.4933e-38 -5.78411e-39 2.06277e-37 9.0617e-37 7.46639e-37 -9.0409e-36 -4.59455e-35 -7.79818e-35 2.0366e-34 1.66338e-33 4.72234e-33 3.46791e-33 -2.77967e-32 -1.40912e-31 -3.50505e-31 -3.8356e-31 8.13166e-31 5.46642e-30 1.61052e-29 3.14663e-29 3.77022e-29 -3.39744e-30 -1.61593e-28 -5.27687e-28 -1.1725e-27 -2.07309e-27 -3.02345e-27 -3.56643e-27 -2.99042e-27 -4.19228e-28 5.00985e-27 1.39235e-26 2.65144e-26 4.24324e-26 6.08037e-26 8.03682e-26 9.96907e-26 1.1738e-25 1.32257e-25 1.43442e-25 1.50358e-25 1.52696e-25 1.50358e-25 1.43442e-25 1.32257e-25 1.1738e-25 9.96907e-26 8.03682e-26 6.08037e-26 4.24324e-26 2.65144e-26 1.39235e-26 5.00985e-27 -4.19228e-28 -2.99042e-27 -3.56643e-27 -3.02345e-27 -2.07309e-27 -1.1725e-27 -5.27687e-28 -1.61593e-28 -3.39744e-30 3.77022e-29 3.14663e-29 1.61052e-29 5.46642e-30 8.13166e-31 -3.8356e-31 -3.50505e-31 -1.40912e-31 -2.77967e-32 3.46791e-33 4.72234e-33 1.66338e-33 2.0366e-34 -7.79818e-35 -4.59455e-35 -9.0409e-36 7.46639e-37 9.0617e-37 2.06277e-37 -5.78411e-39 -1.4933e-38 -3.30091e-39 1.20615e-40 2.15439e-40 3.89591e-41 -3.50571e-42 -2.72834e-42 -4.12679e-43 -4.11308e-45 0 0 0 0 0 0 0 0 0 0 0 0 0 0 0 0 0 0 0 0 0 0 0 0 0 0 0 0 0 0 0 0 0 0 0 0 0 0 0 0 0 0 0 0 0 0 0 0 0 0 
0 0 0 0 0 0 0 0 0 0 0 0 0 0 0 0 0 0 0 0 0 0 0 0 0 0 0 0 0 0 0 0 0 0 0 0 0 0 0 0 0 0 0 0 0 0 0 0 0 0 0 0 -0 -1.68239e-43 -1.55792e-42 -3.68757e-42 1.52769e-41 1.26546e-40 2.22479e-40 -1.27214e-39 -8.62455e-39 -1.44799e-38 6.99797e-38 4.85204e-37 1.01483e-36 -2.09149e-36 -2.07975e-35 -6.07398e-35 -2.25368e-35 5.28248e-34 2.37238e-33 4.90801e-33 -3.81964e-35 -3.85282e-32 -1.53206e-31 -3.44079e-31 -3.843e-31 4.97978e-31 3.86256e-30 1.16572e-29 2.43531e-29 3.709e-29 3.44826e-29 -1.34542e-29 -1.5041e-28 -4.24478e-28 -8.69957e-28 -1.48451e-27 -2.21008e-27 -2.9272e-27 -3.46881e-27 -3.65325e-27 -3.3285e-27 -2.41507e-27 -9.34984e-28 9.81655e-28 3.11402e-27 5.18712e-27 6.91869e-27 8.06657e-27 8.46826e-27 8.06657e-27 6.91869e-27 5.18712e-27 3.11402e-27 9.81655e-28 -9.34984e-28 -2.41507e-27 -3.3285e-27 -3.65325e-27 -3.46881e-27 -2.9272e-27 -2.21008e-27 -1.48451e-27 -8.69957e-28 -4.24478e-28 -1.5041e-28 -1.34542e-29 3.44826e-29 3.709e-29 2.43531e-29 1.16572e-29 3.86256e-30 4.97978e-31 -3.843e-31 -3.44079e-31 -1.53206e-31 -3.85282e-32 -3.81964e-35 4.90801e-33 2.37238e-33 5.28248e-34 -2.25368e-35 -6.07398e-35 -2.07975e-35 -2.09149e-36 1.01483e-36 4.85204e-37 6.99797e-38 -1.44799e-38 -8.62455e-39 -1.27214e-39 2.22479e-40 1.26546e-40 1.52769e-41 -3.68757e-42 -1.55792e-42 -1.68239e-43 -0 0 0 0 0 0 0 0 0 0 0 0 0 0 0 0 0 0 0 0 0 0 0 0 0 0 0 0 0 0 0 0 0 0 0 0 0 0 0 0 0 0 0 0 0 0 0 0 0 0 0 0 
0 0 0 0 0 0 0 0 0 0 0 0 0 0 0 0 0 0 0 0 0 0 0 0 0 0 0 0 0 0 0 0 0 0 0 0 0 0 0 0 0 0 0 0 0 0 0 0 0 0 0 0 0 -1.84347e-44 -2.90605e-43 -1.26455e-42 2.82753e-43 2.43208e-41 8.98874e-41 -6.36965e-41 -1.73015e-39 -5.89568e-39 2.35219e-39 9.3965e-38 3.48624e-37 1.99801e-37 -3.47552e-36 -1.65697e-35 -2.97393e-35 4.98858e-35 4.95307e-34 1.57313e-33 2.18196e-33 -3.68873e-33 -3.09359e-32 -9.74e-32 -1.85043e-31 -1.43979e-31 4.45492e-31 2.33659e-30 6.35861e-30 1.25455e-29 1.85471e-29 1.77016e-29 -2.2558e-30 -5.85504e-29 -1.69861e-28 -3.5014e-28 -6.01438e-28 -9.08481e-28 -1.23772e-27 -1.54224e-27 -1.77189e-27 -1.88582e-27 -1.86376e-27 -1.71259e-27 -1.46618e-27 -1.17861e-27 -9.12576e-28 -7.25826e-28 -6.58745e-28 -7.25826e-28 -9.12576e-28 -1.17861e-27 -1.46618e-27 -1.71259e-27 -1.86376e-27 -1.88582e-27 -1.77189e-27 -1.54224e-27 -1.23772e-27 -9.08481e-28 -6.01438e-28 -3.5014e-28 -1.69861e-28 -5.85504e-29 -2.2558e-30 1.77016e-29 1.85471e-29 1.25455e-29 6.35861e-30 2.33659e-30 4.45492e-31 -1.43979e-31 -1.85043e-31 -9.74e-32 -3.09359e-32 -3.68873e-33 2.18196e-33 1.57313e-33 4.95307e-34 4.98858e-35 -2.97393e-35 -1.65697e-35 -3.47552e-36 1.99801e-37 3.48624e-37 9.3965e-38 2.35219e-39 -5.89568e-39 -1.73015e-39 -6.36965e-41 8.98874e-41 2.43208e-41 2.82753e-43 -1.26455e-42 -2.90605e-43 -1.84347e-44 0 0 0 0 0 0 0 0 0 0 0 0 0 0 0 0 0 0 0 0 0 0 0 0 0 0 0 0 0 0 0 0 0 0 0 0 0 0 0 0 0 0 0 0 0 0 0 0 0 0 0 0 
0 0 0 0 0 0 0 0 0 0 0 0 0 0 0 0 0 0 0 0 0 0 0 0 0 0 0 0 0 0 0 0 0 0 0 0 0 0 0 0 0 0 0 0 0 0 0 0 0 0 0 0 0 0 -1.36086e-45 -1.19756e-43 -4.88549e-43 1.95964e-43 9.46751e-42 3.37915e-41 -2.37402e-41 -6.35552e-40 -2.19714e-39 3.70815e-40 3.2046e-38 1.26191e-37 1.16115e-37 -1.02208e-36 -5.52651e-36 -1.20124e-35 5.47523e-36 1.35019e-34 5.07155e-34 9.70936e-34 9.13833e-35 -6.43472e-33 -2.59373e-32 -6.20974e-32 -9.37704e-32 -3.65698e-32 2.97552e-31 1.19906e-30 2.95338e-30 5.57778e-30 8.42278e-30 9.76574e-30 6.61281e-30 -5.07607e-30 -2.96509e-29 -7.06522e-29 -1.29643e-28 -2.0541e-28 -2.93861e-28 -3.887e-28 -4.82677e-28 -5.69005e-28 -6.42501e-28 -7.00119e-28 -7.40795e-28 -7.64762e-28 -7.72649e-28 -7.64762e-28 -7.40795e-28 -7.00119e-28 -6.42501e-28 -5.69005e-28 -4.82677e-28 -3.887e-28 -2.93861e-28 -2.0541e-28 -1.29643e-28 -7.06522e-29 -2.96509e-29 -5.07607e-30 6.61281e-30 9.76574e-30 8.42278e-30 5.57778e-30 2.95338e-30 1.19906e-30 2.97552e-31 -3.65698e-32 -9.37704e-32 -6.20974e-32 -2.59373e-32 -6.43472e-33 9.13833e-35 9.70936e-34 5.07155e-34 1.35019e-34 5.47523e-36 -1.20124e-35 -5.52651e-36 -1.02208e-36 1.16115e-37 1.26191e-37 3.2046e-38 3.70815e-40 -2.19714e-39 -6.35552e-40 -2.37402e-41 3.37915e-41 9.46751e-42 1.95964e-43 -4.88549e-43 -1.19756e-43 -1.36086e-45 0 0 0 0 0 0 0 0 0 0 0 0 0 0 0 0 0 0 0 0 0 0 0 0 0 0 0 0 0 0 0 0 0 0 0 0 0 0 0 0 0 0 0 0 0 0 0 0 0 0 0 0 0 
0 0 0 0 0 0 0 0 0 0 0 0 0 0 0 0 0 0 0 0 0 0 0 0 0 0 0 0 0 0 0 0 0 0 0 0 0 0 0 0 0 0 0 0 0 0 0 0 0 0 0 0 0 0 0 0 0 0 0 0 0 0 0 0 0 0 0 0 0 0 0 0 0 0 0 0 0 0 0 0 0 0 0 0 0 0 0 0 0 0 0 0 0 0 0 0 0 0 0 0 0 0 0 0 0 0 0 0 0 0 0 0 0 0 0 0 0 0 0 0 0 0 0 0 0 0 0 0 0 0 0 0 0 0 0 0 0 0 0 0 0 0 0 0 0 0 0 0 0 0 0 0 0 0 0 0 0 0 0 0 0 0 0 0 0 0 0 0 0 0 0 0 0 0 0 0 0 0 0 0 0 0 0 0 0 0 0 0 0 0 0 0 0 0 0 0 0 0 0 0 
0 0 0 0 0 0 0 0 0 0 0 0 0 0 0 0 0 0 0 0 0 0 0 0 0 0 0 0 0 0 0 0 0 0 0 0 0 0 0 0 0 0 0 0 0 0 0 0 0 0 0 0 0 0 0 0 0 0 0 0 0 0 0 0 0 0 0 0 0 0 0 0 0 0 0 0 0 0 0 0 0 0 0 0 0 0 0 0 0 0 0 0 0 0 0 0 0 0 0 0 0 0 0 0 0 0 0 0 0 0 0 0 0 0 0 0 0 0 0 0 0 0 0 0 0 0 0 0 0 0 0 0 0 0 0 0 0 0 0 0 0 0 0 0 0 0 0 0 0 0 0 0 0 0 0 0 0 0 0 0 0 0 0 0 0 0 0 0 0 0 0 0 0 0 0 0 0 0 0 0 0 0 0 0 0 0 0 0 0 0 0 0 0 0 0 0 0 0 0 0 
</DataArray>
</PointData>
</Piece>
</ImageData>
</VTKFile>
