<?xml version="1.0"?>
<VTKFile type="ImageData" version="0.1" byte_order="LittleEndian">
<ImageData WholeExtent="0 199 0 199 0 0" Origin="0 0 0" Spacing="15 15 0">
<Piece Extent="0 199 0 199 0 0">
<PointData Scalars="Amplitude">
<DataArray type="Float32" Name="Amplitude" format="ascii">
0 0 0 0 0 0 0 0 0 0 0 0 0 0 0 0 0 0 0 0 0 0 0 0 0 0 0 0 0 0 0 0 0 0 0 0 0 0 0 0 0 0 0 0 0 0 0 0 0 0 0 0 0 0 0 0 0 0 0 0 0 0 0 0 0 0 0 0 0 0 0 0 0 0 0 0 0 0 0 0 0 0 0 0 0 0 0 0 0 0 0 0 0 0 0 0 0 0 0 0 0 0 0 0 0 0 0 0 0 0 0 0 0 0 0 0 0 0 0 0 0 0 0 0 0 0 0 0 0 0 0 0 0 0 0 0 0 0 0 0 0 0 0 0 0 0 0 0 0 0 0 0 0 0 0 0 0 0 0 0 0 0 0 0 0 0 0 0 0 0 0 0 0 0 0 0 0 0 0 0 0 0 0 0 0 0 0 0 0 0 0 0 0 0 0 0 0 0 0 0 
0 0 0 0 0 0 0 0 0 0 0 0 0 0 0 0 0 0 0 0 0 0 0 0 0 0 0 0 0 0 0 0 0 0 0 0 0 0 0 0 0 0 0 0 0 0 0 0 0 0 0 0 0 0 0 0 0 0 0 0 0 0 0 0 0 0 0 0 0 0 0 0 0 0 0 0 0 0 0 0 0 0 0 0 0 0 0 0 0 0 0 0 0 0 0 0 0 0 0 0 0 0 0 0 0 0 0 0 0 0 0 0 0 0 0 0 0 0 0 0 0 0 0 0 0 0 0 0 0 0 0 0 0 0 0 0 0 0 0 0 0 0 0 0 0 0 0 0 0 0 0 0 0 0 0 0 0 0 0 0 0 0 0 0 0 0 0 0 0 0 0 0 0 0 0 0 0 0 0 0 0 0 0 0 0 0 0 0 0 0 0 0 0 0 0 0 0 0 0 0 
0 0 -9.60836e-43 -2.59824e-41 -1.48756e-40 -3.62085e-40 5.56096e-39 4.87407e-38 2.63438e-38 -1.81809e-36 -1.0713e-35 5.02448e-36 3.56189e-34 1.6475e-33 -1.12605e-33 -4.44648e-32 -1.83329e-31 5.56242e-32 3.6449e-30 1.4928e-29 5.4974e-30 -1.99585e-28 -8.97952e-28 -1.00535e-27 7.22789e-27 4.08322e-26 7.87703e-26 -1.43403e-25 -1.42635e-24 -4.1826e-24 -2.14935e-24 3.28752e-23 1.52884e-22 3.0945e-22 -1.34195e-22 -3.26786e-21 -1.21581e-20 -2.25251e-20 5.88908e-21 2.01358e-19 7.85581e-19 1.74601e-18 1.51872e-18 -6.07691e-18 -3.56279e-17 -1.06341e-16 -2.05216e-16 -1.67699e-16 5.72181e-16 3.28781e-15 9.83228e-15 2.07245e-14 2.89814e-14 7.02019e-15 -1.12592e-13 -4.50509e-13 -1.15383e-12 -2.2649e-12 -3.40073e-12 -3.18219e-12 1.52947e-12 1.62801e-11 4.88714e-11 1.07333e-10 1.9474e-10 2.99888e-10 3.83857e-10 3.64342e-10 1.02066e-10 -6.04158e-10 -2.00578e-09 -4.36907e-09 -7.91197e-09 -1.27149e-08 -1.86152e-08 -2.51002e-08 -3.12231e-08 -3.55601e-08 -3.62332e-08 -3.10018e-08 -1.74302e-08 6.89203e-09 4.40974e-08 9.57907e-08 1.62835e-07 2.45204e-07 3.41925e-07 4.5111e-07 5.70085e-07 6.95578e-07 8.23958e-07 9.51487e-07 1.07455e-06 1.18986e-06 1.29457e-06 1.38635e-06 1.4634e-06 1.52444e-06 1.56857e-06 1.59524e-06 1.60416e-06 1.59524e-06 1.56857e-06 1.52444e-06 1.4634e-06 1.38635e-06 1.29457e-06 1.18986e-06 1.07455e-06 9.51487e-07 8.23958e-07 6.95578e-07 5.70085e-07 4.5111e-07 3.41925e-07 2.45204e-07 1.62835e-07 9.57907e-08 4.40974e-08 6.89203e-09 -1.74302e-08 -3.10018e-08 -3.62332e-08 -3.55601e-08 -3.12231e-08 -2.51002e-08 -1.86152e-08 -1.27149e-08 -7.91197e-09 -4.36907e-09 -2.00578e-09 -6.04158e-10 1.02066e-10 3.64342e-10 3.83857e-10 2.99888e-10 1.9474e-10 1.07333e-10 4.88714e-11 1.62801e-11 1.52947e-12 -3.18219e-12 -3.40073e-12 -2.2649e-12 -1.15383e-12 -4.50509e-13 -1.12592e-13 7.02019e-15 2.89814e-14 2.07245e-14 9.83227e-15 3.28781e-15 5.7218e-16 -1.67699e-16 -2.05216e-16 -1.06341e-16 -3.56278e-17 -6.07691e-18 1.51872e-18 1.74601e-18 7.85581e-19 2.01357e-19 5.8891e-21 -2.25251e-20 -1.21581e-20 -3.26786e-21 -1.34195e-22 3.09451e-22 1.52884e-22 3.28752e-23 -2.14941e-24 -4.18293e-24 -1.42714e-24 -1.43342e-25 7.77531e-26 4.04104e-26 7.15773e-27 -9.96204e-28 -8.898e-28 -1.97777e-28 5.46184e-30 1.48008e-29 3.61341e-30 5.49266e-32 -1.81836e-31 -4.40941e-32 -1.11434e-33 1.6345e-33 3.53297e-34 4.96634e-36 -1.06304e-35 -1.80361e-36 2.62235e-38 4.83698e-38 5.51444e-39 -3.73798e-40 -1.41453e-40 -2.08902e-41 0 0 
0 0 -3.466e-41 -2.85772e-40 -9.24826e-40 8.46506e-39 9.38023e-38 1.29781e-37 -3.30544e-36 -2.30275e-35 -3.79369e-36 7.3743e-34 3.87881e-33 -9.52166e-34 -1.02512e-31 -4.65856e-31 1.60887e-32 9.1988e-30 4.04705e-29 2.11559e-29 -5.41318e-28 -2.56208e-27 -3.08742e-27 2.06094e-26 1.20179e-25 2.35184e-25 -4.25475e-25 -4.25617e-24 -1.23813e-23 -5.44093e-24 1.01994e-22 4.60665e-22 8.88374e-22 -6.31465e-22 -1.04269e-20 -3.68199e-20 -6.24739e-20 4.48815e-20 6.79779e-19 2.44975e-18 4.98256e-18 2.58394e-18 -2.50545e-17 -1.21774e-16 -3.32465e-16 -5.62514e-16 -1.68256e-16 2.81242e-15 1.23445e-14 3.29759e-14 6.13718e-14 6.28964e-14 -7.24917e-14 -5.82699e-13 -1.83419e-12 -4.12804e-12 -7.07737e-12 -8.3076e-12 -1.44438e-12 2.60276e-11 9.33485e-11 2.22417e-10 4.2487e-10 6.76323e-10 8.76476e-10 7.99698e-10 4.95878e-11 -1.95943e-09 -5.96304e-09 -1.27202e-08 -2.2778e-08 -3.61305e-08 -5.18016e-08 -6.74193e-08 -7.88703e-08 -8.01364e-08 -6.34022e-08 -1.94854e-08 6.1407e-08 1.8867e-07 3.70141e-07 6.10977e-07 9.12718e-07 1.27271e-06 1.68394e-06 2.13545e-06 2.61313e-06 3.1009e-06 3.58211e-06 4.04101e-06 4.464e-06 4.84069e-06 5.16446e-06 5.43268e-06 5.64645e-06 5.80989e-06 5.92923e-06 6.01175e-06 6.06456e-06 6.09363e-06 6.10286e-06 6.09363e-06 6.06456e-06 6.01175e-06 5.92923e-06 5.80989e-06 5.64645e-06 5.43268e-06 5.16446e-06 4.84069e-06 4.464e-06 4.04101e-06 3.58211e-06 3.1009e-06 2.61313e-06 2.13545e-06 1.68394e-06 1.27271e-06 9.12718e-07 6.10977e-07 3.70141e-07 1.8867e-07 6.1407e-08 -1.94854e-08 -6.34022e-08 -8.01364e-08 -7.88703e-08 -6.74193e-08 -5.18016e-08 -3.61305e-08 -2.2778e-08 -1.27202e-08 -5.96304e-09 -1.95943e-09 4.95878e-11 7.99698e-10 8.76476e-10 6.76323e-10 4.2487e-10 2.22417e-10 9.33485e-11 2.60276e-11 -1.44438e-12 -8.3076e-12 -7.07737e-12 -4.12804e-12 -1.83419e-12 -5.82699e-13 -7.24917e-14 6.28964e-14 6.13718e-14 3.29759e-14 1.23445e-14 2.81242e-15 -1.68257e-16 -5.62514e-16 -3.32465e-16 -1.21774e-16 -2.50545e-17 2.58395e-18 4.98256e-18 2.44975e-18 6.79779e-19 4.48815e-20 -6.24739e-20 -3.68199e-20 -1.04269e-20 -6.31462e-22 8.88375e-22 4.60665e-22 1.01993e-22 -5.44286e-24 -1.23786e-23 -4.22302e-24 -4.2246e-25 2.32767e-25 1.19021e-25 2.04135e-26 -3.06067e-27 -2.5393e-27 -5.36469e-28 2.10119e-29 4.01295e-29 9.11987e-30 1.53474e-32 -4.62081e-31 -1.0166e-31 -9.3846e-34 3.84826e-33 7.31447e-34 -3.80212e-36 -2.28497e-35 -3.27908e-36 1.28926e-37 9.30605e-38 8.48012e-39 6.30983e-40 -1.63821e-40 0 0 
0 0 -1.87845e-40 -9.24826e-40 -8.79826e-40 6.29985e-38 3.90885e-37 -7.2323e-37 -2.0282e-35 -8.05099e-35 2.90161e-34 4.07884e-33 1.19915e-32 -5.08684e-32 -5.40997e-31 -1.39055e-30 4.88947e-30 4.86504e-29 1.26631e-28 -2.57084e-28 -3.0216e-27 -8.80142e-27 4.86797e-27 1.31402e-25 4.6331e-25 3.10969e-25 -3.93375e-24 -1.8882e-23 -3.35022e-23 5.8982e-23 5.64665e-22 1.68704e-21 1.50637e-21 -9.15361e-21 -5.00479e-20 -1.24533e-19 -9.16852e-20 6.28899e-19 3.29361e-18 8.71937e-18 1.13403e-17 -1.6709e-17 -1.4969e-16 -5.02448e-16 -1.06021e-15 -1.05556e-15 2.43605e-15 1.63541e-14 5.11242e-14 1.09348e-13 1.47821e-13 -4.2765e-15 -7.62642e-13 -2.84782e-12 -7.02789e-12 -1.30651e-11 -1.72729e-11 -8.40157e-12 3.72577e-11 1.58317e-10 4.0177e-10 7.97972e-10 1.30718e-09 1.73291e-09 1.6105e-09 1.00274e-10 -4.06039e-09 -1.2472e-08 -2.67762e-08 -4.80912e-08 -7.61762e-08 -1.08397e-07 -1.38662e-07 -1.56549e-07 -1.46919e-07 -9.02263e-08 3.62953e-08 2.56585e-07 5.93002e-07 1.06321e-06 1.67714e-06 2.43448e-06 3.32329e-06 4.31973e-06 5.38943e-06 6.48999e-06 7.57473e-06 8.59685e-06 9.51379e-06 1.02912e-05 1.0906e-05 1.13481e-05 1.16211e-05 1.17411e-05 1.17352e-05 1.16378e-05 1.14871e-05 1.13214e-05 1.11753e-05 1.10759e-05 1.10408e-05 1.10759e-05 1.11753e-05 1.13214e-05 1.14871e-05 1.16378e-05 1.17352e-05 1.17411e-05 1.16211e-05 1.13481e-05 1.0906e-05 1.02912e-05 9.51379e-06 8.59685e-06 7.57473e-06 6.48999e-06 5.38943e-06 4.31973e-06 3.32329e-06 2.43448e-06 1.67714e-06 1.06321e-06 5.93002e-07 2.56585e-07 3.62953e-08 -9.02263e-08 -1.46919e-07 -1.56549e-07 -1.38662e-07 -1.08397e-07 -7.61762e-08 -4.80912e-08 -2.67762e-08 -1.2472e-08 -4.06039e-09 1.00274e-10 1.6105e-09 1.73291e-09 1.30718e-09 7.97972e-10 4.0177e-10 1.58317e-10 3.72577e-11 -8.40157e-12 -1.72729e-11 -1.30651e-11 -7.02789e-12 -2.84782e-12 -7.62642e-13 -4.2765e-15 1.47821e-13 1.09347e-13 5.11242e-14 1.63541e-14 2.43604e-15 -1.05556e-15 -1.06021e-15 -5.02448e-16 -1.4969e-16 -1.67089e-17 1.13403e-17 8.71937e-18 3.29361e-18 6.28899e-19 -9.16854e-20 -1.24533e-19 -5.00479e-20 -9.1536e-21 1.50637e-21 1.68704e-21 5.64662e-22 5.89792e-23 -3.34718e-23 -1.8733e-23 -3.89727e-24 3.07605e-25 4.58849e-25 1.30163e-25 4.81744e-27 -8.72381e-27 -2.99482e-27 -2.54694e-28 1.25582e-28 4.82379e-29 4.84617e-30 -1.37956e-30 -5.36555e-31 -5.04308e-32 1.18994e-32 4.04618e-33 2.87695e-34 -7.99008e-35 -2.01226e-35 -7.16902e-37 3.87871e-37 6.34859e-38 8.48263e-39 -3.25816e-40 0 0 
0 0 -2.22975e-41 1.21796e-38 7.98604e-38 3.7707e-37 -1.75849e-36 -2.66762e-35 -7.18754e-35 6.27074e-34 5.77483e-33 9.74954e-33 -1.18699e-31 -8.43188e-31 -1.16171e-30 1.34004e-29 8.53953e-29 1.29132e-28 -9.28719e-28 -6.08265e-27 -1.15648e-26 3.81068e-26 3.08467e-25 7.61335e-25 -6.45627e-25 -1.12302e-23 -3.72586e-23 -2.78909e-23 2.74037e-22 1.36827e-21 2.78883e-21 -1.75985e-21 -3.26034e-20 -1.15623e-19 -1.85516e-19 2.19367e-19 2.41382e-18 8.13402e-18 1.465e-17 -1.37623e-18 -1.14411e-16 -4.63948e-16 -1.11301e-15 -1.40701e-15 1.65774e-15 1.59407e-14 5.44363e-14 1.22697e-13 1.7107e-13 -1.57592e-14 -9.86005e-13 -3.70952e-12 -9.17308e-12 -1.66742e-11 -1.97742e-11 5.4655e-13 8.36401e-11 2.91057e-10 6.88674e-10 1.28881e-09 1.93213e-09 2.10358e-09 7.12037e-10 -4.07972e-09 -1.48229e-08 -3.4346e-08 -6.47131e-08 -1.05457e-07 -1.51155e-07 -1.88652e-07 -1.94545e-07 -1.33716e-07 4.02062e-08 3.81743e-07 9.47533e-07 1.78761e-06 2.93487e-06 4.39429e-06 6.1335e-06 8.0769e-06 1.01043e-05 1.20554e-05 1.374e-05 1.49528e-05 1.54919e-05 1.51776e-05 1.38716e-05 1.14914e-05 8.02146e-06 3.51769e-06 -1.89348e-06 -8.02221e-06 -1.46266e-05 -2.14271e-05 -2.81245e-05 -3.44165e-05 -4.00156e-05 -4.4664e-05 -4.81466e-05 -5.03027e-05 -5.10326e-05 -5.03027e-05 -4.81466e-05 -4.4664e-05 -4.00156e-05 -3.44165e-05 -2.81245e-05 -2.14271e-05 -1.46266e-05 -8.02221e-06 -1.89348e-06 3.51769e-06 8.02146e-06 1.14914e-05 1.38716e-05 1.51776e-05 1.54919e-05 1.49528e-05 1.374e-05 1.20554e-05 1.01043e-05 8.0769e-06 6.1335e-06 4.39429e-06 2.93487e-06 1.78761e-06 9.47533e-07 3.81743e-07 4.02062e-08 -1.33716e-07 -1.94545e-07 -1.88652e-07 -1.51155e-07 -1.05457e-07 -6.47131e-08 -3.4346e-08 -1.48229e-08 -4.07972e-09 7.12037e-10 2.10358e-09 1.93213e-09 1.28881e-09 6.88674e-10 2.91057e-10 8.36401e-11 5.4655e-13 -1.97742e-11 -1.66742e-11 -9.17308e-12 -3.70952e-12 -9.86007e-13 -1.57599e-14 1.7107e-13 1.22697e-13 5.44363e-14 1.59406e-14 1.65773e-15 -1.40701e-15 -1.11301e-15 -4.63948e-16 -1.14411e-16 -1.37622e-18 1.465e-17 8.13402e-18 2.41382e-18 2.19366e-19 -1.85516e-19 -1.15623e-19 -3.26034e-20 -1.75986e-21 2.78883e-21 1.36836e-21 2.74362e-22 -2.7378e-23 -3.68547e-23 -1.11174e-23 -6.39031e-25 7.54327e-25 3.05642e-25 3.77512e-26 -1.1467e-26 -6.02991e-27 -9.2048e-28 1.28121e-28 8.46845e-29 1.32857e-29 -1.15318e-30 -8.36377e-31 -1.1771e-31 9.67933e-33 5.72926e-33 6.21934e-34 -7.13509e-35 -2.64693e-35 -1.74279e-36 3.85367e-37 1.05041e-37 1.12937e-38 0 0 
0 0 1.31738e-38 1.06777e-37 3.33742e-37 -2.87954e-36 -3.17235e-35 -4.60805e-35 1.0461e-33 7.29942e-33 2.38745e-33 -2.16469e-31 -1.15684e-30 -8.08744e-33 2.77884e-29 1.30762e-28 3.66079e-29 -2.27987e-27 -1.06359e-26 -9.18626e-27 1.1979e-25 6.23559e-25 9.72895e-25 -3.7937e-24 -2.65488e-23 -6.25795e-23 3.98227e-23 8.14406e-22 2.83127e-21 3.23611e-21 -1.42232e-20 -8.72168e-20 -2.22567e-19 -1.32873e-19 1.36504e-18 6.67684e-18 1.62768e-17 1.40817e-17 -6.77693e-17 -3.87281e-16 -1.10763e-15 -1.80986e-15 2.74276e-16 1.35153e-14 5.38324e-14 1.33222e-13 2.05587e-13 2.67743e-14 -1.08035e-12 -4.38957e-12 -1.12663e-11 -2.07157e-11 -2.31937e-11 1.02766e-11 1.40484e-10 4.6129e-10 1.06271e-09 1.91494e-09 2.6325e-09 2.11188e-09 -1.87783e-09 -1.29296e-08 -3.56694e-08 -7.435e-08 -1.29878e-07 -1.95042e-07 -2.48285e-07 -2.47124e-07 -1.23204e-07 2.18464e-07 8.9339e-07 2.02267e-06 3.70875e-06 6.00338e-06 8.87183e-06 1.21588e-05 1.5563e-05 1.86264e-05 2.07431e-05 2.11902e-05 1.91779e-05 1.39154e-05 4.6848e-06 -9.08663e-06 -2.77626e-05 -5.14521e-05 -7.99861e-05 -0.000112917 -0.000149541 -0.000188945 -0.000230054 -0.000271705 -0.000312701 -0.000351873 -0.000388129 -0.000420488 -0.000448108 -0.000470301 -0.000486529 -0.000496416 -0.000499736 -0.000496416 -0.000486529 -0.000470301 -0.000448108 -0.000420488 -0.000388129 -0.000351873 -0.000312701 -0.000271705 -0.000230054 -0.000188945 -0.000149541 -0.000112917 -7.99861e-05 -5.14521e-05 -2.77626e-05 -9.08663e-06 4.6848e-06 1.39154e-05 1.91779e-05 2.11902e-05 2.07431e-05 1.86264e-05 1.5563e-05 1.21588e-05 8.87183e-06 6.00338e-06 3.70875e-06 2.02267e-06 8.9339e-07 2.18464e-07 -1.23204e-07 -2.47124e-07 -2.48285e-07 -1.95042e-07 -1.29878e-07 -7.435e-08 -3.56694e-08 -1.29296e-08 -1.87783e-09 2.11188e-09 2.6325e-09 1.91494e-09 1.06271e-09 4.6129e-10 1.40484e-10 1.02766e-11 -2.31937e-11 -2.07157e-11 -1.12663e-11 -4.38957e-12 -1.08035e-12 2.67743e-14 2.05587e-13 1.33222e-13 5.38323e-14 1.35153e-14 2.74274e-16 -1.80986e-15 -1.10763e-15 -3.87281e-16 -6.77693e-17 1.40817e-17 1.62768e-17 6.67684e-18 1.36504e-18 -1.32874e-19 -2.22567e-19 -8.72168e-20 -1.42231e-20 3.23662e-21 2.83111e-21 8.09309e-22 3.96882e-23 -6.19475e-23 -2.62935e-23 -3.75734e-24 9.64363e-25 6.17993e-25 1.18708e-25 -9.11635e-27 -1.05456e-26 -2.26013e-27 3.64656e-29 1.29694e-28 2.75555e-29 -9.75032e-33 -1.14766e-30 -2.14699e-31 2.38034e-33 7.24263e-33 1.03769e-33 -4.57718e-35 -3.14703e-35 -2.88271e-36 -2.05212e-37 6.28213e-38 0 0 
0 0 4.87001e-38 -4.15841e-37 -3.93733e-36 -3.39049e-35 -2.09417e-36 1.48166e-33 8.11295e-33 -1.1504e-32 -3.34559e-31 -1.36177e-30 2.62123e-30 4.81761e-29 1.69534e-28 -2.51971e-28 -4.54974e-27 -1.57811e-26 8.18627e-27 2.84317e-25 1.07847e-24 5.63628e-25 -1.16126e-23 -5.36709e-23 -7.98579e-23 2.77565e-22 1.95454e-21 4.90039e-21 -9.06475e-23 -4.81453e-20 -1.92393e-19 -3.3226e-19 3.76504e-19 4.42171e-18 1.48626e-17 2.44336e-17 -1.91491e-17 -2.71627e-16 -9.80324e-16 -2.03691e-15 -1.28439e-15 9.25039e-15 4.73859e-14 1.3322e-13 2.35906e-13 1.14535e-13 -9.85825e-13 -4.62009e-12 -1.26626e-11 -2.42499e-11 -2.73062e-11 1.73496e-11 1.95012e-10 6.38867e-10 1.46747e-09 2.58279e-09 3.2514e-09 1.45908e-09 -6.78528e-09 -2.77021e-08 -6.86655e-08 -1.34627e-07 -2.20947e-07 -3.0227e-07 -3.18645e-07 -1.62242e-07 3.29531e-07 1.36718e-06 3.18112e-06 5.96768e-06 9.80902e-06 1.45739e-05 1.98133e-05 2.4671e-05 2.783e-05 2.75164e-05 2.15711e-05 7.59399e-06 -1.68527e-05 -5.40005e-05 -0.000105624 -0.000172813 -0.000255804 -0.000353892 -0.000465435 -0.000587941 -0.000718268 -0.000852842 -0.000987932 -0.00111992 -0.00124552 -0.00136201 -0.00146729 -0.00155996 -0.00163929 -0.00170512 -0.00175772 -0.00179764 -0.00182554 -0.00184201 -0.00184745 -0.00184201 -0.00182554 -0.00179764 -0.00175772 -0.00170512 -0.00163929 -0.00155996 -0.00146729 -0.00136201 -0.00124552 -0.00111992 -0.000987932 -0.000852842 -0.000718268 -0.000587941 -0.000465435 -0.000353892 -0.000255804 -0.000172813 -0.000105624 -5.40005e-05 -1.68527e-05 7.59399e-06 2.15711e-05 2.75164e-05 2.783e-05 2.4671e-05 1.98133e-05 1.45739e-05 9.80902e-06 5.96768e-06 3.18112e-06 1.36718e-06 3.29531e-07 -1.62242e-07 -3.18645e-07 -3.0227e-07 -2.20947e-07 -1.34627e-07 -6.86655e-08 -2.77021e-08 -6.78528e-09 1.45908e-09 3.2514e-09 2.58279e-09 1.46747e-09 6.38867e-10 1.95012e-10 1.73496e-11 -2.73062e-11 -2.42499e-11 -1.26626e-11 -4.62008e-12 -9.85823e-13 1.14535e-13 2.35906e-13 1.3322e-13 4.73859e-14 9.25037e-15 -1.28439e-15 -2.03691e-15 -9.80325e-16 -2.71627e-16 -1.91491e-17 2.44335e-17 1.48625e-17 4.4217e-18 3.76502e-19 -3.3226e-19 -1.92393e-19 -4.81475e-20 -1.0662e-22 4.85488e-21 1.93496e-21 2.74812e-22 -7.91178e-23 -5.31735e-23 -1.15049e-23 5.59483e-25 1.06909e-24 2.81807e-25 8.09594e-27 -1.56501e-26 -4.51109e-27 -2.49596e-28 1.68179e-28 4.77787e-29 2.59742e-30 -1.35118e-30 -3.31863e-31 -1.13972e-32 8.05084e-33 1.46994e-33 -2.18888e-36 -3.4465e-35 -7.54827e-36 -5.22583e-37 0 0 
0 0 -6.53243e-37 -8.01742e-36 -3.35634e-35 5.23465e-35 1.84412e-33 7.86412e-33 -3.08786e-32 -4.51595e-31 -1.33402e-30 6.93816e-30 7.21632e-29 1.77876e-28 -8.33326e-28 -7.73885e-27 -1.91282e-26 5.4694e-26 5.61479e-25 1.5657e-24 -1.51916e-24 -2.74919e-23 -9.30696e-23 -4.57328e-23 8.79317e-22 4.00292e-21 6.67983e-21 -1.41815e-20 -1.22916e-19 -3.57186e-19 -2.90883e-19 2.06917e-18 1.09879e-17 2.70716e-17 1.88566e-17 -1.44152e-16 -7.48305e-16 -1.98354e-15 -2.5444e-15 4.21101e-15 3.61668e-14 1.20775e-13 2.51124e-13 2.25581e-13 -7.08607e-13 -4.29743e-12 -1.30049e-11 -2.67458e-11 -3.25328e-11 1.67868e-11 2.30453e-10 7.86061e-10 1.84122e-09 3.22495e-09 3.76944e-09 2.56565e-10 -1.36954e-08 -4.78363e-08 -1.12784e-07 -2.12377e-07 -3.28639e-07 -3.98866e-07 -2.88175e-07 2.33557e-07 1.49537e-06 3.89046e-06 7.78424e-06 1.33546e-05 2.03679e-05 2.79149e-05 3.41527e-05 3.61123e-05 2.96399e-05 9.52541e-06 -3.01516e-05 -9.54669e-05 -0.000191934 -0.000323717 -0.000492864 -0.000698719 -0.000937556 -0.00120256 -0.00148415 -0.0017706 -0.00204896 -0.00230615 -0.00252998 -0.00271031 -0.00283985 -0.0029147 -0.00293478 -0.0029037 -0.00282849 -0.002719 -0.00258711 -0.00244579 -0.00230817 -0.00218648 -0.00209133 -0.00203085 -0.00201009 -0.00203085 -0.00209133 -0.00218648 -0.00230817 -0.00244579 -0.00258711 -0.002719 -0.00282849 -0.0029037 -0.00293478 -0.0029147 -0.00283985 -0.00271031 -0.00252998 -0.00230615 -0.00204896 -0.0017706 -0.00148415 -0.00120256 -0.000937556 -0.000698719 -0.000492864 -0.000323717 -0.000191934 -9.54669e-05 -3.01516e-05 9.52541e-06 2.96399e-05 3.61123e-05 3.41527e-05 2.79149e-05 2.03679e-05 1.33546e-05 7.78424e-06 3.89046e-06 1.49537e-06 2.33557e-07 -2.88175e-07 -3.98866e-07 -3.28639e-07 -2.12377e-07 -1.12784e-07 -4.78363e-08 -1.36954e-08 2.56565e-10 3.76944e-09 3.22495e-09 1.84122e-09 7.86061e-10 2.30453e-10 1.67868e-11 -3.25327e-11 -2.67458e-11 -1.30049e-11 -4.29742e-12 -7.08605e-13 2.25581e-13 2.51124e-13 1.20775e-13 3.61668e-14 4.21101e-15 -2.5444e-15 -1.98354e-15 -7.48305e-16 -1.44152e-16 1.88566e-17 2.70716e-17 1.09879e-17 2.06917e-18 -2.90889e-19 -3.57218e-19 -1.22977e-19 -1.41561e-20 6.60284e-21 3.96316e-21 8.70788e-22 -4.53754e-23 -9.22324e-23 -2.72429e-23 -1.50385e-24 1.55245e-24 5.56616e-25 5.41941e-26 -1.89745e-26 -7.6742e-27 -8.26033e-28 1.76502e-28 7.15766e-29 6.87894e-30 -1.32394e-30 -4.48003e-31 -3.06171e-32 7.80503e-33 1.82891e-33 5.04772e-35 -1.44574e-35 -5.75397e-36 0 0 
0 0 -5.14149e-36 -4.23297e-36 1.05362e-34 2.05303e-33 6.49094e-33 -5.25297e-32 -5.40388e-31 -9.90385e-31 1.26185e-29 9.46918e-29 1.28951e-28 -1.75206e-27 -1.14152e-26 -1.66448e-26 1.45428e-25 9.52158e-25 1.78417e-24 -6.90634e-24 -5.46513e-23 -1.35104e-22 1.30993e-22 2.12885e-21 7.07387e-21 5.35412e-21 -5.2012e-20 -2.62157e-19 -5.45372e-19 2.8894e-19 6.20608e-18 2.2663e-17 3.83647e-17 -3.57577e-17 -4.67368e-16 -1.64821e-15 -3.14591e-15 -3.12922e-16 2.26417e-14 9.71548e-14 2.42078e-13 3.23097e-13 -3.20029e-13 -3.46528e-12 -1.2106e-11 -2.75507e-11 -3.82464e-11 6.06426e-12 2.32881e-10 8.64733e-10 2.11615e-09 3.77912e-09 4.26167e-09 -9.9862e-10 -2.1244e-08 -7.05616e-08 -1.63223e-07 -2.9956e-07 -4.38028e-07 -4.52775e-07 -8.45463e-08 1.09449e-06 3.66696e-06 8.26275e-06 1.53151e-05 2.46579e-05 3.49824e-05 4.32278e-05 4.40355e-05 2.94401e-05 -1.10224e-05 -8.96485e-05 -0.000219283 -0.000411478 -0.000674273 -0.00100991 -0.00141279 -0.00186814 -0.00235149 -0.00282937 -0.00326104 -0.00360129 -0.00380389 -0.00382537 -0.0036289 -0.00318758 -0.00248697 -0.00152696 -0.000322085 0.00109877 0.00269393 0.00441103 0.00618992 0.00796564 0.00967183 0.0112438 0.0126215 0.0137521 0.0145921 0.0151093 0.015284 0.0151093 0.0145921 0.0137521 0.0126215 0.0112438 0.00967183 0.00796564 0.00618992 0.00441103 0.00269393 0.00109877 -0.000322085 -0.00152696 -0.00248697 -0.00318758 -0.0036289 -0.00382537 -0.00380389 -0.00360129 -0.00326104 -0.00282937 -0.00235149 -0.00186814 -0.00141279 -0.00100991 -0.000674273 -0.000411478 -0.000219283 -8.96485e-05 -1.10224e-05 2.94401e-05 4.40355e-05 4.32278e-05 3.49824e-05 2.46579e-05 1.53151e-05 8.26275e-06 3.66696e-06 1.09449e-06 -8.45463e-08 -4.52775e-07 -4.38028e-07 -2.9956e-07 -1.63223e-07 -7.05616e-08 -2.1244e-08 -9.9862e-10 4.26167e-09 3.77912e-09 2.11615e-09 8.64734e-10 2.32881e-10 6.06437e-12 -3.82464e-11 -2.75507e-11 -1.2106e-11 -3.46527e-12 -3.20028e-13 3.23098e-13 2.42078e-13 9.71551e-14 2.26417e-14 -3.1292e-16 -3.1459e-15 -1.64821e-15 -4.67368e-16 -3.57577e-17 3.83647e-17 2.2663e-17 6.20604e-18 2.88896e-19 -5.44977e-19 -2.60225e-19 -5.15393e-20 5.30187e-21 7.00724e-21 2.1089e-21 1.29654e-22 -1.33927e-22 -5.41667e-23 -6.84275e-24 1.76967e-24 9.44061e-25 1.4415e-25 -1.65195e-26 -1.13213e-26 -1.73716e-27 1.28036e-28 9.39334e-29 1.25137e-29 -9.83348e-31 -5.36147e-31 -5.21001e-32 6.44364e-33 2.07856e-33 3.76814e-34 1.00289e-35 0 0 
0 0 1.80324e-35 4.15177e-34 2.11285e-33 4.27341e-33 -7.19714e-32 -5.77786e-31 -3.38528e-31 1.87421e-29 1.09303e-28 5.00888e-30 -2.94559e-27 -1.46474e-26 -3.57926e-27 2.8873e-25 1.3984e-24 1.20309e-24 -1.74823e-23 -9.36361e-23 -1.51105e-22 5.99843e-22 4.32697e-21 1.05785e-20 -5.33119e-21 -1.33588e-19 -4.81335e-19 -6.11512e-19 2.16998e-18 1.45317e-17 3.9403e-17 3.2146e-17 -2.09328e-16 -1.13788e-15 -2.99714e-15 -3.30135e-15 9.90475e-15 6.71412e-14 2.07013e-13 3.72511e-13 6.87121e-14 -2.31939e-12 -1.00659e-11 -2.61317e-11 -4.26818e-11 -1.2885e-11 1.97939e-10 8.49578e-10 2.23237e-09 4.18063e-09 4.82725e-09 -1.60229e-09 -2.73244e-08 -9.13454e-08 -2.12245e-07 -3.85309e-07 -5.36002e-07 -4.48452e-07 3.15787e-07 2.46642e-06 6.92727e-06 1.45775e-05 2.57002e-05 3.90966e-05 5.09235e-05 5.34497e-05 3.40739e-05 -2.49552e-05 -0.000145662 -0.000351976 -0.000665773 -0.00110158 -0.0016605 -0.00232432 -0.00305075 -0.00377083 -0.00438924 -0.00478793 -0.00483291 -0.00438353 -0.00330349 -0.0014723 0.00120422 0.00478515 0.00928824 0.0146871 0.0209117 0.0278511 0.0353596 0.0432638 0.0513713 0.0594796 0.0673833 0.0748836 0.0817937 0.0879432 0.093184 0.0973917 0.100468 0.102342 0.102972 0.102342 0.100468 0.0973917 0.093184 0.0879432 0.0817937 0.0748836 0.0673833 0.0594796 0.0513713 0.0432638 0.0353596 0.0278511 0.0209117 0.0146871 0.00928824 0.00478515 0.00120422 -0.0014723 -0.00330349 -0.00438353 -0.00483291 -0.00478793 -0.00438924 -0.00377083 -0.00305075 -0.00232432 -0.0016605 -0.00110158 -0.000665773 -0.000351976 -0.000145662 -2.49552e-05 3.40739e-05 5.34497e-05 5.09235e-05 3.90966e-05 2.57002e-05 1.45775e-05 6.92727e-06 2.46642e-06 3.15787e-07 -4.48452e-07 -5.36002e-07 -3.85309e-07 -2.12245e-07 -9.13454e-08 -2.73244e-08 -1.60229e-09 4.82725e-09 4.18063e-09 2.23237e-09 8.49578e-10 1.97939e-10 -1.2885e-11 -4.26816e-11 -2.61317e-11 -1.00659e-11 -2.31939e-12 6.87134e-14 3.72512e-13 2.07013e-13 6.71412e-14 9.90476e-15 -3.30134e-15 -2.99714e-15 -1.13788e-15 -2.09328e-16 3.2146e-17 3.9403e-17 1.45327e-17 2.17396e-18 -6.04217e-19 -4.76414e-19 -1.32268e-19 -5.27036e-21 1.04828e-20 4.28744e-21 5.94192e-22 -1.4985e-22 -9.2822e-23 -1.73264e-23 1.19453e-24 1.38672e-24 2.8625e-25 -3.5719e-27 -1.45289e-26 -2.92102e-27 5.15951e-30 1.08441e-28 1.85892e-29 -3.36897e-31 -5.7331e-31 -7.13508e-32 4.4658e-33 2.07769e-33 3.46682e-34 0 0 
0 0 3.2522e-34 1.6298e-33 1.90441e-33 -8.49629e-32 -5.53941e-31 5.0834e-31 2.40213e-29 1.1057e-28 -1.90281e-28 -4.22254e-27 -1.62012e-26 2.35037e-26 4.76828e-25 1.76682e-24 -8.51355e-25 -3.454e-23 -1.38809e-22 -8.70114e-23 1.55007e-21 7.59799e-21 1.24694e-20 -3.63858e-20 -2.83151e-19 -7.60173e-19 -2.08867e-19 6.58962e-18 2.87366e-17 5.6185e-17 -2.89845e-17 -6.13953e-16 -2.29388e-15 -4.39005e-15 5.01678e-16 3.74325e-14 1.53541e-13 3.58384e-13 3.53664e-13 -1.14219e-12 -7.29689e-12 -2.24328e-11 -4.37394e-11 -3.40647e-11 1.33828e-10 7.38615e-10 2.15322e-09 4.35344e-09 5.47438e-09 -1.00568e-09 -2.98558e-08 -1.05163e-07 -2.50996e-07 -4.58763e-07 -6.17335e-07 -4.02204e-07 8.50884e-07 4.21162e-06 1.10212e-05 2.23713e-05 3.80154e-05 5.46347e-05 6.36026e-05 4.87105e-05 -1.5348e-05 -0.000162687 -0.000433083 -0.000865233 -0.0014863 -0.00229851 -0.00326448 -0.0042937 -0.00523283 -0.0058624 -0.0059016 -0.00502167 -0.00286718 0.00091686 0.00665522 0.0146131 0.0249711 0.0378067 0.0530845 0.0706557 0.0902656 0.111569 0.134152 0.157554 0.18129 0.20488 0.227859 0.249801 0.270321 0.289091 0.305835 0.320326 0.332391 0.341897 0.34875 0.352886 0.354269 0.352886 0.34875 0.341897 0.332391 0.320326 0.305835 0.289091 0.270321 0.249801 0.227859 0.20488 0.18129 0.157554 0.134152 0.111569 0.0902656 0.0706557 0.0530845 0.0378067 0.0249711 0.0146131 0.00665522 0.00091686 -0.00286718 -0.00502167 -0.0059016 -0.0058624 -0.00523283 -0.0042937 -0.00326448 -0.00229851 -0.0014863 -0.000865233 -0.000433083 -0.000162687 -1.5348e-05 4.87105e-05 6.36026e-05 5.46347e-05 3.80154e-05 2.23713e-05 1.10212e-05 4.21162e-06 8.50884e-07 -4.02204e-07 -6.17335e-07 -4.58763e-07 -2.50996e-07 -1.05163e-07 -2.98558e-08 -1.00568e-09 5.47439e-09 4.35344e-09 2.15322e-09 7.38615e-10 1.33828e-10 -3.40646e-11 -4.37393e-11 -2.24327e-11 -7.29689e-12 -1.14219e-12 3.53664e-13 3.58384e-13 1.53541e-13 3.74325e-14 5.01664e-16 -4.39005e-15 -2.29389e-15 -6.13955e-16 -2.89827e-17 5.61909e-17 2.87396e-17 6.55357e-18 -2.04784e-19 -7.52768e-19 -2.80453e-19 -3.60294e-20 1.23616e-20 7.53009e-21 1.53593e-21 -8.64121e-23 -1.37626e-22 -3.42383e-23 -8.41322e-25 1.75237e-24 4.72803e-25 2.32781e-26 -1.60729e-26 -4.18786e-27 -1.88512e-28 1.09715e-28 2.38283e-29 5.03231e-31 -5.49565e-31 -8.5573e-32 -1.15397e-32 6.82268e-34 0 0 
0 0 2.29812e-34 -1.40002e-32 -9.06301e-32 -4.76019e-31 1.36541e-30 2.72489e-29 9.65728e-29 -4.26912e-28 -5.30228e-27 -1.5001e-26 6.43111e-26 6.80273e-25 1.868e-24 -4.94422e-24 -5.75663e-23 -1.75566e-22 1.32421e-22 3.14252e-21 1.15747e-20 8.50756e-21 -1.03182e-19 -5.17959e-19 -9.93862e-19 1.31143e-18 1.51886e-17 4.90913e-17 5.78122e-17 -2.12114e-16 -1.39169e-15 -3.92328e-15 -4.48871e-15 1.39488e-14 9.5367e-14 2.90592e-13 4.80458e-13 -1.94954e-13 -4.40635e-12 -1.70763e-11 -4.0217e-11 -5.01807e-11 5.86182e-11 5.56459e-10 1.881e-09 4.2245e-09 6.05381e-09 8.42437e-10 -2.7689e-08 -1.08152e-07 -2.7161e-07 -5.10555e-07 -6.84074e-07 -3.59339e-07 1.37546e-06 6.00515e-06 1.53511e-05 3.06671e-05 5.073e-05 6.87765e-05 6.85829e-05 2.06506e-05 -0.000119799 -0.000410773 -0.000915126 -0.00168429 -0.00273406 -0.00401449 -0.00537817 -0.00655274 -0.00712416 -0.00653664 -0.00411272 0.000905962 0.00930077 0.0218068 0.0390409 0.0614364 0.0891923 0.122244 0.160257 0.202645 0.248608 0.297191 0.347344 0.397986 0.448075 0.496653 0.542886 0.586098 0.625777 0.661572 0.693283 0.720841 0.744275 0.763704 0.779276 0.791157 0.799513 0.80447 0.806116 0.80447 0.799513 0.791157 0.779276 0.763704 0.744275 0.720841 0.693283 0.661572 0.625777 0.586098 0.542886 0.496653 0.448075 0.397986 0.347344 0.297191 0.248608 0.202645 0.160257 0.122244 0.0891923 0.0614364 0.0390409 0.0218068 0.00930077 0.000905962 -0.00411272 -0.00653664 -0.00712416 -0.00655274 -0.00537817 -0.00401449 -0.00273406 -0.00168429 -0.000915126 -0.000410773 -0.000119799 2.06506e-05 6.85829e-05 6.87765e-05 5.073e-05 3.06671e-05 1.53511e-05 6.00515e-06 1.37546e-06 -3.59339e-07 -6.84074e-07 -5.10555e-07 -2.7161e-07 -1.08152e-07 -2.76889e-08 8.42446e-10 6.0538e-09 4.2245e-09 1.881e-09 5.56459e-10 5.86183e-11 -5.01806e-11 -4.0217e-11 -1.70763e-11 -4.40635e-12 -1.94956e-13 4.80457e-13 2.90591e-13 9.53668e-14 1.39488e-14 -4.48873e-15 -3.92328e-15 -1.39169e-15 -2.12125e-16 5.7693e-17 4.87002e-17 1.50435e-17 1.29802e-18 -9.84819e-19 -5.13175e-19 -1.02211e-19 8.44337e-21 1.14735e-20 3.11446e-21 1.30998e-22 -1.74106e-22 -5.70722e-23 -4.89855e-24 1.85315e-24 6.74617e-25 6.3744e-26 -1.48859e-26 -5.25935e-27 -4.23232e-28 9.58444e-29 2.70329e-29 1.35207e-30 -4.87225e-31 -1.35591e-31 -1.41338e-32 0 0 
0 0 -1.38558e-32 -1.18229e-31 -3.77763e-31 2.04235e-30 2.77474e-29 7.00117e-29 -6.55777e-28 -5.91067e-27 -1.06651e-26 1.1343e-25 8.51923e-25 1.52092e-24 -1.11739e-23 -8.32422e-23 -1.81004e-22 5.81583e-22 5.39152e-21 1.5068e-20 -7.85553e-21 -2.216e-19 -8.26735e-19 -9.30375e-19 4.9551e-18 2.95983e-17 7.20138e-17 1.26554e-17 -6.16565e-16 -2.66333e-15 -5.61209e-15 -3.92016e-16 4.59192e-14 1.96849e-13 4.59011e-13 3.77282e-13 -1.97329e-12 -1.12042e-11 -3.26038e-11 -5.6191e-11 -7.24622e-12 3.47115e-10 1.46502e-09 3.76484e-09 6.30831e-09 3.39856e-09 -2.11927e-08 -9.9033e-08 -2.69123e-07 -5.32899e-07 -7.38274e-07 -3.70694e-07 1.71046e-06 7.41997e-06 1.91134e-05 3.82164e-05 6.22201e-05 7.97507e-05 6.42146e-05 -3.21952e-05 -0.000280838 -0.000770867 -0.00159076 -0.00279402 -0.00434924 -0.00607919 -0.00759872 -0.00826468 -0.00715255 -0.00307197 0.00537212 0.0196736 0.0412847 0.0714579 0.111091 0.160598 0.219825 0.28802 0.363865 0.445565 0.530967 0.617734 0.703492 0.786002 0.863296 0.933766 0.996248 1.05003 1.09487 1.13093 1.15873 1.17907 1.19297 1.20156 1.20601 1.2075 1.20708 1.2057 1.20415 1.20298 1.20255 1.20298 1.20415 1.2057 1.20708 1.2075 1.20601 1.20156 1.19297 1.17907 1.15873 1.13093 1.09487 1.05003 0.996248 0.933766 0.863296 0.786002 0.703492 0.617734 0.530967 0.445565 0.363865 0.28802 0.219825 0.160598 0.111091 0.0714579 0.0412847 0.0196736 0.00537212 -0.00307197 -0.00715255 -0.00826468 -0.00759872 -0.00607919 -0.00434924 -0.00279402 -0.00159076 -0.000770867 -0.000280838 -3.21952e-05 6.42146e-05 7.97507e-05 6.22201e-05 3.82164e-05 1.91134e-05 7.41997e-06 1.71046e-06 -3.70694e-07 -7.38274e-07 -5.32899e-07 -2.69123e-07 -9.9033e-08 -2.11927e-08 3.39855e-09 6.30831e-09 3.76484e-09 1.46501e-09 3.47115e-10 -7.24637e-12 -5.6191e-11 -3.26038e-11 -1.12042e-11 -1.97329e-12 3.77279e-13 4.59009e-13 1.96849e-13 4.59192e-14 -3.92019e-16 -5.61213e-15 -2.66355e-15 -6.17165e-16 1.20716e-17 7.1273e-17 2.93096e-17 4.90607e-18 -9.22558e-19 -8.19286e-19 -2.19566e-19 -7.76359e-21 1.49397e-20 5.34426e-21 5.76171e-22 -1.79551e-22 -8.2539e-23 -1.10754e-23 1.50949e-24 8.44948e-25 1.12462e-25 -1.05884e-26 -5.86348e-27 -6.50302e-28 6.95034e-29 2.75185e-29 2.03095e-30 4.69884e-32 -7.76142e-32 0 0 
0 0 -5.50996e-32 1.89041e-31 2.43503e-30 2.55826e-29 3.7257e-29 -8.25858e-28 -5.88829e-27 -3.81132e-27 1.61176e-25 9.41885e-25 6.4266e-25 -1.88863e-23 -1.05482e-22 -1.30167e-22 1.29504e-21 8.03776e-21 1.59526e-20 -4.42272e-20 -3.99624e-19 -1.14155e-18 -1.29992e-19 1.19622e-17 5.04175e-17 8.66563e-17 -1.32409e-16 -1.36114e-15 -4.42085e-15 -6.19258e-15 1.28957e-14 1.07531e-13 3.45794e-13 5.78201e-13 -3.40049e-13 -6.01564e-12 -2.28828e-11 -5.14802e-11 -4.93594e-11 1.57986e-10 9.91699e-10 3.02892e-09 6.01958e-09 5.761e-09 -1.2187e-08 -7.97489e-08 -2.43013e-07 -5.20048e-07 -7.74116e-07 -4.61309e-07 1.71983e-06 8.07055e-06 2.15211e-05 4.38071e-05 7.12109e-05 8.7281e-05 5.32207e-05 -0.000101119 -0.000479885 -0.00120936 -0.00240289 -0.00409658 -0.00615605 -0.00816412 -0.00930927 -0.00830267 -0.00335371 0.00777099 0.0275942 0.0586856 0.103357 0.163337 0.239471 0.331498 0.437947 0.55615 0.68241 0.812264 0.940834 1.06319 1.17474 1.27152 1.35047 1.40957 1.44788 1.46552 1.46357 1.44394 1.40911 1.36202 1.30584 1.24382 1.17911 1.11469 1.05327 0.997249 0.948651 0.909148 0.880031 0.862197 0.856199 0.862197 0.880031 0.909148 0.948651 0.997249 1.05327 1.11469 1.17911 1.24382 1.30584 1.36202 1.40911 1.44394 1.46357 1.46552 1.44788 1.40957 1.35047 1.27152 1.17474 1.06319 0.940834 0.812264 0.68241 0.55615 0.437947 0.331498 0.239471 0.163337 0.103357 0.0586856 0.0275942 0.00777099 -0.00335371 -0.00830267 -0.00930927 -0.00816412 -0.00615605 -0.00409658 -0.00240289 -0.00120936 -0.000479885 -0.000101119 5.32207e-05 8.7281e-05 7.12109e-05 4.38071e-05 2.15211e-05 8.07055e-06 1.71983e-06 -4.61308e-07 -7.74115e-07 -5.20048e-07 -2.43013e-07 -7.9749e-08 -1.2187e-08 5.76101e-09 6.01958e-09 3.02892e-09 9.91698e-10 1.57986e-10 -4.93594e-11 -5.14802e-11 -2.28827e-11 -6.01563e-12 -3.40052e-13 5.78201e-13 3.45794e-13 1.07531e-13 1.28954e-14 -6.19322e-15 -4.41997e-15 -1.35253e-15 -1.31369e-16 8.5839e-17 4.99443e-17 1.18483e-17 -1.30284e-19 -1.13153e-18 -3.96029e-19 -4.38033e-20 1.58219e-20 7.96848e-21 1.28344e-21 -1.29213e-22 -1.04606e-22 -1.87238e-23 6.39001e-25 9.343e-25 1.59828e-25 -3.79206e-27 -5.842e-27 -8.19118e-28 3.70374e-29 2.60085e-29 5.67852e-30 3.32111e-31 0 0 
0 0 3.69539e-31 5.18503e-30 2.20585e-29 5.87364e-30 -9.02883e-28 -5.2539e-27 4.08117e-27 1.96724e-25 9.17738e-25 -6.83401e-25 -2.66763e-23 -1.17038e-22 -7.12599e-24 2.22629e-21 1.04926e-20 1.15346e-20 -1.06265e-19 -6.25826e-19 -1.31598e-18 2.0036e-18 2.33832e-17 7.54282e-17 7.09564e-17 -4.52303e-16 -2.54659e-15 -6.35951e-15 -3.36882e-15 4.25003e-14 2.08696e-13 5.20925e-13 4.65541e-13 -2.29366e-12 -1.35099e-11 -3.94765e-11 -6.41383e-11 2.25356e-11 5.55967e-10 2.15505e-09 5.1516e-09 7.11191e-09 -3.20463e-09 -5.49372e-08 -1.97918e-07 -4.70429e-07 -7.76916e-07 -6.11356e-07 1.37544e-06 7.75513e-06 2.2029e-05 4.65116e-05 7.68896e-05 9.23447e-05 4.19262e-05 -0.000168579 -0.00068015 -0.00166069 -0.00324639 -0.00543297 -0.00791669 -0.00990281 -0.00991907 -0.00568743 0.00588765 0.0285684 0.0664514 0.123471 0.202802 0.306243 0.433708 0.582883 0.749167 0.925875 1.10472 1.27648 1.43181 1.56197 1.65959 1.71917 1.7374 1.71329 1.64807 1.54489 1.40848 1.24466 1.05992 0.860982 0.65441 0.446358 0.242362 0.047219 -0.135112 -0.301398 -0.449149 -0.576464 -0.682017 -0.764868 -0.824391 -0.860227 -0.872192 -0.860227 -0.824391 -0.764868 -0.682017 -0.576464 -0.449149 -0.301398 -0.135112 0.047219 0.242362 0.446358 0.65441 0.860982 1.05992 1.24466 1.40848 1.54489 1.64807 1.71329 1.7374 1.71917 1.65959 1.56197 1.43181 1.27648 1.10472 0.925875 0.749167 0.582883 0.433708 0.306243 0.202802 0.123471 0.0664514 0.0285684 0.00588765 -0.00568743 -0.00991907 -0.00990281 -0.00791669 -0.00543297 -0.00324639 -0.00166069 -0.00068015 -0.000168579 4.19262e-05 9.23447e-05 7.68896e-05 4.65116e-05 2.2029e-05 7.75514e-06 1.37544e-06 -6.11355e-07 -7.76914e-07 -4.70429e-07 -1.97918e-07 -5.49371e-08 -3.2046e-09 7.11191e-09 5.1516e-09 2.15505e-09 5.55967e-10 2.25357e-11 -6.41381e-11 -3.94764e-11 -1.35099e-11 -2.29366e-12 4.65542e-13 5.20926e-13 2.08696e-13 4.25039e-14 -3.34873e-15 -6.30668e-15 -2.52208e-15 -4.47784e-16 7.03724e-17 7.47419e-17 2.31661e-17 1.98307e-18 -1.30482e-18 -6.20298e-19 -1.0529e-19 1.14488e-20 1.04038e-20 2.20682e-21 -7.27629e-24 -1.16084e-22 -2.64508e-23 -6.75789e-25 9.10489e-25 1.95107e-25 4.0364e-27 -5.21325e-27 -8.95089e-28 7.73103e-30 1.67673e-29 4.1149e-30 0 0 
0 0 3.22542e-30 9.71733e-30 -1.71011e-29 -8.79623e-28 -4.18981e-27 1.12128e-26 2.12133e-25 7.79496e-25 -2.20708e-24 -3.27726e-23 -1.12299e-22 1.83838e-22 3.2297e-21 1.19369e-20 -4.96385e-22 -1.93537e-19 -8.59891e-19 -1.13062e-18 6.07012e-18 3.93449e-17 9.76209e-17 -1.03832e-17 -1.033e-15 -4.18772e-15 -7.67088e-15 6.52495e-15 9.67169e-14 3.5142e-13 6.54396e-13 -1.98436e-13 -6.30061e-12 -2.53049e-11 -5.77853e-11 -4.93301e-11 2.27273e-10 1.31677e-09 3.88781e-09 7.09874e-09 3.55491e-09 -3.03243e-08 -1.42838e-07 -3.89474e-07 -7.31215e-07 -7.62946e-07 7.74996e-07 6.53582e-06 2.04938e-05 4.58398e-05 7.87437e-05 9.60647e-05 3.72603e-05 -0.000214196 -0.00083684 -0.00204344 -0.00399383 -0.00662768 -0.00941456 -0.0110492 -0.00915669 -0.000102093 0.0209904 0.0599238 0.12279 0.215049 0.340453 0.499993 0.691081 0.907149 1.13777 1.36935 1.58625 1.77227 1.9122 1.99326 2.00622 1.94615 1.81261 1.60944 1.34419 1.02722 0.670695 0.287591 -0.109251 -0.50791 -0.897842 -1.27038 -1.61881 -1.93835 -2.22606 -2.48055 -2.7017 -2.89044 -3.04829 -3.17714 -3.27905 -3.35598 -3.40962 -3.44123 -3.45168 -3.44123 -3.40962 -3.35598 -3.27905 -3.17714 -3.04829 -2.89044 -2.7017 -2.48055 -2.22606 -1.93835 -1.61881 -1.27038 -0.897842 -0.50791 -0.109251 0.287591 0.670695 1.02722 1.34419 1.60944 1.81261 1.94615 2.00622 1.99326 1.9122 1.77227 1.58625 1.36935 1.13777 0.907149 0.691081 0.499993 0.340453 0.215049 0.12279 0.0599238 0.0209904 -0.000102093 -0.00915669 -0.0110492 -0.00941456 -0.00662768 -0.00399383 -0.00204344 -0.00083684 -0.000214196 3.72603e-05 9.60647e-05 7.87437e-05 4.58399e-05 2.04938e-05 6.53582e-06 7.74996e-07 -7.62944e-07 -7.31213e-07 -3.89474e-07 -1.42838e-07 -3.03243e-08 3.55491e-09 7.09874e-09 3.88781e-09 1.31677e-09 2.27273e-10 -4.933e-11 -5.77852e-11 -2.53049e-11 -6.30061e-12 -1.98436e-13 6.54404e-13 3.51451e-13 9.67806e-14 6.53795e-15 -7.59224e-15 -4.14742e-15 -1.02297e-15 -1.01371e-17 9.67585e-17 3.8987e-17 6.0123e-18 -1.12168e-18 -8.52435e-19 -1.91806e-19 -4.71155e-22 1.18379e-20 3.20195e-21 1.82036e-22 -1.11406e-22 -3.25001e-23 -2.18692e-24 7.73498e-25 2.10416e-25 1.11128e-26 -4.15721e-27 -8.89078e-28 -1.49685e-28 1.06618e-30 0 0 
0 0 -2.74401e-30 -1.46514e-28 -7.91831e-28 -2.96141e-27 1.61311e-26 2.0519e-25 5.60677e-25 -3.59116e-24 -3.5678e-23 -8.99962e-23 4.13695e-22 4.08691e-21 1.1591e-20 -2.07884e-20 -2.9617e-19 -1.03292e-18 -3.4454e-19 1.23898e-17 5.81855e-17 1.04054e-16 -2.01918e-16 -1.94009e-15 -6.10495e-15 -6.84637e-15 2.8422e-14 1.82621e-13 5.1992e-13 6.09672e-13 -1.87766e-12 -1.32007e-11 -4.10442e-11 -6.89317e-11 2.94543e-11 6.53502e-10 2.53888e-09 5.93501e-09 7.03272e-09 -1.06949e-08 -8.85574e-08 -2.90327e-07 -6.3254e-07 -8.49739e-07 1.01564e-07 4.72147e-06 1.72263e-05 4.18332e-05 7.64121e-05 9.85389e-05 4.31294e-05 -0.000222804 -0.00091164 -0.00228281 -0.00452712 -0.0075322 -0.0105184 -0.0115835 -0.00725629 0.00778344 0.04064 0.0996445 0.193251 0.328466 0.50906 0.733883 0.995674 1.28071 1.56944 1.83805 2.06092 2.21335 2.27437 2.22902 2.06991 1.79784 1.4215 0.956202 0.422214 -0.157279 -0.758317 -1.35799 -1.93597 -2.47556 -2.96426 -3.39388 -3.76036 -4.06325 -4.30513 -4.49085 -4.62678 -4.72034 -4.77915 -4.81097 -4.82293 -4.8216 -4.81261 -4.80071 -4.78956 -4.78181 -4.77906 -4.78181 -4.78956 -4.80071 -4.81261 -4.8216 -4.82293 -4.81097 -4.77915 -4.72034 -4.62678 -4.49085 -4.30513 -4.06325 -3.76036 -3.39388 -2.96426 -2.47556 -1.93597 -1.35799 -0.758317 -0.157279 0.422214 0.956202 1.4215 1.79784 2.06991 2.22902 2.27437 2.21335 2.06092 1.83805 1.56944 1.28071 0.995674 0.733883 0.50906 0.328466 0.193251 0.0996445 0.04064 0.00778344 -0.00725629 -0.0115835 -0.0105184 -0.0075322 -0.00452712 -0.00228281 -0.00091164 -0.000222804 4.31294e-05 9.8539e-05 7.64122e-05 4.18333e-05 1.72263e-05 4.72148e-06 1.01564e-07 -8.49738e-07 -6.3254e-07 -2.90327e-07 -8.85573e-08 -1.06949e-08 7.03272e-09 5.93502e-09 2.53889e-09 6.53501e-10 2.94543e-11 -6.89313e-11 -4.10442e-11 -1.32007e-11 -1.87762e-12 6.09717e-13 5.1971e-13 1.81418e-13 2.81708e-14 -6.78542e-15 -6.04849e-15 -1.92178e-15 -1.99836e-16 1.03173e-16 5.76662e-17 1.22754e-17 -3.43194e-19 -1.02415e-18 -2.93569e-19 -2.05831e-20 1.14976e-20 4.05236e-21 4.09958e-22 -8.93089e-23 -3.53859e-23 -3.55997e-24 5.56526e-25 2.03554e-25 1.59783e-26 -3.05565e-27 -1.04416e-27 -1.38625e-28 0 0 
0 0 -1.14711e-28 -7.70844e-28 -1.90394e-27 1.81714e-26 1.79703e-25 3.14689e-25 -4.53516e-24 -3.47494e-23 -5.42579e-23 6.35262e-22 4.57726e-21 9.06308e-21 -4.7351e-20 -3.94757e-19 -1.06326e-18 1.20753e-18 2.06694e-17 7.58918e-17 7.69579e-17 -5.45196e-16 -3.1682e-15 -7.79508e-15 -1.55979e-15 6.78824e-14 3.02105e-13 6.69011e-13 1.6683e-13 -5.13652e-12 -2.35129e-11 -5.79807e-11 -5.60122e-11 2.24219e-10 1.39123e-09 4.19802e-09 7.48293e-09 1.6004e-09 -4.41335e-08 -1.90597e-07 -4.93863e-07 -8.31195e-07 -4.54955e-07 2.75638e-06 1.2913e-05 3.51089e-05 6.97963e-05 9.84876e-05 5.82401e-05 -0.00019071 -0.000885514 -0.00233093 -0.00476296 -0.0080484 -0.0111927 -0.0116986 -0.00491677 0.0163733 0.0618607 0.142832 0.270428 0.453178 0.694186 0.988604 1.32203 1.67036 2.00142 2.27819 2.46316 2.52325 2.43411 2.18348 1.77281 1.21709 0.542983 -0.21429 -1.01474 -1.81763 -2.58516 -3.28511 -3.89275 -4.39182 -4.77435 -5.03997 -5.19459 -5.2489 -5.21689 -5.11429 -4.95736 -4.76189 -4.54254 -4.31232 -4.08235 -3.86215 -3.65911 -3.47915 -3.32682 -3.20533 -3.11707 -3.06357 -3.0456 -3.06357 -3.11707 -3.20533 -3.32682 -3.47915 -3.65911 -3.86215 -4.08235 -4.31232 -4.54254 -4.76189 -4.95736 -5.11429 -5.21689 -5.2489 -5.19459 -5.03997 -4.77435 -4.39182 -3.89275 -3.28511 -2.58516 -1.81763 -1.01474 -0.21429 0.542983 1.21709 1.77281 2.18348 2.43411 2.52325 2.46316 2.27819 2.00142 1.67036 1.32203 0.988604 0.694186 0.453178 0.270428 0.142832 0.0618607 0.0163733 -0.00491677 -0.0116986 -0.0111927 -0.0080484 -0.00476296 -0.00233093 -0.000885514 -0.00019071 5.82402e-05 9.84877e-05 6.97963e-05 3.51089e-05 1.2913e-05 2.75638e-06 -4.54954e-07 -8.31195e-07 -4.93863e-07 -1.90597e-07 -4.41335e-08 1.60042e-09 7.48294e-09 4.19802e-09 1.39123e-09 2.24219e-10 -5.60122e-11 -5.79807e-11 -2.35128e-11 -5.13705e-12 1.64453e-13 6.63416e-13 2.99215e-13 6.72096e-14 -1.55799e-15 -7.72538e-15 -3.13895e-15 -5.39926e-16 7.63728e-17 7.52277e-17 2.04827e-17 1.19465e-18 -1.05449e-18 -3.91347e-19 -4.69166e-20 8.99381e-21 4.53919e-21 6.29718e-22 -5.38802e-23 -3.44696e-23 -4.49689e-24 3.12523e-25 1.78214e-25 1.81766e-26 1.46287e-27 -4.70907e-28 0 0 
0 0 -2.68123e-28 2.07058e-27 1.77871e-26 1.43334e-25 9.41769e-26 -4.88032e-24 -3.04158e-23 -1.32697e-23 7.9926e-22 4.56296e-21 4.59803e-21 -7.55646e-20 -4.65027e-19 -8.86433e-19 3.50442e-18 2.97857e-17 8.63913e-17 -1.82763e-18 -1.05851e-15 -4.58562e-15 -8.36507e-15 1.11365e-14 1.2954e-13 4.46639e-13 7.13549e-13 -9.74707e-13 -1.05244e-11 -3.69227e-11 -6.96783e-11 7.19888e-12 5.9668e-10 2.4936e-09 6.0213e-09 6.90556e-09 -1.41954e-08 -1.06312e-07 -3.4174e-07 -7.10809e-07 -7.73196e-07 1.06186e-06 8.41697e-06 2.67895e-05 5.93768e-05 9.40192e-05 7.66393e-05 -0.000127218 -0.000764939 -0.00217921 -0.00466709 -0.00812994 -0.0114571 -0.0116751 -0.00303798 0.0236046 0.0807224 0.182899 0.34431 0.575084 0.877147 1.24057 1.64145 2.04227 2.3951 2.64735 2.74906 2.66069 2.35944 1.84344 1.13259 0.266491 -0.700476 -1.7056 -2.68502 -3.58022 -4.34316 -4.93958 -5.35054 -5.57156 -5.61109 -5.48775 -5.22677 -4.85724 -4.40906 -3.91095 -3.38869 -2.86411 -2.35468 -1.87364 -1.43025 -1.03033 -0.67694 -0.370977 -0.111764 0.102373 0.273436 0.403703 0.495105 0.549274 0.567208 0.549274 0.495105 0.403703 0.273436 0.102373 -0.111764 -0.370977 -0.67694 -1.03033 -1.43025 -1.87364 -2.35468 -2.86411 -3.38869 -3.91095 -4.40906 -4.85724 -5.22677 -5.48775 -5.61109 -5.57156 -5.35054 -4.93958 -4.34316 -3.58022 -2.68502 -1.7056 -0.700476 0.266491 1.13259 1.84344 2.35944 2.66069 2.74906 2.64735 2.3951 2.04227 1.64145 1.24057 0.877147 0.575084 0.34431 0.182899 0.0807224 0.0236046 -0.00303798 -0.0116751 -0.0114571 -0.00812994 -0.00466709 -0.00217921 -0.000764939 -0.000127218 7.66394e-05 9.40192e-05 5.93768e-05 2.67895e-05 8.41698e-06 1.06187e-06 -7.73196e-07 -7.10809e-07 -3.4174e-07 -1.06312e-07 -1.41955e-08 6.90557e-09 6.0213e-09 2.4936e-09 5.96679e-10 7.19865e-12 -6.9679e-11 -3.6926e-11 -1.05302e-11 -9.73567e-13 7.0635e-13 4.42389e-13 1.28288e-13 1.10133e-14 -8.29339e-15 -4.54412e-15 -1.04859e-15 -1.65047e-18 8.56542e-17 2.95217e-17 3.47112e-18 -8.79473e-19 -4.61079e-19 -7.48934e-20 4.56855e-21 4.5257e-21 7.92443e-22 -1.32331e-23 -3.01753e-23 -4.84005e-24 9.40051e-26 1.46223e-25 3.59408e-26 2.7884e-27 0 0 
0 0 2.55459e-27 2.85292e-26 1.07758e-25 -6.5726e-26 -4.64618e-24 -2.39374e-23 2.3826e-23 8.72238e-22 4.04572e-21 -9.31209e-22 -9.94413e-20 -4.86202e-19 -4.8729e-19 6.27183e-18 3.78726e-17 8.30459e-17 -1.43435e-16 -1.71436e-15 -5.89997e-15 -6.60097e-15 3.40966e-14 2.14228e-13 5.90327e-13 5.22188e-13 -3.16707e-12 -1.83825e-11 -5.16616e-11 -6.49459e-11 1.55403e-10 1.2045e-09 3.92055e-09 7.34792e-09 1.60467e-09 -4.65805e-08 -2.04713e-07 -5.29189e-07 -8.35213e-07 -9.93563e-08 4.51795e-06 1.82608e-05 4.6426e-05 8.39772e-05 9.06487e-05 -5.07601e-05 -0.000579379 -0.00185982 -0.00425828 -0.00777487 -0.0113316 -0.0117134 -0.00235155 0.027622 0.0934273 0.213163 0.404455 0.679401 1.03873 1.46666 1.92809 2.36968 2.72524 2.92505 2.90725 2.6292 2.07633 1.26636 0.248327 -0.903421 -2.09901 -3.24467 -4.25413 -5.05787 -5.60925 -5.88699 -5.89405 -5.65398 -5.20564 -4.59694 -3.87929 -3.10239 -2.31052 -1.54044 -0.819938 -0.168169 0.403999 0.892149 1.29774 1.62596 1.88457 2.08278 2.23027 2.33652 2.41037 2.45965 2.49103 2.50983 2.52031 2.52545 2.52694 2.52545 2.52031 2.50983 2.49103 2.45965 2.41037 2.33652 2.23027 2.08278 1.88457 1.62596 1.29774 0.892149 0.403999 -0.168169 -0.819938 -1.54044 -2.31052 -3.10239 -3.87929 -4.59694 -5.20564 -5.65398 -5.89405 -5.88699 -5.60925 -5.05787 -4.25413 -3.24467 -2.09901 -0.903421 0.248327 1.26636 2.07633 2.6292 2.90725 2.92505 2.72524 2.36968 1.92809 1.46666 1.03873 0.679401 0.404455 0.213163 0.0934273 0.027622 -0.00235155 -0.0117134 -0.0113316 -0.00777487 -0.00425828 -0.00185982 -0.000579378 -5.07603e-05 9.06485e-05 8.3977e-05 4.6426e-05 1.82608e-05 4.51795e-06 -9.93554e-08 -8.35213e-07 -5.29189e-07 -2.04713e-07 -4.65806e-08 1.60469e-09 7.34792e-09 3.92054e-09 1.20449e-09 1.55399e-10 -6.49496e-11 -5.1638e-11 -1.82617e-11 -3.1386e-12 5.17846e-13 5.84927e-13 2.12211e-13 3.37558e-14 -6.5496e-15 -5.84773e-15 -1.69865e-15 -1.41946e-16 8.23631e-17 3.75427e-17 6.21455e-18 -4.84034e-19 -4.82153e-19 -9.85773e-20 -9.13234e-22 4.0134e-21 8.6494e-22 2.35659e-23 -2.37515e-23 -4.60547e-24 -5.68779e-26 7.0067e-26 2.22892e-26 0 0 
0 0 1.5214e-26 3.03814e-26 -1.51173e-25 -3.9896e-24 -1.68689e-23 5.01707e-23 8.47398e-22 3.16431e-21 -6.31356e-21 -1.1369e-19 -4.49405e-19 8.23276e-20 9.01286e-18 4.27952e-17 6.10961e-17 -3.44004e-16 -2.42553e-15 -6.67804e-15 -1.23195e-15 6.89102e-14 3.15632e-13 6.8375e-13 -8.11416e-14 -6.75471e-12 -2.85863e-11 -6.38877e-11 -2.74187e-11 4.27865e-10 2.07903e-09 5.47073e-09 7.01092e-09 -1.19487e-08 -1.01842e-07 -3.39836e-07 -7.09146e-07 -6.77213e-07 1.69533e-06 1.07969e-05 3.28367e-05 6.89411e-05 9.44956e-05 1.84266e-05 -0.000371147 -0.00143635 -0.00360403 -0.00702275 -0.0108099 -0.0118241 -0.00312368 0.0273976 0.097384 0.228476 0.442208 0.753441 1.16246 1.64786 2.16274 2.63646 2.98285 3.114 2.95701 2.47002 1.65334 0.553401 -0.741972 -2.11579 -3.43901 -4.58866 -5.46442 -5.99991 -6.16788 -5.97942 -5.47796 -4.72983 -3.81357 -2.80981 -1.79294 -0.82518 0.0468493 0.792824 1.39753 1.85875 2.18427 2.38857 2.49027 2.50927 2.4654 2.37689 2.25966 2.12704 1.98972 1.85609 1.73215 1.62235 1.52967 1.45615 1.40292 1.37083 1.36006 1.37083 1.40292 1.45615 1.52967 1.62235 1.73215 1.85609 1.98972 2.12704 2.25966 2.37689 2.4654 2.50927 2.49027 2.38857 2.18427 1.85875 1.39753 0.792824 0.0468493 -0.82518 -1.79294 -2.80981 -3.81357 -4.72983 -5.47796 -5.97942 -6.16788 -5.99991 -5.46442 -4.58866 -3.43901 -2.11579 -0.741972 0.553401 1.65334 2.47002 2.95701 3.114 2.98285 2.63646 2.16274 1.64786 1.16246 0.753441 0.442208 0.228476 0.097384 0.0273976 -0.00312368 -0.0118241 -0.0108099 -0.00702275 -0.00360402 -0.00143635 -0.000371147 1.84263e-05 9.44957e-05 6.89413e-05 3.28367e-05 1.07969e-05 1.69533e-06 -6.77212e-07 -7.09146e-07 -3.39836e-07 -1.01842e-07 -1.19487e-08 7.01092e-09 5.47071e-09 2.07902e-09 4.27918e-10 -2.71957e-11 -6.33681e-11 -2.83153e-11 -6.68781e-12 -7.89478e-14 6.77725e-13 3.12725e-13 6.82483e-14 -1.23407e-15 -6.62043e-15 -2.40372e-15 -3.4071e-16 6.06331e-17 4.24293e-17 8.93251e-18 8.05122e-20 -4.45753e-19 -1.12721e-19 -6.25111e-21 3.13976e-21 8.40437e-22 4.97143e-23 -1.67387e-23 -4.0412e-24 -7.52288e-25 -8.43285e-27 0 0 
0 0 -2.19562e-26 -6.48483e-25 -3.20265e-24 -1.05197e-23 6.30427e-23 7.43667e-22 2.13584e-21 -1.04369e-20 -1.1561e-19 -3.61748e-19 7.13176e-19 1.11468e-17 4.28841e-17 2.01323e-17 -5.802e-16 -3.05175e-15 -6.44022e-15 8.62107e-15 1.14531e-13 4.17791e-13 6.54786e-13 -1.29252e-12 -1.19626e-11 -4.02495e-11 -6.72058e-11 6.38481e-11 8.60986e-10 3.19601e-09 6.71269e-09 3.28034e-09 -3.78804e-08 -1.84331e-07 -4.98902e-07 -7.94247e-07 4.5585e-08 5.21022e-06 2.05703e-05 5.122e-05 8.6683e-05 6.55992e-05 -0.000181743 -0.000986557 -0.00280797 -0.00595725 -0.00987746 -0.0118292 -0.00506071 0.0230492 0.091905 0.226407 0.452396 0.788651 1.23666 1.77096 2.33367 2.83659 3.17244 3.23407 2.93779 2.24503 1.17654 -0.185379 -1.7069 -3.22387 -4.56837 -5.59537 -6.20396 -6.34907 -6.04333 -5.34908 -4.36396 -3.20389 -1.98588 -0.813838 0.230291 1.09175 1.74262 2.1789 2.41525 2.47903 2.40455 2.22797 1.98366 1.70183 1.40693 1.11761 0.846871 0.602675 0.389206 0.207421 0.0563328 -0.0665322 -0.164261 -0.240176 -0.297497 -0.338974 -0.366891 -0.382972 -0.388252 -0.382972 -0.366891 -0.338974 -0.297497 -0.240176 -0.164261 -0.0665322 0.0563328 0.207421 0.389206 0.602675 0.846871 1.11761 1.40693 1.70183 1.98366 2.22797 2.40455 2.47903 2.41525 2.1789 1.74262 1.09175 0.230291 -0.813838 -1.98588 -3.20389 -4.36396 -5.34908 -6.04333 -6.34907 -6.20396 -5.59537 -4.56837 -3.22387 -1.7069 -0.185379 1.17654 2.24503 2.93779 3.23407 3.17244 2.83659 2.33367 1.77096 1.23666 0.788651 0.452396 0.226407 0.091905 0.0230492 -0.00506071 -0.0118292 -0.00987746 -0.00595725 -0.00280796 -0.000986556 -0.000181743 6.55994e-05 8.66831e-05 5.12201e-05 2.05704e-05 5.21022e-06 4.55886e-08 -7.94246e-07 -4.98901e-07 -1.8433e-07 -3.78804e-08 3.28037e-09 6.71278e-09 3.19631e-09 8.61528e-10 6.38784e-11 -6.65426e-11 -3.98682e-11 -1.18468e-11 -1.27843e-12 6.49334e-13 4.14022e-13 1.13459e-13 8.52567e-15 -6.38679e-15 -3.02482e-15 -5.74837e-16 2.0051e-17 4.25258e-17 1.10493e-17 7.05933e-19 -3.5891e-19 -1.14643e-19 -1.03421e-20 2.11994e-21 7.37664e-22 6.24269e-23 -1.09077e-23 -4.10934e-24 -6.09687e-25 0 0 
0 0 -4.51007e-25 -2.71335e-24 -5.94875e-24 6.36869e-23 5.95076e-22 1.17375e-21 -1.26536e-20 -1.05884e-19 -2.43824e-19 1.27388e-18 1.22051e-17 3.76186e-17 -3.46983e-17 -8.11818e-16 -3.43211e-15 -4.81843e-15 2.29353e-14 1.66244e-13 4.95014e-13 4.18919e-13 -3.27267e-12 -1.87107e-11 -5.13271e-11 -5.24231e-11 2.32531e-10 1.47751e-09 4.44222e-09 6.92909e-09 -6.09614e-09 -8.02362e-08 -2.93727e-07 -6.49015e-07 -6.44473e-07 1.69707e-06 1.10261e-05 3.3889e-05 7.00173e-05 8.5589e-05 -3.99099e-05 -0.000581691 -0.00198886 -0.00470552 -0.0085584 -0.0114712 -0.00745136 0.0157566 0.0783222 0.207707 0.434171 0.781694 1.25539 1.8287 2.4353 2.97061 3.30575 3.31268 2.89549 2.01916 0.727151 -0.857752 -2.55137 -4.14051 -5.42161 -6.237 -6.50024 -6.206 -5.4243 -4.28157 -2.93504 -1.54552 -0.254426 0.831783 1.64884 2.17443 2.42139 2.42835 2.24891 1.9418 1.56316 1.16098 0.772671 0.42403 0.130168 -0.102748 -0.275327 -0.392796 -0.463159 -0.495561 -0.499206 -0.482523 -0.452831 -0.416233 -0.377509 -0.340226 -0.307007 -0.279721 -0.259453 -0.247014 -0.24279 -0.247014 -0.259453 -0.279721 -0.307007 -0.340226 -0.377509 -0.416233 -0.452831 -0.482523 -0.499206 -0.495561 -0.463159 -0.392796 -0.275327 -0.102748 0.130168 0.42403 0.772671 1.16098 1.56316 1.9418 2.24891 2.42835 2.42139 2.17443 1.64884 0.831783 -0.254426 -1.54552 -2.93504 -4.28157 -5.4243 -6.206 -6.50024 -6.237 -5.42161 -4.14051 -2.55137 -0.857752 0.727151 2.01916 2.89549 3.31268 3.30575 2.97061 2.4353 1.8287 1.25539 0.781694 0.434171 0.207707 0.0783222 0.0157567 -0.00745135 -0.0114712 -0.00855839 -0.0047055 -0.00198886 -0.000581692 -3.99103e-05 8.55891e-05 7.00173e-05 3.3889e-05 1.10261e-05 1.69708e-06 -6.44472e-07 -6.49014e-07 -2.93727e-07 -8.02358e-08 -6.0957e-09 6.92946e-09 4.44049e-09 1.46803e-09 2.30454e-10 -5.19828e-11 -5.08582e-11 -1.85341e-11 -3.23984e-12 4.16003e-13 4.90659e-13 1.6472e-13 2.27085e-14 -4.78175e-15 -3.40244e-15 -8.04484e-16 -3.42859e-17 3.73143e-17 1.21004e-17 1.26201e-18 -2.42022e-19 -1.05015e-19 -1.25434e-20 1.16556e-21 5.90078e-22 6.378e-23 5.77506e-24 -1.64649e-24 0 0 
0 0 -8.21205e-25 7.1672e-24 5.67688e-23 4.36903e-22 4.2302e-22 -1.2915e-20 -8.79709e-20 -1.21855e-19 1.65607e-18 1.19953e-17 2.79077e-17 -9.36263e-17 -9.92191e-16 -3.43612e-15 -1.7243e-15 4.04355e-14 2.15639e-13 5.15688e-13 -9.9786e-14 -6.07321e-12 -2.64271e-11 -5.82758e-11 -7.59435e-12 5.02001e-10 2.27305e-09 5.58201e-09 5.08565e-09 -2.37314e-08 -1.41966e-07 -4.21781e-07 -7.30805e-07 -6.43625e-08 4.68688e-06 1.95301e-05 4.96777e-05 8.23675e-05 4.4151e-05 -0.000269543 -0.00125416 -0.00342149 -0.00695184 -0.0105605 -0.00946696 0.00732994 0.0595281 0.175974 0.390919 0.73458 1.2185 1.8192 2.46623 3.04159 3.3951 3.37567 2.87137 1.84723 0.368344 -1.40119 -3.22475 -4.8393 -6.00889 -6.57171 -6.4687 -5.74893 -4.55161 -3.07251 -1.52374 -0.096765 1.06492 1.87878 2.32413 2.43179 2.26805 1.91724 1.46542 0.988766 0.546446 0.177467 -0.0978714 -0.275418 -0.362438 -0.373662 -0.327027 -0.240822 -0.131701 -0.0133468 0.103828 0.212689 0.308998 0.39074 0.457754 0.510897 0.551729 0.582172 0.604106 0.61919 0.628951 0.634408 0.636113 0.634408 0.628951 0.61919 0.604106 0.582172 0.551729 0.510897 0.457754 0.39074 0.308998 0.212689 0.103828 -0.0133468 -0.131701 -0.240822 -0.327027 -0.373662 -0.362438 -0.275418 -0.0978714 0.177467 0.546446 0.988766 1.46542 1.91724 2.26805 2.43179 2.32413 1.87878 1.06492 -0.096765 -1.52374 -3.07251 -4.55161 -5.74893 -6.4687 -6.57171 -6.00889 -4.8393 -3.22475 -1.40119 0.368344 1.84723 2.87137 3.37567 3.3951 3.04159 2.46623 1.8192 1.2185 0.73458 0.390919 0.175974 0.0595282 0.00732997 -0.00946696 -0.0105604 -0.00695182 -0.0034215 -0.00125417 -0.000269544 4.41511e-05 8.23676e-05 4.96776e-05 1.95301e-05 4.68689e-06 -6.43623e-08 -7.30804e-07 -4.2178e-07 -1.41965e-07 -2.37353e-08 5.06803e-09 5.53855e-09 2.25167e-09 4.96997e-10 -7.64772e-12 -5.77626e-11 -2.61831e-11 -6.01455e-12 -9.75795e-14 5.11298e-13 2.13701e-13 4.00522e-14 -1.71721e-15 -3.40714e-15 -9.83402e-16 -9.27008e-17 2.76942e-17 1.18946e-17 1.64127e-18 -1.21078e-19 -8.72639e-20 -1.2806e-20 4.21616e-22 4.46377e-22 1.13947e-22 9.57113e-24 0 0 
0 0 8.03765e-24 8.35991e-23 3.05379e-22 -6.24519e-23 -1.16564e-20 -6.65664e-20 -1.86103e-20 1.80792e-18 1.06554e-17 1.58129e-17 -1.45193e-16 -1.08303e-15 -3.01378e-15 2.54838e-15 5.86283e-14 2.52065e-13 4.50181e-13 -9.40047e-13 -9.56198e-12 -3.39336e-11 -5.61714e-11 8.05838e-11 8.89433e-10 3.20067e-09 6.22751e-09 -1.64594e-10 -5.23064e-08 -2.2361e-07 -5.48823e-07 -6.535e-07 1.19131e-06 9.40849e-06 3.06878e-05 6.51838e-05 7.71083e-05 -6.66619e-05 -0.000676585 -0.00225429 -0.0052302 -0.00908163 -0.0104765 -0.000389046 0.0391187 0.13669 0.329412 0.654037 1.13113 1.74519 2.42766 3.05209 3.4489 3.44131 2.89527 1.76857 0.141846 -1.78196 -3.71312 -5.3374 -6.38698 -6.70033 -6.25401 -5.16024 -3.63334 -1.93712 -0.328139 0.990573 1.89733 2.35759 2.41249 2.15521 1.70307 1.17306 0.662834 0.241173 -0.0550114 -0.216776 -0.256489 -0.199832 -0.0779451 0.0783706 0.242656 0.394962 0.522235 0.617886 0.680413 0.712034 0.717452 0.702286 0.67251 0.633676 0.590437 0.546646 0.505196 0.468002 0.436514 0.411491 0.393432 0.382545 0.378911 0.382545 0.393432 0.411491 0.436514 0.468002 0.505196 0.546646 0.590437 0.633676 0.67251 0.702286 0.717452 0.712034 0.680413 0.617886 0.522235 0.394962 0.242656 0.0783706 -0.0779451 -0.199832 -0.256489 -0.216776 -0.0550114 0.241173 0.662834 1.17306 1.70307 2.15521 2.41249 2.35759 1.89733 0.990573 -0.328139 -1.93712 -3.63334 -5.16024 -6.25401 -6.70033 -6.38698 -5.3374 -3.71312 -1.78196 0.141846 1.76857 2.89527 3.44131 3.4489 3.05209 2.42766 1.74519 1.13113 0.654037 0.329412 0.13669 0.0391187 -0.000389036 -0.0104764 -0.00908163 -0.00523021 -0.0022543 -0.000676585 -6.66619e-05 7.7108e-05 6.51837e-05 3.06878e-05 9.40848e-06 1.1913e-06 -6.53503e-07 -5.48829e-07 -2.23634e-07 -5.23561e-08 -1.97877e-10 6.16708e-09 3.17024e-09 8.80753e-10 7.96563e-11 -5.57026e-11 -3.3627e-11 -9.47198e-12 -9.29877e-13 4.46562e-13 2.49846e-13 5.80871e-14 2.51615e-15 -2.98931e-15 -1.07364e-15 -1.43838e-16 1.57072e-17 1.0568e-17 1.79225e-18 -1.86605e-20 -6.60417e-20 -1.15512e-20 -3.56064e-23 2.22211e-22 6.71735e-23 0 0 
0 0 4.28718e-23 9.838e-23 -2.95905e-22 -9.52949e-21 -4.59437e-20 5.27056e-20 1.74168e-18 8.57756e-18 3.8394e-18 -1.79882e-16 -1.06719e-15 -2.22187e-15 7.34573e-15 7.43043e-14 2.65397e-13 2.81253e-13 -2.07489e-12 -1.33753e-11 -3.94767e-11 -3.9363e-11 2.23507e-10 1.39479e-09 4.14575e-09 5.81338e-09 -1.04303e-08 -9.41251e-08 -3.21701e-07 -6.40301e-07 -2.92468e-07 3.40122e-06 1.61489e-05 4.37696e-05 7.54288e-05 3.82388e-05 -0.000282233 -0.00131226 -0.00359474 -0.00720608 -0.0102416 -0.00605663 0.0204269 0.0958694 0.258306 0.55021 1.00281 1.61337 2.3225 3.00264 3.46889 3.51711 2.98325 1.80637 0.0717459 -1.98554 -4.02352 -5.67304 -6.62997 -6.7309 -5.98957 -4.58516 -2.80885 -0.988447 0.586317 1.71831 2.32711 2.4423 2.17412 1.67395 1.09513 0.563795 0.162542 -0.0726189 -0.145323 -0.0869748 0.0570271 0.239462 0.419397 0.567265 0.665871 0.709542 0.701529 0.650663 0.568931 0.468504 0.360666 0.25447 0.156584 0.0711307 0.000146782 -0.0560652 -0.0984588 -0.128731 -0.14907 -0.161725 -0.168924 -0.1725 -0.173906 -0.174272 -0.174292 -0.174272 -0.173906 -0.1725 -0.168924 -0.161725 -0.14907 -0.128731 -0.0984588 -0.0560652 0.000146782 0.0711307 0.156584 0.25447 0.360666 0.468504 0.568931 0.650663 0.701529 0.709542 0.665871 0.567265 0.419397 0.239462 0.0570271 -0.0869748 -0.145323 -0.0726189 0.162542 0.563795 1.09513 1.67395 2.17412 2.4423 2.32711 1.71831 0.586317 -0.988447 -2.80885 -4.58516 -5.98957 -6.7309 -6.62997 -5.67304 -4.02352 -1.98554 0.0717459 1.80637 2.98325 3.51711 3.46889 3.00264 2.3225 1.61337 1.00281 0.550211 0.258305 0.0958693 0.0204269 -0.00605662 -0.0102415 -0.00720607 -0.00359473 -0.00131226 -0.000282232 3.8239e-05 7.54286e-05 4.37696e-05 1.61488e-05 3.4012e-06 -2.92497e-07 -6.40345e-07 -3.21629e-07 -9.3549e-08 -1.03407e-08 5.76201e-09 4.10749e-09 1.38152e-09 2.21216e-10 -3.90789e-11 -3.91289e-11 -1.32521e-11 -2.05428e-12 2.7934e-13 2.63117e-13 7.36331e-14 7.27069e-15 -2.20505e-15 -1.05815e-15 -1.78262e-16 3.83525e-18 8.50903e-18 1.72697e-18 5.21277e-20 -4.55827e-20 -9.65495e-21 -1.78146e-21 -5.25891e-24 0 0 
0 0 -4.37841e-23 -1.47763e-21 -7.33169e-21 -2.88413e-20 8.99088e-20 1.51577e-18 6.24093e-18 -5.89953e-18 -1.92808e-16 -9.52593e-16 -1.20814e-15 1.18124e-14 8.43329e-14 2.4901e-13 1.27671e-14 -3.39397e-12 -1.69158e-11 -4.09294e-11 -2.67663e-12 4.26e-10 1.9873e-09 4.89401e-09 3.56379e-09 -2.74733e-08 -1.50389e-07 -4.26499e-07 -6.42711e-07 5.10474e-07 6.84448e-06 2.49477e-05 5.69826e-05 7.26044e-05 -5.52283e-05 -0.000641272 -0.00221267 -0.00521037 -0.00891419 -0.00908491 0.00579614 0.0587351 0.186294 0.434559 0.845377 1.4325 2.15342 2.88914 3.44699 3.59654 3.13599 1.97069 0.173709 -1.99995 -4.15964 -5.876 -6.79803 -6.75023 -5.77744 -4.12382 -2.15711 -0.266696 1.23219 2.15999 2.48916 2.32002 1.82954 1.21401 0.641334 0.221788 0.000426128 -0.0340124 0.0696536 0.246687 0.434464 0.584832 0.669264 0.678917 0.620321 0.510098 0.369038 0.21804 0.0744578 -0.048989 -0.144753 -0.210006 -0.245679 -0.255093 -0.242943 -0.214885 -0.176111 -0.131472 -0.0848655 -0.0395846 0.00223933 0.0389466 0.0695932 0.0936258 0.11087 0.121219 0.124638 0.121219 0.11087 0.0936258 0.0695932 0.0389466 0.00223933 -0.0395846 -0.0848655 -0.131472 -0.176111 -0.214885 -0.242943 -0.255093 -0.245679 -0.210006 -0.144753 -0.048989 0.0744578 0.21804 0.369038 0.510098 0.620321 0.678917 0.669264 0.584832 0.434464 0.246687 0.0696536 -0.0340124 0.000426128 0.221788 0.641334 1.21401 1.82954 2.32002 2.48916 2.15999 1.23219 -0.266696 -2.15711 -4.12382 -5.77744 -6.75023 -6.79803 -5.876 -4.15964 -1.99995 0.173709 1.97069 3.13599 3.59654 3.447 2.88915 2.15343 1.43251 0.845377 0.434559 0.186294 0.058735 0.00579614 -0.00908486 -0.00891415 -0.00521035 -0.00221266 -0.000641268 -5.52279e-05 7.26044e-05 5.69825e-05 2.49477e-05 6.84446e-06 5.10688e-07 -6.4156e-07 -4.23341e-07 -1.48983e-07 -2.71946e-08 3.53891e-09 4.85022e-09 1.96879e-09 4.21825e-10 -2.76038e-12 -4.05808e-11 -1.67631e-11 -3.36155e-12 1.34273e-14 2.46944e-13 8.35872e-14 1.16991e-14 -1.20061e-15 -9.44742e-16 -1.91122e-16 -5.82574e-18 6.19257e-18 1.50327e-18 8.89057e-20 -2.98047e-20 -1.03158e-20 -1.46401e-21 0 0 
0 0 -1.04527e-21 -6.69357e-21 -1.7072e-20 9.883e-20 1.20721e-18 4.06267e-18 -1.2208e-17 -1.84574e-16 -7.68381e-16 -1.68076e-16 1.51261e-14 8.65726e-14 2.02405e-13 -3.25555e-13 -4.70698e-12 -1.94347e-11 -3.62616e-11 5.66954e-11 6.80591e-10 2.5935e-09 5.12525e-09 -1.45105e-09 -5.28681e-08 -2.20123e-07 -5.1936e-07 -4.80798e-07 1.93825e-06 1.17404e-05 3.54022e-05 6.70617e-05 4.56616e-05 -0.00022837 -0.00117967 -0.0033793 -0.00691433 -0.00962102 -0.00369929 0.0289906 0.121002 0.318781 0.672616 1.21413 1.92443 2.70438 3.36539 3.65683 3.33465 2.2544 0.454365 -1.8107 -4.11076 -5.95163 -6.91984 -6.80889 -5.67953 -3.83334 -1.71344 0.228824 1.65332 2.40143 2.50218 2.12544 1.50658 0.871168 0.381212 0.112252 0.0599898 0.16459 0.342705 0.515311 0.626004 0.647993 0.582102 0.448837 0.278482 0.102318 -0.0537076 -0.172171 -0.244912 -0.271752 -0.25823 -0.213459 -0.147507 -0.0702708 0.00972785 0.0859273 0.15396 0.210975 0.256161 0.289502 0.312314 0.326047 0.332748 0.334352 0.33283 0.329764 0.326578 0.324267 0.323369 0.324267 0.326578 0.329764 0.33283 0.334352 0.332748 0.326047 0.312314 0.289502 0.256161 0.210975 0.15396 0.0859273 0.00972785 -0.0702708 -0.147507 -0.213459 -0.25823 -0.271752 -0.244912 -0.172171 -0.0537076 0.102318 0.278482 0.448837 0.582102 0.647993 0.626004 0.515311 0.342705 0.16459 0.0599898 0.112252 0.381212 0.871168 1.50658 2.12544 2.50218 2.40143 1.65332 0.228824 -1.71344 -3.83334 -5.67953 -6.80889 -6.91984 -5.95163 -4.11076 -1.8107 0.454367 2.2544 3.33466 3.65684 3.36539 2.70438 1.92443 1.21413 0.672616 0.318779 0.121002 0.0289906 -0.00369924 -0.00962097 -0.0069143 -0.00337928 -0.00117966 -0.000228369 4.56614e-05 6.70618e-05 3.54027e-05 1.17421e-05 1.94236e-06 -4.7541e-07 -5.14383e-07 -2.1801e-07 -5.23432e-08 -1.4247e-09 5.08112e-09 2.56984e-09 6.74107e-10 5.60419e-11 -3.597e-11 -1.92632e-11 -4.66317e-12 -3.21766e-13 2.00822e-13 8.58256e-14 1.49866e-14 -1.6959e-16 -7.6226e-16 -1.83004e-16 -1.20884e-17 4.03213e-18 1.19677e-18 9.83696e-20 3.23783e-21 -4.54075e-21 0 0 
0 0 -2.40575e-21 8.26069e-21 9.03531e-20 8.86963e-19 2.31291e-18 -1.49276e-17 -1.60391e-16 -5.55467e-16 7.11099e-16 1.67418e-14 8.06406e-14 1.32531e-13 -6.80974e-13 -5.78039e-12 -2.02255e-11 -2.42809e-11 1.37034e-10 9.63213e-10 3.09592e-09 4.44933e-09 -1.01039e-08 -8.72617e-08 -2.98412e-07 -5.70617e-07 -5.86034e-08 4.17813e-06 1.81674e-05 4.64661e-05 6.89804e-05 -1.95654e-05 -0.000508016 -0.00192175 -0.00475726 -0.00835858 -0.00824943 0.00838729 0.0680537 0.213801 0.500151 0.974737 1.64601 2.44559 3.20428 3.6643 3.54148 2.62836 0.902521 -1.41033 -3.85956 -5.88624 -6.99657 -6.92557 -5.72455 -3.73817 -1.48266 0.522468 1.90489 2.52131 2.45341 1.93623 1.2546 0.650561 0.266564 0.134429 0.199265 0.362661 0.524834 0.614526 0.601102 0.491995 0.320056 0.127968 -0.0448186 -0.170749 -0.237007 -0.244335 -0.203388 -0.129857 -0.0404595 0.0499621 0.130303 0.193364 0.23599 0.257847 0.260702 0.247715 0.222355 0.188271 0.148991 0.107387 0.0660102 0.0267881 -0.00900192 -0.0402302 -0.0662934 -0.0867371 -0.101444 -0.110265 -0.113235 -0.110265 -0.101444 -0.0867371 -0.0662934 -0.0402302 -0.00900192 0.0267881 0.0660102 0.107387 0.148991 0.188271 0.222355 0.247715 0.260702 0.257847 0.23599 0.193364 0.130303 0.0499621 -0.0404595 -0.129857 -0.203388 -0.244335 -0.237007 -0.170749 -0.0448186 0.127968 0.320056 0.491995 0.601102 0.614526 0.524834 0.362661 0.199265 0.134429 0.266564 0.650561 1.2546 1.93623 2.45341 2.52131 1.90489 0.522468 -1.48266 -3.73817 -5.72455 -6.92557 -6.99657 -5.88624 -3.85956 -1.41033 0.90253 2.62837 3.54149 3.6643 3.20428 2.44559 1.64601 0.974736 0.50015 0.213801 0.0680537 0.00838729 -0.00824942 -0.00835856 -0.00475724 -0.00192175 -0.000508016 -1.9564e-05 6.89828e-05 4.64706e-05 1.81685e-05 4.15531e-06 -5.7521e-08 -5.65366e-07 -2.95611e-07 -8.64181e-08 -9.99327e-09 4.41367e-09 3.06831e-09 9.54239e-10 1.35631e-10 -2.41133e-11 -2.00517e-11 -5.72782e-12 -6.74017e-13 1.3162e-13 7.9966e-14 1.65925e-14 7.0243e-16 -5.51222e-16 -1.59063e-16 -1.47937e-17 2.29764e-18 9.04813e-19 2.15432e-19 1.50967e-20 0 0 
0 0 1.31656e-20 1.57682e-19 6.23405e-19 1.08972e-18 -1.47248e-17 -1.27749e-16 -3.53203e-16 1.30437e-15 1.65417e-14 6.80485e-14 5.2222e-14 -9.90536e-13 -6.4e-12 -1.88561e-11 -5.30534e-12 2.30747e-10 1.23295e-09 3.34681e-09 2.4875e-09 -2.29021e-08 -1.29485e-07 -3.74262e-07 -5.36847e-07 7.36735e-07 7.39071e-06 2.59614e-05 5.62406e-05 5.57735e-05 -0.000139728 -0.000919063 -0.00286913 -0.00621141 -0.00899913 -0.0033594 0.0301297 0.127803 0.343035 0.734318 1.33666 2.11997 2.9507 3.58332 3.70592 3.04299 1.48645 -0.803263 -3.38628 -5.64994 -7.00476 -7.09311 -5.92017 -3.84889 -1.46334 0.638385 2.03427 2.58091 2.40289 1.79394 1.08345 0.524003 0.233631 0.199653 0.324114 0.484012 0.581112 0.56802 0.449575 0.266314 0.0722586 -0.0852227 -0.1775 -0.197571 -0.156683 -0.0765317 0.0182292 0.106266 0.172834 0.210921 0.219848 0.203685 0.168888 0.122574 0.0712178 0.0198157 -0.0280895 -0.0701949 -0.1056 -0.133988 -0.155538 -0.171054 -0.181183 -0.186866 -0.189222 -0.189136 -0.187536 -0.185303 -0.183136 -0.181603 -0.181139 -0.181603 -0.183136 -0.185303 -0.187536 -0.189136 -0.189222 -0.186866 -0.181183 -0.171054 -0.155538 -0.133988 -0.1056 -0.0701949 -0.0280895 0.0198157 0.0712178 0.122574 0.168888 0.203685 0.219848 0.210921 0.172834 0.106266 0.0182292 -0.0765317 -0.156683 -0.197571 -0.1775 -0.0852227 0.0722586 0.266314 0.449575 0.56802 0.581112 0.484012 0.324114 0.199653 0.233631 0.524003 1.08345 1.79394 2.40289 2.58091 2.03427 0.638385 -1.46334 -3.84889 -5.92017 -7.09311 -7.00476 -5.64994 -3.38628 -0.803252 1.48645 3.043 3.70594 3.58334 2.9507 2.11997 1.33666 0.734318 0.343035 0.127803 0.0301296 -0.00335941 -0.00899911 -0.00621141 -0.00286913 -0.000919058 -0.000139723 5.57676e-05 5.61846e-05 2.57801e-05 7.3222e-06 7.28641e-07 -5.32238e-07 -3.70829e-07 -1.28259e-07 -2.26701e-08 2.47235e-09 3.31776e-09 1.22168e-09 2.28493e-10 -5.32313e-12 -1.87004e-11 -6.34322e-12 -9.80981e-13 5.20414e-14 6.75002e-14 1.63987e-14 1.29138e-15 -3.50646e-16 -1.26716e-16 -1.45809e-17 1.15729e-18 6.56455e-19 1.39338e-19 0 0 
0 0 8.99214e-20 3.67819e-19 3.90686e-19 -1.26597e-17 -9.38709e-17 -1.88995e-16 1.57499e-15 1.4828e-14 5.1666e-14 -2.35923e-14 -1.19928e-12 -6.43816e-12 -1.5357e-11 1.85162e-11 3.24712e-10 1.43805e-09 3.20073e-09 -1.00223e-09 -3.96173e-08 -1.75768e-07 -4.29899e-07 -3.62265e-07 2.02252e-06 1.16672e-05 3.46018e-05 6.17966e-05 1.85711e-05 -0.000332653 -0.00147935 -0.00398779 -0.0075036 -0.00807301 0.00683282 0.0648081 0.212902 0.513074 1.0211 1.74669 2.60515 3.38633 3.77341 3.4315 2.15054 -0.0132914 -2.67614 -5.19985 -6.89502 -7.27616 -6.25325 -4.16864 -1.66012 0.584067 2.0661 2.61609 2.38431 1.71707 0.988093 0.462559 0.23768 0.26163 0.402633 0.525842 0.547174 0.450544 0.274692 0.0828693 -0.0666802 -0.140227 -0.133737 -0.0668913 0.028184 0.119799 0.184557 0.211474 0.201134 0.162444 0.107932 0.0502358 -0.000803689 -0.0391814 -0.062658 -0.0719291 -0.0697041 -0.0592129 -0.0437907 -0.0260866 -0.00788137 0.00969374 0.0260469 0.0408862 0.0543016 0.0663391 0.0768839 0.0860311 0.0936132 0.099604 0.103953 0.106567 0.107444 0.106567 0.103953 0.099604 0.0936132 0.0860311 0.0768839 0.0663391 0.0543016 0.0408862 0.0260469 0.00969374 -0.00788137 -0.0260866 -0.0437907 -0.0592129 -0.0697041 -0.0719291 -0.062658 -0.0391814 -0.000803689 0.0502358 0.107932 0.162444 0.201134 0.211474 0.184557 0.119799 0.028184 -0.0668913 -0.133737 -0.140227 -0.0666802 0.0828693 0.274692 0.450544 0.547174 0.525842 0.402633 0.26163 0.23768 0.462559 0.988093 1.71707 2.38431 2.61609 2.0661 0.584067 -1.66012 -4.16864 -6.25325 -7.27618 -6.89503 -5.19984 -2.67613 -0.0132874 2.15056 3.4315 3.77343 3.38633 2.60515 1.74669 1.0211 0.513075 0.212903 0.0648081 0.00683281 -0.00807302 -0.00750362 -0.00398779 -0.00147936 -0.000332743 1.82999e-05 6.12812e-05 3.42735e-05 1.15536e-05 2.00151e-06 -3.59599e-07 -4.26052e-07 -1.74134e-07 -3.92305e-08 -9.82905e-10 3.1741e-09 1.42519e-09 3.21634e-10 1.82746e-11 -1.52383e-11 -6.38275e-12 -1.18819e-12 -2.31295e-14 5.12689e-14 1.47039e-14 1.56059e-15 -1.87716e-16 -9.30955e-17 -1.2772e-17 -1.80916e-18 1.77056e-19 0 0 
0 0 5.15989e-20 -1.66515e-18 -1.00171e-17 -6.39357e-17 -7.42054e-17 1.5662e-15 1.21742e-14 3.47564e-14 -8.2383e-14 -1.2766e-12 -5.89745e-12 -1.02721e-11 4.34854e-11 4.02788e-10 1.52835e-09 2.56143e-09 -5.98457e-09 -5.89721e-08 -2.19405e-07 -4.41952e-07 1.17717e-08 3.88584e-06 1.69425e-05 4.3084e-05 5.90605e-05 -5.30708e-05 -0.000615267 -0.00219324 -0.00519452 -0.00827384 -0.00459367 0.0243915 0.115796 0.327341 0.725929 1.35539 2.18571 3.06319 3.69718 3.71824 2.81498 0.906798 -1.73306 -4.49119 -6.59593 -7.40741 -6.68358 -4.68852 -2.08301 0.348318 1.9998 2.63734 2.41091 1.71047 0.959181 0.445307 0.254653 0.305339 0.439844 0.51881 0.47717 0.329584 0.140744 -0.0169045 -0.0956243 -0.0862712 -0.0124714 0.0854457 0.168254 0.210419 0.204908 0.160461 0.0954039 0.0298012 -0.0201002 -0.0453393 -0.044633 -0.0224066 0.013233 0.0534493 0.0906263 0.119428 0.13728 0.144101 0.141271 0.131353 0.117108 0.100897 0.0844514 0.0689754 0.0551496 0.0431326 0.0328984 0.024359 0.0173707 0.011911 0.00791338 0.00545368 0.00466559 0.00545368 0.00791338 0.011911 0.0173707 0.024359 0.0328984 0.0431326 0.0551496 0.0689754 0.0844514 0.100897 0.117108 0.131353 0.141271 0.144101 0.13728 0.119428 0.0906263 0.0534493 0.013233 -0.0224066 -0.044633 -0.0453393 -0.0201002 0.0298012 0.0954039 0.160461 0.204908 0.210419 0.168254 0.0854457 -0.0124714 -0.0862712 -0.0956243 -0.0169045 0.140744 0.329584 0.47717 0.51881 0.439844 0.305339 0.254653 0.445307 0.959181 1.71047 2.41091 2.63734 1.9998 0.348318 -2.08301 -4.68852 -6.6836 -7.40744 -6.59593 -4.49119 -1.73305 0.906786 2.81499 3.71824 3.69717 3.06318 2.18571 1.35539 0.72593 0.327341 0.115796 0.0243914 -0.00459374 -0.0082739 -0.00519465 -0.00219358 -0.000615755 -5.30646e-05 5.84803e-05 4.26761e-05 1.67797e-05 3.84701e-06 1.06257e-08 -4.38129e-07 -2.17402e-07 -5.84101e-08 -5.91757e-09 2.54183e-09 1.51503e-09 3.99071e-10 4.30199e-11 -1.02031e-11 -5.84853e-12 -1.26525e-12 -8.14692e-14 3.45048e-14 1.20754e-14 1.55268e-15 -7.40101e-17 -6.55687e-17 -1.83246e-17 -2.0012e-18 0 0 
0 0 -1.48197e-18 -1.24327e-17 -4.19793e-17 -6.49461e-18 1.36868e-15 9.21339e-15 2.00085e-14 -1.17352e-13 -1.22388e-12 -4.90982e-12 -4.52923e-12 6.52572e-11 4.50065e-10 1.4709e-09 1.42801e-09 -1.20459e-08 -7.85519e-08 -2.51312e-07 -3.8537e-07 6.31002e-07 6.33505e-06 2.28682e-05 4.97056e-05 4.27603e-05 -0.000170487 -0.00100072 -0.00304429 -0.0063439 -0.0080286 0.00263197 0.0515525 0.186269 0.4739 0.980584 1.72685 2.62824 3.45191 3.83307 3.38254 1.86969 -0.596107 -3.49651 -6.02634 -7.38881 -7.13582 -5.37723 -2.74059 -0.0958803 1.81153 2.63408 2.48178 1.77405 0.990681 0.460372 0.274432 0.330985 0.45156 0.493943 0.410149 0.240081 0.0653328 -0.043318 -0.0573837 0.00584009 0.101025 0.179969 0.211091 0.187683 0.12438 0.0473742 -0.0169895 -0.050598 -0.0474178 -0.0124361 0.0418682 0.10012 0.148747 0.178379 0.185116 0.170032 0.137733 0.0948855 0.0483513 0.00403747 -0.0338727 -0.0630981 -0.0831088 -0.0946941 -0.099573 -0.0996125 -0.0966618 -0.0922477 -0.0875402 -0.0832582 -0.0797253 -0.0770974 -0.0752542 -0.0743136 -0.0740405 -0.0743136 -0.0752542 -0.0770974 -0.0797253 -0.0832582 -0.0875402 -0.0922477 -0.0966618 -0.0996125 -0.099573 -0.0946941 -0.0831088 -0.0630981 -0.0338727 0.00403747 0.0483513 0.0948855 0.137733 0.170032 0.185116 0.178379 0.148747 0.10012 0.0418682 -0.0124361 -0.0474178 -0.050598 -0.0169895 0.0473742 0.12438 0.187683 0.211091 0.179969 0.101025 0.00584009 -0.0573837 -0.043318 0.0653328 0.240081 0.410149 0.493943 0.45156 0.330985 0.274432 0.460372 0.990681 1.77405 2.48178 2.63408 1.81153 -0.0958845 -2.74062 -5.37727 -7.13586 -7.38881 -6.02633 -3.49651 -0.596118 1.86969 3.38254 3.83306 3.45191 2.62825 1.72685 0.980585 0.4739 0.186269 0.0515524 0.00263172 -0.00802904 -0.00634426 -0.00304306 -0.000994334 -0.000168953 4.23965e-05 4.9248e-05 2.26524e-05 6.27331e-06 6.2378e-07 -3.82238e-07 -2.49064e-07 -7.78178e-08 -1.19224e-08 1.41994e-09 1.45857e-09 4.46032e-10 6.46114e-11 -4.51223e-12 -4.8709e-12 -1.21341e-12 -1.16221e-13 1.9875e-14 9.1405e-15 1.35597e-15 -1.01919e-17 -3.30791e-17 -1.02464e-17 0 0 
0 0 -6.11972e-18 -1.49949e-17 2.36195e-17 1.08138e-15 6.45796e-15 8.94784e-15 -1.28362e-13 -1.07056e-12 -3.69127e-12 8.33314e-13 8.00832e-11 4.57418e-10 1.26318e-09 -7.94438e-11 -1.83945e-08 -9.50975e-08 -2.61736e-07 -2.40232e-07 1.50742e-06 9.2504e-06 2.8734e-05 5.1956e-05 6.51152e-06 -0.000344901 -0.00149484 -0.00398736 -0.00721757 -0.00613906 0.014962 0.0905767 0.278883 0.653665 1.27261 2.12023 3.04451 3.72988 3.75565 2.75806 0.64811 -2.22914 -5.11771 -7.10181 -7.49461 -6.167 -3.62573 -0.783808 1.45529 2.57327 2.58353 1.90629 1.08295 0.506175 0.295898 0.343327 0.45121 0.470274 0.363297 0.1885 0.0371143 -0.0274045 0.00243142 0.0869754 0.169206 0.205055 0.180478 0.11047 0.0269778 -0.0375572 -0.062249 -0.042823 0.0101399 0.0776624 0.139229 0.179086 0.188995 0.168675 0.124446 0.0662853 0.00515183 -0.0493105 -0.0904178 -0.114785 -0.122107 -0.114708 -0.0963564 -0.0712345 -0.0434688 -0.0161111 0.00849317 0.0292265 0.0458527 0.0586772 0.0683531 0.0754744 0.0806414 0.084457 0.0870872 0.0886294 0.0892201 0.0886294 0.0870872 0.084457 0.0806414 0.0754744 0.0683531 0.0586772 0.0458527 0.0292265 0.00849317 -0.0161111 -0.0434688 -0.0712345 -0.0963564 -0.114708 -0.122107 -0.114785 -0.0904178 -0.0493105 0.00515183 0.0662853 0.124446 0.168675 0.188995 0.179086 0.139229 0.0776624 0.0101399 -0.042823 -0.062249 -0.0375572 0.0269778 0.11047 0.180478 0.205055 0.169206 0.0869754 0.00243142 -0.0274045 0.0371143 0.1885 0.363297 0.470274 0.45121 0.343327 0.295898 0.506175 1.08295 1.90629 2.58352 2.57326 1.45526 -0.783843 -3.62579 -6.16701 -7.4946 -7.10181 -5.11772 -2.22913 0.648113 2.75806 3.75564 3.72989 3.04451 2.12023 1.27261 0.653667 0.278883 0.0905764 0.014962 -0.00613638 -0.00720602 -0.00395813 -0.00148079 -0.000341436 6.54166e-06 5.14932e-05 2.84673e-05 9.16189e-06 1.4918e-06 -2.38624e-07 -2.5946e-07 -9.42267e-08 -1.82139e-08 -7.29215e-11 1.25319e-09 4.53462e-10 7.93341e-11 8.0584e-13 -3.66352e-12 -1.06175e-12 -1.2722e-13 8.89532e-15 6.40732e-15 1.09694e-15 2.00086e-16 -1.05684e-18 0 0 
0 0 4.16623e-18 1.60474e-16 8.0559e-16 4.20966e-15 1.86699e-15 -1.20476e-13 -8.61458e-13 -2.47141e-12 4.97163e-12 8.59014e-11 4.2451e-10 9.37419e-10 -1.73257e-09 -2.39995e-08 -1.05214e-07 -2.42978e-07 -8.85378e-11 2.5988e-06 1.23492e-05 3.34602e-05 4.67708e-05 -5.62054e-05 -0.0005848 -0.00209179 -0.00494113 -0.00751703 -0.00185091 0.0338546 0.143574 0.395457 0.865671 1.59407 2.51627 3.40303 3.86111 3.44375 1.8659 -0.764395 -3.84561 -6.43089 -7.60897 -6.93982 -4.69517 -1.74362 0.867826 2.39713 2.68499 2.10128 1.24199 0.589375 0.3237 0.347561 0.446531 0.455959 0.339877 0.1677 0.0367182 0.00263716 0.0550602 0.13862 0.192831 0.185544 0.122349 0.0360616 -0.0343699 -0.0622966 -0.0415714 0.014865 0.0838787 0.141971 0.172674 0.170213 0.138308 0.0873721 0.030335 -0.0208574 -0.0575213 -0.0753195 -0.0740417 -0.0568919 -0.0290296 0.00356529 0.0354489 0.0621318 0.0808923 0.0907063 0.0921322 0.0865799 0.0762228 0.0633774 0.0500317 0.037681 0.027332 0.0192811 0.013616 0.00991867 0.00776894 0.00674339 0.00645219 0.00674339 0.00776894 0.00991867 0.013616 0.0192811 0.027332 0.037681 0.0500317 0.0633774 0.0762228 0.0865799 0.0921322 0.0907063 0.0808923 0.0621318 0.0354489 0.00356529 -0.0290296 -0.0568919 -0.0740417 -0.0753195 -0.0575213 -0.0208574 0.030335 0.0873721 0.138308 0.170213 0.172674 0.141971 0.0838787 0.014865 -0.0415714 -0.0622966 -0.0343699 0.0360616 0.122349 0.185544 0.192831 0.13862 0.0550602 0.00263716 0.0367182 0.1677 0.339877 0.455959 0.44653 0.347562 0.323699 0.589378 1.24199 2.10126 2.68496 2.3971 0.867789 -1.74363 -4.69517 -6.9398 -7.60898 -6.43091 -3.84563 -0.764388 1.86589 3.44375 3.86111 3.40304 2.51628 1.59407 0.865672 0.395458 0.143578 0.0338711 -0.00181155 -0.00745243 -0.00489398 -0.0020715 -0.000578978 -5.55441e-05 4.63747e-05 3.31552e-05 1.22329e-05 2.57294e-06 -8.89061e-10 -2.40959e-07 -1.04275e-07 -2.37718e-08 -1.71098e-09 9.3071e-10 4.20988e-10 8.51381e-11 4.91417e-12 -2.45389e-12 -8.54619e-13 -1.19467e-13 1.88466e-15 4.33136e-15 1.3237e-15 1.75776e-16 0 0 
0 0 1.21622e-16 8.61184e-16 2.66088e-15 -1.82111e-15 -1.0119e-13 -6.41459e-13 -1.42912e-12 7.45e-12 8.28258e-11 3.59833e-10 5.53123e-10 -3.24888e-09 -2.78494e-08 -1.06345e-07 -1.92349e-07 3.20886e-07 3.7974e-06 1.51899e-05 3.57122e-05 3.10766e-05 -0.000150146 -0.000890754 -0.002764 -0.0057794 -0.00686105 0.00569291 0.0607821 0.212312 0.536692 1.10667 1.93384 2.89314 3.67371 3.81914 2.89625 0.754053 -2.26113 -5.30224 -7.3147 -7.523 -5.84584 -2.97105 -0.0180204 2.02174 2.72908 2.34072 1.47545 0.724172 0.367607 0.348418 0.440178 0.452242 0.336958 0.168199 0.0490116 0.0307677 0.0905809 0.162959 0.189359 0.15114 0.0708957 -0.00835187 -0.0502912 -0.0414121 0.00766836 0.0720585 0.125879 0.152462 0.147798 0.118594 0.0774678 0.0372967 0.00765673 -0.00678891 -0.00590096 0.00704273 0.0272625 0.0495002 0.0690752 0.0826507 0.0881742 0.0851527 0.0743898 0.0574843 0.0368738 0.0150003 -0.00589154 -0.0241085 -0.0387351 -0.0495037 -0.0567138 -0.0610556 -0.0634681 -0.0647036 -0.065403 -0.0658818 -0.066159 -0.0664426 -0.066529 -0.0664426 -0.066159 -0.0658818 -0.065403 -0.0647036 -0.0634681 -0.0610556 -0.0567138 -0.0495037 -0.0387351 -0.0241085 -0.00589154 0.0150003 0.0368738 0.0574843 0.0743898 0.0851527 0.0881742 0.0826507 0.0690752 0.0495002 0.0272625 0.00704273 -0.00590096 -0.00678891 0.00765673 0.0372967 0.0774678 0.118594 0.147798 0.152462 0.125879 0.0720585 0.00766836 -0.0414121 -0.0502912 -0.00835187 0.0708957 0.15114 0.189359 0.162959 0.0905808 0.0307677 0.0490117 0.1682 0.336958 0.452242 0.440173 0.348408 0.367591 0.724136 1.47541 2.34071 2.72909 2.02175 -0.0180097 -2.97105 -5.84583 -7.523 -7.31469 -5.30225 -2.26113 0.75406 2.89626 3.81914 3.67372 2.89315 1.93385 1.10668 0.536715 0.212359 0.0608402 0.00569173 -0.00679366 -0.00572451 -0.00273748 -0.000882035 -0.000148565 3.08492e-05 3.53942e-05 1.5049e-05 3.76053e-06 3.16962e-07 -1.9089e-07 -1.05428e-07 -2.75947e-08 -3.21473e-09 5.49917e-10 3.56985e-10 8.21252e-11 7.37866e-12 -1.41966e-12 -6.36509e-13 -1.0029e-13 -1.626e-15 1.71016e-15 6.84379e-16 0 0 
0 0 3.90721e-16 6.24903e-16 -3.10138e-15 -7.76766e-14 -4.44124e-13 -6.57923e-13 8.28603e-12 7.28572e-11 2.77745e-10 1.79608e-10 -4.37121e-09 -2.92497e-08 -9.76664e-08 -1.14204e-07 6.85616e-07 4.93727e-06 1.72328e-05 3.41655e-05 2.65731e-06 -0.000276015 -0.0012504 -0.00345037 -0.00631261 -0.00478233 0.0174192 0.0971309 0.298037 0.701964 1.37117 2.27825 3.22821 3.83072 3.59 2.13258 -0.508249 -3.72806 -6.4785 -7.70632 -6.89827 -4.39562 -1.24594 1.34573 2.62518 2.58212 1.78456 0.930381 0.444068 0.352004 0.431444 0.456329 0.35067 0.183902 0.066291 0.0514589 0.11008 0.170411 0.176655 0.121709 0.0403508 -0.021384 -0.0354112 -0.00302906 0.0522342 0.102098 0.12741 0.124568 0.102537 0.0749891 0.0536157 0.0437839 0.0445967 0.0513772 0.0584034 0.061556 0.0592141 0.0519105 0.0413929 0.0297669 0.0187254 0.00942977 0.00255641 -0.00155923 -0.00262282 -0.000542129 0.00461839 0.012482 0.0223761 0.0332096 0.0436021 0.0522849 0.0583186 0.0612375 0.0608032 0.0576364 0.0526468 0.0470378 0.0419047 0.0384079 0.0371325 0.0384079 0.0419047 0.0470378 0.0526468 0.0576364 0.0608032 0.0612375 0.0583186 0.0522849 0.0436021 0.0332096 0.0223761 0.012482 0.00461839 -0.000542129 -0.00262282 -0.00155923 0.00255641 0.00942977 0.0187254 0.0297669 0.0413929 0.0519105 0.0592141 0.061556 0.0584034 0.0513772 0.0445967 0.0437839 0.0536157 0.0749891 0.102537 0.124568 0.12741 0.102098 0.0522342 -0.00302907 -0.0354112 -0.0213841 0.0403504 0.121709 0.176655 0.170411 0.110081 0.0514587 0.0662861 0.183895 0.350668 0.456323 0.431432 0.351967 0.444048 0.930357 1.7846 2.58216 2.62522 1.34576 -1.24593 -4.39565 -6.89826 -7.70631 -6.47851 -3.72805 -0.508243 2.13258 3.59002 3.83073 3.22822 2.27828 1.37122 0.702006 0.297912 0.0965103 0.0172607 -0.00474133 -0.00625411 -0.00341772 -0.00123832 -0.000273222 2.71963e-06 3.38723e-05 1.70761e-05 4.89037e-06 6.78277e-07 -1.13543e-07 -9.68646e-08 -2.89932e-08 -4.32931e-09 1.79454e-10 2.75652e-10 7.22688e-11 8.2145e-12 -6.53877e-13 -4.40794e-13 -7.89839e-14 -1.55594e-14 -3.37851e-16 0 0 
0 0 -5.39374e-16 -1.1974e-14 -5.67545e-14 -2.8723e-13 -1.67245e-13 7.83914e-12 5.90143e-11 1.93797e-10 -1.24281e-10 -4.94159e-09 -2.80392e-08 -8.05216e-08 -1.99174e-08 1.03937e-06 5.82475e-06 1.79623e-05 2.78932e-05 -3.88156e-05 -0.000428207 -0.00163475 -0.00405431 -0.00628629 -0.000734284 0.0342908 0.144101 0.401303 0.88921 1.65159 2.61198 3.49994 3.85503 3.17375 1.19021 -1.83909 -5.05808 -7.29059 -7.60487 -5.8501 -2.79431 0.274484 2.2483 2.74335 2.15059 1.22803 0.578009 0.369852 0.419461 0.463026 0.376848 0.212276 0.0871129 0.0653489 0.118534 0.170492 0.165893 0.104973 0.0299327 -0.0139497 -0.00854292 0.0320975 0.077794 0.103914 0.103302 0.0854538 0.0665863 0.0588681 0.0645794 0.0773389 0.0866249 0.0842105 0.0672261 0.0390354 0.00698107 -0.0210724 -0.0389814 -0.0444008 -0.0382501 -0.0238048 -0.00531707 0.0134735 0.0300013 0.0431399 0.0527428 0.0593763 0.0635938 0.0657254 0.0658771 0.0639484 0.059893 0.0538039 0.0460162 0.0372851 0.0283457 0.0199467 0.0127059 0.006933 0.00285189 0.000434562 -0.000349451 0.000434562 0.00285189 0.006933 0.0127059 0.0199467 0.0283457 0.0372851 0.0460162 0.0538039 0.059893 0.0639484 0.0658771 0.0657254 0.0635938 0.0593763 0.0527428 0.0431399 0.0300013 0.0134735 -0.00531707 -0.0238048 -0.0382501 -0.0444008 -0.0389814 -0.0210724 0.00698107 0.0390354 0.0672261 0.0842105 0.0866249 0.0773389 0.0645794 0.0588681 0.0665863 0.0854538 0.103302 0.103914 0.0777939 0.0320974 -0.00854313 -0.01395 0.0299324 0.104974 0.165894 0.170488 0.118527 0.0653421 0.0871016 0.212261 0.376834 0.463022 0.419457 0.369874 0.578047 1.22806 2.1506 2.74338 2.24831 0.274454 -2.7943 -5.85008 -7.60487 -7.29059 -5.05807 -1.83908 1.19022 3.17377 3.85507 3.49999 2.61199 1.65133 0.888087 0.398435 0.142742 0.0339435 -0.000737006 -0.00622975 -0.00401647 -0.00161915 -0.000423966 -3.83395e-05 2.76717e-05 1.78036e-05 5.77081e-06 1.02894e-06 -2.01439e-08 -7.99031e-08 -2.78045e-08 -4.89754e-09 -1.22272e-10 1.92401e-10 5.85573e-11 7.77642e-12 -1.68036e-13 -2.95758e-13 -9.19122e-14 -1.2952e-14 0 0 
0 0 -8.76462e-15 -5.92309e-14 -1.81046e-13 8.98722e-14 6.61959e-12 4.43148e-11 1.2039e-10 -3.25053e-10 -4.93923e-09 -2.46296e-08 -5.81261e-08 7.46669e-08 1.32251e-06 6.28758e-06 1.70416e-05 1.67745e-05 -9.09054e-05 -0.000593462 -0.00199776 -0.00445032 -0.00541688 0.00581936 0.0571385 0.20258 0.521863 1.09492 1.9387 2.91916 3.68966 3.73616 2.58433 0.120569 -3.15337 -6.16285 -7.69819 -7.06359 -4.52876 -1.23161 1.45704 2.69093 2.51347 1.62541 0.802086 0.423605 0.406963 0.466058 0.410717 0.25279 0.113349 0.0753808 0.119861 0.167947 0.160656 0.100235 0.0325857 0.00145707 0.0165574 0.054809 0.0844467 0.0880828 0.0711173 0.052368 0.0487473 0.0643447 0.0895886 0.108199 0.107118 0.0822866 0.040177 -0.00635132 -0.0434253 -0.0615155 -0.057827 -0.0364042 -0.00533816 0.0261743 0.0505852 0.0636094 0.0645314 0.0555154 0.040224 0.0224441 0.00526052 -0.00957121 -0.0213422 -0.030225 -0.0367366 -0.041163 -0.0435351 -0.0436989 -0.0412389 -0.0358962 -0.0277724 -0.0175759 -0.00624799 0.00471558 0.0139454 0.0200672 0.0222143 0.0200672 0.0139454 0.00471558 -0.00624799 -0.0175759 -0.0277724 -0.0358962 -0.0412389 -0.0436989 -0.0435351 -0.041163 -0.0367366 -0.030225 -0.0213422 -0.00957121 0.00526052 0.0224441 0.040224 0.0555154 0.0645314 0.0636094 0.0505852 0.0261743 -0.00533816 -0.0364042 -0.057827 -0.0615155 -0.0434253 -0.00635132 0.040177 0.0822866 0.107118 0.108199 0.0895886 0.0643447 0.0487472 0.0523679 0.071117 0.0880827 0.0844458 0.0548074 0.0165556 0.00145759 0.0325863 0.100229 0.16065 0.167931 0.119838 0.0753645 0.113344 0.252791 0.410723 0.466107 0.406983 0.423633 0.80214 1.62545 2.51346 2.69093 1.45704 -1.23161 -4.52876 -7.06361 -7.69817 -6.16281 -3.15333 0.1206 2.58437 3.73611 3.68921 2.91757 1.93454 1.08659 0.516899 0.200588 0.0565617 0.00574986 -0.00537056 -0.00440946 -0.00197891 -0.00058768 -8.9921e-05 1.66712e-05 1.68975e-05 6.23134e-06 1.30994e-06 7.36398e-08 -5.77171e-08 -2.44333e-08 -4.89795e-09 -3.21891e-10 1.19551e-10 4.39828e-11 6.56341e-12 7.6996e-14 -1.21496e-13 -4.73156e-14 0 0 
0 0 -2.69266e-14 -4.67558e-14 1.83416e-13 5.10668e-12 3.10208e-11 6.43629e-11 -4.18761e-10 -4.46887e-09 -1.98499e-08 -3.46201e-08 1.53598e-07 1.48705e-06 6.22739e-06 1.44483e-05 1.76205e-06 -0.000148131 -0.000751454 -0.00228108 -0.00450263 -0.00344797 0.0152514 0.0862918 0.272504 0.658385 1.3142 2.22214 3.18461 3.78319 3.473 1.8479 -1.01673 -4.37169 -6.98069 -7.70424 -6.17516 -3.09189 0.144637 2.24831 2.74925 2.09448 1.14858 0.549301 0.405637 0.45952 0.444999 0.304714 0.148546 0.0850025 0.116024 0.163549 0.159882 0.10319 0.0405197 0.015552 0.0329889 0.0642914 0.0780771 0.0652715 0.0412115 0.029462 0.043027 0.0760141 0.109303 0.122809 0.106852 0.0659372 0.0154269 -0.0268181 -0.0476335 -0.0428777 -0.0172653 0.0186569 0.0528704 0.0759173 0.0829958 0.0745516 0.0551163 0.0308606 0.00790468 -0.00937606 -0.0191185 -0.0215961 -0.0187259 -0.0131058 -0.00688312 -0.00142553 0.00280873 0.00629549 0.00995972 0.0148587 0.0214592 0.0297907 0.0394639 0.0497319 0.0595417 0.0680916 0.0746928 0.0788 0.0802179 0.0788 0.0746928 0.0680916 0.0595417 0.0497319 0.0394639 0.0297907 0.0214592 0.0148587 0.00995972 0.00629549 0.00280873 -0.00142553 -0.00688312 -0.0131058 -0.0187259 -0.0215961 -0.0191185 -0.00937606 0.00790468 0.0308606 0.0551163 0.0745516 0.0829958 0.0759173 0.0528704 0.0186569 -0.0172653 -0.0428777 -0.0476335 -0.0268181 0.0154269 0.0659372 0.106852 0.122809 0.109302 0.0760138 0.0430268 0.0294612 0.0412091 0.0652684 0.0780772 0.0642936 0.0329845 0.01554 0.0404998 0.103159 0.159863 0.163545 0.116026 0.0849968 0.148562 0.304753 0.445023 0.459582 0.405683 0.549358 1.14857 2.09447 2.74926 2.24832 0.14464 -3.09187 -6.17511 -7.70417 -6.98064 -4.37167 -1.01686 1.84721 3.47082 3.77788 3.17389 2.2043 1.30165 0.651978 0.26983 0.0854303 0.0150877 -0.00342278 -0.00446232 -0.0022599 -0.000744251 -0.000146607 1.8096e-06 1.43345e-05 6.17412e-06 1.47368e-06 1.52005e-07 -3.44059e-08 -1.96988e-08 -4.43363e-09 -4.15309e-10 6.3915e-11 3.07962e-11 5.19616e-12 1.01302e-12 1.97278e-14 0 0 
0 0 3.41849e-14 7.84059e-13 3.75278e-12 2.03496e-11 2.69552e-11 -4.24774e-10 -3.70974e-09 -1.46659e-08 -1.38421e-08 2.05356e-07 1.51078e-06 5.65451e-06 1.05298e-05 -1.51486e-05 -0.000202619 -0.000877934 -0.00242497 -0.00409632 -0.000227315 0.0276033 0.12125 0.351982 0.806871 1.54027 2.49077 3.39472 3.77186 3.07369 1.00018 -2.15973 -5.42786 -7.48036 -7.34854 -5.0536 -1.6814 1.24174 2.66298 2.53791 1.62589 0.795351 0.445566 0.443268 0.469046 0.364284 0.196958 0.0992403 0.108481 0.155553 0.16061 0.109982 0.049459 0.024835 0.0401997 0.0642296 0.0663845 0.0434841 0.017792 0.0143054 0.0406473 0.0826426 0.115629 0.12079 0.0950995 0.0504998 0.00572289 -0.0230608 -0.0287337 -0.0139742 0.0120084 0.0379999 0.0553614 0.0599672 0.052566 0.0376685 0.0212798 0.00877617 0.00374901 0.00676346 0.0163419 0.0290982 0.0412539 0.049733 0.0527335 0.0501242 0.0430987 0.0337686 0.0242728 0.0162781 0.0106311 0.00730465 0.00557712 0.00422297 0.00240412 -0.000510529 -0.00457736 -0.00914188 -0.0134088 -0.0164572 -0.0175646 -0.0164572 -0.0134088 -0.00914188 -0.00457736 -0.000510529 0.00240412 0.00422297 0.00557712 0.00730465 0.0106311 0.0162781 0.0242728 0.0337686 0.0430987 0.0501242 0.0527335 0.049733 0.0412539 0.0290982 0.0163419 0.00676346 0.00374901 0.00877617 0.0212798 0.0376685 0.052566 0.0599672 0.0553614 0.0379999 0.0120084 -0.0139742 -0.0287337 -0.0230608 0.00572287 0.0504996 0.0950992 0.120789 0.115628 0.0826409 0.0406444 0.0143037 0.0177937 0.0434831 0.0663718 0.0642067 0.0401789 0.0248164 0.0494338 0.109974 0.16063 0.155569 0.108514 0.0992828 0.197026 0.36436 0.469107 0.443296 0.445583 0.795338 1.62592 2.53793 2.66298 1.24175 -1.68135 -5.05353 -7.34852 -7.48059 -5.42883 -2.16254 0.99366 3.06105 3.75105 3.36575 2.4669 1.52538 0.799047 0.348548 0.12005 0.0273172 -0.000235677 -0.00406125 -0.00240297 -0.000869702 -0.000200618 -1.49437e-05 1.0456e-05 5.60863e-06 1.49797e-06 2.03494e-07 -1.37794e-08 -1.45584e-08 -3.68198e-09 -4.21615e-10 2.68687e-11 2.09433e-11 6.32687e-12 8.73592e-13 0 0 
0 0 5.95027e-13 4.11973e-12 1.30466e-11 5.53449e-12 -3.73924e-10 -2.8515e-09 -9.90121e-09 1.67119e-09 2.25709e-07 1.40291e-06 4.68832e-06 5.93791e-06 -3.13179e-05 -0.000245755 -0.000950191 -0.00238361 -0.0031749 0.00421122 0.0424268 0.16042 0.437019 0.959376 1.76146 2.73142 3.53758 3.65267 2.55467 0.0827655 -3.24998 -6.27375 -7.66048 -6.69793 -3.81658 -0.408004 2.02254 2.76295 2.177 1.20451 0.580739 0.434105 0.472788 0.422351 0.261301 0.125735 0.100956 0.142895 0.160305 0.119279 0.0589343 0.0302817 0.0415279 0.0607495 0.0566679 0.0289582 0.00362511 0.00586587 0.0386426 0.082479 0.111478 0.110851 0.0834649 0.0443912 0.0103417 -0.00881322 -0.0123404 -0.0059287 0.00325391 0.0100192 0.0123595 0.0111302 0.00843286 0.00656782 0.00720429 0.0108545 0.0172286 0.0248258 0.0316599 0.0356293 0.035437 0.0304699 0.0214952 0.0102025 -0.00113864 -0.0101695 -0.0151405 -0.0152707 -0.0109081 -0.00357338 0.00484081 0.0122551 0.0170886 0.0185115 0.0165767 0.0119833 0.00590263 -0.000295879 -0.00565458 -0.00919282 -0.0104114 -0.00919282 -0.00565458 -0.000295879 0.00590263 0.0119833 0.0165767 0.0185115 0.0170886 0.0122551 0.00484081 -0.00357338 -0.0109081 -0.0152707 -0.0151405 -0.0101695 -0.00113864 0.0102025 0.0214952 0.0304699 0.035437 0.0356293 0.0316599 0.0248258 0.0172286 0.0108545 0.00720429 0.00656782 0.00843286 0.0111302 0.0123595 0.0100192 0.00325391 -0.0059287 -0.0123404 -0.00881323 0.0103417 0.0443908 0.0834641 0.110849 0.111476 0.0824776 0.038641 0.00585433 0.00360193 0.0289316 0.056649 0.0607272 0.0415076 0.0302899 0.0589589 0.119297 0.160339 0.142946 0.100993 0.125791 0.261304 0.422381 0.472798 0.434121 0.580759 1.20454 2.17706 2.76302 2.02261 -0.408027 -3.81696 -6.69927 -7.66404 -6.28158 -3.26447 0.0598814 2.5241 3.6185 3.50365 2.70524 1.74454 0.950128 0.432781 0.158845 0.0419953 0.00415745 -0.00315034 -0.00236278 -0.000941566 -0.000243434 -3.098e-05 5.90547e-06 4.65236e-06 1.39168e-06 2.23853e-07 1.63593e-09 -9.83042e-09 -2.83104e-09 -3.70891e-10 6.59761e-12 1.08111e-11 3.4343e-12 0 0 
0 0 2.00073e-12 5.04584e-12 -4.04721e-12 -2.96682e-10 -2.04398e-09 -6.06448e-09 1.1092e-08 2.17844e-07 1.19891e-06 3.52075e-06 1.45442e-06 -4.41394e-05 -0.000270413 -0.000953397 -0.00214067 -0.00177343 0.00958767 0.0586938 0.201015 0.521492 1.10468 1.96066 2.92517 3.60004 3.42612 1.93777 -0.861022 -4.23745 -6.88178 -7.5452 -5.8343 -2.571 0.656339 2.49646 2.63396 1.76852 0.879719 0.479631 0.456316 0.462887 0.338184 0.173168 0.100995 0.126241 0.156707 0.13064 0.0716427 0.0357832 0.0412691 0.0585556 0.0536047 0.024923 -0.00011036 0.0039153 0.0375764 0.0788444 0.103459 0.101425 0.0791545 0.0507836 0.0272128 0.011279 0.000260254 -0.0091488 -0.017123 -0.0212753 -0.0186792 -0.00905636 0.00490823 0.0187141 0.0282575 0.0313761 0.0281303 0.0202912 0.0101585 -0.000355547 -0.00981085 -0.0173861 -0.0223599 -0.0241864 -0.0223051 -0.016426 -0.00645762 0.00683757 0.0219388 0.0370083 0.0498374 0.0584697 0.0620288 0.0603316 0.0545394 0.046128 0.0369352 0.0285816 0.022009 0.0174803 0.0147599 0.0134696 0.0130631 0.0134696 0.0147599 0.0174803 0.022009 0.0285816 0.0369352 0.046128 0.0545394 0.0603316 0.0620288 0.0584697 0.0498374 0.0370083 0.0219388 0.00683757 -0.00645762 -0.016426 -0.0223051 -0.0241864 -0.0223599 -0.0173861 -0.00981085 -0.000355547 0.0101585 0.0202912 0.0281303 0.0313761 0.0282575 0.0187141 0.00490823 -0.00905636 -0.0186792 -0.0212752 -0.017123 -0.0091488 0.00026018 0.0112786 0.0272115 0.0507812 0.0791507 0.10142 0.10345 0.078824 0.0375458 0.00388994 -0.000115853 0.024918 0.0535988 0.0585748 0.0412871 0.0358138 0.0717014 0.130693 0.156761 0.126281 0.101036 0.173216 0.338206 0.462931 0.456369 0.479684 0.879768 1.76856 2.63387 2.49594 0.654605 -2.57538 -5.8435 -7.56149 -6.90642 -4.26867 -0.892617 1.91422 3.39336 3.56588 2.89734 1.94196 1.09411 0.516473 0.199057 0.0581061 0.00948045 -0.00176386 -0.00212303 -0.000945118 -0.00026799 -4.37171e-05 1.45682e-06 3.49512e-06 1.18981e-06 2.16192e-07 1.10076e-08 -6.02109e-09 -2.02973e-09 -3.01762e-10 -5.41954e-11 6.5841e-13 0 0 
0 0 -1.00131e-12 -4.37409e-11 -2.2245e-10 -1.37487e-09 -3.32018e-09 1.50733e-08 1.9006e-07 9.47303e-07 2.35742e-06 -2.23001e-06 -5.17601e-05 -0.000273002 -0.000885549 -0.00171903 -3.19989e-05 0.0153705 0.0748355 0.23922 0.597608 1.2293 2.11836 3.04905 3.56507 3.09135 1.24425 -1.79235 -5.08522 -7.24534 -7.17833 -4.84348 -1.40281 1.47765 2.70527 2.36407 1.38429 0.661564 0.450634 0.470787 0.412551 0.246756 0.120649 0.109844 0.147452 0.142697 0.0898257 0.0451068 0.0421565 0.0588884 0.057148 0.0301419 0.00432487 0.00618554 0.0360996 0.0725011 0.0934835 0.0931237 0.0797623 0.0639255 0.0493212 0.0331079 0.0123911 -0.0105116 -0.0280189 -0.0320248 -0.0196068 0.00478731 0.0313915 0.0500291 0.054918 0.0459314 0.0283231 0.00890861 -0.00652634 -0.0150793 -0.0167297 -0.0134449 -0.00784378 -0.00193738 0.00322432 0.00741658 0.0111405 0.0149079 0.0188379 0.0224973 0.0248218 0.0248426 0.0219065 0.0161649 0.00843592 0.00019354 -0.00711117 -0.0123866 -0.0152048 -0.015791 -0.0146426 -0.0127654 -0.0109059 -0.00953097 -0.009055 -0.00953097 -0.0109059 -0.0127654 -0.0146426 -0.015791 -0.0152048 -0.0123866 -0.00711117 0.00019354 0.00843592 0.0161649 0.0219065 0.0248426 0.0248218 0.0224973 0.0188379 0.0149079 0.0111405 0.00741658 0.00322432 -0.00193738 -0.00784378 -0.0134449 -0.0167297 -0.0150793 -0.00652634 0.00890861 0.0283231 0.0459314 0.054918 0.0500291 0.0313915 0.00478731 -0.0196068 -0.0320249 -0.0280189 -0.0105121 0.012389 0.0331029 0.0493127 0.0639145 0.0797447 0.0930928 0.0934557 0.0724992 0.0361085 0.00618285 0.00431909 0.0301734 0.0572045 0.0589403 0.0422138 0.0451605 0.0898978 0.142768 0.147493 0.109893 0.120661 0.246779 0.412611 0.470886 0.450676 0.661452 1.38358 2.36187 2.69999 1.46715 -1.42068 -4.86936 -7.20954 -7.27419 -5.10062 -1.78604 1.23286 3.06276 3.53169 3.02037 2.09836 1.21766 0.591917 0.23692 0.0741002 0.0152088 -3.97104e-05 -0.00170605 -0.000878262 -0.000270697 -5.13109e-05 -2.20381e-06 2.34087e-06 9.4044e-07 1.88715e-07 1.49754e-08 -3.30269e-09 -1.41398e-09 -4.05895e-10 -5.22648e-11 0 0 
0 0 -3.645e-11 -2.69589e-10 -9.04581e-10 -1.57637e-09 1.51257e-08 1.52355e-07 6.94514e-07 1.36125e-06 -4.69404e-06 -5.35569e-05 -0.000254482 -0.000758809 -0.0011795 0.00182075 0.0208454 0.088951 0.2707 0.656928 1.31939 2.21571 3.08302 3.4182 2.64838 0.490694 -2.68404 -5.77506 -7.37926 -6.61756 -3.80636 -0.372693 2.05454 2.70805 2.03002 1.06464 0.535183 0.453915 0.459219 0.338831 0.173398 0.105013 0.131442 0.15056 0.11284 0.0605644 0.0451181 0.0596969 0.0636563 0.0403659 0.0124756 0.00872159 0.0319496 0.0620357 0.0795832 0.082042 0.0782083 0.0744821 0.0677641 0.0509016 0.0224467 -0.00933004 -0.0309526 -0.0320876 -0.012466 0.0183381 0.0461303 0.0597903 0.0558068 0.0388837 0.0182775 0.00270782 -0.00316107 0.000270546 0.00887222 0.0176727 0.0226938 0.0223382 0.017163 0.00907705 0.000810639 -0.00537452 -0.00823832 -0.00792166 -0.00545012 -0.00248758 -0.000418427 7.9988e-05 -0.000516176 -0.00106205 -0.000289828 0.0025285 0.00757114 0.0140742 0.0208639 0.0268731 0.0313331 0.0341839 0.035569 0.0361453 0.0362471 0.0361453 0.035569 0.0341839 0.0313331 0.0268731 0.0208639 0.0140742 0.00757114 0.0025285 -0.000289828 -0.00106205 -0.000516176 7.9988e-05 -0.000418427 -0.00248758 -0.00545012 -0.00792166 -0.00823832 -0.00537452 0.000810639 0.00907705 0.017163 0.0223382 0.0226938 0.0176727 0.00887222 0.000270546 -0.00316107 0.00270782 0.0182775 0.0388837 0.0558068 0.0597903 0.0461302 0.0183379 -0.0124658 -0.0320885 -0.0309572 -0.00933907 0.0224339 0.0508848 0.0677374 0.0744525 0.0782039 0.0820588 0.079586 0.0620307 0.0319751 0.00877894 0.0125302 0.0404143 0.0637086 0.0597479 0.0451771 0.0606491 0.112912 0.150625 0.131476 0.105085 0.173472 0.338853 0.458983 0.452989 0.532552 1.05855 2.01832 2.68889 2.02789 -0.402942 -3.83166 -6.62638 -7.36187 -5.73117 -2.65681 0.488054 2.62478 3.38684 3.05447 2.1951 1.30708 0.650771 0.268147 0.0880994 0.0206373 0.00179658 -0.00117171 -0.000752924 -0.000252462 -5.3131e-05 -4.65566e-06 1.35175e-06 6.89674e-07 1.51337e-07 1.50035e-08 -1.66866e-09 -9.58051e-10 -2.41036e-10 0 0 
0 0 -1.45336e-10 -5.2158e-10 -6.46151e-10 1.29248e-08 1.13435e-07 4.73884e-07 6.20014e-07 -5.85457e-06 -5.01833e-05 -0.0002199 -0.000596341 -0.000607011 0.00351547 0.0252565 0.0991632 0.291384 0.691862 1.36311 2.23803 3.01426 3.15599 2.1091 -0.299545 -3.51734 -6.30857 -7.31955 -5.93057 -2.7951 0.482753 2.40873 2.5681 1.68988 0.823871 0.474596 0.461351 0.421616 0.262965 0.129636 0.114093 0.147538 0.135832 0.0831 0.0510016 0.0581285 0.0680011 0.0510834 0.0213794 0.00985661 0.0247503 0.0483607 0.0628003 0.0674026 0.0715913 0.078488 0.0794284 0.0637928 0.0313902 -0.00532492 -0.0294985 -0.0311694 -0.0123656 0.0148572 0.0368616 0.0448501 0.0385857 0.0246888 0.0118379 0.00595198 0.00817617 0.0148801 0.020974 0.0224638 0.018283 0.0100145 0.000794581 -0.00636252 -0.00914032 -0.00660919 0.000746325 0.0112794 0.022283 0.0308182 0.0347529 0.0332814 0.0273855 0.0189764 0.0107502 0.00453855 0.00143846 0.00123243 0.00298739 0.00552256 0.00799393 0.00999796 0.0113509 0.0123485 0.0129646 0.0133469 0.0134762 0.0133469 0.0129646 0.0123485 0.0113509 0.00999796 0.00799393 0.00552256 0.00298739 0.00123243 0.00143846 0.00453855 0.0107502 0.0189764 0.0273855 0.0332814 0.0347529 0.0308182 0.022283 0.0112794 0.000746325 -0.00660919 -0.00914032 -0.00636252 0.000794581 0.0100145 0.018283 0.0224638 0.020974 0.0148801 0.00817619 0.00595213 0.011838 0.0246889 0.0385858 0.0448501 0.036861 0.0148547 -0.0123728 -0.0311817 -0.0295147 -0.00534766 0.0313594 0.0637772 0.0794423 0.0784987 0.0715936 0.0674269 0.0628455 0.0484126 0.0247995 0.00991408 0.0214361 0.0511504 0.0680602 0.0581926 0.0510549 0.0831645 0.135913 0.14764 0.114063 0.129291 0.261733 0.418458 0.454471 0.461828 0.803737 1.66318 2.5397 2.38788 0.480872 -2.76973 -5.87886 -7.25286 -6.24531 -3.48051 -0.29367 2.09155 3.12793 2.987 2.21766 1.35066 0.685532 0.28871 0.098247 0.0250184 0.00347867 -0.000603945 -0.000591964 -0.000218255 -4.98146e-05 -5.81353e-06 6.15397e-07 4.70667e-07 1.12681e-07 1.31085e-08 1.75819e-09 -2.72366e-10 0 0 
0 0 -9.17945e-11 1.64881e-09 1.01418e-08 7.90817e-08 3.01731e-07 1.45006e-07 -5.91508e-06 -4.32013e-05 -0.000176657 -0.00042563 -8.84337e-05 0.00480829 0.0279831 0.104042 0.298349 0.697305 1.35328 2.1783 2.84118 2.78941 1.50161 -1.08527 -4.26043 -6.68934 -7.11119 -5.18827 -1.87176 1.14475 2.57282 2.34132 1.37977 0.657593 0.452945 0.457883 0.367611 0.200038 0.113238 0.131131 0.149075 0.11076 0.0628824 0.0543419 0.0669632 0.0594018 0.0304384 0.0109359 0.0170403 0.0351259 0.047032 0.0524304 0.0619058 0.077356 0.0861899 0.0748641 0.0427863 0.00450898 -0.0220658 -0.0280033 -0.0161737 0.00280783 0.01888 0.0268363 0.0271966 0.0237619 0.0205179 0.0193384 0.0193431 0.0181445 0.0138819 0.00658115 -0.00156447 -0.00776916 -0.00987248 -0.00732805 -0.000782732 0.00814008 0.0179174 0.0270262 0.0337233 0.0363703 0.0338235 0.0259766 0.0143211 0.00142498 -0.00981789 -0.0173306 -0.0203395 -0.0194965 -0.0162881 -0.0122462 -0.00834346 -0.0049003 -0.00169759 0.00168372 0.00543005 0.00922782 0.0126382 0.0149877 0.0158331 0.0149877 0.0126382 0.00922782 0.00543005 0.00168372 -0.00169759 -0.0049003 -0.00834346 -0.0122462 -0.0162881 -0.0194965 -0.0203395 -0.0173306 -0.00981789 0.00142498 0.0143211 0.0259766 0.0338235 0.0363703 0.0337233 0.0270262 0.0179174 0.00814008 -0.000782732 -0.00732805 -0.00987248 -0.00776916 -0.00156447 0.00658115 0.0138819 0.0181446 0.0193432 0.0193384 0.0205179 0.0237615 0.0271952 0.026832 0.0188699 0.0027922 -0.0161941 -0.0280301 -0.0220881 0.00451512 0.0428057 0.0748761 0.0862206 0.0773945 0.0619417 0.052482 0.0470901 0.0351968 0.0170964 0.0109998 0.0304879 0.0594585 0.0669897 0.0543977 0.0629166 0.110672 0.148614 0.129656 0.109614 0.192446 0.354073 0.437307 0.426876 0.631695 1.36392 2.34644 2.60524 1.20095 -1.80601 -5.12948 -7.03927 -6.62163 -4.21576 -1.071 1.49082 2.76577 2.81633 2.15903 1.34127 0.691123 0.295709 0.103124 0.027736 0.00476458 -8.89439e-05 -0.000422629 -0.000175402 -4.29056e-05 -5.87766e-06 1.43391e-07 3.00057e-07 8.12483e-08 2.14909e-08 2.35083e-09 0 0 
0 0 1.72948e-09 1.47217e-08 5.37895e-08 1.79955e-07 -1.06788e-07 -5.23716e-06 -3.44968e-05 -0.000132262 -0.000270997 0.000309935 0.00554253 0.0286953 0.102961 0.290549 0.671915 1.28924 2.03938 2.57536 2.34461 0.868851 -1.81315 -4.8651 -6.90091 -6.78028 -4.44186 -1.0778 1.60947 2.57964 2.06717 1.11341 0.548923 0.447116 0.438519 0.308193 0.155614 0.113812 0.142504 0.135271 0.0841844 0.053058 0.0598384 0.0633141 0.0404516 0.0147319 0.0117238 0.0251514 0.0355582 0.0403659 0.0512571 0.0717998 0.0880377 0.083407 0.0556739 0.0188993 -0.00966069 -0.0216584 -0.0194062 -0.00967638 0.00228695 0.0142836 0.0249721 0.0323998 0.0347413 0.0313806 0.0234773 0.0132963 0.00359631 -0.00346557 -0.00604414 -0.0039276 0.00183259 0.00854869 0.0138192 0.0164607 0.0169331 0.0164339 0.0160162 0.0154584 0.0139467 0.0104618 0.00526596 -0.000104157 -0.00351883 -0.00346977 0.000354132 0.00669188 0.0134769 0.0188493 0.0217246 0.0221489 0.0211786 0.0198287 0.0187151 0.0183516 0.0185325 0.0190022 0.0195148 0.0198868 0.020019 0.0198868 0.0195148 0.0190022 0.0185325 0.0183516 0.0187151 0.0198287 0.0211786 0.0221489 0.0217246 0.0188493 0.0134769 0.00669188 0.000354132 -0.00346977 -0.00351883 -0.000104157 0.00526596 0.0104618 0.0139467 0.0154584 0.0160162 0.0164339 0.0169331 0.0164607 0.0138192 0.00854869 0.00183259 -0.00392761 -0.00604408 -0.00346553 0.00359626 0.0132962 0.023477 0.0313793 0.034738 0.0323931 0.0249592 0.0142647 0.00226381 -0.00969826 -0.0194111 -0.0216401 -0.00964144 0.0189227 0.0557162 0.0834533 0.0880821 0.0718501 0.0513059 0.0404099 0.0356096 0.0252109 0.0117787 0.0147907 0.0404949 0.0633393 0.059706 0.0525177 0.0825159 0.13127 0.134389 0.0998217 0.135058 0.28333 0.415776 0.436553 0.560625 1.1517 2.12602 2.64322 1.65913 -1.05078 -4.39562 -6.71234 -6.83135 -4.81452 -1.7915 0.864789 2.32595 2.55372 2.02197 1.27821 0.666186 0.288093 0.102102 0.0284601 0.00549779 0.000307233 -0.000269109 -0.000131364 -3.42754e-05 -5.20624e-06 -1.04804e-07 1.87105e-07 7.23396e-08 1.45005e-08 0 0 
0 0 9.11544e-09 4.36555e-08 1.05516e-07 -2.01005e-07 -4.20158e-06 -2.57371e-05 -9.24991e-05 -0.000148156 0.000556662 0.00568295 0.0274308 0.0962564 0.269121 0.618596 1.17746 1.83432 2.2406 1.85983 0.262936 -2.42566 -5.28339 -6.91747 -6.32807 -3.70281 -0.413378 1.90086 2.4664 1.7697 0.885167 0.472348 0.436731 0.401651 0.249861 0.127188 0.119513 0.141904 0.11192 0.062509 0.0505168 0.0606535 0.0505001 0.0230935 0.0102772 0.0184196 0.0283178 0.0315381 0.0398353 0.0608688 0.08242 0.0856736 0.0653291 0.0331111 0.0043575 -0.0134683 -0.0212146 -0.0210769 -0.0131239 0.00242266 0.0213617 0.0361101 0.0401178 0.0325215 0.018316 0.00452831 -0.0036661 -0.0051341 -0.00147778 0.00421726 0.0091459 0.0110885 0.00950116 0.00556435 0.00198344 0.00155109 0.00559581 0.0128765 0.0203438 0.0247982 0.0245366 0.0203648 0.0147482 0.0105617 0.00916521 0.010278 0.012202 0.0130682 0.0118078 0.00858881 0.0043603 0.000283181 -0.00296005 -0.00521876 -0.00658337 -0.00740304 -0.00788066 -0.0081358 -0.00824045 -0.00828056 -0.00823886 -0.00828056 -0.00824045 -0.0081358 -0.00788066 -0.00740304 -0.00658337 -0.00521876 -0.00296005 0.000283181 0.0043603 0.00858881 0.0118078 0.0130682 0.012202 0.010278 0.00916521 0.0105617 0.0147482 0.0203648 0.0245366 0.0247982 0.0203438 0.0128765 0.00559581 0.00155109 0.00198344 0.00556435 0.00950116 0.0110885 0.0091459 0.00421722 -0.00147781 -0.00513456 -0.00366691 0.00452614 0.018312 0.0325129 0.0401021 0.0360892 0.0213433 0.00241545 -0.0131097 -0.0210535 -0.0211981 -0.0134383 0.00440447 0.0331466 0.0653571 0.0857082 0.0824619 0.060918 0.0398896 0.0316016 0.0283604 0.0184802 0.0102667 0.022898 0.0497888 0.0587623 0.0461528 0.054037 0.0976996 0.121824 0.0962969 0.107785 0.244181 0.418722 0.478809 0.531365 0.944288 1.81147 2.48211 1.89574 -0.407819 -3.66662 -6.26642 -6.84939 -5.22995 -2.39867 0.264657 1.84611 2.22257 1.81926 1.16778 0.613554 0.266963 0.0955028 0.0272229 0.00564179 0.00055298 -0.000147092 -9.18959e-05 -2.55799e-05 -4.17368e-06 -1.97747e-07 4.47972e-08 3.36708e-08 0 0 
0 0 1.79121e-08 5.75195e-09 -2.06955e-07 -3.10905e-06 -1.80493e-05 -6.05611e-05 -6.24904e-05 0.000656805 0.005311 0.0245634 0.0851279 0.237133 0.54395 1.03035 1.58401 1.86875 1.37875 -0.2641 -2.87195 -5.47875 -6.72465 -5.75591 -2.96624 0.155613 2.07671 2.28954 1.47664 0.686774 0.402305 0.404002 0.343932 0.191573 0.106431 0.121107 0.129797 0.0864173 0.0487563 0.0510059 0.0558342 0.0354604 0.0136466 0.0136098 0.0229513 0.0253889 0.0285449 0.0453022 0.0690323 0.0800185 0.0691417 0.0443521 0.0183948 -0.00278471 -0.018867 -0.0281176 -0.025937 -0.0103949 0.0125605 0.0314853 0.0370273 0.0285909 0.0135745 0.00143431 -0.00306335 -0.00110859 0.00252303 0.00427493 0.0027479 -0.000937076 -0.00501733 -0.00755091 -0.00684736 -0.00173951 0.00724652 0.0176388 0.0256499 0.0277373 0.0226248 0.0121218 0.000301488 -0.00865528 -0.0119843 -0.00983927 -0.0042911 0.00204989 0.00702914 0.0102539 0.0122855 0.0140128 0.0158484 0.0176469 0.018738 0.0186627 0.0173779 0.0153748 0.013001 0.0107951 0.00915328 0.00814702 0.00782209 0.00814702 0.00915328 0.0107951 0.013001 0.0153748 0.0173779 0.0186627 0.018738 0.0176469 0.0158484 0.0140128 0.0122855 0.0102539 0.00702914 0.00204989 -0.0042911 -0.00983927 -0.0119843 -0.00865528 0.000301488 0.0121218 0.0226248 0.0277373 0.0256499 0.0176388 0.00724652 -0.00173953 -0.00684737 -0.00755094 -0.00501731 -0.00093711 0.00274749 0.00427386 0.00252105 -0.00111118 -0.00306796 0.00142418 0.013558 0.0285745 0.0370216 0.0314964 0.0125831 -0.010378 -0.0259254 -0.0280946 -0.0188312 -0.00275092 0.0184185 0.0444019 0.0691976 0.080047 0.0690798 0.0453458 0.0285892 0.0253651 0.022721 0.0128231 0.0115841 0.030883 0.0471242 0.0368735 0.0293667 0.0650888 0.113594 0.119586 0.12726 0.235211 0.400514 0.456534 0.434836 0.693349 1.46365 2.26916 2.05465 0.15119 -2.9409 -5.70333 -6.66158 -5.42584 -2.84229 -0.258201 1.36934 1.8543 1.57148 1.02222 0.539725 0.235336 0.0845053 0.0243919 0.00527612 0.000652987 -6.19843e-05 -6.01798e-05 -1.79506e-05 -3.18602e-06 -7.06165e-07 -3.65537e-08 0 0 
0 0 -3.70362e-08 -5.18654e-07 -2.21905e-06 -1.19692e-05 -3.71908e-05 -1.08472e-05 0.000642188 0.00458647 0.0206834 0.0713178 0.198854 0.456849 0.863736 1.31309 1.49356 0.941797 -0.671061 -3.11937 -5.43641 -6.32834 -5.08023 -2.23955 0.653579 2.1946 2.11217 1.22875 0.529435 0.334511 0.345109 0.263602 0.126696 0.0812292 0.110766 0.107869 0.0631595 0.0416636 0.0511296 0.0470619 0.0231961 0.0113205 0.0175983 0.0216422 0.0202958 0.0295224 0.0516266 0.0690587 0.0684265 0.0532155 0.033225 0.0123797 -0.00905388 -0.026713 -0.0321279 -0.0207525 0.00170802 0.0225849 0.0313912 0.0269957 0.0162506 0.00787298 0.00524592 0.00595947 0.00532045 0.00149937 -0.00366106 -0.00684542 -0.00635045 -0.00263529 0.00268342 0.00838932 0.0138644 0.0183511 0.0202263 0.0178873 0.0108032 0.000752934 -0.00885383 -0.0142669 -0.0133993 -0.00677916 0.00286512 0.0118437 0.0176971 0.0199435 0.0196239 0.0184005 0.017429 0.0169315 0.0165298 0.0158291 0.0143437 0.0120432 0.00882587 0.00474492 -0.000315584 -0.00585763 -0.0109428 -0.0146129 -0.0159165 -0.0146129 -0.0109428 -0.00585763 -0.000315584 0.00474492 0.00882587 0.0120432 0.0143437 0.0158291 0.0165298 0.0169315 0.017429 0.0184005 0.0196239 0.0199435 0.0176971 0.0118437 0.00286512 -0.00677916 -0.0133993 -0.0142669 -0.00885383 0.000752948 0.0108032 0.0178873 0.0202263 0.0183511 0.0138643 0.0083893 0.00268338 -0.0026356 -0.00635129 -0.00684698 -0.00366323 0.00149689 0.00531589 0.00594983 0.00523427 0.00786793 0.016259 0.0270136 0.0314048 0.0225886 0.00171262 -0.0207345 -0.0320979 -0.0266901 -0.00902316 0.0124445 0.0332703 0.0532343 0.0684549 0.069089 0.0515798 0.0292595 0.0194399 0.0194439 0.012855 0.00256037 0.0093303 0.0285607 0.0316073 0.0282043 0.0647268 0.130803 0.153868 0.133637 0.171586 0.28697 0.343522 0.315944 0.506469 1.20899 2.08635 2.16761 0.640778 -2.22496 -5.03794 -6.27265 -5.38707 -3.08971 -0.662802 0.935725 1.48235 1.30307 0.857208 0.453476 0.197436 0.0708315 0.0205497 0.00455877 0.00063872 -1.06972e-05 -3.70516e-05 -1.23658e-05 -3.81026e-06 -5.95321e-07 0 0 
0 0 -3.97521e-07 -2.47376e-06 -7.83752e-06 -2.15064e-05 1.47608e-05 0.000556242 0.00369389 0.0164325 0.0566879 0.158815 0.366594 0.693793 1.04529 1.14425 0.578358 -0.936109 -3.16153 -5.17002 -5.75873 -4.33511 -1.54396 1.08097 2.2771 1.96512 1.05174 0.433086 0.2897 0.282541 0.176164 0.0561696 0.0435062 0.0819294 0.074279 0.0392832 0.0352372 0.0473037 0.0363617 0.0153516 0.0126985 0.0192908 0.0179445 0.0190995 0.0355652 0.0566439 0.0653978 0.06016 0.0481261 0.0314507 0.00867174 -0.0153659 -0.0292021 -0.0254145 -0.00752385 0.0128906 0.0256547 0.0278651 0.0236332 0.0183156 0.0143523 0.0105067 0.0048887 -0.00190345 -0.00662272 -0.00624252 -0.000944502 0.00588821 0.0106154 0.0120127 0.0114575 0.0112884 0.0126165 0.0141858 0.0140377 0.0110372 0.00612724 0.00168062 0.000123781 0.00188143 0.0056744 0.00881226 0.00949684 0.0071447 0.0032992 -0.000308393 -0.0022327 -0.00228033 -0.00107478 0.000699542 0.00264959 0.00476669 0.00689313 0.00875353 0.00967684 0.0094529 0.00788533 0.00549848 0.00304283 0.00122321 0.000549048 0.00122321 0.00304283 0.00549848 0.00788533 0.0094529 0.00967684 0.00875353 0.00689313 0.00476669 0.00264959 0.000699542 -0.00107478 -0.00228033 -0.0022327 -0.000308393 0.0032992 0.0071447 0.00949684 0.00881226 0.0056744 0.00188143 0.000123781 0.00168062 0.00612724 0.0110371 0.0140377 0.0141858 0.0126164 0.0112883 0.0114572 0.012012 0.0106144 0.00588664 -0.000945755 -0.00624372 -0.0066254 -0.00190815 0.00488653 0.010511 0.0143623 0.0183241 0.0236324 0.0278594 0.0256613 0.0129093 -0.00750193 -0.0253871 -0.0291585 -0.0153004 0.00870841 0.0314769 0.0481638 0.0600796 0.0650507 0.0556324 0.033192 0.0142149 0.00918475 0.00579672 -0.00480669 -0.00243232 0.0252406 0.0510369 0.058943 0.0805684 0.121666 0.119494 0.0592459 0.0489164 0.155019 0.259405 0.271634 0.419772 1.03565 1.94019 2.24842 1.0627 -1.53804 -4.30257 -5.71149 -5.1261 -3.13389 -0.927095 0.574657 1.13579 1.03755 0.688766 0.364027 0.15775 0.0563265 0.0163334 0.00367297 0.00055327 1.44009e-05 -2.24746e-05 -9.80182e-06 -2.36311e-06 0 0 
0 0 -1.43291e-06 -5.73903e-06 -1.22936e-05 2.32659e-05 0.000439984 0.00279462 0.0123593 0.0428297 0.120924 0.281222 0.534218 0.799576 0.841023 0.302414 -1.06003 -3.01959 -4.72023 -5.06763 -3.56918 -0.911693 1.42495 2.32075 1.84312 0.934967 0.393272 0.281507 0.245273 0.111742 -0.000135027 0.00261684 0.0387492 0.0282781 0.00775608 0.020385 0.0350014 0.0233512 0.0106125 0.0152416 0.0197492 0.0172004 0.0245412 0.0446587 0.0605313 0.063771 0.0597005 0.0498803 0.0301512 0.00346786 -0.0178079 -0.0229335 -0.0125651 0.0044387 0.0193764 0.0282927 0.031182 0.0289525 0.0228813 0.0141544 0.00494497 -0.00234061 -0.00551932 -0.00376707 0.00108221 0.00541294 0.0063661 0.00405311 0.00155642 0.00245535 0.00778481 0.0150774 0.0203183 0.0201721 0.0142128 0.00529052 -0.00248216 -0.00609404 -0.00505279 -0.00114276 0.00286521 0.00529729 0.00618609 0.00649524 0.00739106 0.00903349 0.0109018 0.0122753 0.0129188 0.0130752 0.0128028 0.0120399 0.0105651 0.00832941 0.00582512 0.00410827 0.00392664 0.00560297 0.00831542 0.0107982 0.0117868 0.0107982 0.00831542 0.00560297 0.00392664 0.00410827 0.00582512 0.00832941 0.0105651 0.0120399 0.0128028 0.0130752 0.0129188 0.0122753 0.0109018 0.00903349 0.00739106 0.00649524 0.00618609 0.00529729 0.00286521 -0.00114276 -0.00505279 -0.00609405 -0.0024822 0.0052905 0.0142127 0.020172 0.0203181 0.015077 0.0077841 0.00245456 0.00155565 0.00405292 0.0063674 0.00541559 0.0010852 -0.00376511 -0.00551781 -0.00234004 0.00494275 0.0141512 0.022882 0.0289502 0.0311802 0.0283117 0.0194094 0.0044612 -0.0125321 -0.0228815 -0.0177708 0.00347311 0.0300626 0.049467 0.0585786 0.0611969 0.0555043 0.0359871 0.0115413 0.000809377 0.00362051 0.00600654 0.0157046 0.0469228 0.0737493 0.0630202 0.039383 0.0388902 0.0289088 -0.0179673 -0.0203913 0.0973464 0.236055 0.274514 0.386517 0.923038 1.82201 2.29388 1.40483 -0.911322 -3.54457 -5.02847 -4.68257 -2.99528 -1.05143 0.300252 0.83481 0.793813 0.530511 0.279357 0.120161 0.0425732 0.0122889 0.00277924 0.000437096 2.30087e-05 -5.25325e-06 -4.44675e-06 0 0 
0 0 -2.31688e-06 -6.78791e-07 2.30901e-05 0.000323393 0.00199879 0.00883222 0.030828 0.0879034 0.206413 0.394544 0.588101 0.593672 0.112768 -1.06331 -2.73612 -4.14612 -4.31791 -2.83501 -0.376779 1.66828 2.31403 1.72899 0.853118 0.38546 0.298025 0.237388 0.085007 -0.0222337 -0.0189521 0.0016513 -0.0184013 -0.0305247 -0.0076397 0.00945433 0.00355827 0.0030102 0.0143796 0.0186685 0.0192906 0.0327043 0.0520367 0.0621977 0.0640324 0.0614333 0.0486654 0.0239452 -0.00184915 -0.015573 -0.0143927 -0.00377101 0.010068 0.0235966 0.0334615 0.0358942 0.0301013 0.0193723 0.00909726 0.00277118 0.000930751 0.00175713 0.00312791 0.00366971 0.00276281 0.00128782 0.001132 0.00406924 0.0100494 0.016655 0.020197 0.017978 0.0101836 -0.000225303 -0.00844463 -0.0107534 -0.00642023 0.00219352 0.011026 0.0168169 0.0182999 0.0166218 0.0136019 0.0106208 0.00791552 0.00533035 0.00286436 0.000794796 -0.00065443 -0.00179267 -0.00320056 -0.00528218 -0.0077796 -0.00957546 -0.00949575 -0.00694438 -0.00216013 0.00368306 0.00916657 0.0129783 0.0143354 0.0129783 0.00916657 0.00368306 -0.00216013 -0.00694438 -0.00949575 -0.00957546 -0.0077796 -0.00528218 -0.00320056 -0.00179267 -0.00065443 0.000794796 0.00286436 0.00533035 0.00791552 0.0106208 0.0136019 0.0166218 0.0182999 0.0168169 0.011026 0.00219348 -0.00642033 -0.0107535 -0.00844472 -0.000225451 0.0101833 0.0179774 0.0201964 0.0166548 0.0100504 0.00407208 0.00113772 0.00129612 0.00276996 0.00367029 0.00312355 0.00175228 0.000924611 0.00276253 0.00909329 0.0193726 0.0301027 0.0359097 0.033491 0.0236306 0.0100965 -0.0037508 -0.014404 -0.0157359 -0.00235585 0.0226593 0.0459347 0.0562716 0.0554903 0.0497688 0.0368565 0.0182135 0.0116445 0.0245226 0.0372511 0.0391484 0.0419841 0.0366177 -8.18525e-05 -0.0406522 -0.0366273 -0.0146677 -0.0291102 -0.0275383 0.0819236 0.235297 0.295711 0.382459 0.845621 1.71262 2.29081 1.64902 -0.379168 -2.81621 -4.28593 -4.11482 -2.71577 -1.05584 0.111542 0.58922 0.583972 0.391926 0.205117 0.08738 0.0306529 0.00878377 0.00198888 0.000332128 7.54744e-05 4.23743e-06 0 0 
0 0 4.33483e-06 5.54705e-05 0.000231757 0.00136094 0.00602175 0.0211989 0.0611186 0.145122 0.279663 0.41612 0.40266 -0.00307289 -0.978704 -2.36447 -3.51214 -3.57016 -2.1769 0.0366772 1.80033 2.24834 1.60827 0.786674 0.389756 0.322725 0.245197 0.0851842 -0.0135728 -0.0126385 -0.0111707 -0.0460435 -0.060565 -0.0396513 -0.026008 -0.0268269 -0.015855 0.00247289 0.0104026 0.0178853 0.0361821 0.0530863 0.060091 0.0626028 0.0585996 0.0406514 0.0144974 -0.00581641 -0.0139331 -0.0120461 -0.00321477 0.0107179 0.0254327 0.0338692 0.0318378 0.0222832 0.012568 0.00721288 0.00564721 0.00468115 0.00307915 0.00195963 0.00277568 0.0054709 0.0089179 0.0120741 0.0145712 0.0161755 0.0161478 0.0136182 0.00842705 0.00158986 -0.00419558 -0.00643435 -0.00389553 0.00236516 0.00883549 0.0124608 0.0120556 0.00875447 0.00496612 0.00262608 0.00212683 0.00283615 0.00405694 0.00561738 0.00730069 0.00882608 0.00919315 0.00784737 0.00505064 0.00217345 0.000718133 0.00160191 0.00475858 0.00892629 0.0127427 0.0151865 0.0162957 0.0164597 0.0164058 0.0164597 0.0162957 0.0151865 0.0127427 0.00892629 0.00475858 0.00160191 0.000718133 0.00217345 0.00505064 0.00784737 0.00919315 0.00882608 0.00730069 0.00561738 0.00405694 0.00283615 0.00212683 0.00262608 0.00496612 0.00875447 0.0120555 0.0124607 0.0088354 0.0023651 -0.00389562 -0.00643467 -0.00419609 0.00158912 0.008427 0.0136201 0.0161523 0.0161831 0.0145818 0.0120848 0.00892114 0.00546384 0.00276827 0.00195578 0.00306652 0.0046608 0.00564073 0.00721759 0.0125746 0.0223099 0.0318772 0.0339032 0.0254492 0.0106573 -0.00342772 -0.0126667 -0.0153934 -0.00875892 0.00918943 0.032255 0.0468297 0.0486564 0.0472402 0.046866 0.0424754 0.0396304 0.0438908 0.0374029 0.0081457 -0.0207515 -0.0353775 -0.0552024 -0.0735014 -0.0532622 -0.0143324 -0.0141757 -0.0141444 0.0854435 0.244526 0.321563 0.388324 0.781863 1.59568 2.22886 1.78311 0.0332988 -2.16231 -3.54433 -3.48692 -2.34817 -0.972659 -0.00374734 0.399585 0.41329 0.277896 0.144258 0.0607727 0.0210844 0.00599934 0.00140601 0.00042179 6.69064e-05 0 0 
0 0 4.55251e-05 0.00028041 0.000921936 0.0039427 0.0139771 0.0407462 0.09788 0.190388 0.283253 0.262153 -0.063274 -0.842375 -1.95731 -2.87631 -2.87187 -1.62154 0.321688 1.82396 2.12504 1.47516 0.725084 0.396063 0.347512 0.259197 0.0987133 0.010925 0.0109939 -0.0023096 -0.0488847 -0.0693807 -0.0587477 -0.0567756 -0.0603856 -0.0455397 -0.023857 -0.0107453 0.00539884 0.0288553 0.0457307 0.0535945 0.0574167 0.0506353 0.0297659 0.00656677 -0.00862982 -0.0155365 -0.014604 -0.00457561 0.0115886 0.0253907 0.0292332 0.0236604 0.0151699 0.00925261 0.0058493 0.00233111 -0.00170141 -0.00368178 -0.00117063 0.0045799 0.0100382 0.0126645 0.012588 0.0120381 0.0129795 0.0149625 0.0158368 0.0134928 0.00780965 0.00115148 -0.00348435 -0.0041756 -0.00170886 0.00173792 0.0038632 0.00431552 0.00436398 0.00532471 0.00740871 0.00980999 0.0115128 0.0121487 0.0120895 0.011334 0.00938346 0.00575471 0.000758716 -0.00436522 -0.00774713 -0.00825026 -0.00595336 -0.00222839 0.00116337 0.00291989 0.00299427 0.00189204 0.000583654 -0.000427676 -0.000777805 -0.000427676 0.000583654 0.00189204 0.00299427 0.00291989 0.00116337 -0.00222839 -0.00595336 -0.00825026 -0.00774713 -0.00436522 0.000758716 0.00575471 0.00938346 0.011334 0.0120895 0.0121487 0.0115128 0.00980999 0.00740871 0.00532471 0.00436397 0.00431551 0.00386316 0.00173789 -0.00170907 -0.00417604 -0.00348493 0.00115157 0.00781204 0.0134988 0.0158463 0.0149741 0.0129909 0.012044 0.012584 0.0126542 0.0100298 0.00456805 -0.00119492 -0.00370125 -0.00169572 0.00234747 0.00586642 0.00928706 0.0152095 0.023667 0.0291464 0.0250985 0.0108591 -0.00622059 -0.0177817 -0.020986 -0.0169298 -0.00453617 0.0170739 0.0394296 0.0525275 0.0601852 0.0661258 0.0596774 0.0372733 0.0110033 -0.0184434 -0.0538108 -0.0737616 -0.0675096 -0.0644179 -0.0719938 -0.050328 -0.00308444 0.0110446 0.0112721 0.0987686 0.258041 0.345846 0.394566 0.721293 1.46496 2.10862 1.80909 0.318353 -1.61 -2.85135 -2.85657 -1.94481 -0.837776 -0.0636248 0.260119 0.281399 0.189246 0.0973273 0.0405331 0.013944 0.004087 0.00141818 0.000294286 0 0 
0 0 0.0001879 0.000904177 0.002591 0.00890105 0.0261372 0.0634638 0.124589 0.185387 0.163184 -0.0864756 -0.686579 -1.55831 -2.2826 -2.2527 -1.17608 0.489056 1.75554 1.95531 1.33226 0.665184 0.400155 0.368469 0.274615 0.118438 0.0423939 0.0419394 0.0175338 -0.0360478 -0.0599301 -0.0586709 -0.069637 -0.0813099 -0.0713318 -0.0540459 -0.0406175 -0.0191891 0.00850193 0.0283378 0.0406447 0.0470838 0.0396571 0.0204112 0.00221611 -0.010313 -0.017137 -0.0140294 -0.000308278 0.0162843 0.0264398 0.0270468 0.0217389 0.0154609 0.00953373 0.00342675 -0.00231972 -0.00537078 -0.00359869 0.00129287 0.00573885 0.00707278 0.00593112 0.00548989 0.00815846 0.0133318 0.0179011 0.0182182 0.0132606 0.00516531 -0.00154261 -0.00329756 0.000552071 0.00706097 0.0122292 0.0137918 0.0117831 0.00810043 0.00461864 0.00195862 0.000164183 -0.000790632 -0.000509216 0.000853567 0.00260927 0.00341284 0.00260756 0.000610163 -0.000816587 -0.000268312 0.00261935 0.00686358 0.0107838 0.0130932 0.0134987 0.012415 0.0106308 0.00881436 0.00734696 0.0063876 0.00611561 0.0063876 0.00734696 0.00881436 0.0106308 0.012415 0.0134987 0.0130932 0.0107838 0.00686358 0.00261935 -0.000268312 -0.000816587 0.000610163 0.00260756 0.00341284 0.00260927 0.000853567 -0.000509215 -0.000790631 0.000164183 0.00195861 0.00461863 0.00810045 0.0117831 0.0137916 0.0122288 0.00706047 0.000552215 -0.00329481 -0.00153571 0.00517639 0.0132735 0.0182294 0.0179074 0.0133315 0.00815178 0.00547693 0.00591241 0.00705163 0.00572166 0.00129305 -0.00358118 -0.00535132 -0.00229864 0.00345004 0.00952874 0.015365 0.0214035 0.0261834 0.0245947 0.0128676 -0.00591563 -0.0222014 -0.0275837 -0.0217087 -0.00731422 0.0169122 0.0464684 0.0661235 0.0688766 0.0574148 0.0284399 -0.0140179 -0.0478503 -0.0657694 -0.0806388 -0.0863852 -0.0721739 -0.0603885 -0.0609099 -0.0361988 0.0176829 0.0419696 0.0425536 0.11818 0.273104 0.366259 0.398165 0.661609 1.32344 1.94133 1.74303 0.486256 -1.16685 -2.23672 -2.26768 -1.54914 -0.68324 -0.0866025 0.161919 0.184233 0.123888 0.0631531 0.0261194 0.00924953 0.00360578 0.000888822 0 0 
0 0 0.000549463 0.0022365 0.005721 0.0162702 0.0396927 0.0784713 0.116521 0.0962237 -0.088277 -0.535329 -1.19796 -1.75887 -1.72542 -0.832316 0.561776 1.61957 1.75516 1.18544 0.606507 0.399248 0.38209 0.28689 0.138931 0.0752643 0.075307 0.0428203 -0.0145401 -0.0395781 -0.044559 -0.0642926 -0.0822895 -0.0793648 -0.0715949 -0.0650207 -0.0463396 -0.0199715 0.00111325 0.0177802 0.028044 0.0236937 0.00988873 -0.00298305 -0.0132629 -0.0176437 -0.0101126 0.00549496 0.0195288 0.026609 0.0268505 0.0225057 0.0157027 0.00826878 0.00205051 -0.00104138 -0.000531629 0.00222186 0.00522951 0.00673498 0.00692997 0.00718344 0.00872367 0.0113254 0.0132433 0.0123101 0.00768605 0.00103793 -0.00424256 -0.00495964 -0.000240654 0.00770691 0.0148049 0.0178279 0.0161171 0.0116652 0.00699191 0.00375392 0.00200499 0.00144487 0.00190413 0.00324705 0.0048781 0.00567405 0.00472325 0.00229051 -0.000120776 -0.000698158 0.00122843 0.00479801 0.00822643 0.00972797 0.00890225 0.00641415 0.00338547 0.000571863 -0.00147251 -0.0028351 -0.00359008 -0.00397813 -0.00397374 -0.00397813 -0.00359008 -0.0028351 -0.00147251 0.000571863 0.00338547 0.00641415 0.00890225 0.00972797 0.00822643 0.00479801 0.00122843 -0.000698158 -0.000120776 0.00229051 0.00472325 0.00567405 0.0048781 0.00324705 0.00190413 0.00144487 0.00200498 0.00375389 0.00699168 0.0116647 0.0161166 0.0178284 0.0148078 0.00771411 -0.000229014 -0.0049459 -0.00423091 0.0010442 0.00768642 0.0123065 0.0132336 0.0113047 0.00870033 0.00717113 0.00692817 0.00674236 0.00524549 0.00223526 -0.000518989 -0.00105025 0.00191231 0.00784944 0.0147181 0.0204722 0.0232208 0.0208691 0.0115003 -0.00432756 -0.0202748 -0.0255061 -0.0153206 0.00416422 0.0276096 0.0492848 0.0543237 0.0359962 0.0061861 -0.0261257 -0.0567784 -0.0733992 -0.0762619 -0.0818898 -0.0839428 -0.0651253 -0.0445414 -0.0392976 -0.0144671 0.0428601 0.0751652 0.075419 0.138673 0.285392 0.379758 0.397077 0.60305 1.17767 1.74333 1.60938 0.559734 -0.824977 -1.71336 -1.74805 -1.1915 -0.532964 -0.0882402 0.0955064 0.115865 0.078137 0.0397574 0.0169404 0.00738354 0.00209729 0 0 
0 0 0.00126791 0.00448034 0.0102584 0.0241866 0.047711 0.0702182 0.0527258 -0.0797971 -0.403191 -0.893194 -1.31842 -1.29045 -0.573276 0.567855 1.44239 1.54049 1.03996 0.548309 0.390454 0.384802 0.291825 0.155248 0.104872 0.106877 0.0701486 0.0127102 -0.0111869 -0.0203135 -0.0458158 -0.0674493 -0.0698965 -0.0712201 -0.0739942 -0.0636102 -0.0451186 -0.0288453 -0.0127018 -0.000828607 -0.00127441 -0.00864973 -0.0159694 -0.0220838 -0.0211648 -0.00952278 0.005588 0.0172267 0.0238085 0.0241292 0.0185048 0.0103357 0.00336401 -0.000247489 -0.00122593 -0.000659625 0.00108559 0.00409985 0.00766221 0.0106335 0.012222 0.0128183 0.0130273 0.0129189 0.011531 0.00799479 0.00293294 -0.00169212 -0.00363081 -0.0019995 0.0019149 0.00560252 0.00755092 0.00797998 0.00823465 0.00924872 0.0106935 0.0117586 0.0117545 0.0106917 0.00890071 0.0061843 0.00223583 -0.00279897 -0.00759009 -0.0101149 -0.00900032 -0.00455028 0.00148343 0.00687933 0.0104207 0.011791 0.0115789 0.0103998 0.00864702 0.00681865 0.00526781 0.00441019 0.00418484 0.00442037 0.00461577 0.00442037 0.00418484 0.00441019 0.00526781 0.00681865 0.00864702 0.0103998 0.0115789 0.011791 0.0104207 0.00687933 0.00148343 -0.00455028 -0.00900032 -0.0101149 -0.00759008 -0.00279897 0.00223583 0.00618429 0.00890071 0.0106917 0.0117545 0.0117584 0.0106932 0.00924818 0.00823527 0.00798325 0.00755816 0.00561378 0.00192864 -0.00198688 -0.00362374 -0.00169228 0.00292883 0.00798882 0.0115184 0.0128989 0.0130104 0.012809 0.0122187 0.0106438 0.00767985 0.00410148 0.00105003 -0.000823594 -0.00170973 -0.00135946 0.00114139 0.00651013 0.0126994 0.0162872 0.014597 0.00819932 -0.000752727 -0.0101787 -0.013567 -0.00552734 0.00701304 0.0146757 0.015122 0.00413561 -0.017779 -0.0380261 -0.0527514 -0.0679886 -0.0763773 -0.072779 -0.0705955 -0.0674225 -0.0455875 -0.0202857 -0.0111882 0.0126781 0.0698247 0.106428 0.104672 0.15487 0.290406 0.382572 0.388225 0.54496 1.03313 1.53068 1.43447 0.566582 -0.567627 -1.28175 -1.31091 -0.888774 -0.401499 -0.0796188 0.0524275 0.0700301 0.0479602 0.0252261 0.0124154 0.00402665 0 0 
0 0 0.00239005 0.00738215 0.0149477 0.0283237 0.0405695 0.0257715 -0.0677908 -0.296349 -0.649508 -0.963515 -0.941101 -0.379666 0.534491 1.24798 1.32442 0.89911 0.489293 0.371769 0.374782 0.287074 0.164428 0.127649 0.1335 0.0962717 0.0422702 0.0217817 0.0105503 -0.0187716 -0.0428609 -0.049778 -0.0586416 -0.0689103 -0.0662162 -0.0570661 -0.0494882 -0.0394635 -0.0312933 -0.031885 -0.0357387 -0.0381825 -0.0383162 -0.0305643 -0.0148013 0.00129076 0.0141946 0.0221175 0.0215018 0.014306 0.00650517 0.00139789 -0.00160978 -0.00374952 -0.00445875 -0.00217509 0.00237654 0.00634764 0.00774341 0.00705276 0.00679692 0.00871739 0.0118693 0.0133587 0.0111959 0.00608905 0.00114683 -0.000434429 0.00209071 0.00669439 0.0101097 0.01041 0.00802606 0.00487757 0.00261205 0.00170481 0.00199966 0.00331504 0.00550338 0.00774618 0.00887497 0.00794841 0.00506443 0.00185561 0.000303741 0.00120306 0.00383362 0.00639322 0.00748925 0.00700329 0.00554364 0.00392992 0.00277418 0.0021491 0.0018346 0.0014577 0.000887213 -0.000200891 -0.00163882 -0.00292475 -0.0034381 -0.00292475 -0.00163882 -0.000200891 0.000887213 0.0014577 0.0018346 0.0021491 0.00277418 0.00392992 0.00554364 0.00700329 0.00748925 0.00639322 0.00383362 0.00120306 0.000303741 0.00185561 0.00506442 0.00794843 0.00887496 0.00774619 0.00550326 0.00331463 0.00199911 0.00170544 0.00261535 0.00488467 0.00803678 0.0104232 0.0101226 0.00670299 0.00209152 -0.000439052 0.00114184 0.00608307 0.0111832 0.0133398 0.0118505 0.00870818 0.00680329 0.00706851 0.00774377 0.00628595 0.00216359 -0.00273343 -0.00569462 -0.00611947 -0.00560299 -0.00449347 -0.00115205 0.00565961 0.0135504 0.0171856 0.014852 0.00946059 0.000942022 -0.00991004 -0.0179115 -0.0239117 -0.0311001 -0.0358831 -0.0391967 -0.0463347 -0.0535424 -0.0593102 -0.067694 -0.0695753 -0.0586587 -0.0496805 -0.0429074 -0.018847 0.0105411 0.0215596 0.042062 0.0957445 0.132738 0.127177 0.163889 0.285651 0.372613 0.369646 0.486169 0.893148 1.31658 1.24212 0.533756 -0.375643 -0.935205 -0.958483 -0.646472 -0.295039 -0.0674101 0.0259565 0.0410925 0.0296 0.0170122 0.00634019 0 0 
0 0 0.00369472 0.00987685 0.0169966 0.022703 0.0101398 -0.0556612 -0.214888 -0.464 -0.688869 -0.667762 -0.234482 0.484031 1.05582 1.11697 0.764731 0.428761 0.343174 0.352613 0.272975 0.165683 0.141884 0.152507 0.117757 0.06969 0.0541499 0.0427897 0.0117871 -0.0133577 -0.0236914 -0.0383216 -0.0537985 -0.0564467 -0.0543788 -0.0545394 -0.0520612 -0.0511769 -0.0570253 -0.0629075 -0.0643937 -0.060697 -0.0479214 -0.0280657 -0.00822287 0.00854889 0.0181874 0.017382 0.0114431 0.00626182 0.00238576 -0.000655619 -0.00238801 -0.00121847 0.0029587 0.00713087 0.0086167 0.00740716 0.00568115 0.00592634 0.0077139 0.00873711 0.00676152 0.00179289 -0.003278 -0.00488561 -0.00140379 0.00576369 0.012679 0.0159871 0.0146568 0.01042 0.00588022 0.00277344 0.00128685 0.00126013 0.00234436 0.00439676 0.00657259 0.00750721 0.0062995 0.00363123 0.00122876 0.000577082 0.00174852 0.00340256 0.00418437 0.00328663 0.00109349 -0.00149271 -0.00367253 -0.00511287 -0.00556424 -0.00503615 -0.00384874 -0.00249364 -0.00141623 -0.00109852 -0.00134103 -0.00177052 -0.00188888 -0.00177052 -0.00134103 -0.00109852 -0.00141623 -0.00249364 -0.00384874 -0.00503615 -0.00556424 -0.00511287 -0.00367253 -0.00149271 0.00109349 0.00328663 0.00418437 0.00340256 0.00174851 0.000577051 0.00122873 0.00363123 0.0062995 0.00750711 0.00657231 0.00439646 0.00234502 0.00126353 0.00129385 0.00278361 0.00589228 0.0104324 0.014666 0.0159897 0.0126763 0.00576046 -0.00140762 -0.00489397 -0.0032949 0.00177296 0.00675314 0.00874042 0.00771065 0.00590297 0.00560535 0.00715861 0.00797541 0.00575877 0.000419293 -0.00533173 -0.00830582 -0.00810622 -0.00565559 -0.000781195 0.00766329 0.0191717 0.0269583 0.0238494 0.0106058 -0.0104037 -0.0360034 -0.0568796 -0.0675766 -0.0694539 -0.0630091 -0.0549556 -0.0541759 -0.0559238 -0.0550969 -0.056487 -0.0536822 -0.0383115 -0.0236685 -0.0132942 0.0116342 0.0423918 0.0537918 0.0693998 0.117177 0.151736 0.1413 0.165039 0.271498 0.350592 0.341174 0.425834 0.7598 1.11112 1.05172 0.483472 -0.231954 -0.66396 -0.685472 -0.461756 -0.213668 -0.0549279 0.0109316 0.0238422 0.0180053 0.00800364 0 0 
0 0 0.00454227 0.00999814 0.0125069 0.00194396 -0.0447426 -0.155353 -0.328652 -0.484524 -0.460023 -0.125123 0.432327 0.880582 0.925914 0.638165 0.36695 0.306603 0.320804 0.250986 0.159237 0.146617 0.161861 0.131335 0.0905251 0.0809755 0.0715307 0.0416362 0.0177116 0.00616494 -0.0116573 -0.030211 -0.0366799 -0.0401603 -0.0461871 -0.0498607 -0.056177 -0.0691075 -0.0806551 -0.0861437 -0.0844467 -0.0715526 -0.050332 -0.027699 -0.0080718 0.0028653 0.00402144 0.00159562 -0.000973619 -0.00392066 -0.00563496 -0.00486432 -0.00153791 0.00324445 0.00704569 0.00887486 0.00953541 0.0100211 0.0111895 0.0121508 0.0114266 0.00825347 0.00320463 -0.00147881 -0.00359909 -0.00226193 0.0012632 0.00464756 0.00626328 0.00619762 0.00591569 0.00658611 0.00786678 0.00874757 0.0084998 0.00735019 0.00547175 0.00298414 -0.00031746 -0.00378759 -0.00606941 -0.00561732 -0.00231455 0.00224116 0.00559081 0.00600476 0.00342166 -0.00114236 -0.00629923 -0.0111338 -0.0152094 -0.0183226 -0.0205838 -0.0219614 -0.0229776 -0.0235413 -0.0234884 -0.0225677 -0.020917 -0.0193291 -0.0186241 -0.0193291 -0.020917 -0.0225677 -0.0234884 -0.0235413 -0.0229776 -0.0219614 -0.0205838 -0.0183226 -0.0152094 -0.0111338 -0.00629923 -0.00114236 0.00342166 0.00600474 0.00559078 0.00224113 -0.00231456 -0.00561733 -0.00606948 -0.00378783 -0.000317643 0.00298494 0.00547511 0.00735693 0.00850927 0.00875881 0.00787811 0.00659467 0.00591925 0.00619853 0.00626407 0.00464479 0.00125421 -0.00227607 -0.00361564 -0.0014884 0.00320533 0.00824206 0.0113787 0.0120402 0.0109046 0.00931062 0.00803591 0.00617419 0.00281247 -0.00262327 -0.00871252 -0.0123656 -0.0118497 -0.00675845 0.00169382 0.0109205 0.0191221 0.0205018 0.00742179 -0.0181365 -0.0478422 -0.0744302 -0.0896161 -0.0910438 -0.0840012 -0.0711138 -0.0573976 -0.0505092 -0.0462384 -0.0400101 -0.0366081 -0.0301097 -0.0116131 0.00603172 0.0173538 0.0411458 0.0709263 0.0804899 0.090146 0.130744 0.161101 0.146022 0.158484 0.249576 0.319009 0.304656 0.364316 0.63446 0.92192 0.877721 0.431599 -0.123767 -0.457542 -0.482032 -0.326771 -0.154092 -0.0438548 0.00238937 0.0114766 0.00732014 0 0 
0 0 0.00386389 0.00520886 -0.00236621 -0.0356483 -0.1131 -0.233294 -0.338116 -0.307472 -0.0434081 0.388257 0.731978 0.757541 0.520887 0.30449 0.264654 0.282397 0.222842 0.145653 0.141831 0.161043 0.135704 0.102671 0.0998623 0.0944336 0.0682819 0.0480743 0.0378489 0.0194197 3.94345e-05 -0.00868447 -0.016235 -0.0267898 -0.0351149 -0.0469503 -0.0655057 -0.0823345 -0.0931971 -0.0964384 -0.0875264 -0.0689279 -0.0477426 -0.0286975 -0.0168937 -0.0129419 -0.0118023 -0.012138 -0.0130777 -0.0124589 -0.0105645 -0.00771983 -0.00399455 -0.000700054 0.00133452 0.00209095 0.00244713 0.00380102 0.00626608 0.00846218 0.00853924 0.00626524 0.00337466 0.0023673 0.00409582 0.00755453 0.0098007 0.00923204 0.00617684 0.00248288 -0.000112875 -0.000821453 -3.60218e-06 0.00202877 0.00480176 0.00718422 0.00744904 0.00459798 -0.000796119 -0.00663284 -0.0108618 -0.0125543 -0.0126162 -0.0127468 -0.0143431 -0.0176789 -0.0223161 -0.0275645 -0.032768 -0.0373188 -0.0410173 -0.0439039 -0.0463139 -0.0484344 -0.0501161 -0.0509328 -0.050577 -0.0494381 -0.0481033 -0.0471531 -0.046778 -0.0471531 -0.0481033 -0.0494381 -0.050577 -0.0509328 -0.0501161 -0.0484344 -0.0463139 -0.0439039 -0.0410173 -0.0373188 -0.032768 -0.0275645 -0.022316 -0.0176789 -0.0143431 -0.0127469 -0.0126162 -0.0125544 -0.010862 -0.00663299 -0.000795115 0.0046014 0.00745544 0.00719307 0.00481201 0.00203914 4.27524e-06 -0.0008174 -0.000108986 0.00248805 0.00617598 0.00922152 0.00978636 0.00754024 0.0040838 0.00236187 0.00336492 0.00621947 0.00839873 0.00810696 0.00546843 0.0021894 -0.000394227 -0.00222713 -0.00446385 -0.00758605 -0.0109443 -0.0131777 -0.0125833 -0.00914556 -0.00346531 0.0028442 0.00507723 0.00103769 -0.00934853 -0.0278406 -0.0509713 -0.0731245 -0.0910808 -0.0990942 -0.0950605 -0.083487 -0.0660181 -0.0470163 -0.0349677 -0.0266603 -0.016122 -0.00857345 -7.24191e-05 0.0191016 0.0374242 0.0474856 0.0676913 0.0937521 0.0993181 0.102217 0.135049 0.160289 0.141208 0.144881 0.221659 0.280828 0.262798 0.302426 0.518561 0.754992 0.729795 0.387323 -0.0427248 -0.3057 -0.336187 -0.231868 -0.11251 -0.0364398 -0.00574841 0.00233423 0 0 
0 0 0.000287301 -0.00690293 -0.0296954 -0.0842599 -0.168158 -0.236879 -0.199759 0.0157861 0.354657 0.614452 0.616856 0.41516 0.242066 0.219677 0.240493 0.190404 0.126245 0.129315 0.151793 0.132162 0.106994 0.111127 0.111099 0.0904913 0.0757576 0.0691152 0.0526491 0.0344455 0.0255686 0.0162461 0.00326525 -0.00811782 -0.0237869 -0.0461935 -0.0666379 -0.0815498 -0.0891034 -0.084679 -0.0712194 -0.0551806 -0.0401358 -0.0300349 -0.0250904 -0.0217584 -0.0189235 -0.0156349 -0.0114403 -0.00776466 -0.00387501 0.000442031 0.0031117 0.00310364 0.00102681 -0.00113212 -0.00134025 -0.000248315 1.77393e-05 -0.00190004 -0.00524467 -0.00699658 -0.00487402 0.00105637 0.00798839 0.0126246 0.0132096 0.0106567 0.00710222 0.00407389 0.00178128 0.000117824 -0.00105209 -0.00169144 -0.00243926 -0.0041205 -0.00752113 -0.0120594 -0.0164941 -0.0200764 -0.023216 -0.026966 -0.0320745 -0.0381474 -0.0441594 -0.0491045 -0.0527218 -0.0555684 -0.0582074 -0.0609702 -0.0639634 -0.066926 -0.0695486 -0.0713724 -0.0723459 -0.0726792 -0.072834 -0.0732783 -0.0739956 -0.0746895 -0.0749629 -0.0746895 -0.0739956 -0.0732783 -0.072834 -0.0726792 -0.0723459 -0.0713724 -0.0695486 -0.066926 -0.0639634 -0.0609702 -0.0582074 -0.0555684 -0.0527218 -0.0491045 -0.0441594 -0.0381475 -0.0320747 -0.0269663 -0.023216 -0.0200753 -0.0164906 -0.0120532 -0.00751302 -0.00411116 -0.00242979 -0.0016841 -0.00104736 0.000123762 0.00178827 0.00407386 0.00709148 0.0106415 0.0131944 0.0126123 0.00798223 0.00104724 -0.00491864 -0.00715474 -0.00566339 -0.0028056 -0.00170997 -0.00319819 -0.00574197 -0.00684798 -0.0054987 -0.00326797 -0.00163569 -0.000940644 -0.000169561 0.00196382 0.00329658 0.000714238 -0.00582981 -0.0155276 -0.0257088 -0.0341717 -0.044161 -0.0576945 -0.0728816 -0.0862255 -0.090224 -0.0819804 -0.0666689 -0.0460988 -0.0236452 -0.0079656 0.00343184 0.0162048 0.0253243 0.0340826 0.0521011 0.068336 0.0750353 0.089803 0.110358 0.110548 0.106469 0.13153 0.151124 0.128658 0.125603 0.189436 0.239009 0.218174 0.241005 0.414108 0.615238 0.612614 0.353614 0.0160237 -0.198762 -0.236126 -0.168549 -0.0864752 -0.0340356 -0.00853251 0 0 
0 0 -0.00773862 -0.0274537 -0.0668527 -0.125962 -0.169664 -0.127006 0.0563956 0.330326 0.527199 0.506457 0.32429 0.181222 0.173003 0.19749 0.155737 0.102941 0.11186 0.137185 0.123133 0.105247 0.115722 0.121385 0.106955 0.0984989 0.0967446 0.0839847 0.0687145 0.0614253 0.0522608 0.0385304 0.0254752 0.00714902 -0.0183022 -0.0420367 -0.0606385 -0.0720921 -0.0720776 -0.0639416 -0.0540703 -0.0450995 -0.0401683 -0.0385891 -0.0361116 -0.0315257 -0.0248916 -0.0170294 -0.00934952 -0.0012369 0.00626685 0.0106467 0.0117054 0.0106738 0.00943286 0.00921544 0.00874933 0.00646796 0.00192958 -0.00359526 -0.00736639 -0.0077702 -0.0051409 -0.00138131 0.00108762 0.00198186 0.00187462 0.00233733 0.00340426 0.00411548 0.00357069 0.00144094 -0.00228032 -0.00796198 -0.0154478 -0.0242655 -0.0325198 -0.038474 -0.0415367 -0.042819 -0.0446143 -0.0483922 -0.054338 -0.0609955 -0.0667619 -0.0701457 -0.0705522 -0.0680749 -0.0639605 -0.0596618 -0.056353 -0.0543069 -0.0528895 -0.0514134 -0.0498884 -0.048822 -0.048608 -0.0492785 -0.050247 -0.0510031 -0.0512337 -0.0510031 -0.050247 -0.0492785 -0.048608 -0.048822 -0.0498884 -0.0514134 -0.0528895 -0.0543069 -0.056353 -0.0596618 -0.0639605 -0.0680749 -0.0705519 -0.0701456 -0.0667618 -0.0609956 -0.0543381 -0.048392 -0.0446132 -0.0428154 -0.0415305 -0.0384663 -0.0325112 -0.0242567 -0.0154405 -0.00795636 -0.00227345 0.00144749 0.00356958 0.00410606 0.00339139 0.00232207 0.00186251 0.00197901 0.00107799 -0.00143667 -0.00531938 -0.00822977 -0.00836168 -0.00545591 -0.00112927 0.00203749 0.00313556 0.00302576 0.00363603 0.00656321 0.010863 0.014634 0.015895 0.0131242 0.00646913 -0.00450664 -0.0193497 -0.033058 -0.0412098 -0.0430662 -0.0422687 -0.0458394 -0.0548551 -0.0648573 -0.0724841 -0.072073 -0.0605445 -0.0419473 -0.0181228 0.00723209 0.025429 0.0382621 0.0518457 0.0608815 0.0679011 0.0829676 0.0956901 0.0975946 0.106133 0.120581 0.115059 0.104676 0.122566 0.136512 0.111268 0.102443 0.154897 0.196346 0.172317 0.181228 0.324074 0.505244 0.525377 0.32881 0.0553996 -0.128261 -0.172015 -0.128952 -0.0681093 -0.0255744 0 0 
0 0 -0.021771 -0.0540713 -0.101681 -0.129066 -0.0813046 0.0823434 0.313353 0.465938 0.424914 0.250677 0.12488 0.126282 0.154786 0.120412 0.0772464 0.0918079 0.11971 0.110081 0.0982512 0.113728 0.123995 0.11507 0.112315 0.115293 0.106475 0.0947932 0.0900353 0.0821145 0.0689216 0.0554281 0.035565 0.00808343 -0.018033 -0.0394296 -0.0540255 -0.0577746 -0.0542615 -0.0495822 -0.0461875 -0.0471108 -0.0508108 -0.0521811 -0.0500365 -0.0442945 -0.0355584 -0.0253187 -0.0140221 -0.00350713 0.00399179 0.00835596 0.0104058 0.011829 0.0137771 0.0152432 0.0148956 0.0120404 0.007722 0.00444244 0.00353662 0.00468707 0.00573625 0.00459892 0.00109138 -0.00341454 -0.00704885 -0.00898383 -0.00988724 -0.0104444 -0.0113205 -0.0133926 -0.0179815 -0.0257939 -0.0362193 -0.0471329 -0.0560232 -0.061552 -0.0637856 -0.0636465 -0.0619465 -0.0587013 -0.0540572 -0.0480804 -0.0411516 -0.0336603 -0.0254509 -0.0164093 -0.00657515 0.00394795 0.0144666 0.0241867 0.0321193 0.0375446 0.0405402 0.0420509 0.0430319 0.0438132 0.044382 0.0445632 0.0445979 0.0445632 0.044382 0.0438132 0.0430319 0.0420509 0.0405402 0.0375446 0.0321193 0.0241867 0.0144666 0.00394795 -0.00657512 -0.0164093 -0.0254506 -0.0336598 -0.0411514 -0.0480804 -0.0540568 -0.0586999 -0.0619429 -0.063641 -0.0637783 -0.0615442 -0.0560149 -0.0471254 -0.0362128 -0.0257867 -0.0179762 -0.0133945 -0.0113283 -0.0104539 -0.00989971 -0.00899406 -0.00705076 -0.00342492 0.00102906 0.0043992 0.0052324 0.00361173 0.00156089 0.00127575 0.00327297 0.0065728 0.0090553 0.00998434 0.0102733 0.0114341 0.0145134 0.0177838 0.0179017 0.0117601 -0.00197606 -0.0201062 -0.037437 -0.0499471 -0.0551478 -0.0546025 -0.0512071 -0.047157 -0.0465343 -0.0498634 -0.0542339 -0.0577315 -0.0540638 -0.0393632 -0.0180069 0.00793269 0.0352525 0.0549892 0.0682727 0.0812793 0.0890377 0.0936848 0.105329 0.114206 0.111327 0.114211 0.123146 0.113029 0.0976978 0.109498 0.119069 0.0913795 0.0769251 0.119908 0.154373 0.126505 0.125484 0.25057 0.423342 0.463072 0.309586 0.0776598 -0.0863454 -0.131034 -0.0940713 -0.0459439 0 0 
0 0 -0.0420106 -0.0875774 -0.111044 -0.0623091 0.0933648 0.306099 0.435503 0.37484 0.191394 0.0686254 0.0799901 0.116574 0.0854883 0.0464286 0.0686661 0.102166 0.0935058 0.0837045 0.104307 0.118276 0.11135 0.112312 0.119794 0.113917 0.105271 0.104493 0.0996238 0.0886577 0.0773073 0.0585098 0.0309655 0.00461086 -0.0175097 -0.0338935 -0.0397631 -0.0393259 -0.0386901 -0.0396083 -0.044905 -0.0530597 -0.0587027 -0.0608173 -0.0588078 -0.0524599 -0.0433754 -0.0318106 -0.0195978 -0.00984878 -0.00318699 0.00108939 0.00493531 0.00918522 0.0122922 0.0130771 0.0111989 0.0085049 0.00767199 0.00944569 0.0128243 0.0152796 0.0146547 0.0109397 0.00524563 -0.000868477 -0.00742293 -0.0145319 -0.0223003 -0.0301252 -0.0377068 -0.0453319 -0.0528878 -0.0597109 -0.0641085 -0.0650765 -0.062447 -0.0574333 -0.0510138 -0.0428174 -0.032073 -0.017798 -0.000211922 0.019481 0.0395434 0.0581743 0.0740827 0.0870578 0.0977684 0.107812 0.118193 0.128784 0.138545 0.146364 0.151829 0.155368 0.157765 0.15981 0.161855 0.163416 0.164148 0.163416 0.161855 0.15981 0.157765 0.155368 0.151829 0.146364 0.138545 0.128784 0.118193 0.107813 0.0977689 0.0870579 0.074083 0.0581743 0.0395435 0.0194818 -0.000210168 -0.0177945 -0.0320674 -0.0428109 -0.0510068 -0.0574266 -0.0624405 -0.0650695 -0.0641008 -0.0597058 -0.0528892 -0.0453373 -0.0377141 -0.0301358 -0.0223079 -0.0145311 -0.00743093 -0.000931499 0.00503205 0.0103976 0.0135159 0.0132183 0.00956581 0.0049665 0.00234125 0.0029961 0.00638813 0.0100272 0.0122051 0.0133251 0.0141299 0.01467 0.011799 0.00193736 -0.0146007 -0.0338689 -0.0492806 -0.0579972 -0.0616987 -0.0614519 -0.0585718 -0.0528814 -0.0447626 -0.0394508 -0.0386412 -0.0393595 -0.0398023 -0.0339686 -0.01772 0.00425185 0.0304664 0.0578893 0.0765465 0.0877996 0.098673 0.103444 0.10421 0.11287 0.118756 0.111367 0.110454 0.117397 0.103592 0.0831831 0.0929936 0.10168 0.0684762 0.0465333 0.0856237 0.116808 0.0805218 0.0689655 0.19026 0.371072 0.428879 0.297802 0.0869187 -0.0605724 -0.0960583 -0.0604992 0 0 
0 0 -0.0573775 -0.104399 -0.107344 0.0132952 0.260855 0.49753 0.512285 0.257179 -0.0304592 -0.082547 0.051272 0.10461 0.0189213 -0.0134509 0.0676105 0.10814 0.0653124 0.0606695 0.10847 0.115905 0.0945392 0.105943 0.120446 0.106497 0.100565 0.110149 0.104932 0.0920188 0.0820713 0.0577974 0.0242159 0.000152476 -0.0178648 -0.0288055 -0.026975 -0.0241854 -0.0271966 -0.0340619 -0.0475005 -0.0613995 -0.0681449 -0.0706428 -0.0687651 -0.0620065 -0.0525607 -0.0397003 -0.0270114 -0.0179764 -0.0110208 -0.00563459 0.000498075 0.00722299 0.0110611 0.0108501 0.00755959 0.00493495 0.00648738 0.0116754 0.0176237 0.0202686 0.0177709 0.0118392 0.00439449 -0.00302562 -0.0120905 -0.0233113 -0.0362894 -0.0498422 -0.0625968 -0.0741149 -0.0822474 -0.0847725 -0.0790875 -0.0654986 -0.0467572 -0.0264147 -0.00684041 0.0123127 0.0323456 0.0544951 0.0784067 0.102788 0.125784 0.145224 0.159683 0.16867 0.173688 0.176945 0.180731 0.18564 0.191708 0.198167 0.204434 0.209688 0.213862 0.217308 0.220486 0.223109 0.224131 0.223109 0.220486 0.217308 0.213862 0.209688 0.204434 0.198167 0.191707 0.18564 0.180732 0.176945 0.173689 0.168671 0.159683 0.145224 0.125784 0.102789 0.0784098 0.0545007 0.0323527 0.0123198 -0.0068335 -0.0264074 -0.0467505 -0.0654917 -0.0790801 -0.08477 -0.0822547 -0.0741244 -0.0626047 -0.0498498 -0.036288 -0.0233046 -0.0121225 -0.00317592 0.00397691 0.0108854 0.0159105 0.0171581 0.013142 0.00611767 0.000606981 -0.000284304 0.0040526 0.0101127 0.0142942 0.0156786 0.0143742 0.0114509 0.00426301 -0.0101576 -0.0289861 -0.0484302 -0.0617501 -0.0670192 -0.0694228 -0.0696495 -0.0675103 -0.0610864 -0.0470208 -0.0336451 -0.0272098 -0.0243792 -0.027056 -0.0289463 -0.018227 -0.000328328 0.0236583 0.057087 0.0812558 0.0912013 0.104041 0.109188 0.0996126 0.105523 0.119395 0.105 0.0937108 0.115023 0.10766 0.0601587 0.0649221 0.107661 0.0675143 -0.0128933 0.0195139 0.104861 0.0517149 -0.0818708 -0.0312477 0.252552 0.503015 0.486126 0.254276 0.0223153 -0.0751691 -0.0659348 0 0 
0 0 -0.0685062 -0.113844 -0.0948905 0.0871567 0.404639 0.648722 0.562991 0.156079 -0.20844 -0.211431 0.00654317 0.0772873 -0.0332325 -0.0560491 0.058204 0.100675 0.0411628 0.0414103 0.101729 0.104768 0.0780338 0.0952339 0.1126 0.097248 0.0961506 0.112055 0.108041 0.0950729 0.0839859 0.0551739 0.018595 -0.00396717 -0.0182757 -0.0238635 -0.0171166 -0.0135673 -0.0199248 -0.032565 -0.0525952 -0.0710281 -0.0797994 -0.0831921 -0.0815919 -0.0751078 -0.065397 -0.0516288 -0.0383596 -0.0289908 -0.0209752 -0.0131978 -0.00375818 0.00543839 0.0100656 0.00973113 0.00632895 0.00439334 0.00745669 0.0135312 0.0188452 0.019043 0.013032 0.00365134 -0.00666539 -0.0166887 -0.0280067 -0.0409291 -0.0545362 -0.0673148 -0.0777673 -0.0849787 -0.0861538 -0.0787027 -0.0603182 -0.0326985 -0.000227666 0.0322006 0.0612032 0.0865525 0.108809 0.128775 0.146295 0.160782 0.171623 0.17803 0.179814 0.177312 0.172091 0.165605 0.15967 0.155259 0.153443 0.154607 0.158381 0.163407 0.16842 0.172672 0.176105 0.178353 0.179295 0.178353 0.176105 0.172672 0.16842 0.163407 0.158381 0.154607 0.153443 0.155259 0.159671 0.165605 0.172091 0.177312 0.179814 0.17803 0.171623 0.160785 0.146299 0.128782 0.108817 0.0865603 0.0612107 0.0322093 -0.000219696 -0.0326922 -0.0603127 -0.0787023 -0.086165 -0.0849923 -0.0777719 -0.0673155 -0.0545339 -0.0409313 -0.0280813 -0.0169661 -0.00735129 0.002207 0.0103906 0.0149144 0.0133142 0.00722149 0.00144265 -0.000221011 0.00414925 0.0110789 0.0162645 0.0177575 0.0142927 0.00682695 -0.00580701 -0.025031 -0.0465506 -0.0660385 -0.0773386 -0.0798067 -0.0805384 -0.080782 -0.078599 -0.0704631 -0.0518526 -0.0320039 -0.0199278 -0.013767 -0.0171789 -0.0240733 -0.018725 -0.00449362 0.0180575 0.0544944 0.083203 0.0943176 0.107198 0.111126 0.0952869 0.0964274 0.111645 0.0943914 0.0773144 0.103901 0.100902 0.0410382 0.0409889 0.100305 0.0582324 -0.0552043 -0.0323227 0.0776212 0.00702812 -0.210473 -0.209083 0.150549 0.551456 0.635119 0.399199 0.104123 -0.0484604 -0.0652219 0 0 
0 0 -0.075689 -0.116681 -0.0765011 0.1528 0.515997 0.75706 0.600301 0.0962693 -0.324401 -0.321564 -0.0711569 0.0250801 -0.0686574 -0.0812521 0.0333379 0.0756447 0.0237498 0.0277721 0.0829817 0.0864155 0.0661634 0.0832138 0.0989598 0.0899724 0.0948515 0.111628 0.11027 0.0992998 0.084344 0.0527437 0.017092 -0.00466442 -0.0157423 -0.0157172 -0.00660215 -0.00340128 -0.01186 -0.0296147 -0.0543444 -0.0759245 -0.0881222 -0.093757 -0.0933132 -0.0880003 -0.0786787 -0.0652915 -0.0522685 -0.0422607 -0.033079 -0.0229735 -0.010976 -4.67786e-05 0.00561264 0.00592972 0.00370549 0.00365096 0.00774521 0.0135379 0.0162577 0.012074 0.00111714 -0.0133462 -0.0281886 -0.0416949 -0.0538797 -0.0642251 -0.0716177 -0.0749733 -0.0735999 -0.0668747 -0.0532174 -0.0314803 -0.00157573 0.0337226 0.0698383 0.102405 0.128572 0.147495 0.159101 0.163789 0.162216 0.155453 0.14483 0.131967 0.118421 0.105262 0.0930731 0.0814548 0.0701526 0.0596582 0.0514109 0.0467512 0.045859 0.0476101 0.0504101 0.0527964 0.0540161 0.0542091 0.0541492 0.0542091 0.0540161 0.0527964 0.0504101 0.0476101 0.045859 0.0467512 0.0514111 0.0596584 0.0701529 0.0814551 0.0930736 0.105262 0.118421 0.131967 0.144832 0.155455 0.162221 0.163797 0.15911 0.147503 0.12858 0.102414 0.0698471 0.0337272 -0.00157416 -0.0314823 -0.0532291 -0.0668869 -0.0736006 -0.0749725 -0.0716217 -0.0642518 -0.0540271 -0.0421415 -0.0292188 -0.0153929 -0.00234992 0.00705131 0.00999405 0.00693046 0.00197821 -0.000200446 0.00274889 0.00901101 0.0143478 0.0156492 0.0106023 -0.000684465 -0.0183623 -0.0417196 -0.0654747 -0.0841617 -0.0930521 -0.0929152 -0.0913547 -0.0903042 -0.0861403 -0.07489 -0.0533695 -0.0289402 -0.0117489 -0.00353383 -0.00663778 -0.0158983 -0.0161495 -0.00513348 0.0166102 0.0521242 0.0836554 0.0986056 0.109498 0.110751 0.094073 0.0892137 0.0980937 0.0824419 0.0655326 0.0856768 0.0823622 0.0275472 0.023725 0.0754919 0.0335716 -0.0802287 -0.0675752 0.0256252 -0.0704149 -0.320357 -0.325166 0.0897384 0.586958 0.742273 0.512608 0.176932 -0.0197818 -0.0600673 0 0 
0 0 -0.0789304 -0.113588 -0.0545311 0.205336 0.589604 0.822126 0.632479 0.0916829 -0.366921 -0.409994 -0.186743 -0.060031 -0.0937327 -0.0908978 -0.00554814 0.0340191 0.0131611 0.0223955 0.0576697 0.064756 0.0613599 0.0744027 0.084597 0.0875402 0.0993597 0.112583 0.114738 0.107416 0.08747 0.0549107 0.0234189 0.00234849 -0.00601587 -0.00106717 0.00813228 0.0102735 0.00107355 -0.0202616 -0.0476003 -0.0710324 -0.0876451 -0.0967707 -0.0986796 -0.0954525 -0.0872572 -0.0759375 -0.0646846 -0.0544142 -0.044602 -0.0335864 -0.0211632 -0.0106063 -0.00458397 -0.00314559 -0.00335004 -0.00141522 0.00295162 0.00714996 0.00636961 -0.00221602 -0.0177589 -0.0369266 -0.0554358 -0.0703618 -0.079169 -0.0804497 -0.0738176 -0.0598408 -0.0399513 -0.0148611 0.0144549 0.0468585 0.0798156 0.110154 0.13495 0.151956 0.160589 0.160226 0.151147 0.134322 0.11168 0.0857689 0.0595843 0.0358952 0.0169046 0.00339086 -0.0057107 -0.0128445 -0.0202043 -0.0282562 -0.0362741 -0.0432585 -0.0486673 -0.0528423 -0.0563674 -0.0601855 -0.0646205 -0.0685197 -0.0701403 -0.0685197 -0.0646205 -0.0601855 -0.0563674 -0.0528423 -0.0486673 -0.0432584 -0.0362736 -0.0282554 -0.0202039 -0.0128442 -0.00571061 0.00339076 0.016905 0.0358962 0.0595859 0.0857719 0.111686 0.134332 0.151158 0.160236 0.160599 0.151968 0.134959 0.110155 0.0798123 0.0468526 0.0144462 -0.0148666 -0.0399527 -0.0598475 -0.0738292 -0.0805161 -0.0794345 -0.0710516 -0.0569058 -0.0396423 -0.022031 -0.00795704 -0.000240576 0.000721111 -0.00220131 -0.00442788 -0.00334328 0.00125823 0.0062161 0.00791101 0.00324571 -0.00976491 -0.0305819 -0.0566025 -0.0814704 -0.0979146 -0.103649 -0.101303 -0.0967348 -0.0926954 -0.0847395 -0.0693584 -0.0463024 -0.0193827 0.00141729 0.0103294 0.00813746 -0.00121754 -0.00631727 0.0019472 0.0229389 0.0543124 0.0867833 0.106674 0.113893 0.111694 0.0985339 0.0867607 0.0838338 0.0737224 0.0608014 0.0641849 0.0572241 0.0222654 0.0132638 0.0342092 -0.00503208 -0.0898294 -0.0925709 -0.059116 -0.185511 -0.408598 -0.368127 0.0840328 0.617838 0.807171 0.588834 0.235072 0.00793455 -0.051562 0 0 
0 0 -0.0782403 -0.105247 -0.030963 0.241696 0.62343 0.844876 0.662334 0.145066 -0.330877 -0.466274 -0.331283 -0.18229 -0.122133 -0.0896987 -0.0495676 -0.0181225 0.0061407 0.0259656 0.0342078 0.0442768 0.0630286 0.0723316 0.0753347 0.091725 0.111102 0.119072 0.123698 0.12029 0.0959682 0.0636958 0.0374889 0.0170837 0.0101863 0.0180672 0.0256687 0.026074 0.0168563 -0.00589977 -0.0336903 -0.0581558 -0.0788258 -0.0917119 -0.0965424 -0.0956788 -0.0890102 -0.0802757 -0.0716074 -0.0616697 -0.0516955 -0.0408549 -0.0300555 -0.0222988 -0.0173975 -0.0151861 -0.0134152 -0.0104406 -0.00782517 -0.00767281 -0.0135803 -0.0265472 -0.0444699 -0.0642274 -0.0810296 -0.0903883 -0.0882047 -0.0728281 -0.0462911 -0.0122694 0.0249332 0.062478 0.097486 0.127302 0.148873 0.159848 0.160296 0.15159 0.135521 0.11337 0.0864102 0.0564118 0.0257718 -0.00258615 -0.026418 -0.0437622 -0.0538937 -0.057062 -0.0556738 -0.0523034 -0.0497088 -0.0489185 -0.0509294 -0.0558944 -0.0638153 -0.0738348 -0.0854554 -0.0974742 -0.108882 -0.117165 -0.12036 -0.117165 -0.108882 -0.0974742 -0.0854554 -0.0738348 -0.0638153 -0.0558942 -0.0509289 -0.048918 -0.0497082 -0.0523034 -0.0556738 -0.0570621 -0.053894 -0.0437616 -0.0264166 -0.00258234 0.0257787 0.0564225 0.0864215 0.113379 0.135531 0.151604 0.160307 0.159849 0.148867 0.127292 0.0974783 0.0624762 0.0249276 -0.0122817 -0.04632 -0.0729671 -0.0886384 -0.0914026 -0.0830466 -0.0676583 -0.0494466 -0.0327236 -0.0201166 -0.0135223 -0.0121278 -0.0126337 -0.0127057 -0.00982956 -0.00495797 -0.0015536 -0.00368717 -0.0163416 -0.038589 -0.0657987 -0.0903514 -0.103918 -0.106935 -0.10307 -0.0955922 -0.0875187 -0.0749392 -0.0555025 -0.032025 -0.00484234 0.0174815 0.0263826 0.0257429 0.0178985 0.00986998 0.0166239 0.0368736 0.0629609 0.0951696 0.119376 0.122684 0.118024 0.110128 0.0908495 0.0746208 0.0716355 0.0624241 0.0438546 0.0339824 0.0259097 0.00640498 -0.0176097 -0.048825 -0.0886284 -0.120894 -0.180807 -0.329351 -0.464815 -0.33288 0.136198 0.646953 0.830743 0.625558 0.275028 0.0325731 -0.0405873 0 0 
0 0 -0.0737686 -0.0923804 -0.00730536 0.260868 0.618695 0.827287 0.687178 0.248322 -0.218036 -0.474172 -0.481797 -0.338123 -0.171342 -0.0871897 -0.0874952 -0.071089 -0.00295045 0.0346726 0.0199525 0.0289661 0.0675878 0.0770984 0.0743453 0.100322 0.126099 0.129674 0.134086 0.132455 0.105734 0.0746339 0.0530395 0.0339685 0.027434 0.0352838 0.0402338 0.038531 0.0292752 0.00722704 -0.0190707 -0.0436262 -0.0670873 -0.083226 -0.0907114 -0.0916086 -0.0860469 -0.0789981 -0.07184 -0.0621793 -0.0518329 -0.041287 -0.0328067 -0.0285751 -0.0263435 -0.0247747 -0.0226046 -0.0208084 -0.0226746 -0.0299668 -0.0433671 -0.0605346 -0.0773159 -0.0901733 -0.0947308 -0.0872274 -0.06489 -0.0286169 0.0161965 0.0626305 0.104397 0.138116 0.161533 0.173167 0.171614 0.156919 0.131877 0.100498 0.0669923 0.0340859 0.00408245 -0.0214293 -0.0409217 -0.0537196 -0.0600991 -0.0605959 -0.0564925 -0.0490353 -0.0398658 -0.0300745 -0.0208643 -0.0134062 -0.00982877 -0.0114959 -0.0188311 -0.0307561 -0.0457563 -0.0611342 -0.0745627 -0.0834349 -0.0865879 -0.0834349 -0.0745627 -0.0611342 -0.0457563 -0.030756 -0.0188308 -0.0114954 -0.00982839 -0.013406 -0.020864 -0.0300742 -0.0398663 -0.0490359 -0.0564926 -0.0605958 -0.0600981 -0.0537153 -0.040913 -0.0214185 0.00409126 0.0340929 0.0670043 0.100515 0.131888 0.15692 0.171605 0.173153 0.161523 0.138114 0.104391 0.0626119 0.0161244 -0.0288705 -0.0655521 -0.0886651 -0.0973853 -0.0943066 -0.0828209 -0.0668072 -0.0494111 -0.0349154 -0.0260711 -0.0223375 -0.0214031 -0.0186984 -0.0126122 -0.00624536 -0.00537849 -0.0169332 -0.0398407 -0.0673718 -0.0910061 -0.102817 -0.104978 -0.101067 -0.0916955 -0.0795625 -0.0623671 -0.0398873 -0.01684 0.00850279 0.0301347 0.0390246 0.0402801 0.0350286 0.0270551 0.0334134 0.0522519 0.0737483 0.104754 0.13137 0.13287 0.128429 0.124852 0.0992059 0.0734361 0.0762239 0.0668327 0.0285479 0.0197541 0.0345968 -0.00266862 -0.0703301 -0.0865664 -0.0862447 -0.169959 -0.335867 -0.479114 -0.472906 -0.221199 0.238254 0.671705 0.814877 0.623748 0.295611 0.0529192 -0.0279138 0 0 
0 0 -0.0658739 -0.0757686 0.0154795 0.263901 0.579641 0.772427 0.700142 0.384262 -0.0379937 -0.416209 -0.604279 -0.512571 -0.257122 -0.099591 -0.113041 -0.114488 -0.0194078 0.0397148 0.0161045 0.0202809 0.0685409 0.0825722 0.0786968 0.107424 0.135851 0.138052 0.140083 0.136993 0.110871 0.0824207 0.0637865 0.0470579 0.0407351 0.0457394 0.047425 0.0435363 0.0334745 0.013432 -0.0100171 -0.0339198 -0.058586 -0.0769879 -0.0866424 -0.0886095 -0.0837743 -0.077012 -0.0690227 -0.0584996 -0.0469463 -0.0360498 -0.0291136 -0.0273343 -0.0278773 -0.0288009 -0.0294787 -0.0326443 -0.0421063 -0.0584621 -0.0790633 -0.0971023 -0.106224 -0.102149 -0.0827395 -0.0484996 -0.00188921 0.0508469 0.101074 0.141158 0.166472 0.176778 0.173741 0.159619 0.135581 0.103697 0.067137 0.0300885 -0.00318221 -0.0295588 -0.0469413 -0.0548603 -0.0542984 -0.0475774 -0.0373696 -0.0263894 -0.0164574 -0.00871136 -0.00274273 0.00247098 0.00782451 0.0126887 0.0152939 0.0143207 0.00937918 0.00175808 -0.00682619 -0.0139822 -0.0182575 -0.0199303 -0.0201553 -0.0199303 -0.0182575 -0.0139822 -0.00682608 0.00175824 0.00937969 0.0143211 0.0152942 0.0126892 0.00782515 0.00247098 -0.00274313 -0.00871187 -0.0164579 -0.0263891 -0.0373676 -0.0475714 -0.0542885 -0.0548505 -0.0469349 -0.0295506 -0.00316653 0.0301091 0.06715 0.103696 0.135568 0.1596 0.17373 0.176774 0.166463 0.14112 0.100934 0.0504312 -0.00287397 -0.0504556 -0.0860439 -0.106896 -0.112032 -0.103117 -0.0842979 -0.0623414 -0.0445963 -0.0336557 -0.0279252 -0.0221142 -0.0131596 -0.00413422 -0.00165716 -0.0126876 -0.0361903 -0.0639487 -0.0871113 -0.0995562 -0.102945 -0.100182 -0.0902655 -0.0746553 -0.0535047 -0.029158 -0.00709774 0.0149616 0.0344785 0.0441349 0.0474123 0.0453488 0.0402008 0.0463658 0.0628199 0.0813448 0.109734 0.135726 0.138697 0.136678 0.134441 0.106142 0.0776357 0.0815075 0.0676679 0.0198283 0.0158882 0.0395385 -0.0191246 -0.113544 -0.112058 -0.0986941 -0.255371 -0.509441 -0.601017 -0.415504 -0.0426162 0.37311 0.68525 0.762505 0.587449 0.297953 0.068678 -0.0142027 0 0 
0 0 -0.0551452 -0.0562799 0.0369332 0.253621 0.513153 0.684912 0.692448 0.529299 0.191003 -0.27992 -0.660038 -0.677863 -0.386264 -0.147784 -0.131298 -0.141395 -0.0453191 0.0301256 0.0165071 0.0165346 0.0601121 0.0799677 0.0825092 0.108745 0.135084 0.140005 0.140253 0.133206 0.110397 0.0867481 0.0696903 0.0560346 0.0503717 0.0504557 0.0480703 0.0419845 0.0302131 0.0122026 -0.00800622 -0.0309978 -0.0554099 -0.075277 -0.0872816 -0.0902589 -0.0865038 -0.0797692 -0.0697946 -0.0571454 -0.0433176 -0.0310715 -0.0246562 -0.0238363 -0.0264075 -0.0308147 -0.0369677 -0.0484558 -0.0670042 -0.0906149 -0.112273 -0.121884 -0.112251 -0.081011 -0.0314972 0.0289271 0.090275 0.141674 0.175082 0.186733 0.17886 0.157083 0.127635 0.0953146 0.0625788 0.0310232 0.00161217 -0.0232167 -0.0413592 -0.0506391 -0.0501455 -0.041318 -0.0271946 -0.0116693 0.00209672 0.0118049 0.0165507 0.0162028 0.0123067 0.00672085 0.000862115 -0.0050749 -0.011135 -0.0168601 -0.0207429 -0.0209137 -0.0158245 -0.00523746 0.00829568 0.0198932 0.0245405 0.0198933 0.00829569 -0.00523745 -0.0158244 -0.0209134 -0.0207424 -0.0168596 -0.0111345 -0.00507435 0.000862115 0.00672056 0.0123064 0.0162025 0.0165499 0.0118048 0.0020995 -0.0116622 -0.0271853 -0.0413108 -0.0501409 -0.0506321 -0.0413421 -0.0231946 0.00162517 0.0310173 0.0625609 0.0952974 0.127623 0.157076 0.17884 0.18666 0.174841 0.14103 0.0888832 0.0263947 -0.0354392 -0.0862222 -0.118058 -0.127295 -0.116469 -0.0934109 -0.0687556 -0.0491107 -0.0350749 -0.0235062 -0.0109157 -0.000403231 0.00183433 -0.00954858 -0.0340012 -0.0621758 -0.0855362 -0.0997669 -0.105022 -0.103766 -0.0939607 -0.0750934 -0.0507137 -0.0255444 -0.0042836 0.0141507 0.0313405 0.0426141 0.0480251 0.0499634 0.0497018 0.0552081 0.0686068 0.0856382 0.109152 0.131894 0.138854 0.138667 0.133711 0.107492 0.0814058 0.0788878 0.0592802 0.0160719 0.0162556 0.0299408 -0.0449799 -0.140408 -0.130364 -0.146758 -0.383895 -0.673874 -0.656571 -0.280244 0.184713 0.517347 0.678813 0.678058 0.523392 0.285194 0.0803351 -1.4819e-05 0 0 
0 0 -0.0423721 -0.0348906 0.0569368 0.234081 0.428131 0.571511 0.656225 0.657081 0.441958 -0.0645966 -0.614615 -0.79527 -0.549425 -0.25076 -0.160403 -0.153106 -0.0778911 -0.00118152 0.0108277 0.0151127 0.0433334 0.066284 0.0829145 0.106369 0.126745 0.137167 0.13845 0.126884 0.108443 0.0915462 0.0756652 0.0647232 0.0603397 0.054896 0.0473625 0.0385601 0.0244694 0.00801409 -0.0094402 -0.0313253 -0.0544397 -0.0748142 -0.0896363 -0.0948481 -0.093162 -0.0874619 -0.0763794 -0.0621421 -0.0466843 -0.0333225 -0.0269707 -0.0266679 -0.031159 -0.0394547 -0.0516367 -0.0705413 -0.094263 -0.116861 -0.127655 -0.115556 -0.0767818 -0.0147325 0.0587941 0.128604 0.180312 0.203869 0.198441 0.170129 0.129724 0.0876471 0.0501428 0.0198193 -0.00406987 -0.0222383 -0.0356239 -0.0435237 -0.0454378 -0.0406747 -0.0299403 -0.0159273 -0.00187181 0.00946494 0.0169709 0.0205242 0.0203723 0.0166169 0.0097913 -0.000309394 -0.0135131 -0.0292745 -0.0453691 -0.058288 -0.0641862 -0.0597223 -0.0440533 -0.0194621 0.00753688 0.0286272 0.0366222 0.0286272 0.00753685 -0.0194621 -0.0440531 -0.0597219 -0.0641858 -0.0582875 -0.0453688 -0.0292742 -0.0135132 -0.000309989 0.00979078 0.0166158 0.0203712 0.0205256 0.0169751 0.00947269 -0.00186283 -0.015921 -0.0299365 -0.0406679 -0.0454208 -0.0435023 -0.0356132 -0.0222474 -0.0040901 0.0197996 0.0501276 0.0876341 0.129689 0.169998 0.19805 0.202929 0.178439 0.125452 0.0542891 -0.0201763 -0.0822656 -0.120077 -0.130716 -0.118711 -0.0954781 -0.0709414 -0.049381 -0.0314667 -0.0151041 -0.00356933 -0.00217482 -0.0142798 -0.038959 -0.0663854 -0.0889917 -0.103876 -0.11009 -0.109691 -0.0994409 -0.0775605 -0.0511795 -0.0258153 -0.00504795 0.0104679 0.0257575 0.0391422 0.0472973 0.0543581 0.059563 0.0637843 0.0745632 0.0903807 0.107213 0.125595 0.137116 0.135868 0.125471 0.105202 0.0818428 0.0653501 0.0426197 0.0147095 0.0105799 -0.00122945 -0.0774202 -0.152208 -0.159495 -0.249332 -0.546213 -0.790631 -0.6115 -0.0664323 0.433952 0.644733 0.644463 0.568086 0.44039 0.261857 0.0888802 0.014154 0 0 
0 0 -0.028468 -0.0126752 0.0754829 0.209799 0.334596 0.441388 0.587205 0.742731 0.680942 0.213817 -0.447601 -0.821119 -0.716428 -0.414826 -0.226229 -0.161729 -0.110605 -0.0513031 -0.00839329 0.0143596 0.0265224 0.0472233 0.08067 0.105183 0.117866 0.132671 0.137615 0.123031 0.108266 0.0984555 0.0848685 0.0760836 0.0727001 0.0626916 0.0496665 0.0370469 0.0203587 0.00462927 -0.0105736 -0.0307777 -0.0517326 -0.0712172 -0.0880494 -0.0966652 -0.0985579 -0.0947839 -0.084331 -0.0705907 -0.0557004 -0.043427 -0.0385627 -0.0402378 -0.0482018 -0.0612175 -0.0780165 -0.0981752 -0.115715 -0.121779 -0.105933 -0.061778 0.00682368 0.0874549 0.16151 0.211026 0.224819 0.201967 0.153234 0.0951627 0.0432987 0.00609941 -0.0161587 -0.0282562 -0.0354352 -0.0399972 -0.0418982 -0.0398288 -0.0334595 -0.0238102 -0.013445 -0.0050482 -0.000177807 0.00183667 0.00274608 0.00429147 0.00692729 0.00945742 0.00995033 0.00576041 -0.00442813 -0.0199911 -0.0372046 -0.0512158 -0.0573287 -0.0530942 -0.0384901 -0.0173468 0.00440287 0.0202253 0.0261478 0.0202253 0.00440285 -0.0173467 -0.0384899 -0.0530938 -0.0573281 -0.0512153 -0.0372045 -0.0199913 -0.00442875 0.00575921 0.00994952 0.00945613 0.00692732 0.00429384 0.00275099 0.00184447 -0.000169318 -0.00504304 -0.0134425 -0.0238041 -0.0334429 -0.0398089 -0.0418904 -0.0400086 -0.0354543 -0.028277 -0.0161769 0.00608051 0.0432332 0.0949394 0.152639 0.200661 0.222408 0.207278 0.156591 0.0820401 0.00196734 -0.0652152 -0.107878 -0.122899 -0.116643 -0.0983894 -0.0752877 -0.0524611 -0.03172 -0.0179725 -0.0161201 -0.0273561 -0.0497444 -0.073885 -0.0934334 -0.107034 -0.113006 -0.111951 -0.100666 -0.0774213 -0.0509394 -0.0260679 -0.00573119 0.00778648 0.0219571 0.0376581 0.0496443 0.0622188 0.071874 0.0750958 0.083746 0.0972428 0.106951 0.12171 0.136298 0.131361 0.116634 0.103987 0.0795905 0.046394 0.0259336 0.0139764 -0.0084832 -0.0510908 -0.110051 -0.160979 -0.225128 -0.412576 -0.712273 -0.816314 -0.445556 0.210076 0.671366 0.730484 0.577803 0.441499 0.348418 0.232999 0.0954472 0.027831 0 0 
0 0 -0.0143628 0.00924074 0.0924693 0.184957 0.24248 0.305668 0.48667 0.767447 0.871406 0.521726 -0.161168 -0.716926 -0.837211 -0.622155 -0.349894 -0.188928 -0.138626 -0.107224 -0.0419038 0.010568 0.0170304 0.0309144 0.0761887 0.10582 0.112843 0.127755 0.136039 0.1216 0.1094 0.105119 0.0956397 0.0891554 0.0857488 0.0725862 0.054761 0.0372094 0.0175506 0.00149978 -0.0122018 -0.0295864 -0.0473836 -0.064625 -0.0811986 -0.0928344 -0.0988382 -0.0976575 -0.0889637 -0.0768933 -0.064873 -0.0569491 -0.0564672 -0.0630911 -0.0766137 -0.0940464 -0.111471 -0.122806 -0.118804 -0.0916369 -0.0372535 0.0389087 0.121907 0.192378 0.232236 0.23193 0.192973 0.128524 0.0585573 0.00142606 -0.0323796 -0.0441175 -0.0424283 -0.0380106 -0.0363728 -0.0372163 -0.0367742 -0.0315503 -0.0221426 -0.0115927 -0.0045003 -0.00290827 -0.00587157 -0.00974069 -0.011236 -0.00885611 -0.00346938 0.00285084 0.00756612 0.00847813 0.00532887 -0.00013374 -0.00477874 -0.00634269 -0.00427747 -0.000381307 0.00276276 0.0025274 -0.00103765 -0.00567902 -0.00766159 -0.00567899 -0.00103754 0.00252767 0.00276317 -0.000381179 -0.00427714 -0.00634265 -0.0047794 -0.00013486 0.00532728 0.00847618 0.0075653 0.00285073 -0.00346876 -0.0088534 -0.0112308 -0.00973291 -0.00586415 -0.00290462 -0.0044998 -0.0115885 -0.0221272 -0.0315321 -0.036769 -0.0372261 -0.0363887 -0.0380291 -0.0424489 -0.0441511 -0.0324984 0.00107079 0.0576956 0.12678 0.190002 0.227662 0.2271 0.187293 0.117936 0.0366179 -0.0382398 -0.0923024 -0.119649 -0.122864 -0.108158 -0.0844614 -0.0598728 -0.0419886 -0.0367523 -0.044127 -0.0608848 -0.0794663 -0.0947313 -0.10563 -0.110158 -0.107552 -0.0958777 -0.0744088 -0.0499931 -0.0267549 -0.00748017 0.0053716 0.0196746 0.0379522 0.0547366 0.0721707 0.0848709 0.0879805 0.0943785 0.103783 0.107936 0.120121 0.134606 0.126349 0.111514 0.104561 0.0751049 0.0302192 0.0165201 0.0102291 -0.0418236 -0.106783 -0.138084 -0.18821 -0.348245 -0.618758 -0.832281 -0.712639 -0.16091 0.515884 0.860632 0.755847 0.479942 0.309181 0.257386 0.203307 0.100977 0.0405365 0 0 
0 0 -0.000893022 0.0297694 0.107577 0.162699 0.160276 0.176214 0.362105 0.722662 0.980916 0.81218 0.215556 -0.461939 -0.851087 -0.825518 -0.533597 -0.26059 -0.167517 -0.154898 -0.0848988 -0.00349535 0.0133682 0.0220289 0.0687844 0.104092 0.111039 0.122585 0.130821 0.119783 0.110271 0.108871 0.104585 0.101374 0.0969905 0.0818239 0.0603449 0.0372739 0.0142356 -0.00315191 -0.0168505 -0.0310192 -0.044666 -0.0586867 -0.072947 -0.0856972 -0.0953014 -0.0971686 -0.0910675 -0.0814324 -0.0732475 -0.0719805 -0.079042 -0.0928689 -0.111429 -0.128733 -0.137301 -0.126785 -0.0881687 -0.0200645 0.0692567 0.159662 0.227339 0.253924 0.232979 0.173361 0.093841 0.0174024 -0.0371896 -0.0623261 -0.0616361 -0.0477472 -0.0340842 -0.0289154 -0.0315853 -0.0358693 -0.0350178 -0.0265907 -0.0136155 -0.00167959 0.00447996 0.00453866 0.00101701 -0.00206436 -0.00329732 -0.00348229 -0.0046691 -0.00805679 -0.013527 -0.0188159 -0.0201729 -0.0138687 0.00111982 0.0212604 0.0394946 0.0473649 0.0392949 0.0154367 -0.0163382 -0.0434859 -0.0540207 -0.0434857 -0.016338 0.0154369 0.0392949 0.0473647 0.0394942 0.0212596 0.00111812 -0.013871 -0.0201749 -0.0188175 -0.0135273 -0.00805631 -0.00466788 -0.00347927 -0.0032926 -0.00205776 0.0010232 0.00454115 0.00447947 -0.00167532 -0.0136007 -0.026573 -0.0350116 -0.035874 -0.0315954 -0.028932 -0.0341093 -0.0478086 -0.0618357 -0.06286 -0.038385 0.0151602 0.090315 0.1687 0.227862 0.249447 0.224426 0.158444 0.0689628 -0.0205452 -0.0890984 -0.126679 -0.133304 -0.118358 -0.0946236 -0.0731829 -0.0622387 -0.0625171 -0.0713795 -0.0836775 -0.0940658 -0.101155 -0.103135 -0.0987505 -0.0884975 -0.0716146 -0.0512862 -0.0311637 -0.0130699 0.00125587 0.0171178 0.0383838 0.0604415 0.0814492 0.09614 0.100113 0.103217 0.107445 0.108692 0.118205 0.129297 0.121125 0.10968 0.102796 0.0677183 0.0213509 0.0128598 -0.00376551 -0.0847257 -0.154315 -0.166967 -0.259614 -0.530958 -0.820874 -0.84588 -0.459017 0.213478 0.804329 0.96948 0.712239 0.358183 0.182782 0.175769 0.176329 0.105984 0.0517859 0 0 
0 0 0.0112823 0.0479655 0.120278 0.144731 0.0938744 0.0638705 0.22631 0.612616 0.988757 1.03408 0.62813 -0.0653398 -0.704426 -0.953983 -0.749984 -0.396753 -0.217883 -0.190246 -0.1291 -0.0336456 0.00634633 0.0200608 0.0598008 0.0965021 0.109688 0.118573 0.122665 0.116205 0.111087 0.110564 0.111009 0.112122 0.106638 0.0899835 0.0660876 0.0376461 0.010822 -0.00879911 -0.0240978 -0.0358648 -0.0451215 -0.0556011 -0.0666709 -0.0786942 -0.0904929 -0.0957867 -0.0939431 -0.0888213 -0.0860199 -0.0923818 -0.107784 -0.127801 -0.14616 -0.152575 -0.137482 -0.0918984 -0.0139791 0.0856705 0.1852 0.255485 0.274593 0.237115 0.156685 0.0607145 -0.0225671 -0.0730392 -0.0863058 -0.0717223 -0.0462834 -0.0265961 -0.020736 -0.0271566 -0.0366788 -0.0401674 -0.0337003 -0.0199086 -0.00524199 0.00500334 0.00960361 0.0111708 0.0127211 0.0152232 0.0161773 0.0122142 0.000872975 -0.0169497 -0.037532 -0.054181 -0.0593405 -0.0480854 -0.0212805 0.0130516 0.0427529 0.0556747 0.0452387 0.0138022 -0.0267533 -0.0604525 -0.0733703 -0.0604523 -0.0267531 0.0138018 0.0452382 0.0556736 0.0427515 0.0130494 -0.0212827 -0.0480874 -0.0593417 -0.0541813 -0.0375317 -0.0169489 0.000873669 0.0122168 0.0161819 0.0152288 0.0127265 0.0111724 0.00960284 0.00500691 -0.00522868 -0.0198915 -0.0336911 -0.0401679 -0.0366863 -0.0271731 -0.0207701 -0.0267041 -0.0466047 -0.0725019 -0.0879029 -0.075815 -0.0266017 0.0558298 0.151856 0.233466 0.272784 0.255177 0.185264 0.0850773 -0.0150707 -0.0915667 -0.13279 -0.141483 -0.12948 -0.109743 -0.0939794 -0.0862661 -0.0863931 -0.0912515 -0.0950779 -0.096542 -0.0947609 -0.0890451 -0.0815755 -0.0705779 -0.055678 -0.0398388 -0.0223432 -0.00443445 0.0145978 0.0395414 0.06662 0.0898254 0.105944 0.110942 0.109668 0.109153 0.109565 0.11464 0.121176 0.117157 0.1084 0.0952689 0.0588238 0.0194267 0.00588378 -0.0338196 -0.128742 -0.189632 -0.217241 -0.395062 -0.746029 -0.948384 -0.699797 -0.0646295 0.623441 1.0246 0.97732 0.603835 0.225153 0.0729905 0.109456 0.154024 0.110479 0.0611251 0 0 
0 0 0.0217253 0.0631196 0.129947 0.131286 0.0459463 -0.0232717 0.0949962 0.454109 0.891947 1.14426 1.00548 0.426686 -0.372704 -0.930758 -0.939244 -0.595708 -0.318312 -0.225241 -0.165899 -0.0770987 -0.0130145 0.0203173 0.0528741 0.0840832 0.105949 0.116418 0.114869 0.1116 0.112358 0.112377 0.115616 0.120936 0.115028 0.0971837 0.072081 0.0395275 0.00888499 -0.0133863 -0.0310977 -0.0422684 -0.0479321 -0.0544905 -0.0623551 -0.0728445 -0.0854162 -0.0941049 -0.0986552 -0.101568 -0.107563 -0.122475 -0.14374 -0.163644 -0.170422 -0.151129 -0.0982748 -0.0117893 0.0957586 0.199645 0.270617 0.284486 0.236274 0.142791 0.0359529 -0.0508309 -0.0972107 -0.100359 -0.0745993 -0.040808 -0.0175369 -0.0131878 -0.0238944 -0.0384473 -0.0448943 -0.0386428 -0.0235707 -0.00833482 0.000386959 0.00192217 0.00091674 0.00282783 0.00919411 0.0174631 0.0220216 0.0190112 0.00695338 -0.0119689 -0.033424 -0.0505464 -0.0567262 -0.0484742 -0.0275739 -0.001233 0.0210601 0.0312273 0.0260835 0.00845925 -0.0136794 -0.0315305 -0.0382765 -0.0315306 -0.01368 0.00845824 0.0260822 0.0312256 0.021058 -0.00123498 -0.0275753 -0.0484746 -0.0567259 -0.0505461 -0.0334244 -0.0119698 0.00695393 0.0190143 0.0220268 0.0174692 0.00919898 0.00283002 0.000915519 0.00192449 0.000398872 -0.00832044 -0.0235623 -0.0386396 -0.0449001 -0.0384685 -0.0239529 -0.0133689 -0.0180328 -0.0419029 -0.0766582 -0.103668 -0.101657 -0.0557431 0.0316533 0.140103 0.23547 0.284808 0.270712 0.198685 0.0944359 -0.0111931 -0.0929064 -0.139491 -0.154096 -0.147363 -0.132924 -0.119558 -0.110162 -0.10455 -0.0987167 -0.0924775 -0.0863592 -0.0796811 -0.0750231 -0.0698309 -0.0614767 -0.050271 -0.0323252 -0.00990196 0.0134597 0.0426797 0.0735917 0.0976538 0.114795 0.120177 0.114565 0.111172 0.111054 0.110249 0.11355 0.115166 0.104785 0.0830495 0.0520408 0.0197828 -0.0133701 -0.0770336 -0.165417 -0.224523 -0.317072 -0.592779 -0.933978 -0.924963 -0.369766 0.424516 0.998289 1.13378 0.881199 0.447284 0.0963943 -0.0122032 0.0611256 0.136754 0.114063 0.0681905 0 0 
0 0 0.030217 0.0748218 0.136055 0.121488 0.016027 -0.0811534 -0.0166369 0.272896 0.707158 1.11901 1.275 0.934114 0.121944 -0.698543 -1.01727 -0.81823 -0.486501 -0.286192 -0.194748 -0.122687 -0.0471579 0.0150691 0.0497147 0.0712902 0.0980893 0.114155 0.109215 0.106468 0.112539 0.114452 0.118751 0.126237 0.120611 0.102205 0.0766312 0.0423319 0.00884034 -0.0164504 -0.0364047 -0.0481715 -0.0522247 -0.0551437 -0.059535 -0.0681707 -0.0806871 -0.0928382 -0.105155 -0.119087 -0.137194 -0.160548 -0.182045 -0.189751 -0.169467 -0.11087 -0.0159233 0.100558 0.210221 0.281016 0.28929 0.23093 0.127043 0.0138904 -0.0721253 -0.11075 -0.10368 -0.0686706 -0.0299085 -0.00557963 -0.00319236 -0.0177904 -0.0365007 -0.0463284 -0.0408012 -0.02396 -0.00630914 0.00242372 0.000157729 -0.00751681 -0.0128861 -0.0115822 -0.00497257 0.00225835 0.00589026 0.00491026 0.000507983 -0.0050415 -0.0096522 -0.0111595 -0.0092675 -0.00530331 -0.00240379 -0.00265283 -0.00588333 -0.00908291 -0.00859736 -0.00219208 0.00845744 0.0186894 0.0227863 0.0186887 0.00845605 -0.00219365 -0.00859938 -0.00908517 -0.0058854 -0.00265386 -0.00240393 -0.00530317 -0.00926749 -0.0111607 -0.00965394 -0.00504224 0.000509407 0.0049129 0.00589447 0.00226386 -0.00496758 -0.0115807 -0.0128885 -0.00751483 0.000165948 0.00243292 -0.00630045 -0.0239558 -0.0408128 -0.0463683 -0.0366043 -0.0180828 -0.00391426 -0.00706016 -0.0324866 -0.0724899 -0.108407 -0.115483 -0.0757193 0.0121818 0.127041 0.231506 0.289073 0.279539 0.208653 0.101413 -0.00997654 -0.0988952 -0.153738 -0.17531 -0.17399 -0.160413 -0.141677 -0.122723 -0.104679 -0.0895129 -0.07862 -0.070981 -0.0684101 -0.0687898 -0.0670469 -0.0595898 -0.0411476 -0.0147631 0.0136817 0.0470456 0.0798112 0.103941 0.121347 0.1263 0.118355 0.113715 0.111637 0.105523 0.108191 0.113169 0.0971689 0.0705278 0.0491024 0.0146943 -0.0471156 -0.122247 -0.193989 -0.284976 -0.484154 -0.813774 -1.01121 -0.693788 0.122145 0.928864 1.26585 1.10835 0.697699 0.268171 -0.0130195 -0.0687732 0.0303477 0.123663 0.116145 0.072772 0 0 
0 0 0.036728 0.0829843 0.138354 0.113915 0.00124879 -0.110177 -0.0973916 0.09753 0.467365 0.961495 1.38126 1.35925 0.70606 -0.245395 -0.8985 -0.984432 -0.70808 -0.402477 -0.231658 -0.160732 -0.0897317 -0.00300012 0.0464074 0.0622656 0.0869828 0.108246 0.104973 0.101734 0.110209 0.115361 0.120653 0.127812 0.122404 0.10418 0.0784831 0.0447286 0.0105632 -0.0176134 -0.0396653 -0.0525535 -0.0571473 -0.0581566 -0.0593092 -0.0659031 -0.0780213 -0.0940385 -0.115289 -0.141462 -0.171361 -0.198889 -0.210489 -0.191469 -0.13028 -0.0279756 0.0974363 0.214795 0.287961 0.292566 0.226523 0.113625 -0.0045417 -0.0892274 -0.120165 -0.103081 -0.0609261 -0.0193403 0.00427349 0.00609555 -0.00799713 -0.0264177 -0.0374201 -0.0345422 -0.0196143 -0.00226281 0.00761896 0.00594359 -0.00271791 -0.0103427 -0.0122923 -0.00996717 -0.00810619 -0.0103573 -0.0164274 -0.022447 -0.0241324 -0.0178875 -0.00351188 0.0160093 0.0330268 0.0385318 0.0268824 0.000906559 -0.0287686 -0.0475464 -0.0450573 -0.0203575 0.0164167 0.0486353 0.0613969 0.0486345 0.0164153 -0.0203589 -0.0450589 -0.0475479 -0.0287698 0.000905726 0.0268813 0.0385299 0.0330244 0.0160071 -0.0035134 -0.0178872 -0.0241305 -0.0224445 -0.0164239 -0.0103516 -0.00810195 -0.00996718 -0.0122961 -0.0103438 -0.00271613 0.00594807 0.00762454 -0.00226606 -0.0196432 -0.0346173 -0.0376058 -0.0268756 -0.00902146 0.00414399 0.00112744 -0.0236343 -0.0657894 -0.107446 -0.122956 -0.0900421 -0.0040437 0.114074 0.225729 0.2905 0.286186 0.215949 0.103902 -0.0158189 -0.115244 -0.178772 -0.204774 -0.200808 -0.176998 -0.145336 -0.114381 -0.0894828 -0.0732964 -0.0644477 -0.0632839 -0.0681066 -0.0710975 -0.0659918 -0.0479447 -0.0188993 0.0144998 0.0504584 0.0834711 0.107493 0.124381 0.12894 0.121128 0.115311 0.109875 0.10132 0.104445 0.107728 0.0865157 0.0619243 0.0461961 -0.00290648 -0.0890902 -0.159732 -0.230367 -0.400352 -0.704193 -0.978708 -0.892813 -0.243047 0.702867 1.35125 1.37104 0.951498 0.459616 0.0948604 -0.091979 -0.0970987 0.0143175 0.113293 0.116204 0.0748616 0 0 
0 0 0.0413731 0.0878195 0.13699 0.107167 -0.00258674 -0.114673 -0.142466 -0.0474506 0.21408 0.702299 1.30245 1.61254 1.2674 0.377687 -0.53033 -0.991013 -0.922515 -0.58517 -0.307221 -0.194891 -0.129479 -0.0340671 0.0359828 0.0580173 0.077501 0.0987748 0.10112 0.0997914 0.107494 0.115278 0.122474 0.127444 0.121194 0.103955 0.0782394 0.0461158 0.0138673 -0.0159458 -0.0402449 -0.0544799 -0.0610713 -0.0627654 -0.0627179 -0.0678191 -0.0798638 -0.100355 -0.131199 -0.168442 -0.204991 -0.226288 -0.21364 -0.154844 -0.0490457 0.0847718 0.211196 0.290913 0.295416 0.223722 0.103018 -0.0212887 -0.105854 -0.130899 -0.104642 -0.0557343 -0.0129913 0.0081607 0.00749566 -0.00526988 -0.0198642 -0.0275788 -0.024398 -0.011529 0.00423925 0.0136975 0.0127163 0.00478193 -0.00158232 -0.00116688 0.00435396 0.00784799 0.00395584 -0.0082851 -0.025239 -0.0407906 -0.0485105 -0.0425222 -0.0211109 0.0108558 0.0401919 0.0522563 0.0387033 0.00450062 -0.0346528 -0.0593675 -0.0571588 -0.0281889 0.0145567 0.0515755 0.0660069 0.0515749 0.0145559 -0.0281898 -0.0571595 -0.0593692 -0.0346553 0.00449805 0.0387006 0.0522536 0.0401895 0.0108539 -0.0211119 -0.0425216 -0.0485091 -0.040789 -0.0252363 -0.00827989 0.00395918 0.00784678 0.00434736 -0.00117534 -0.00159026 0.0047738 0.0127041 0.013671 0.00417688 -0.0116699 -0.0247189 -0.0282859 -0.0212921 -0.00776848 0.00376225 0.00346351 -0.0178372 -0.0595811 -0.106605 -0.131018 -0.105172 -0.0212513 0.101514 0.221117 0.293594 0.292496 0.218238 0.0971495 -0.0345514 -0.143469 -0.209477 -0.229268 -0.210832 -0.171928 -0.12969 -0.0948504 -0.0731176 -0.0625672 -0.0615573 -0.0677597 -0.072161 -0.0682243 -0.0515362 -0.0211376 0.0151298 0.0513585 0.0842368 0.108684 0.12434 0.129485 0.123792 0.115919 0.107697 0.0998062 0.10103 0.0986662 0.0775174 0.0581852 0.0363316 -0.0332689 -0.12815 -0.193326 -0.305238 -0.581739 -0.917133 -0.984986 -0.526554 0.376526 1.2608 1.60267 1.29228 0.693653 0.208203 -0.0482789 -0.135708 -0.101438 0.00893357 0.104188 0.113993 0.0746662 0 0 
0 0 0.0443669 0.0897744 0.132488 0.100244 9.27881e-05 -0.101565 -0.153936 -0.1467 -0.0125377 0.392155 1.05811 1.63894 1.68303 1.05788 0.0736894 -0.74775 -1.02686 -0.801535 -0.4481 -0.247589 -0.160323 -0.0689814 0.0146485 0.0548822 0.0746145 0.0901987 0.0974411 0.101988 0.108246 0.116061 0.125177 0.127521 0.118646 0.10239 0.0772899 0.046664 0.0176554 -0.0113651 -0.0373594 -0.0536621 -0.0629186 -0.0673749 -0.0694891 -0.075878 -0.0898355 -0.115148 -0.153589 -0.196807 -0.229552 -0.230187 -0.179564 -0.0757403 0.063065 0.198445 0.286186 0.295525 0.222811 0.0971876 -0.0332703 -0.122186 -0.146726 -0.11632 -0.0619878 -0.016572 0.00399966 0.00235605 -0.00968672 -0.021156 -0.0268969 -0.0243019 -0.0134281 0.0018333 0.0138385 0.0161695 0.00964892 0.00207801 0.00116609 0.00749646 0.0152488 0.0176949 0.0125382 0.00080623 -0.0151281 -0.0319603 -0.0441489 -0.044426 -0.0287532 -0.000756719 0.0270362 0.0406007 0.0327601 0.0080273 -0.0207258 -0.0385095 -0.0369756 -0.0168059 0.0124476 0.0375826 0.0473551 0.0375822 0.0124467 -0.0168073 -0.0369775 -0.0385124 -0.0207295 0.00802432 0.0327578 0.0405994 0.0270355 -0.00075776 -0.0287533 -0.0444248 -0.0441478 -0.0319593 -0.015126 0.000809026 0.0125384 0.017689 0.0152328 0.00747297 0.00113517 0.00203909 0.00959623 0.0160924 0.013706 0.001573 -0.0139603 -0.0253569 -0.0288215 -0.0242622 -0.0139891 -0.0026278 -0.000651632 -0.0197645 -0.06316 -0.115944 -0.146116 -0.122706 -0.0354078 0.0942995 0.221242 0.297805 0.294047 0.211326 0.0774364 -0.0650261 -0.176047 -0.233171 -0.234687 -0.199304 -0.151407 -0.109158 -0.0820072 -0.068121 -0.0641895 -0.0675059 -0.0701081 -0.066192 -0.0507761 -0.020927 0.0144148 0.0491622 0.0826171 0.107568 0.122393 0.129957 0.12678 0.116966 0.108689 0.102176 0.0975351 0.0903256 0.0748872 0.0553522 0.0154053 -0.0677254 -0.158659 -0.245659 -0.445279 -0.79685 -1.02086 -0.743059 0.0740555 1.05272 1.67375 1.62853 1.04902 0.385267 -0.0166175 -0.146002 -0.146261 -0.0886041 0.00988578 0.0952933 0.109624 0.0725731 0 0 
0 0 0.0459786 0.0894326 0.125624 0.0926756 0.00549914 -0.078573 -0.139246 -0.196148 -0.182711 0.0885167 0.704035 1.4358 1.85577 1.64581 0.819326 -0.222367 -0.905948 -0.963593 -0.647671 -0.351215 -0.194848 -0.098227 -0.0146672 0.0457412 0.0769373 0.0873172 0.0947655 0.106583 0.113872 0.119543 0.128849 0.129108 0.116809 0.100122 0.0766693 0.0479439 0.0216428 -0.00476139 -0.0305022 -0.0495221 -0.0626286 -0.0713462 -0.0786881 -0.0907196 -0.110414 -0.141369 -0.182369 -0.22024 -0.233742 -0.198663 -0.104119 0.0346324 0.178565 0.276912 0.293036 0.221978 0.0932209 -0.0415289 -0.134435 -0.161456 -0.131362 -0.0762218 -0.0295523 -0.00880304 -0.00992866 -0.0195285 -0.0275372 -0.0313182 -0.0315511 -0.0260291 -0.0136842 0.00185984 0.0122362 0.0125723 0.00648215 0.00181073 0.00261066 0.00572165 0.0064216 0.00373151 0.000570635 -0.00178935 -0.00465511 -0.0096633 -0.0148572 -0.0157395 -0.00949729 0.0016435 0.0117668 0.0159669 0.0131849 0.00645847 -0.000193378 -0.00353291 -0.00290086 0.00140229 0.00726139 0.0124704 0.0144521 0.0124696 0.00725938 0.00139968 -0.00290391 -0.00353572 -0.000195709 0.00645735 0.0131845 0.0159666 0.0117662 0.00164301 -0.00949662 -0.0157373 -0.0148568 -0.009663 -0.00465522 -0.00179297 0.000561244 0.00371088 0.00638462 0.00566691 0.00253616 0.00171464 0.00635713 0.0124035 0.0119811 0.00141485 -0.0145089 -0.0275231 -0.0340511 -0.0350507 -0.032318 -0.0246113 -0.0141733 -0.0112244 -0.0299707 -0.0755185 -0.130957 -0.162445 -0.136909 -0.0442864 0.0923692 0.2254 0.302147 0.290729 0.19326 0.0452724 -0.10058 -0.201112 -0.237826 -0.221751 -0.179865 -0.135731 -0.102871 -0.0822374 -0.0711158 -0.0677885 -0.0658475 -0.0596325 -0.0446549 -0.0182439 0.0129821 0.0457534 0.0793442 0.104501 0.120524 0.131555 0.130244 0.120263 0.11412 0.106582 0.0946761 0.087295 0.0770658 0.0461552 -0.0138805 -0.0969844 -0.19326 -0.349054 -0.644115 -0.958346 -0.900802 -0.220748 0.815318 1.63708 1.84518 1.4262 0.696755 0.0834695 -0.185271 -0.194291 -0.131026 -0.0661998 0.0135012 0.0861009 0.10351 0.0690748 0 0 
0 0 0.046492 0.0874074 0.117254 0.0844625 0.0109892 -0.0525486 -0.10852 -0.201859 -0.282601 -0.159367 0.316006 1.05439 1.74606 1.99985 1.54683 0.525658 -0.484393 -0.947495 -0.84288 -0.521937 -0.2659 -0.127655 -0.0463664 0.0246844 0.0748637 0.0888288 0.0936831 0.109596 0.120885 0.12527 0.132353 0.131344 0.117014 0.0987223 0.0767693 0.0514537 0.0276026 0.00371898 -0.0199838 -0.0407544 -0.0589275 -0.0741454 -0.0897377 -0.111315 -0.14057 -0.177551 -0.214096 -0.231323 -0.207419 -0.125931 0.00603409 0.15265 0.26245 0.290585 0.225541 0.0959336 -0.0445508 -0.143013 -0.173741 -0.144783 -0.0884635 -0.0400168 -0.0172428 -0.0169797 -0.0243977 -0.029704 -0.0326925 -0.0365694 -0.0393069 -0.0342062 -0.0195797 -0.00218041 0.00817589 0.00917396 0.00709063 0.00788633 0.0102344 0.00787769 -0.00120725 -0.0123324 -0.0188188 -0.0186337 -0.013314 -0.00513674 0.00417372 0.0115854 0.0128811 0.00561908 -0.00710582 -0.0170885 -0.016581 -0.00452319 0.0125123 0.0247957 0.0256981 0.0153191 -0.000760141 -0.0144799 -0.0198684 -0.0144809 -0.000762323 0.015316 0.0256955 0.0247949 0.0125123 -0.00452319 -0.0165815 -0.017089 -0.00710682 0.00561961 0.0128829 0.0115866 0.00417283 -0.00514073 -0.0133245 -0.0186532 -0.0188514 -0.0123859 -0.00128902 0.007762 0.0100824 0.00769362 0.0068506 0.00886757 0.00774509 -0.00286621 -0.020759 -0.0361949 -0.042399 -0.0408569 -0.0377763 -0.0346245 -0.0279984 -0.0185256 -0.0169583 -0.0390598 -0.0882003 -0.145967 -0.17608 -0.14508 -0.0441862 0.100919 0.236241 0.30561 0.277713 0.163328 0.00958958 -0.127995 -0.210905 -0.232572 -0.212171 -0.173332 -0.134744 -0.10399 -0.0819572 -0.0685899 -0.0587614 -0.0475906 -0.0329583 -0.0119221 0.0140903 0.0437036 0.0752067 0.10097 0.120102 0.133595 0.13344 0.12554 0.120673 0.109079 0.0930789 0.0882966 0.0744905 0.0247205 -0.0458722 -0.126835 -0.264585 -0.519465 -0.838789 -0.942769 -0.481939 0.522797 1.53848 1.98884 1.73579 1.04669 0.310825 -0.162815 -0.284029 -0.199187 -0.100047 -0.0409611 0.0172407 0.0765869 0.0962355 0.0646807 0 0 
0 0 0.046173 0.0842582 0.10817 0.0759316 0.0151738 -0.0283964 -0.0717431 -0.176476 -0.31482 -0.321716 -0.0317686 0.584135 1.38555 2.03261 2.07622 1.34296 0.221226 -0.644284 -0.916767 -0.726313 -0.405284 -0.185482 -0.0826273 -0.00938072 0.056294 0.0846734 0.09139 0.10657 0.121581 0.128075 0.132476 0.129655 0.11602 0.0973756 0.076276 0.0552726 0.0353275 0.0137751 -0.00733105 -0.0281582 -0.0512219 -0.0751449 -0.102536 -0.137007 -0.177081 -0.216749 -0.239051 -0.22066 -0.146071 -0.0180713 0.131018 0.248851 0.288601 0.232567 0.105845 -0.0373651 -0.14224 -0.178807 -0.153481 -0.0970444 -0.0447182 -0.0166091 -0.0110454 -0.0146104 -0.0164332 -0.0176842 -0.0239941 -0.0348547 -0.0412057 -0.0345134 -0.0186159 -0.00512205 -0.00166409 -0.00361188 -0.000873996 0.00913048 0.0191531 0.0200208 0.0108292 -0.00348553 -0.0170868 -0.0265974 -0.0276427 -0.0170425 0.00275093 0.0205273 0.0231703 0.00609979 -0.0215285 -0.0417539 -0.0403723 -0.0169262 0.015397 0.03901 0.0422206 0.0247204 -0.00420575 -0.0299798 -0.0403457 -0.0299801 -0.0042073 0.0247188 0.0422193 0.0390101 0.015397 -0.0169267 -0.0403727 -0.0417538 -0.021528 0.00610119 0.0231711 0.0205229 0.0027403 -0.0170632 -0.0276799 -0.0266536 -0.0171686 -0.00360465 0.0106641 0.0198056 0.0188849 0.00880525 -0.00126084 -0.00408429 -0.00229442 -0.00606607 -0.0201573 -0.03698 -0.0448263 -0.0395402 -0.0291186 -0.0221547 -0.0191669 -0.0151825 -0.0100523 -0.0153673 -0.0443979 -0.0980039 -0.155145 -0.179703 -0.140295 -0.0306053 0.118101 0.248533 0.303996 0.259047 0.133932 -0.0205886 -0.149864 -0.222562 -0.238506 -0.214631 -0.173698 -0.131873 -0.0958857 -0.0689436 -0.0483386 -0.031103 -0.0171016 -0.0012717 0.0191133 0.0426592 0.0698215 0.0964248 0.1179 0.131838 0.133614 0.128201 0.12108 0.105731 0.0903765 0.0837401 0.0555768 -0.00962823 -0.082494 -0.184953 -0.403836 -0.723316 -0.912775 -0.641612 0.219454 1.33527 2.06467 2.02114 1.37705 0.578909 -0.0350181 -0.324014 -0.31551 -0.17327 -0.0632309 -0.0177046 0.0197918 0.0670575 0.0884126 0.0598416 0 0 
0 0 0.0452506 0.0804436 0.0990165 0.0675442 0.0176876 -0.00878386 -0.0367164 -0.134746 -0.29438 -0.392395 -0.285937 0.124898 0.866164 1.74112 2.26788 2.02287 1.0806 -0.0234645 -0.738111 -0.864152 -0.604012 -0.30712 -0.142197 -0.0555631 0.0162606 0.0620256 0.0806027 0.0951282 0.109886 0.120235 0.124452 0.119357 0.107552 0.0916026 0.0718692 0.0546602 0.0400918 0.0225084 0.00405706 -0.0158135 -0.0420358 -0.0752779 -0.117246 -0.166915 -0.215941 -0.249719 -0.24459 -0.178952 -0.0521076 0.106724 0.241489 0.296986 0.250272 0.123983 -0.0241705 -0.135317 -0.177924 -0.15673 -0.102168 -0.0473207 -0.0127698 0.000152586 0.00255839 0.00457942 0.00719484 0.00345499 -0.00893147 -0.0218797 -0.0241378 -0.0142416 -0.00379264 -0.00454132 -0.0158488 -0.0248797 -0.0212865 -0.00693752 0.00818267 0.0169578 0.0187915 0.0141565 0.00202485 -0.0147101 -0.0259036 -0.0214025 -0.00137563 0.0205843 0.0276204 0.0127591 -0.0155477 -0.0387741 -0.0408693 -0.0194956 0.0130821 0.0393371 0.0457395 0.0295652 -0.00104242 -0.0301215 -0.0421008 -0.0301224 -0.00104384 0.0295653 0.0457398 0.0393371 0.0130817 -0.0194959 -0.0408686 -0.038774 -0.0155477 0.0127571 0.0276117 0.0205636 -0.00141204 -0.0214612 -0.0259911 -0.0148347 0.00185439 0.0139342 0.0185121 0.0166177 0.00778197 -0.00740094 -0.0218114 -0.0254965 -0.0166469 -0.00571294 -0.00565483 -0.0171219 -0.028161 -0.0267548 -0.0138281 -0.000287798 0.00552236 0.00504564 0.00427427 0.00180031 -0.0120869 -0.0476552 -0.102772 -0.156208 -0.174404 -0.127091 -0.010945 0.140085 0.264857 0.305712 0.242852 0.102936 -0.0569494 -0.181991 -0.245589 -0.249581 -0.214714 -0.16386 -0.112102 -0.0691685 -0.0371395 -0.014783 -0.0010633 0.0107298 0.0241059 0.039093 0.0608375 0.0866676 0.107386 0.121236 0.126079 0.120778 0.109592 0.09436 0.0796003 0.0610317 0.0155093 -0.055856 -0.142115 -0.306341 -0.601863 -0.860672 -0.735266 -0.0243469 1.07392 2.01127 2.25508 1.7311 0.860414 0.122137 -0.287748 -0.394047 -0.294664 -0.131217 -0.0283113 0.000982124 0.0208437 0.0579568 0.0805818 0.0549149 0 0 
0 0 0.0439143 0.0763148 0.0902627 0.0597427 0.0187952 0.00553012 -0.00812824 -0.089659 -0.242222 -0.385682 -0.424493 -0.241583 0.309538 1.20779 2.07384 2.3774 1.87929 0.824888 -0.229511 -0.792342 -0.780052 -0.496882 -0.253239 -0.119293 -0.0389671 0.0179647 0.0549572 0.0758962 0.0881107 0.0999402 0.106574 0.100439 0.0893181 0.077354 0.0612677 0.0469334 0.036723 0.0244604 0.00982048 -0.00907149 -0.037582 -0.0787446 -0.134605 -0.198156 -0.250534 -0.266778 -0.220456 -0.102299 0.0637432 0.22253 0.307882 0.282169 0.160728 0.00264061 -0.123387 -0.178186 -0.164713 -0.113406 -0.058354 -0.0189059 0.00176659 0.0107471 0.0165939 0.0216556 0.0221467 0.0143878 0.00336948 -0.000664798 0.0068821 0.0176051 0.0174697 0.00209883 -0.018906 -0.0315613 -0.0318494 -0.025888 -0.0197046 -0.0120322 -0.000341621 0.010604 0.0118561 0.0016831 -0.010218 -0.0126092 -0.0024779 0.0123797 0.020813 0.0153861 -0.00192189 -0.0203135 -0.0273363 -0.0174094 0.00415546 0.0250619 0.0332676 0.0232512 -0.000466716 -0.0247581 -0.0349795 -0.0247594 -0.000467024 0.0232526 0.033269 0.0250621 0.00415556 -0.0174097 -0.0273373 -0.020317 -0.00193045 0.015368 0.0207786 0.0123209 -0.00256653 -0.012736 -0.0103923 0.00145311 0.0115689 0.0102593 -0.00074696 -0.0124968 -0.0202245 -0.0264532 -0.0324566 -0.032258 -0.0198111 0.000751234 0.0153403 0.014392 0.00259072 -0.00552462 -0.00103041 0.0116164 0.0216729 0.0232093 0.0190829 0.0129683 0.00308009 -0.0183476 -0.0578202 -0.11167 -0.160124 -0.169302 -0.110202 0.0177567 0.17353 0.288716 0.307207 0.217244 0.0578791 -0.106197 -0.222432 -0.267798 -0.250634 -0.196534 -0.130747 -0.0731353 -0.031565 -0.00479921 0.00952695 0.0175574 0.0236473 0.0309835 0.0469651 0.0681813 0.086034 0.101172 0.108589 0.101403 0.088625 0.0756909 0.0543631 0.0172923 -0.0394109 -0.119281 -0.252654 -0.495179 -0.776988 -0.789254 -0.229394 0.81938 1.86822 2.36382 2.06209 1.20069 0.306825 -0.242352 -0.425489 -0.38712 -0.242333 -0.0859455 7.86288e-05 0.0143893 0.0206848 0.0496991 0.0731539 0.0501568 0 0 
0 0 0.0423164 0.0721257 0.0822082 0.0528382 0.0189925 0.0150303 0.0122887 -0.0501734 -0.178742 -0.327818 -0.45585 -0.470455 -0.170556 0.571322 1.55601 2.30862 2.39239 1.69887 0.568691 -0.394024 -0.788309 -0.690003 -0.42526 -0.217063 -0.102915 -0.037072 0.0153941 0.0507063 0.0647512 0.0746466 0.0829861 0.0785741 0.0674096 0.0572567 0.0454805 0.0343986 0.0259868 0.017118 0.00630333 -0.0118003 -0.043554 -0.0919371 -0.15742 -0.226715 -0.270668 -0.256032 -0.160335 0.0038295 0.182827 0.303612 0.311302 0.206195 0.0444559 -0.0989527 -0.173288 -0.175566 -0.135327 -0.0860351 -0.0465169 -0.0199218 -0.00328076 0.00740851 0.0143689 0.0169816 0.0141011 0.0076511 0.00565604 0.0139354 0.0288356 0.0375164 0.0307105 0.0127878 -0.00407557 -0.0123428 -0.0166042 -0.024154 -0.0342587 -0.0373461 -0.0275764 -0.0107446 0.0024373 0.00684145 0.00500677 0.00107424 -0.00174865 -0.00135906 0.00208518 0.00445118 0.00149417 -0.00644517 -0.0135017 -0.0136624 -0.00527406 0.00662734 0.0136722 0.00999368 -0.00304414 -0.0174017 -0.0235417 -0.0174012 -0.00304233 0.00999574 0.0136733 0.00662769 -0.00527418 -0.0136657 -0.0135104 -0.00646263 0.00146261 0.00439881 0.00200114 -0.00148362 -0.00192148 0.000845908 0.00471781 0.00649172 0.00202753 -0.0112096 -0.0280872 -0.0378907 -0.0348276 -0.024737 -0.0172097 -0.0130401 -0.00503327 0.0112969 0.028334 0.0340289 0.0243982 0.00928834 0.00198172 0.00604655 0.0149378 0.0196608 0.0176996 0.0103153 -0.0012506 -0.0185596 -0.0452177 -0.0837684 -0.130592 -0.167076 -0.161176 -0.0856206 0.0549792 0.2105 0.308921 0.297385 0.176623 -0.000177884 -0.162474 -0.257341 -0.27126 -0.225895 -0.15465 -0.0872486 -0.0374692 -0.00568875 0.00993063 0.0153599 0.0175384 0.0206056 0.0300015 0.0444631 0.0601525 0.0768278 0.0844565 0.0768365 0.0662998 0.051344 0.0154262 -0.0373294 -0.102927 -0.216541 -0.423738 -0.687185 -0.785087 -0.392973 0.56453 1.68863 2.37859 2.29554 1.54722 0.567799 -0.170583 -0.469954 -0.456602 -0.329334 -0.178806 -0.0463564 0.0202447 0.023032 0.0198185 0.0425661 0.066397 0.0457347 0 0 
0 0 0.040576 0.0680499 0.0750114 0.0469746 0.0187363 0.0207592 0.0249477 -0.0206692 -0.119218 -0.247058 -0.408767 -0.557692 -0.498717 -0.0205465 0.861616 1.84577 2.47063 2.34926 1.47921 0.337314 -0.487624 -0.752736 -0.614826 -0.364667 -0.186695 -0.0949378 -0.031442 0.019006 0.0435592 0.0537532 0.0610507 0.0595528 0.0505095 0.0400807 0.0299522 0.0219102 0.0142074 0.00492117 -0.00564542 -0.0249955 -0.0619005 -0.118226 -0.188537 -0.250351 -0.267415 -0.207204 -0.0626281 0.125898 0.280486 0.328955 0.249295 0.0883523 -0.0710299 -0.165731 -0.183891 -0.156045 -0.117859 -0.0858797 -0.060195 -0.0377959 -0.0207954 -0.0105947 -0.00610405 -0.00535672 -0.00688106 -0.00800901 -0.00272788 0.0110625 0.0267948 0.0338431 0.0285103 0.0178907 0.0109158 0.00884383 0.0047897 -0.0065033 -0.0219716 -0.0328706 -0.0343236 -0.0278911 -0.0164666 -0.00205781 0.0100911 0.0130596 0.00538145 -0.00524179 -0.0101147 -0.00746998 -0.00165992 0.00153848 -0.000236712 -0.00457228 -0.00633445 -0.00365153 5.47375e-05 0.000517993 -0.00245103 -0.00582766 -0.00719454 -0.0058257 -0.0024482 0.000519708 5.4033e-05 -0.00365406 -0.00634039 -0.00458642 -0.00026495 0.00148952 -0.00173605 -0.00758365 -0.010279 -0.00546301 0.00509794 0.0127106 0.00968401 -0.00251899 -0.0169744 -0.0284249 -0.0348613 -0.0334 -0.0224906 -0.00701145 0.00426535 0.00819223 0.0099146 0.0162305 0.0258654 0.0301045 0.022324 0.00683418 -0.005438 -0.00826461 -0.00464514 -0.00153319 -0.00195266 -0.00707788 -0.0182588 -0.036118 -0.0588766 -0.0839648 -0.113892 -0.148735 -0.173354 -0.154271 -0.0624176 0.0910949 0.24604 0.322626 0.274687 0.122386 -0.0643936 -0.208365 -0.26811 -0.250022 -0.186731 -0.114728 -0.0566082 -0.0184928 0.00030582 0.00746633 0.0109732 0.0122326 0.0157339 0.0252575 0.0392551 0.0539842 0.060434 0.0557232 0.045912 0.020618 -0.0306712 -0.0946543 -0.186188 -0.363257 -0.612158 -0.749488 -0.486 0.334363 1.47002 2.3355 2.4565 1.83538 0.856814 -0.0206488 -0.496853 -0.55669 -0.409693 -0.248782 -0.119268 -0.0167879 0.0326238 0.0279708 0.018694 0.0366636 0.060444 0.0417422 0 0 
0 0 0.0387832 0.0641946 0.0687171 0.0421454 0.018325 0.0238323 0.0314555 -0.00165396 -0.0719356 -0.166003 -0.319111 -0.53113 -0.651506 -0.456796 0.167362 1.12973 2.09763 2.57501 2.23705 1.25221 0.164327 -0.537695 -0.711341 -0.542919 -0.315018 -0.168829 -0.084218 -0.022114 0.0177707 0.0370088 0.044646 0.0447702 0.0404106 0.0317154 0.0209531 0.0135654 0.00641179 -0.00500007 -0.0202689 -0.0459983 -0.090853 -0.15476 -0.224204 -0.26511 -0.23688 -0.119428 0.0649115 0.244811 0.334155 0.287527 0.133093 -0.0436364 -0.161562 -0.195575 -0.174764 -0.142677 -0.11863 -0.0975748 -0.0726862 -0.0481477 -0.0329044 -0.02761 -0.0260026 -0.0244008 -0.0233836 -0.022448 -0.0166824 -0.00380415 0.0110955 0.0200361 0.0204647 0.0165082 0.0127494 0.0104964 0.00742383 0.00186718 -0.00577661 -0.0146803 -0.0250932 -0.0341486 -0.0337383 -0.0186007 0.00375527 0.0180502 0.0165392 0.00434964 -0.0076311 -0.0117369 -0.0060795 0.00346898 0.00741675 0.00195485 -0.0069779 -0.0119683 -0.0117895 -0.0091685 -0.00516051 -0.000657578 0.00153295 -0.000655658 -0.00515825 -0.00916876 -0.0117943 -0.0119793 -0.00699997 0.0019141 0.00734887 0.00336485 -0.00623017 -0.0119446 -0.00790399 0.00400924 0.0161329 0.0175923 0.00326135 -0.019122 -0.0342635 -0.0346521 -0.0255579 -0.0151077 -0.00617556 0.00147946 0.00698913 0.00985518 0.0116431 0.0146021 0.0175036 0.0160848 0.00676531 -0.00735337 -0.0181565 -0.0211608 -0.0196995 -0.0195367 -0.0212568 -0.0238412 -0.0304315 -0.0468911 -0.0721802 -0.0967564 -0.11589 -0.136674 -0.165588 -0.185418 -0.154037 -0.0415488 0.129787 0.281659 0.32907 0.241915 0.0635436 -0.120364 -0.237561 -0.265076 -0.223135 -0.152436 -0.0868074 -0.0401346 -0.013536 0.00038982 0.00780213 0.00893473 0.0101495 0.0171762 0.02632 0.0348609 0.040319 0.03716 0.0200355 -0.01973 -0.0825848 -0.167862 -0.313675 -0.540407 -0.708067 -0.53567 0.162255 1.24403 2.22356 2.55999 2.08564 1.12344 0.166555 -0.454381 -0.648758 -0.530233 -0.320421 -0.16793 -0.0719444 0.00226733 0.0388359 0.030333 0.017597 0.0319472 0.05532 0.0382166 0 0 
0 0 0.0370006 0.0606176 0.0632998 0.0382528 0.0179122 0.0252149 0.0338169 0.00881369 -0.0389433 -0.0981961 -0.218793 -0.434759 -0.652542 -0.689787 -0.381006 0.355375 1.39271 2.30618 2.59509 2.08216 1.05086 0.026912 -0.568552 -0.662926 -0.485712 -0.287209 -0.156533 -0.076418 -0.0223456 0.0133344 0.0293924 0.0316347 0.0313856 0.0279469 0.0189218 0.0105519 0.00250775 -0.0108746 -0.0328502 -0.0700239 -0.126519 -0.195669 -0.254332 -0.260021 -0.17499 -0.00165297 0.201151 0.336419 0.329776 0.185714 -0.0131641 -0.163507 -0.21571 -0.195019 -0.1572 -0.134658 -0.120533 -0.0979387 -0.0669903 -0.0416855 -0.0308853 -0.0284849 -0.0262534 -0.0242601 -0.0266774 -0.0318211 -0.03142 -0.0213694 -0.00614732 0.00674969 0.0139236 0.0159643 0.0141354 0.0100198 0.00473522 0.000185958 -0.0032661 -0.00818061 -0.0194976 -0.0352336 -0.0434718 -0.0338216 -0.0104786 0.0113815 0.0200504 0.0137498 -0.000577669 -0.0115507 -0.00974169 0.00182318 0.00975188 0.00508277 -0.00708843 -0.0168078 -0.0194688 -0.0164441 -0.00953662 -0.00177042 0.00183441 -0.00177053 -0.00953816 -0.0164504 -0.0194838 -0.0168371 -0.00714112 0.00499511 0.00961956 0.00163507 -0.00999492 -0.011873 -0.00096849 0.0133 0.0195601 0.0108752 -0.010982 -0.0343053 -0.0439148 -0.0356218 -0.0198318 -0.00847241 -0.0035383 -0.000105252 0.00432727 0.00930645 0.0128328 0.0137511 0.010656 0.00271046 -0.0100807 -0.023892 -0.0313658 -0.0288903 -0.0216801 -0.0186754 -0.0214232 -0.0251304 -0.0291939 -0.0415327 -0.0677811 -0.0983973 -0.118893 -0.129489 -0.148663 -0.185414 -0.208563 -0.161486 -0.0161608 0.180437 0.325319 0.334013 0.200031 -0.00243488 -0.175619 -0.260127 -0.253752 -0.194237 -0.123751 -0.06538 -0.0265949 -0.00434153 0.00712341 0.0107034 0.0128322 0.0160894 0.0167143 0.0182628 0.0205952 0.0100059 -0.0216085 -0.0739441 -0.154061 -0.285337 -0.483229 -0.659643 -0.566073 0.0256983 1.04369 2.06925 2.57961 2.29275 1.38476 0.353477 -0.378723 -0.68607 -0.649787 -0.434359 -0.220527 -0.10026 -0.0388773 0.0127585 0.0409002 0.0310917 0.0166659 0.0282816 0.0509789 0.035156 0 0 
0 0 0.0352695 0.0573426 0.0587004 0.0351758 0.0175787 0.0256532 0.0338626 0.0135615 -0.0183707 -0.0487458 -0.129733 -0.312802 -0.553576 -0.734449 -0.707227 -0.29801 0.561344 1.63381 2.43428 2.55088 1.91803 0.864988 -0.0855976 -0.577535 -0.622002 -0.452088 -0.270515 -0.151147 -0.0789505 -0.026461 0.00607865 0.016788 0.0196685 0.02089 0.0171499 0.010052 -0.000263498 -0.0169699 -0.0456881 -0.0951118 -0.164249 -0.234354 -0.269437 -0.224221 -0.0772524 0.135279 0.320635 0.375603 0.262443 0.045409 -0.154312 -0.246911 -0.233106 -0.178407 -0.139323 -0.122982 -0.10568 -0.0761735 -0.0465401 -0.0307383 -0.0266034 -0.0222451 -0.0146978 -0.0118241 -0.0190415 -0.0305085 -0.0351587 -0.0306109 -0.0220066 -0.0136711 -0.00469776 0.00609127 0.0161535 0.0209106 0.0172489 0.00777406 -0.000746013 -0.00591508 -0.013297 -0.0264745 -0.0381588 -0.0376081 -0.0228223 -0.00228043 0.0123739 0.0132813 0.00179651 -0.0100406 -0.00952398 0.00238992 0.0130672 0.0122014 0.00173851 -0.00970181 -0.0152 -0.0132186 -0.00563322 0.00278902 0.00655542 0.00278587 -0.00564371 -0.0132415 -0.0152406 -0.00976937 0.00162942 0.012038 0.0128396 0.00209132 -0.0098917 -0.0104693 0.00132287 0.012787 0.0118837 -0.00274106 -0.0232387 -0.037972 -0.0384636 -0.0267243 -0.013502 -0.00609682 -0.000940704 0.00751222 0.0167925 0.0200471 0.0145906 0.0035705 -0.00818295 -0.0175736 -0.0252064 -0.0317686 -0.0334039 -0.0260408 -0.0131416 -0.00614416 -0.0104832 -0.0199977 -0.026266 -0.0319779 -0.0485534 -0.0775036 -0.10451 -0.118004 -0.130855 -0.168858 -0.226018 -0.24484 -0.157027 0.0405864 0.258427 0.3735 0.319715 0.134605 -0.077799 -0.22436 -0.269136 -0.233608 -0.162594 -0.0919176 -0.0407012 -0.0107211 0.00589511 0.0137975 0.0159589 0.0134421 0.00704372 0.00221978 -0.00648222 -0.0341291 -0.0812903 -0.149807 -0.267729 -0.44934 -0.618593 -0.57467 -0.0859247 0.85891 1.90586 2.53537 2.41985 1.62431 0.55816 -0.296207 -0.703143 -0.730525 -0.551408 -0.31306 -0.131835 -0.0508682 -0.0182078 0.0175105 0.0406533 0.0309929 0.0159642 0.0255135 0.0473462 0.0325383 0 0 
0 0 0.0336173 0.0543779 0.0548578 0.0328127 0.017373 0.0256398 0.0329012 0.0151139 -0.0068615 -0.0169193 -0.062548 -0.198321 -0.411359 -0.645904 -0.809719 -0.718908 -0.183278 0.768927 1.81528 2.49839 2.47524 1.74706 0.701154 -0.162339 -0.576997 -0.594134 -0.426856 -0.259485 -0.151663 -0.0804183 -0.0301566 -0.00350259 0.00671832 0.0101973 0.0103754 0.00721745 -0.00391951 -0.0265529 -0.0643971 -0.124709 -0.201375 -0.26335 -0.261849 -0.154504 0.0515268 0.277269 0.404745 0.351398 0.140764 -0.105535 -0.259371 -0.278082 -0.217524 -0.157935 -0.129532 -0.11185 -0.0819724 -0.0471137 -0.0272924 -0.0259656 -0.0289067 -0.0238451 -0.0144375 -0.011224 -0.0160919 -0.0214133 -0.0211197 -0.0195156 -0.0230437 -0.0299064 -0.0310922 -0.0203083 -0.000356147 0.0180762 0.0240423 0.0168148 0.00691621 0.00272458 0.000358737 -0.00695549 -0.0175783 -0.0237186 -0.0196499 -0.00638227 0.00725785 0.0106483 0.00225799 -0.00736289 -0.00721167 0.00211678 0.0122091 0.0149971 0.00792271 -0.00466449 -0.0136633 -0.0130258 -0.00480071 0.00419051 0.00793961 0.00418022 -0.00482881 -0.0130798 -0.013753 -0.00480237 0.00772408 0.0147287 0.0118687 0.00171024 -0.00766593 -0.00784068 0.00178478 0.0102038 0.00686173 -0.00671582 -0.0199211 -0.0239351 -0.0177479 -0.00709495 0.000232298 0.00258906 0.00673578 0.0165164 0.0234799 0.0170141 -0.00218639 -0.023075 -0.0346 -0.033362 -0.0251718 -0.0190929 -0.0177162 -0.0158086 -0.00995791 -0.00623219 -0.0115146 -0.0231121 -0.030035 -0.0283587 -0.0300058 -0.0486722 -0.0806843 -0.106619 -0.120895 -0.148392 -0.210541 -0.276021 -0.261909 -0.110038 0.137083 0.349515 0.403947 0.276674 0.0510329 -0.154676 -0.261737 -0.263066 -0.200579 -0.122781 -0.0608998 -0.0214321 0.0022939 0.0129764 0.0132115 0.00780304 -0.00175188 -0.0165825 -0.0444549 -0.0920844 -0.158285 -0.261049 -0.425102 -0.591196 -0.57392 -0.162003 0.696111 1.73577 2.45991 2.48334 1.80459 0.764506 -0.182166 -0.71472 -0.805088 -0.642524 -0.410029 -0.199202 -0.0649133 -0.019036 -0.00660673 0.0190336 0.0394035 0.0305295 0.0155227 0.023513 0.0443489 0.0303348 0 0 
0 0 0.032063 0.051726 0.0517155 0.0310804 0.0173038 0.0254227 0.0316492 0.0151876 -0.00111894 0.00111252 -0.0184248 -0.108613 -0.270156 -0.490814 -0.741271 -0.882938 -0.692874 -0.0480906 0.943533 1.94838 2.52329 2.37207 1.58389 0.574952 -0.215376 -0.574382 -0.566985 -0.404831 -0.251275 -0.147119 -0.0780982 -0.0335176 -0.00878603 0.000100538 0.00101664 -0.00055949 -0.0112946 -0.0398277 -0.0899032 -0.161725 -0.238237 -0.277113 -0.224864 -0.052843 0.195281 0.400983 0.438811 0.2712 -0.00732287 -0.236078 -0.314002 -0.264182 -0.183988 -0.14078 -0.127234 -0.106366 -0.0685361 -0.035818 -0.0249628 -0.0285317 -0.0310908 -0.0277585 -0.0247827 -0.0262016 -0.0272879 -0.0213465 -0.00924055 -0.000938261 -0.00453681 -0.0178968 -0.0310544 -0.0339363 -0.0226176 -0.00338574 0.0105868 0.0128 0.00928327 0.00741012 0.00635481 0.00327046 -0.00181087 -0.00674514 -0.00783128 -0.00182777 0.00683988 0.00856718 0.00136731 -0.00582548 -0.00609811 -0.000949159 0.00599491 0.0101194 0.00545224 -0.00777861 -0.0187557 -0.0186388 -0.00999298 -0.00122862 0.00232343 -0.00125776 -0.0100556 -0.0187452 -0.0189202 -0.0080134 0.00514233 0.00973958 0.0055614 -0.00141272 -0.00656282 -0.00626286 0.000980365 0.00824721 0.00659128 -0.00200975 -0.00796086 -0.00684106 -0.00189494 0.00317853 0.00624024 0.00725899 0.00906118 0.0124221 0.00988607 -0.00464455 -0.0246583 -0.0367953 -0.0343212 -0.0205861 -0.00534556 0.00106485 -0.00453833 -0.0152861 -0.0217157 -0.022558 -0.0235036 -0.0285153 -0.0332921 -0.0314787 -0.0277261 -0.0370738 -0.066848 -0.100846 -0.118522 -0.131363 -0.177197 -0.262218 -0.316425 -0.240325 -0.0107735 0.269458 0.438072 0.400427 0.194786 -0.0530652 -0.22489 -0.277098 -0.237996 -0.160748 -0.0877671 -0.0361276 -0.00594607 0.00570443 0.00635008 0.00206017 -0.0122024 -0.042822 -0.0915035 -0.161118 -0.262187 -0.410703 -0.568077 -0.572704 -0.214713 0.570675 1.57342 2.35701 2.50771 1.93664 0.937992 -0.0477485 -0.68882 -0.877821 -0.737047 -0.488348 -0.269646 -0.109972 -0.0209357 -0.000958193 -0.000795349 0.0190383 0.0378694 0.0299447 0.0153336 0.022175 0.0419282 0.0285187 0 0 
0 0 0.0306199 0.0493832 0.0492158 0.0298979 0.0173394 0.0250769 0.0304114 0.0147975 0.00150909 0.0100852 0.00709943 -0.0473929 -0.155135 -0.325752 -0.578256 -0.838952 -0.920301 -0.638296 0.0744027 1.08868 2.04402 2.50418 2.25379 1.44386 0.473903 -0.25535 -0.563925 -0.541108 -0.387056 -0.239945 -0.14016 -0.0766852 -0.0343941 -0.0123359 -0.00740602 -0.0107984 -0.0245767 -0.0590049 -0.120563 -0.20256 -0.272066 -0.273342 -0.157063 0.0753922 0.336806 0.48276 0.410153 0.147552 -0.149465 -0.318072 -0.315492 -0.226177 -0.156462 -0.136685 -0.129147 -0.101987 -0.0649973 -0.0419538 -0.0361378 -0.0341741 -0.029761 -0.026666 -0.0291075 -0.0345455 -0.036466 -0.0302306 -0.0162027 -0.000972903 0.00796725 0.00597075 -0.00603157 -0.0204541 -0.0253982 -0.0161111 -0.00128332 0.00870784 0.0115189 0.00904824 0.00363974 0.000210918 -3.3971e-05 -0.00183895 -0.00658038 -0.00824127 -0.00584861 -0.0064301 -0.0120416 -0.0160929 -0.0147078 -0.0103631 -0.0042658 0.00151931 -0.000120075 -0.0105002 -0.01924 -0.018334 -0.0112227 -0.004504 -0.00180253 -0.00455824 -0.0113399 -0.0185227 -0.0195066 -0.0108465 -0.000535237 0.0010616 -0.00473213 -0.0108059 -0.0150991 -0.0164141 -0.012285 -0.00659819 -0.00595493 -0.00830461 -0.00662199 -0.00188149 -9.62833e-05 0.000114332 0.00350022 0.00885201 0.0112296 0.00822754 -0.00211993 -0.017522 -0.0275425 -0.0232144 -0.00878761 0.00431222 0.00855576 0.00235901 -0.010818 -0.0244824 -0.0321273 -0.032564 -0.0293398 -0.0284387 -0.0324083 -0.0370885 -0.0385295 -0.0427368 -0.0629211 -0.0963304 -0.120545 -0.127531 -0.149913 -0.224287 -0.317822 -0.322098 -0.152732 0.145866 0.409388 0.482159 0.336295 0.0751058 -0.157195 -0.273494 -0.272144 -0.20221 -0.11946 -0.0567354 -0.0206779 -0.00530639 -0.00129772 -0.00757068 -0.0333069 -0.0810984 -0.150219 -0.253524 -0.400675 -0.551351 -0.569272 -0.256654 0.47014 1.43413 2.23915 2.48828 2.03134 1.08205 0.0739789 -0.634546 -0.914962 -0.834101 -0.574963 -0.324234 -0.155281 -0.0490538 0.00454625 0.0080828 0.00186912 0.0185404 0.036356 0.0293055 0.0153461 0.0214014 0.0400303 0.0270626 0 0 
0 0 0.0292924 0.0473346 0.0472888 0.0291772 0.0174345 0.0246246 0.0293224 0.0145068 0.00282485 0.0140253 0.0200836 -0.0105613 -0.0746855 -0.186814 -0.392001 -0.673056 -0.908526 -0.931219 -0.586093 0.183629 1.20526 2.08897 2.44923 2.13621 1.31937 0.390639 -0.278 -0.549111 -0.519959 -0.370517 -0.230709 -0.137832 -0.0768439 -0.037627 -0.0202606 -0.0218208 -0.0423688 -0.0867558 -0.157858 -0.242581 -0.294392 -0.246952 -0.0621548 0.218018 0.460212 0.511568 0.320565 -0.0041649 -0.267597 -0.345858 -0.274972 -0.181007 -0.144049 -0.145625 -0.133705 -0.0978819 -0.0642733 -0.048595 -0.0419377 -0.0342188 -0.0277941 -0.0263526 -0.0279026 -0.0295337 -0.0311962 -0.0310763 -0.0253741 -0.013397 0.000702153 0.00921091 0.00531705 -0.00919397 -0.0217443 -0.0215006 -0.0109969 0.000918087 0.00828427 0.00770195 0.00151771 -0.00170598 -3.98348e-05 -0.00234189 -0.0121719 -0.0215887 -0.0256366 -0.0284979 -0.0334495 -0.0364211 -0.0348959 -0.031073 -0.0252714 -0.0190789 -0.0181224 -0.0235042 -0.0275889 -0.0260693 -0.0221399 -0.0183562 -0.0160699 -0.0184501 -0.0223307 -0.0263577 -0.0279642 -0.0239425 -0.0185903 -0.0195374 -0.0256841 -0.0314129 -0.0351497 -0.03659 -0.0335478 -0.0285464 -0.0256586 -0.0216008 -0.0121906 -0.00238251 -0.000113922 -0.0018256 0.00134448 0.00745644 0.00792666 0.000350106 -0.0119358 -0.0229882 -0.0238459 -0.0116332 0.00329676 0.00868786 0.00253236 -0.00923086 -0.0200305 -0.0263271 -0.0284296 -0.0290765 -0.0291621 -0.0285172 -0.0303149 -0.0367175 -0.0438518 -0.0489766 -0.0619942 -0.0922511 -0.125344 -0.136787 -0.137751 -0.17917 -0.277178 -0.349729 -0.270725 -0.00582125 0.319781 0.510939 0.459683 0.217718 -0.0623607 -0.247209 -0.294665 -0.242634 -0.157483 -0.0856254 -0.0399599 -0.017743 -0.0147647 -0.0317861 -0.0726242 -0.137508 -0.235907 -0.380982 -0.533478 -0.562213 -0.287742 0.38507 1.3103 2.12219 2.43336 2.07563 1.19767 0.182424 -0.582665 -0.925844 -0.903318 -0.669189 -0.389788 -0.186088 -0.0752727 -0.0123741 0.0175564 0.0120949 0.00318931 0.018108 0.0349987 0.0286251 0.0155009 0.021098 0.0385962 0.0259328 0 0 
0 0 0.0280752 0.0455517 0.04586 0.028846 0.0175696 0.0240957 0.0284404 0.0145366 0.00373611 0.0154517 0.025543 0.00860899 -0.0261179 -0.0885265 -0.230363 -0.469589 -0.748296 -0.957553 -0.93996 -0.533302 0.279696 1.27806 2.0897 2.37659 2.02063 1.21204 0.333937 -0.28527 -0.533151 -0.500717 -0.359455 -0.229217 -0.140082 -0.0824905 -0.0488509 -0.0404145 -0.0638302 -0.120921 -0.202631 -0.281283 -0.299209 -0.191031 0.0575293 0.360122 0.548352 0.484717 0.188521 -0.157775 -0.35129 -0.335592 -0.221101 -0.144451 -0.139385 -0.149732 -0.130912 -0.0953904 -0.0697572 -0.0553876 -0.041478 -0.029308 -0.0260418 -0.0279287 -0.0275274 -0.0249522 -0.0245055 -0.0251888 -0.0231681 -0.0180709 -0.0114266 -0.00544666 -0.00497787 -0.0132607 -0.0254105 -0.0327385 -0.0326865 -0.0268114 -0.018412 -0.0137313 -0.0144828 -0.0138505 -0.0103659 -0.0116824 -0.0204169 -0.0299201 -0.035868 -0.0396086 -0.044476 -0.0488675 -0.050667 -0.050444 -0.0482736 -0.0452255 -0.0444611 -0.0462445 -0.0470347 -0.0458314 -0.0446663 -0.042612 -0.039683 -0.0427536 -0.0449376 -0.0462071 -0.0474812 -0.0467157 -0.0449052 -0.0455992 -0.0485552 -0.0506308 -0.050772 -0.0489135 -0.044485 -0.0396028 -0.0358685 -0.0299369 -0.0204566 -0.0117463 -0.0104672 -0.0139991 -0.0146867 -0.0140134 -0.0188202 -0.0274442 -0.0336709 -0.0341968 -0.0273019 -0.0151934 -0.00614722 -0.00491922 -0.00871988 -0.0136684 -0.018482 -0.0218036 -0.0232534 -0.0255799 -0.029203 -0.0299788 -0.0281742 -0.0313439 -0.0429745 -0.0555137 -0.0674237 -0.0899082 -0.122834 -0.141215 -0.133318 -0.142665 -0.22317 -0.33929 -0.354338 -0.159424 0.187702 0.484068 0.547812 0.359823 0.0573256 -0.191346 -0.299582 -0.281562 -0.202737 -0.120621 -0.0626493 -0.0378744 -0.044736 -0.0770463 -0.134487 -0.22544 -0.359699 -0.50634 -0.543718 -0.298544 0.321247 1.202 2.00726 2.36107 2.0761 1.26978 0.277794 -0.530171 -0.934487 -0.952102 -0.744085 -0.466936 -0.2291 -0.0883785 -0.0269689 0.00675485 0.0230809 0.0135867 0.00407365 0.0179675 0.0338552 0.0279289 0.0157682 0.0211868 0.0375636 0.0250896 0 0 
0 0 0.0269548 0.0439982 0.0448584 0.0288518 0.0177482 0.023513 0.02773 0.0148422 0.00449092 0.0155909 0.0268825 0.0167708 -0.00112179 -0.0288962 -0.11321 -0.286099 -0.532729 -0.806993 -1.00102 -0.936057 -0.475147 0.349591 1.31276 2.06525 2.29449 1.91705 1.13617 0.304849 -0.279381 -0.512829 -0.485845 -0.357094 -0.233761 -0.14925 -0.0988302 -0.0779757 -0.0965179 -0.159969 -0.249367 -0.315622 -0.286125 -0.105978 0.198453 0.491881 0.59053 0.40323 0.0328898 -0.288076 -0.39021 -0.300568 -0.177111 -0.129358 -0.138882 -0.138931 -0.112809 -0.0885844 -0.0777713 -0.066043 -0.0476166 -0.0337108 -0.0299507 -0.0289118 -0.0263974 -0.0260211 -0.0276457 -0.0259457 -0.0211594 -0.02014 -0.0237296 -0.0252429 -0.0229437 -0.0232733 -0.0303576 -0.0406854 -0.0491987 -0.051749 -0.0476977 -0.0434576 -0.0432925 -0.0424287 -0.039988 -0.0394921 -0.0418582 -0.0447121 -0.0479737 -0.0497927 -0.0522377 -0.0553873 -0.0582066 -0.0602238 -0.0610578 -0.0608822 -0.060467 -0.0598493 -0.0585463 -0.0570013 -0.0561452 -0.0553411 -0.0545308 -0.055512 -0.0564619 -0.0574177 -0.0589932 -0.0602589 -0.0607935 -0.0611082 -0.0611802 -0.0602604 -0.0581977 -0.0553639 -0.0522197 -0.049793 -0.0479927 -0.0447524 -0.041926 -0.0395853 -0.0401138 -0.0426001 -0.0435214 -0.0437678 -0.0481386 -0.0523984 -0.05016 -0.0420125 -0.031901 -0.024583 -0.023281 -0.0239009 -0.0206174 -0.01606 -0.017524 -0.023947 -0.0275382 -0.0271838 -0.0280231 -0.03059 -0.0316586 -0.035387 -0.0488502 -0.0660302 -0.0754561 -0.0833095 -0.105064 -0.130738 -0.132987 -0.127556 -0.179048 -0.304118 -0.393202 -0.289747 0.032027 0.40254 0.589937 0.491528 0.19823 -0.106313 -0.286539 -0.316022 -0.249729 -0.160202 -0.0962499 -0.0767244 -0.096193 -0.145012 -0.228271 -0.351607 -0.48232 -0.513368 -0.285157 0.294318 1.12311 1.90394 2.27949 2.0517 1.30408 0.347124 -0.472346 -0.930466 -0.995206 -0.802464 -0.529815 -0.284536 -0.112655 -0.0291079 -0.00208215 0.0149437 0.0245027 0.0137795 0.00477108 0.0180754 0.0328924 0.0272322 0.0161398 0.0216133 0.0368752 0.0244922 0 0 
0 0 0.0259127 0.0426343 0.0442182 0.0291496 0.0179705 0.0228687 0.0271035 0.0153001 0.00514123 0.0151128 0.0263974 0.0194297 0.00986153 0.00267936 -0.039232 -0.147969 -0.328755 -0.58035 -0.857058 -1.02318 -0.910738 -0.422693 0.396524 1.32553 2.02523 2.21631 1.84231 1.09485 0.301792 -0.257279 -0.48977 -0.477202 -0.360943 -0.246198 -0.171882 -0.1395 -0.152061 -0.21219 -0.295292 -0.336711 -0.251163 0.00175588 0.347893 0.603238 0.586936 0.279221 -0.129469 -0.385471 -0.387671 -0.249118 -0.143642 -0.127549 -0.138358 -0.121456 -0.0918568 -0.0799184 -0.0787032 -0.0693808 -0.0555451 -0.0481075 -0.0437117 -0.0357599 -0.0298965 -0.0327661 -0.0373017 -0.03416 -0.0278388 -0.0295819 -0.0398408 -0.0477859 -0.0480678 -0.0457888 -0.0474105 -0.0522997 -0.0571576 -0.059224 -0.0574018 -0.056456 -0.0593039 -0.0609515 -0.062859 -0.0647406 -0.0658243 -0.0654766 -0.0644129 -0.0631466 -0.0631365 -0.0648571 -0.067808 -0.0711291 -0.0739841 -0.0755332 -0.0753542 -0.0733846 -0.0704028 -0.0677998 -0.066507 -0.0661605 -0.0660819 -0.0663527 -0.0668529 -0.0682358 -0.0708247 -0.0737159 -0.0755591 -0.0756003 -0.0739346 -0.0710281 -0.0677089 -0.0647835 -0.0631041 -0.0631544 -0.0644533 -0.0655449 -0.0659164 -0.0648593 -0.0630047 -0.061137 -0.0595463 -0.0567789 -0.0578426 -0.0598415 -0.05801 -0.0533672 -0.0485061 -0.0464665 -0.0477256 -0.0460019 -0.0368058 -0.0262328 -0.0253677 -0.033276 -0.0378369 -0.034009 -0.0312505 -0.0370807 -0.0451098 -0.0495454 -0.0566515 -0.0693551 -0.076489 -0.074876 -0.0844633 -0.113597 -0.132619 -0.125683 -0.14539 -0.252499 -0.390584 -0.387154 -0.130353 0.27852 0.586335 0.60284 0.347605 0.00137607 -0.251646 -0.337196 -0.295794 -0.212689 -0.15235 -0.139189 -0.170557 -0.24342 -0.356516 -0.471573 -0.48425 -0.253828 0.301154 1.08895 1.83165 2.20281 2.01193 1.31663 0.393617 -0.420266 -0.905158 -1.01701 -0.852085 -0.577168 -0.327041 -0.14722 -0.0391263 0.00229395 0.00888702 0.0176645 0.0241058 0.0133446 0.00534015 0.0183173 0.0320225 0.0265182 0.0166078 0.0223358 0.0364797 0.0241005 0 0 
0 0 0.0249273 0.0414162 0.0438717 0.0296967 0.0182372 0.0221625 0.0265237 0.0159035 0.00585037 0.0145753 0.025632 0.020398 0.0145202 0.0179144 0.002721 -0.0571299 -0.170261 -0.356772 -0.619188 -0.884184 -1.01692 -0.877529 -0.379253 0.428475 1.31978 1.97828 2.15493 1.79722 1.08426 0.325289 -0.221812 -0.466032 -0.472226 -0.373089 -0.275574 -0.226332 -0.234254 -0.288322 -0.349465 -0.343637 -0.188462 0.130279 0.491677 0.679032 0.537589 0.131156 -0.27731 -0.446085 -0.359528 -0.19762 -0.118717 -0.121747 -0.124754 -0.100125 -0.0802815 -0.0797441 -0.0775001 -0.0652306 -0.0584128 -0.0613957 -0.0608253 -0.0520899 -0.0461909 -0.0487025 -0.0512939 -0.0472135 -0.0416243 -0.0428942 -0.0519624 -0.0625543 -0.0701381 -0.0740395 -0.0767611 -0.0775695 -0.0759718 -0.0739403 -0.0705973 -0.0683676 -0.0695096 -0.0729302 -0.07779 -0.0821638 -0.0840868 -0.082986 -0.080022 -0.077039 -0.0757067 -0.0768304 -0.0801608 -0.0848441 -0.089594 -0.0928841 -0.0934247 -0.0910787 -0.0871546 -0.0836276 -0.0818008 -0.0814438 -0.0815778 -0.0816578 -0.0821747 -0.0840596 -0.0875299 -0.0913138 -0.0934868 -0.0927841 -0.0893895 -0.0846161 -0.0799792 -0.0767213 -0.0756723 -0.0770652 -0.0800893 -0.0830756 -0.084196 -0.0822931 -0.0779366 -0.0731159 -0.0697486 -0.0686785 -0.0709995 -0.0744686 -0.0766361 -0.0783203 -0.0773911 -0.0741876 -0.0693933 -0.060709 -0.0493768 -0.0404329 -0.0401647 -0.0470458 -0.0520382 -0.0497549 -0.0472239 -0.0531576 -0.0620539 -0.0627032 -0.0594375 -0.0652443 -0.0754865 -0.0750126 -0.0732449 -0.0925595 -0.119146 -0.119807 -0.120271 -0.200813 -0.362354 -0.447737 -0.278182 0.130487 0.53701 0.678638 0.491383 0.129892 -0.18896 -0.344149 -0.349997 -0.288905 -0.234762 -0.226531 -0.275138 -0.371567 -0.469195 -0.461383 -0.216053 0.33083 1.08757 1.79626 2.14859 1.96725 1.31086 0.425144 -0.377305 -0.872223 -1.01068 -0.878878 -0.615665 -0.354896 -0.16945 -0.056896 0.00258683 0.017461 0.0135725 0.0187149 0.0234369 0.0128425 0.00594676 0.0186873 0.031204 0.0257784 0.0171644 0.0233142 0.0363254 0.0238743 0 0 
0 0 0.0239734 0.0402967 0.0437513 0.0304603 0.0185765 0.0214432 0.026032 0.0167488 0.00684051 0.0143586 0.0253327 0.0215081 0.0171093 0.0248638 0.0240238 -0.00487247 -0.0658359 -0.182009 -0.38123 -0.642243 -0.887654 -1.00132 -0.848025 -0.346853 0.439328 1.29478 1.92895 2.10561 1.77334 1.10012 0.368878 -0.177483 -0.440484 -0.474127 -0.405635 -0.344414 -0.341805 -0.387375 -0.419129 -0.347602 -0.10525 0.276102 0.624189 0.711527 0.441195 -0.0305368 -0.396511 -0.465831 -0.315231 -0.158845 -0.108522 -0.113075 -0.0991186 -0.0739889 -0.0720603 -0.0831916 -0.0801046 -0.0684281 -0.0681243 -0.0765852 -0.0796354 -0.076095 -0.0727028 -0.0709302 -0.0683168 -0.0650713 -0.0626167 -0.0608707 -0.0627721 -0.0690687 -0.078349 -0.0850495 -0.0901198 -0.0932152 -0.0937249 -0.0916677 -0.0873646 -0.0830401 -0.0815094 -0.0837511 -0.088717 -0.093667 -0.0958909 -0.0943682 -0.0903993 -0.0863326 -0.0842063 -0.085189 -0.0893062 -0.0957802 -0.102925 -0.108524 -0.110722 -0.109136 -0.105342 -0.101739 -0.0999159 -0.0997397 -0.0999686 -0.0999654 -0.100295 -0.102144 -0.10565 -0.10926 -0.110638 -0.108271 -0.102583 -0.0954484 -0.0890604 -0.0850548 -0.0841806 -0.0863812 -0.0904885 -0.0944773 -0.0960051 -0.0937967 -0.088861 -0.083932 -0.0817382 -0.0833163 -0.0877049 -0.0920759 -0.0941755 -0.0936322 -0.0903441 -0.0848363 -0.0774831 -0.0674751 -0.0608329 -0.0592404 -0.0618553 -0.0652224 -0.0689822 -0.0717068 -0.0734804 -0.0769949 -0.0807521 -0.0778286 -0.0691347 -0.0685196 -0.0782961 -0.0787921 -0.0653933 -0.0667074 -0.0935607 -0.110964 -0.109795 -0.161768 -0.317878 -0.467368 -0.39725 -0.0310661 0.440745 0.711226 0.623986 0.275816 -0.10563 -0.348016 -0.419562 -0.387874 -0.342304 -0.344787 -0.405696 -0.473538 -0.438762 -0.174265 0.373657 1.10591 1.77872 2.10855 1.92748 1.28834 0.43591 -0.345337 -0.843115 -0.995226 -0.88224 -0.638476 -0.379183 -0.181172 -0.0656139 -0.00492878 0.0237792 0.0243996 0.0162106 0.0199275 0.0232437 0.0126526 0.00681898 0.0192829 0.030475 0.0250538 0.0178305 0.0245194 0.0363608 0.0237721 0 0 
0 0 0.0230245 0.0392282 0.0437949 0.0314245 0.0190454 0.0207889 0.0256776 0.017888 0.00818391 0.0144695 0.0253981 0.0228423 0.0187533 0.0271927 0.0324139 0.0196992 -0.00878533 -0.0696802 -0.197053 -0.399726 -0.650683 -0.885642 -0.988189 -0.825608 -0.3336 0.424894 1.25189 1.87141 2.05873 1.764 1.13354 0.425613 -0.125356 -0.418431 -0.498619 -0.484331 -0.47814 -0.504025 -0.496956 -0.352799 -0.0183019 0.420551 0.736086 0.703882 0.308084 -0.197995 -0.4889 -0.454556 -0.262315 -0.131267 -0.10991 -0.109792 -0.0810192 -0.0585693 -0.0674363 -0.0814897 -0.0805323 -0.0785102 -0.0865013 -0.0958672 -0.101575 -0.105848 -0.104511 -0.095464 -0.0864512 -0.0838292 -0.0850552 -0.0833216 -0.0830957 -0.0849197 -0.0885899 -0.0926789 -0.0974393 -0.102412 -0.105946 -0.106337 -0.103189 -0.0985711 -0.0958048 -0.0969027 -0.101089 -0.105333 -0.106499 -0.103309 -0.0970886 -0.0905508 -0.0863502 -0.0862001 -0.090569 -0.0985416 -0.107975 -0.11589 -0.119868 -0.119455 -0.116406 -0.113422 -0.112266 -0.112644 -0.113122 -0.112864 -0.112626 -0.11378 -0.116623 -0.119457 -0.119638 -0.115491 -0.107515 -0.0981293 -0.09028 -0.0860595 -0.0863287 -0.0906125 -0.0972007 -0.10343 -0.106619 -0.10546 -0.10123 -0.0970672 -0.0960086 -0.0988012 -0.103449 -0.106623 -0.106219 -0.102603 -0.0974137 -0.0923148 -0.0878047 -0.0837427 -0.0818142 -0.0823318 -0.0846736 -0.0840278 -0.0869385 -0.0960203 -0.105152 -0.106665 -0.102622 -0.097068 -0.0875388 -0.0786918 -0.0789271 -0.077397 -0.0610857 -0.051452 -0.0753842 -0.107343 -0.110715 -0.133772 -0.264639 -0.455863 -0.489417 -0.198277 0.307883 0.703816 0.736099 0.420501 -0.0184469 -0.352986 -0.497185 -0.504331 -0.478507 -0.484696 -0.498901 -0.418428 -0.12466 0.427441 1.13687 1.76886 2.06448 1.87655 1.25446 0.423611 -0.332076 -0.820996 -0.982307 -0.880255 -0.646808 -0.397565 -0.196215 -0.0695585 -0.00889761 0.0195029 0.0321261 0.0267432 0.0179211 0.0213619 0.0234057 0.0127885 0.00803882 0.0201606 0.0298825 0.0244115 0.0186548 0.0259414 0.0365416 0.0237538 0 0 
0 0 0.0220553 0.0381666 0.0439466 0.0325797 0.019697 0.0202497 0.0254394 0.0192344 0.00973843 0.014614 0.0252988 0.0238186 0.0194146 0.0266979 0.0335807 0.0279288 0.0163099 -0.00906773 -0.077838 -0.209467 -0.406733 -0.652971 -0.881021 -0.972836 -0.811367 -0.338942 0.390832 1.19076 1.80079 2.01059 1.76195 1.17719 0.49216 -0.0739172 -0.419549 -0.573248 -0.627338 -0.63964 -0.576417 -0.350235 0.0669763 0.541165 0.803807 0.650221 0.151847 -0.355953 -0.55685 -0.43231 -0.219843 -0.117806 -0.114275 -0.107561 -0.07724 -0.0662145 -0.0785304 -0.0842787 -0.0818858 -0.0883427 -0.0995784 -0.105871 -0.115145 -0.129785 -0.132668 -0.120919 -0.108294 -0.102064 -0.10134 -0.101997 -0.102881 -0.103126 -0.102794 -0.102848 -0.104877 -0.108966 -0.11314 -0.114741 -0.11288 -0.109444 -0.10787 -0.110223 -0.11546 -0.120079 -0.120398 -0.115015 -0.105341 -0.0947509 -0.0867464 -0.0839615 -0.0873171 -0.0957357 -0.106331 -0.115362 -0.119988 -0.119826 -0.116949 -0.114447 -0.11395 -0.114995 -0.115713 -0.115202 -0.114268 -0.114732 -0.11706 -0.119692 -0.119614 -0.114833 -0.105772 -0.0952643 -0.0870057 -0.0838228 -0.0867402 -0.0948302 -0.105458 -0.115131 -0.120514 -0.120201 -0.115595 -0.110371 -0.108035 -0.109621 -0.113066 -0.114917 -0.113276 -0.109 -0.104729 -0.102466 -0.102137 -0.10228 -0.102036 -0.101371 -0.101102 -0.102182 -0.108627 -0.121358 -0.133252 -0.130577 -0.11616 -0.107037 -0.100582 -0.0885423 -0.080383 -0.0803683 -0.0723495 -0.0590741 -0.0713011 -0.104536 -0.114383 -0.119683 -0.221704 -0.433242 -0.557031 -0.355919 0.151934 0.650426 0.804077 0.541373 0.0670827 -0.350186 -0.576429 -0.639747 -0.627553 -0.573548 -0.419894 -0.0741822 0.492226 1.178 1.76395 2.01411 1.80576 1.19639 0.395729 -0.336093 -0.806731 -0.967128 -0.875671 -0.648973 -0.404414 -0.208568 -0.0777998 -0.00934851 0.0160287 0.0276627 0.0332741 0.0262681 0.0186441 0.0224341 0.0234101 0.0129625 0.00946351 0.0212385 0.0294025 0.0238913 0.0196832 0.0275756 0.0368302 0.0237829 0 0 
0 0 0.0210422 0.0370688 0.0441439 0.0339015 0.0205595 0.0198362 0.02524 0.0206414 0.0113512 0.0146445 0.0248939 0.0245093 0.0198472 0.0256063 0.0327799 0.0302599 0.0264102 0.0207226 -0.00871973 -0.0807316 -0.208487 -0.403656 -0.646316 -0.864303 -0.952099 -0.802308 -0.354726 0.341002 1.11105 1.71716 1.95696 1.76029 1.22488 0.555417 -0.0473904 -0.471344 -0.704125 -0.770196 -0.660298 -0.340449 0.153792 0.632198 0.809949 0.53363 -0.0318962 -0.498935 -0.598056 -0.407309 -0.201461 -0.129332 -0.127328 -0.106314 -0.0801669 -0.0853698 -0.10014 -0.0977824 -0.0945104 -0.104152 -0.110764 -0.109275 -0.117708 -0.136866 -0.142579 -0.137183 -0.126744 -0.118288 -0.114997 -0.115803 -0.118059 -0.119108 -0.118064 -0.116329 -0.116035 -0.117712 -0.119634 -0.119337 -0.11643 -0.113315 -0.113512 -0.118711 -0.127007 -0.133993 -0.135314 -0.129105 -0.116945 -0.102715 -0.091001 -0.0853706 -0.0871971 -0.095252 -0.105855 -0.114546 -0.118216 -0.116779 -0.112854 -0.109883 -0.109516 -0.110831 -0.111694 -0.111003 -0.109762 -0.11007 -0.112841 -0.116502 -0.117701 -0.113905 -0.105216 -0.0947403 -0.0868788 -0.0852377 -0.0910125 -0.102809 -0.117067 -0.12922 -0.135431 -0.134108 -0.127125 -0.11883 -0.113638 -0.113446 -0.116545 -0.11942 -0.119666 -0.117655 -0.115839 -0.11596 -0.11753 -0.118483 -0.117477 -0.115391 -0.114839 -0.118381 -0.127033 -0.137603 -0.143146 -0.137627 -0.118669 -0.11033 -0.11161 -0.104184 -0.0928802 -0.093798 -0.0938854 -0.0780104 -0.0737322 -0.102575 -0.126626 -0.130509 -0.202837 -0.407911 -0.597967 -0.498634 -0.0315971 0.534007 0.810362 0.632556 0.154045 -0.340276 -0.660207 -0.770229 -0.704293 -0.471603 -0.0477306 0.55508 1.22473 1.76057 1.95806 1.71945 1.11471 0.34583 -0.3494 -0.797331 -0.946521 -0.859129 -0.642298 -0.401157 -0.207405 -0.0806453 -0.00910493 0.0202757 0.0260629 0.0299684 0.0324611 0.0251928 0.0191232 0.0232094 0.0231141 0.0130274 0.0109462 0.0223716 0.0289517 0.0234929 0.0209354 0.0294043 0.0371863 0.0238223 0 0 
0 0 0.0199622 0.0358889 0.0443145 0.0353482 0.0216468 0.0195631 0.0250394 0.0220721 0.0131063 0.014819 0.0246196 0.0256112 0.0211879 0.025745 0.0331446 0.0325662 0.032051 0.0357561 0.0287029 -0.00329771 -0.0721461 -0.198683 -0.392302 -0.62609 -0.836482 -0.927839 -0.794431 -0.37887 0.274748 1.01348 1.61821 1.89146 1.75024 1.25881 0.586875 -0.0709205 -0.563024 -0.795823 -0.71692 -0.332754 0.228397 0.691844 0.759955 0.355973 -0.250122 -0.640226 -0.624147 -0.381118 -0.199069 -0.159049 -0.15336 -0.116999 -0.0931902 -0.106517 -0.117908 -0.110239 -0.110036 -0.122784 -0.127103 -0.122935 -0.126623 -0.138977 -0.148183 -0.148914 -0.142208 -0.133336 -0.127309 -0.125772 -0.127214 -0.128771 -0.128938 -0.128374 -0.128463 -0.129166 -0.128603 -0.124963 -0.118883 -0.113853 -0.11389 -0.120498 -0.131194 -0.140798 -0.144258 -0.139269 -0.127004 -0.111575 -0.0981249 -0.0910635 -0.0922374 -0.100185 -0.1107 -0.118586 -0.120675 -0.11725 -0.111538 -0.107367 -0.106418 -0.107544 -0.108365 -0.10767 -0.106578 -0.107431 -0.111384 -0.116821 -0.120026 -0.117847 -0.110007 -0.0996525 -0.0919162 -0.0909429 -0.0981539 -0.111675 -0.12712 -0.139385 -0.144367 -0.1409 -0.131295 -0.120597 -0.113981 -0.113938 -0.118935 -0.124976 -0.128578 -0.129061 -0.12825 -0.128035 -0.128507 -0.12831 -0.126806 -0.125505 -0.127238 -0.133449 -0.142482 -0.14932 -0.148733 -0.139654 -0.127392 -0.123654 -0.127554 -0.122376 -0.108008 -0.105916 -0.111327 -0.0987588 -0.0862084 -0.112551 -0.151975 -0.159726 -0.2002 -0.38168 -0.624089 -0.639969 -0.249891 0.356245 0.760263 0.692091 0.22852 -0.3327 -0.71695 -0.795963 -0.563256 -0.0712356 0.58653 1.25847 1.75002 1.89151 1.61875 1.01477 0.277039 -0.375505 -0.790048 -0.922698 -0.831619 -0.622306 -0.389777 -0.197409 -0.0718854 -0.00366178 0.0281311 0.0352595 0.0316828 0.032257 0.0328178 0.0253428 0.0204961 0.0243977 0.0229474 0.0132331 0.0125702 0.023522 0.0284874 0.0232225 0.0224184 0.0313917 0.0375576 0.0238303 0 0 
0 0 0.0187927 0.034578 0.0443796 0.036875 0.0229882 0.0194984 0.0248874 0.0235927 0.0151967 0.0154434 0.0247589 0.0272791 0.0233894 0.0267914 0.03417 0.0348968 0.0354522 0.0424564 0.0458827 0.0359342 0.00609897 -0.0617902 -0.18789 -0.373965 -0.597867 -0.804437 -0.901114 -0.789131 -0.414399 0.191968 0.897321 1.49915 1.80461 1.71117 1.248 0.56595 -0.114833 -0.569297 -0.633697 -0.287569 0.278497 0.701903 0.659689 0.144096 -0.47982 -0.77961 -0.652439 -0.366484 -0.205633 -0.186981 -0.176626 -0.135097 -0.118451 -0.133634 -0.135767 -0.121212 -0.119642 -0.130304 -0.135459 -0.134127 -0.135227 -0.142724 -0.151874 -0.156521 -0.154164 -0.147053 -0.139485 -0.134481 -0.132363 -0.131783 -0.131898 -0.133045 -0.135526 -0.137951 -0.137633 -0.132653 -0.124239 -0.116585 -0.114293 -0.119206 -0.129089 -0.138919 -0.143586 -0.1402 -0.129323 -0.11455 -0.101178 -0.0940909 -0.0956248 -0.104256 -0.115299 -0.123113 -0.124345 -0.119558 -0.112457 -0.107109 -0.105368 -0.106015 -0.106666 -0.10608 -0.105423 -0.107032 -0.11215 -0.118983 -0.12358 -0.122295 -0.114567 -0.103717 -0.0953145 -0.0939841 -0.10121 -0.114642 -0.129443 -0.140317 -0.143683 -0.139005 -0.129175 -0.11928 -0.114349 -0.116613 -0.124244 -0.132636 -0.13757 -0.137828 -0.135316 -0.132755 -0.131559 -0.131432 -0.132076 -0.13431 -0.139465 -0.147184 -0.154444 -0.156922 -0.152374 -0.143275 -0.135741 -0.134424 -0.135261 -0.129116 -0.116968 -0.11643 -0.128858 -0.125629 -0.111173 -0.130296 -0.174956 -0.187595 -0.206977 -0.367465 -0.652882 -0.779845 -0.480047 0.143916 0.659568 0.701752 0.27826 -0.287865 -0.634038 -0.569699 -0.115284 0.565477 1.24752 1.71074 1.80428 1.49901 0.897459 0.192503 -0.413315 -0.787313 -0.898303 -0.800422 -0.594512 -0.371712 -0.186612 -0.0613641 0.00585697 0.0353416 0.0452502 0.04195 0.0350824 0.0345782 0.0338427 0.0263971 0.0227373 0.0261505 0.0231866 0.0138896 0.014532 0.0247593 0.0280559 0.0231402 0.0241532 0.0334953 0.0378839 0.0237615 0 0 
0 0 0.0175143 0.0330908 0.0442643 0.0384397 0.0246255 0.0197358 0.0248407 0.0251953 0.0175994 0.016433 0.0249744 0.0287832 0.0253157 0.0272111 0.0339804 0.0354201 0.0358955 0.0430265 0.0500765 0.0498886 0.0409223 0.0119475 -0.0562455 -0.176552 -0.352409 -0.567848 -0.770069 -0.874044 -0.790147 -0.461329 0.0940645 0.76044 1.35155 1.67528 1.6118 1.17709 0.538429 -0.0327781 -0.27279 -0.0820851 0.361849 0.666744 0.503604 -0.0866873 -0.687657 -0.888546 -0.673841 -0.368423 -0.226708 -0.211985 -0.188781 -0.146186 -0.139609 -0.15731 -0.156102 -0.140411 -0.134349 -0.138578 -0.143146 -0.143741 -0.143807 -0.147484 -0.154171 -0.159859 -0.161098 -0.15742 -0.150824 -0.143692 -0.137244 -0.131993 -0.128841 -0.129046 -0.132718 -0.137648 -0.140114 -0.137403 -0.130062 -0.12196 -0.117564 -0.119272 -0.1258 -0.133221 -0.136937 -0.133829 -0.123603 -0.109128 -0.095578 -0.0882399 -0.0898963 -0.0992139 -0.111111 -0.119616 -0.121032 -0.11604 -0.108434 -0.102526 -0.10021 -0.100467 -0.10092 -0.100466 -0.100144 -0.102292 -0.107954 -0.115319 -0.120163 -0.118734 -0.11035 -0.0986765 -0.0895971 -0.0881374 -0.0956111 -0.109224 -0.123712 -0.133931 -0.137027 -0.133289 -0.125859 -0.119321 -0.117583 -0.12195 -0.130035 -0.13735 -0.140025 -0.137511 -0.132523 -0.128796 -0.128569 -0.131729 -0.137038 -0.143589 -0.150841 -0.157572 -0.161375 -0.160241 -0.154605 -0.147895 -0.144062 -0.143622 -0.142367 -0.136735 -0.131067 -0.135338 -0.149241 -0.14961 -0.132671 -0.141697 -0.187455 -0.213103 -0.22875 -0.370207 -0.675077 -0.889529 -0.688578 -0.0874986 0.5029 0.666074 0.361146 -0.08281 -0.273511 -0.0335179 0.537686 1.17637 1.61112 1.67464 1.35101 0.760073 0.0938784 -0.461345 -0.78995 -0.873499 -0.768797 -0.565379 -0.350547 -0.175478 -0.0557559 0.011873 0.0404199 0.0491994 0.0494274 0.0425319 0.0355303 0.0351028 0.0336622 0.0268468 0.0247151 0.0277408 0.0235072 0.0149157 0.0168091 0.0260757 0.0277118 0.023331 0.0261714 0.0356723 0.0381052 0.0235709 0 0 
0 0 0.0161144 0.0313904 0.0438951 0.0399856 0.0265728 0.0203281 0.0248739 0.026718 0.0200749 0.0175038 0.024844 0.0295451 0.026418 0.0266296 0.0324344 0.0345085 0.0348276 0.0410319 0.048691 0.0517869 0.0516049 0.043455 0.0135307 -0.0511773 -0.16308 -0.329779 -0.535989 -0.733996 -0.849122 -0.796238 -0.516002 -0.0186677 0.595616 1.15476 1.47351 1.44251 1.10399 0.659981 0.377159 0.403537 0.617876 0.68149 0.329111 -0.334291 -0.878086 -0.961694 -0.672065 -0.368805 -0.254099 -0.241294 -0.205203 -0.159543 -0.152344 -0.164269 -0.164123 -0.153116 -0.144972 -0.144861 -0.148531 -0.150938 -0.151583 -0.152769 -0.155908 -0.159862 -0.162437 -0.162154 -0.158691 -0.152329 -0.143651 -0.133849 -0.125443 -0.1212 -0.122382 -0.12725 -0.131912 -0.132879 -0.129385 -0.123915 -0.120032 -0.120146 -0.123998 -0.128853 -0.130898 -0.126846 -0.115776 -0.0999844 -0.084665 -0.075606 -0.0761959 -0.0852425 -0.0974947 -0.106507 -0.108419 -0.103668 -0.0961238 -0.090038 -0.0874883 -0.0874659 -0.0878172 -0.0873951 -0.0872864 -0.089636 -0.0954728 -0.102805 -0.107453 -0.105576 -0.0967219 -0.0847123 -0.0759012 -0.0755105 -0.0847025 -0.100077 -0.115878 -0.126935 -0.130972 -0.128904 -0.124031 -0.12016 -0.120022 -0.123881 -0.129336 -0.132806 -0.131812 -0.127118 -0.122201 -0.120987 -0.125212 -0.133644 -0.1435 -0.152258 -0.158728 -0.16232 -0.162719 -0.160211 -0.156276 -0.153045 -0.151587 -0.150451 -0.14728 -0.142535 -0.141312 -0.148063 -0.157951 -0.15774 -0.146536 -0.156051 -0.204704 -0.243196 -0.256979 -0.371481 -0.674106 -0.963333 -0.879592 -0.335616 0.32797 0.680427 0.616843 0.402521 0.376175 0.659012 1.10302 1.44157 1.4726 1.15391 0.594865 -0.0192573 -0.51645 -0.796636 -0.849532 -0.734334 -0.535887 -0.328692 -0.162355 -0.0508306 0.0135728 0.0431202 0.0509911 0.0510746 0.0480643 0.0405605 0.0344661 0.0341955 0.032151 0.02631 0.0258718 0.0285961 0.0234841 0.0160251 0.0191682 0.027315 0.0274291 0.0238391 0.0284745 0.0378617 0.0381611 0.0232169 0 0 
0 0 0.0145878 0.029446 0.0431907 0.0414231 0.0287947 0.0212868 0.0249461 0.0280195 0.022487 0.0186526 0.0245209 0.0298863 0.0273768 0.0262919 0.0313053 0.0344417 0.0352442 0.0406705 0.0481493 0.0519779 0.05432 0.0549002 0.0453142 0.0164476 -0.0428584 -0.147837 -0.305371 -0.501721 -0.697006 -0.823796 -0.802534 -0.577646 -0.154444 0.381464 0.881049 1.19742 1.27316 1.18791 1.1068 1.12813 1.14639 0.905237 0.268559 -0.541584 -1.06617 -1.04617 -0.6817 -0.370782 -0.270996 -0.262039 -0.228694 -0.190323 -0.175678 -0.176282 -0.173449 -0.162925 -0.15221 -0.14789 -0.149799 -0.153709 -0.1564 -0.157462 -0.157998 -0.15884 -0.160081 -0.161062 -0.160563 -0.157016 -0.149325 -0.137961 -0.125597 -0.116034 -0.111839 -0.112851 -0.116179 -0.11852 -0.118254 -0.11635 -0.115066 -0.116384 -0.120378 -0.125034 -0.126852 -0.122419 -0.11037 -0.0928736 -0.0753176 -0.0641479 -0.0631205 -0.0712488 -0.0830363 -0.0918956 -0.0937216 -0.0889379 -0.0813752 -0.0752766 -0.0726305 -0.072553 -0.072806 -0.0723994 -0.07229 -0.0746981 -0.0805522 -0.0879457 -0.0926729 -0.0909264 -0.0822589 -0.0707195 -0.0628341 -0.0640593 -0.0753504 -0.0929479 -0.110455 -0.122496 -0.126905 -0.125068 -0.120392 -0.116375 -0.115031 -0.1163 -0.118193 -0.118442 -0.116079 -0.11273 -0.111678 -0.115848 -0.125404 -0.137792 -0.149211 -0.15698 -0.160625 -0.161241 -0.160358 -0.159157 -0.158275 -0.157576 -0.156165 -0.152902 -0.14817 -0.145229 -0.148397 -0.15808 -0.167982 -0.170921 -0.171392 -0.188083 -0.229041 -0.264489 -0.274382 -0.373919 -0.684131 -1.0481 -1.06787 -0.5431 0.267255 0.904093 1.1453 1.12705 1.10576 1.18687 1.27212 1.19639 0.880037 0.3805 -0.155301 -0.57837 -0.803158 -0.824444 -0.697797 -0.502612 -0.306047 -0.147776 -0.0428522 0.0164079 0.0451271 0.0544674 0.0536823 0.0512996 0.0475664 0.040209 0.0348754 0.0341365 0.0310481 0.0260061 0.0268913 0.029033 0.0232666 0.0172197 0.0214767 0.0283413 0.0271698 0.02467 0.0310139 0.0399662 0.0379816 0.0226589 0 0 
0 0 0.0129346 0.0272308 0.0420648 0.0426387 0.0312348 0.0226494 0.0251168 0.0291253 0.0249332 0.0202044 0.0245503 0.0304923 0.0290612 0.0273016 0.0318046 0.0363254 0.038195 0.0431612 0.0502989 0.0541793 0.0566002 0.0596565 0.0587644 0.0485759 0.0224734 -0.0327586 -0.131181 -0.278296 -0.464424 -0.656024 -0.794159 -0.811321 -0.659284 -0.337916 0.0930601 0.540173 0.933684 1.26952 1.5812 1.83545 1.85353 1.40631 0.478471 -0.563004 -1.18396 -1.15619 -0.756995 -0.424735 -0.299073 -0.271264 -0.24097 -0.210673 -0.194345 -0.189421 -0.184059 -0.172467 -0.158448 -0.14892 -0.147039 -0.150762 -0.155901 -0.159276 -0.159929 -0.158762 -0.157367 -0.15677 -0.15663 -0.155077 -0.14996 -0.140353 -0.127786 -0.115517 -0.106677 -0.102307 -0.101192 -0.101176 -0.100796 -0.100255 -0.100914 -0.104173 -0.109964 -0.116335 -0.119665 -0.116352 -0.104858 -0.087329 -0.0694755 -0.0578153 -0.0563563 -0.0639449 -0.0751404 -0.083379 -0.084769 -0.0798065 -0.0723809 -0.0664922 -0.0640234 -0.063975 -0.0642511 -0.0637431 -0.0635382 -0.0657388 -0.0713919 -0.0786873 -0.0836471 -0.082379 -0.0743598 -0.0634325 -0.0560885 -0.0577334 -0.0694937 -0.0873847 -0.104925 -0.1164 -0.119694 -0.116355 -0.109963 -0.104153 -0.100875 -0.100198 -0.100724 -0.101087 -0.101092 -0.102188 -0.106534 -0.115353 -0.127619 -0.14021 -0.149878 -0.155074 -0.156715 -0.156956 -0.157615 -0.159017 -0.160112 -0.159245 -0.155458 -0.149691 -0.145134 -0.146056 -0.154627 -0.167929 -0.179266 -0.185064 -0.191185 -0.20932 -0.241632 -0.273554 -0.302287 -0.42772 -0.759281 -1.15794 -1.18547 -0.564368 0.477294 1.40529 1.85255 1.83447 1.58023 1.26855 0.932695 0.539171 0.0920593 -0.338873 -0.660145 -0.812049 -0.794834 -0.656806 -0.465446 -0.279529 -0.132316 -0.0333599 0.0220996 0.0483467 0.0584805 0.0591564 0.0559484 0.0535258 0.0497361 0.0427095 0.0378292 0.0360286 0.0315729 0.0270468 0.0286239 0.0297202 0.0233999 0.0188263 0.0238374 0.029186 0.0269942 0.0258549 0.0337205 0.0418625 0.0374857 0.0218557 0 0 
0 0 0.0111623 0.0247276 0.0404415 0.0435202 0.0338403 0.0244947 0.0255367 0.0301472 0.0275205 0.0223822 0.0251957 0.0314499 0.0313187 0.0292879 0.0332021 0.038855 0.0418353 0.0462838 0.0527828 0.0565628 0.0584694 0.0616181 0.0637836 0.0618835 0.0532709 0.0296468 -0.0215931 -0.111622 -0.246974 -0.422111 -0.611088 -0.769127 -0.843538 -0.790325 -0.589679 -0.244056 0.240212 0.858568 1.5661 2.19786 2.44884 2.0325 0.970876 -0.272194 -1.07564 -1.17626 -0.844381 -0.538045 -0.372968 -0.298863 -0.255669 -0.225145 -0.207617 -0.200106 -0.193624 -0.181616 -0.165063 -0.150151 -0.142427 -0.143021 -0.148819 -0.155234 -0.15881 -0.158559 -0.155772 -0.15246 -0.149908 -0.14757 -0.143654 -0.136679 -0.126684 -0.115508 -0.105414 -0.0978113 -0.0926309 -0.0888997 -0.0858909 -0.0838677 -0.0838917 -0.087013 -0.0930253 -0.099996 -0.104329 -0.10251 -0.0929416 -0.0777865 -0.0623217 -0.0527065 -0.05235 -0.0601157 -0.0707838 -0.0785001 -0.0798455 -0.0755157 -0.0690419 -0.064057 -0.0620686 -0.0621796 -0.0624101 -0.0618617 -0.0614342 -0.0631316 -0.0679036 -0.0742841 -0.07865 -0.0774793 -0.0700216 -0.0596224 -0.052096 -0.0526169 -0.0623323 -0.0778318 -0.0929836 -0.102537 -0.104347 -0.0999989 -0.0930057 -0.0869764 -0.083843 -0.0838023 -0.0858065 -0.0888053 -0.0925253 -0.0976927 -0.10528 -0.115353 -0.12653 -0.136569 -0.143599 -0.147587 -0.149996 -0.152615 -0.155981 -0.158756 -0.158899 -0.15507 -0.148198 -0.141733 -0.140328 -0.147183 -0.161319 -0.177418 -0.189439 -0.196565 -0.205279 -0.224384 -0.256478 -0.300885 -0.375539 -0.540452 -0.846267 -1.17765 -1.07685 -0.27332 0.969903 2.03167 2.44804 2.19705 1.56527 0.857713 0.239331 -0.244962 -0.590563 -0.791162 -0.844269 -0.769748 -0.611696 -0.422902 -0.248089 -0.113013 -0.0229512 0.0287255 0.0527122 0.0615531 0.0634014 0.0610498 0.05779 0.0559199 0.0522451 0.0458418 0.0414589 0.038559 0.0329818 0.0290511 0.0309146 0.0307536 0.0241522 0.0210666 0.0263613 0.0299657 0.0270556 0.027471 0.0365305 0.0434232 0.0365937 0.0207718 0 0 
0 0 0.00928861 0.0219383 0.03827 0.0439633 0.0365405 0.0268773 0.0263303 0.0311205 0.0301375 0.0250195 0.0262163 0.0322298 0.0332489 0.0311124 0.0341267 0.0402661 0.0440019 0.0476691 0.0530402 0.0564682 0.0578591 0.0604991 0.0637404 0.0655381 0.0652752 0.0588812 0.0377079 -0.00800457 -0.0888715 -0.21365 -0.381965 -0.579594 -0.777242 -0.930554 -0.982813 -0.865222 -0.500921 0.164568 1.08895 2.04641 2.63366 2.47187 1.53064 0.270226 -0.654439 -0.943072 -0.762864 -0.554046 -0.40711 -0.321658 -0.2706 -0.237204 -0.217021 -0.206755 -0.199403 -0.188084 -0.17111 -0.15248 -0.138476 -0.133117 -0.13604 -0.143437 -0.150446 -0.153789 -0.152735 -0.148679 -0.143649 -0.138658 -0.133454 -0.127135 -0.119301 -0.110481 -0.101862 -0.0943724 -0.0882462 -0.0830703 -0.0784875 -0.0747363 -0.0726173 -0.073067 -0.076069 -0.0802445 -0.0828283 -0.0809334 -0.0732756 -0.0614934 -0.049805 -0.0430265 -0.0437816 -0.05096 -0.0604527 -0.0675356 -0.0696681 -0.067196 -0.0628777 -0.0594263 -0.0580504 -0.058105 -0.0582252 -0.0576972 -0.0572669 -0.0583365 -0.0615913 -0.0658544 -0.0684163 -0.066505 -0.0597042 -0.0504915 -0.0435322 -0.0429355 -0.0498007 -0.0615179 -0.073298 -0.0809471 -0.0828367 -0.0802352 -0.0760408 -0.0730209 -0.0725593 -0.0746584 -0.0783971 -0.0829681 -0.0881375 -0.0942566 -0.101737 -0.110345 -0.119173 -0.127047 -0.133423 -0.13868 -0.143727 -0.14882 -0.152918 -0.153947 -0.150458 -0.143143 -0.135249 -0.131661 -0.13624 -0.149467 -0.167493 -0.184226 -0.195757 -0.20387 -0.2153 -0.236845 -0.271481 -0.32343 -0.409225 -0.556021 -0.764452 -0.94423 -0.655467 0.269265 1.52978 2.47114 2.633 2.04571 1.08822 0.163805 -0.501699 -0.865999 -0.983561 -0.931239 -0.777815 -0.580071 -0.382469 -0.214406 -0.0900132 -0.00945036 0.0362863 0.05785 0.0646784 0.0651504 0.0632768 0.0598665 0.0571608 0.0558466 0.0525153 0.0472204 0.0436232 0.039973 0.0339023 0.0308727 0.0328744 0.0316122 0.0252784 0.0237788 0.0289399 0.0307184 0.0274869 0.0295735 0.0393611 0.0445223 0.0352422 0.0193857 0 0 
0 0 0.00734483 0.018888 0.0355228 0.0438538 0.0392046 0.0297653 0.027546 0.0319885 0.0325278 0.0277911 0.0273221 0.0324834 0.0343839 0.0323403 0.0342987 0.0403564 0.0444969 0.0471653 0.0510005 0.0537759 0.0547308 0.05688 0.0607047 0.0646098 0.0683949 0.0702509 0.0648406 0.0456312 0.0040854 -0.0715299 -0.19291 -0.367342 -0.592286 -0.845058 -1.07083 -1.17355 -1.02255 -0.499463 0.404411 1.48367 2.31753 2.47312 1.83841 0.784219 -0.0603995 -0.477452 -0.545347 -0.476942 -0.390905 -0.325712 -0.28052 -0.247728 -0.22451 -0.209804 -0.199877 -0.189012 -0.173559 -0.154345 -0.13611 -0.124112 -0.120861 -0.125099 -0.132863 -0.139749 -0.142955 -0.141937 -0.13771 -0.131663 -0.124569 -0.116704 -0.108186 -0.0995467 -0.0916882 -0.0854136 -0.0809084 -0.077732 -0.0750441 -0.0722645 -0.0693627 -0.0668431 -0.06514 -0.0640451 -0.0623753 -0.0586895 -0.0520831 -0.0433863 -0.0349734 -0.0297839 -0.0295499 -0.0338049 -0.0402298 -0.0459519 -0.049038 -0.0492308 -0.047653 -0.0457323 -0.0443838 -0.0436989 -0.0433764 -0.0432107 -0.0434592 -0.0444856 -0.0462278 -0.0477826 -0.047739 -0.0449194 -0.039496 -0.033346 -0.0293111 -0.0296854 -0.0349563 -0.0433929 -0.0520893 -0.0586853 -0.0623652 -0.0640194 -0.0651004 -0.0667937 -0.0692953 -0.0721829 -0.0749528 -0.0776279 -0.0807936 -0.0852918 -0.0915586 -0.0994278 -0.108081 -0.116636 -0.124549 -0.131683 -0.137793 -0.142074 -0.143117 -0.139864 -0.132802 -0.124702 -0.119951 -0.12253 -0.133786 -0.151346 -0.170097 -0.18546 -0.196696 -0.20742 -0.223228 -0.247629 -0.281418 -0.327271 -0.392687 -0.478604 -0.54671 -0.478543 -0.0613526 0.783329 1.83761 2.47244 2.31692 1.48304 0.403731 -0.500166 -1.02325 -1.17422 -1.07147 -0.845628 -0.592746 -0.367716 -0.19335 -0.0722707 0.0029312 0.0441771 0.0634515 0.0692478 0.067828 0.0642172 0.0602023 0.0562146 0.0540384 0.0531652 0.0504771 0.0467113 0.044108 0.0400515 0.0340749 0.0321085 0.0340401 0.0319397 0.0264853 0.0266342 0.0313167 0.0313943 0.0283429 0.0321339 0.0420721 0.0450229 0.0333847 0.0176932 0 0 
0 0 0.00537294 0.0156216 0.0321927 0.0430646 0.0416365 0.0330477 0.0292053 0.0327461 0.0345434 0.0305581 0.0285933 0.0324583 0.0350068 0.0334411 0.0345218 0.0401077 0.044423 0.0461624 0.0483443 0.0503741 0.0511851 0.0531973 0.0575778 0.0628732 0.0683599 0.0729304 0.0732186 0.0654852 0.0447673 0.00200574 -0.0763302 -0.20647 -0.402673 -0.664097 -0.955048 -1.18706 -1.21962 -0.904623 -0.184689 0.795981 1.67136 2.02472 1.71036 0.950074 0.282712 -0.138939 -0.319696 -0.356273 -0.337421 -0.308542 -0.281402 -0.255557 -0.23132 -0.211155 -0.195916 -0.183227 -0.169363 -0.152343 -0.133689 -0.117395 -0.107318 -0.104976 -0.10902 -0.116173 -0.123048 -0.127298 -0.12799 -0.125077 -0.118862 -0.109841 -0.0988546 -0.0873098 -0.0771021 -0.0698778 -0.0664456 -0.066265 -0.0677127 -0.0687132 -0.0676532 -0.0641627 -0.0588138 -0.0528338 -0.0470394 -0.0416765 -0.0362738 -0.0306022 -0.0248032 -0.0197206 -0.0163733 -0.0154933 -0.0170731 -0.0202746 -0.0238433 -0.0264107 -0.0272172 -0.026065 -0.0237764 -0.0215435 -0.0204898 -0.0209791 -0.022721 -0.0246617 -0.025655 -0.0248731 -0.0225011 -0.0192322 -0.0163479 -0.0150493 -0.0161398 -0.0196164 -0.0247706 -0.0305981 -0.0362665 -0.0416498 -0.0470105 -0.0527997 -0.0587688 -0.0641037 -0.0675883 -0.0686307 -0.0676165 -0.0661568 -0.066328 -0.0697494 -0.0769766 -0.0872003 -0.098759 -0.109784 -0.118847 -0.125114 -0.12808 -0.127427 -0.123182 -0.116237 -0.108902 -0.104509 -0.10632 -0.115749 -0.131347 -0.149408 -0.166082 -0.179974 -0.19311 -0.20916 -0.230363 -0.255617 -0.282285 -0.309916 -0.33894 -0.357697 -0.320916 -0.139962 0.281813 0.94924 1.70962 2.0241 1.67081 0.79541 -0.185314 -0.905267 -1.22027 -1.18767 -0.955615 -0.664583 -0.403055 -0.206788 -0.076752 0.00125102 0.0435884 0.0640486 0.0719097 0.0720417 0.0678818 0.0625041 0.0570584 0.0525189 0.0505017 0.0497737 0.0478259 0.0456898 0.044013 0.0397946 0.0342945 0.0332142 0.0346921 0.0319823 0.0278533 0.0294906 0.0333439 0.0319942 0.0296536 0.0350482 0.0444619 0.0447746 0.0309879 0.0157065 0 0 
0 0 0.00342183 0.0122001 0.0282988 0.0414774 0.0436107 0.036576 0.0313654 0.0335335 0.0362227 0.0333548 0.030299 0.0326193 0.0355639 0.0348306 0.0353156 0.040142 0.0444205 0.0454908 0.0463534 0.0479655 0.0492425 0.0516821 0.0565828 0.062366 0.0674107 0.0706976 0.0701474 0.0640274 0.0504674 0.0241517 -0.0258697 -0.116521 -0.267539 -0.489576 -0.763992 -1.02309 -1.14651 -0.995992 -0.497193 0.261683 0.997293 1.34271 1.25527 0.853949 0.400414 0.0517162 -0.149784 -0.238634 -0.268225 -0.27456 -0.270516 -0.257443 -0.2365 -0.212333 -0.190203 -0.172506 -0.157921 -0.143594 -0.127887 -0.111732 -0.0978198 -0.0888436 -0.0860492 -0.0888766 -0.095403 -0.103193 -0.109818 -0.113161 -0.111712 -0.104784 -0.0929467 -0.0783653 -0.0640892 -0.0533846 -0.048293 -0.0489222 -0.0531674 -0.0576817 -0.0592484 -0.0563091 -0.0493634 -0.0406943 -0.0329017 -0.0276698 -0.0249661 -0.0232929 -0.0206885 -0.0160188 -0.00971441 -0.00369295 -0.000208688 -0.000485262 -0.00383 -0.00796172 -0.0102117 -0.0091804 -0.00554649 -0.00156038 0.000324133 -0.000919168 -0.00436507 -0.00764106 -0.00853188 -0.00634718 -0.0024549 0.000564803 0.000507122 -0.00325948 -0.00948338 -0.0159105 -0.0206491 -0.0232762 -0.0249393 -0.0276271 -0.0328538 -0.0406417 -0.0493121 -0.056244 -0.0591724 -0.0575906 -0.0530639 -0.0488116 -0.0481605 -0.0532408 -0.0639625 -0.0782546 -0.0928677 -0.104738 -0.111707 -0.113214 -0.109916 -0.103319 -0.0955286 -0.0889271 -0.0859042 -0.0883325 -0.096788 -0.110062 -0.12557 -0.140756 -0.154822 -0.169514 -0.187707 -0.210635 -0.235753 -0.257602 -0.271358 -0.275787 -0.269563 -0.23988 -0.150879 0.0507703 0.399574 0.853193 1.2546 1.34213 0.996781 0.261164 -0.497767 -0.996592 -1.1471 -1.02364 -0.764488 -0.48999 -0.267856 -0.11681 -0.0262991 0.0233676 0.0492712 0.0626312 0.0689483 0.0699377 0.0670137 0.062006 0.0560428 0.0510109 0.0485866 0.0473978 0.0458368 0.0449988 0.0439886 0.0398232 0.035083 0.034603 0.0352754 0.0322037 0.029647 0.0323814 0.0350573 0.0326572 0.0314854 0.0381782 0.0463042 0.0436366 0.0280361 0.0134527 0 0 
0 0 0.00154505 0.00870197 0.0239004 0.0390127 0.0449018 0.0401696 0.0340838 0.0345595 0.0376697 0.0361603 0.0325194 0.0331688 0.0360892 0.0362985 0.0364374 0.0402357 0.0442642 0.0451385 0.0453935 0.0472002 0.0495487 0.0527276 0.0575763 0.062376 0.0648198 0.0639443 0.0590384 0.0498726 0.0365559 0.016427 -0.0188082 -0.0836475 -0.19633 -0.368706 -0.589276 -0.807746 -0.933059 -0.858998 -0.524012 0.00939385 0.552573 0.857817 0.876295 0.671623 0.381961 0.1236 -0.0521256 -0.150752 -0.202008 -0.230647 -0.246332 -0.248441 -0.235931 -0.212465 -0.185203 -0.160813 -0.142136 -0.128142 -0.116011 -0.103656 -0.0908729 -0.0790595 -0.0703372 -0.0664224 -0.0679222 -0.0741103 -0.0829336 -0.0912551 -0.095785 -0.0940762 -0.0853826 -0.0713664 -0.0554601 -0.0418493 -0.0338078 -0.0323814 -0.03585 -0.0405482 -0.0424953 -0.0393011 -0.0313096 -0.0213123 -0.0130628 -0.00928136 -0.0101591 -0.0133059 -0.0150446 -0.0125862 -0.00564506 0.00321432 0.0101205 0.0122771 0.0095941 0.00478494 0.00151787 0.00216549 0.00620739 0.0109803 0.0132543 0.0116965 0.00750805 0.00383673 0.00331338 0.00647255 0.0110009 0.0133309 0.0108321 0.00363743 -0.00541839 -0.0124741 -0.0149954 -0.0132782 -0.0101195 -0.00922673 -0.0130035 -0.0212526 -0.0312491 -0.0392236 -0.0424077 -0.0404561 -0.0357466 -0.0322582 -0.0336601 -0.0417014 -0.0553249 -0.0712563 -0.0853203 -0.094041 -0.0957828 -0.0912999 -0.083037 -0.0742437 -0.0680523 -0.0664665 -0.0701645 -0.0785209 -0.0898275 -0.101993 -0.113749 -0.125426 -0.139228 -0.158056 -0.182949 -0.210985 -0.235325 -0.24863 -0.247107 -0.231739 -0.20318 -0.151857 -0.0531109 0.122737 0.381179 0.670925 0.875674 0.857257 0.552069 0.00889744 -0.524543 -0.859554 -0.9336 -0.808247 -0.58971 -0.369046 -0.196585 -0.0838975 -0.0192432 0.015614 0.0353418 0.0485132 0.0579448 0.0633238 0.0644952 0.0620162 0.0570152 0.0520539 0.0489171 0.0466545 0.0448825 0.0446288 0.0438249 0.039902 0.0361851 0.0360671 0.0358203 0.0328026 0.0319497 0.0352838 0.036558 0.0335928 0.0339037 0.0413581 0.0473786 0.0415078 0.0245453 0.0109785 0 0 
0 0 -0.000200557 0.00522496 0.0191041 0.0356438 0.0452922 0.0435865 0.0373381 0.0360001 0.0389592 0.0388206 0.0350973 0.0340421 0.0363839 0.0374146 0.0374604 0.0401557 0.0438543 0.0450921 0.0455322 0.0478133 0.0510893 0.0543221 0.0576585 0.0596079 0.0578278 0.0517074 0.0419256 0.0293304 0.0147477 -0.00352058 -0.0323464 -0.0839479 -0.172384 -0.304712 -0.468089 -0.621181 -0.698011 -0.627211 -0.367468 -0.00684435 0.349922 0.574847 0.615581 0.500306 0.308973 0.12198 -0.0161566 -0.101019 -0.15077 -0.184367 -0.209552 -0.22406 -0.223307 -0.20696 -0.180337 -0.151506 -0.127053 -0.109695 -0.0983156 -0.0899093 -0.0816671 -0.072173 -0.0620995 -0.0533356 -0.0482296 -0.0483137 -0.0533546 -0.0612325 -0.068465 -0.071626 -0.0686565 -0.0597578 -0.0472813 -0.0349329 -0.0260145 -0.0221925 -0.0225592 -0.0241488 -0.0233692 -0.0178617 -0.00785722 0.00375327 0.0128096 0.0160862 0.0130405 0.00639975 0.000654027 -0.00010177 0.0051902 0.0142618 0.0226436 0.0266527 0.0251816 0.0204521 0.0161916 0.0151665 0.0174924 0.0210239 0.0228805 0.0218068 0.0189042 0.0169531 0.0180914 0.022211 0.026622 0.0277156 0.0233496 0.0146785 0.00541769 1.21452e-05 0.000707668 0.00644323 0.0130934 0.016149 0.0128792 0.00382156 -0.00778595 -0.0177842 -0.023282 -0.0240556 -0.0224503 -0.0220629 -0.0258682 -0.0347795 -0.0471518 -0.0596512 -0.0685861 -0.0715889 -0.0684644 -0.0612832 -0.0534583 -0.048447 -0.0483542 -0.0533703 -0.0619122 -0.071629 -0.0806182 -0.0882847 -0.0961333 -0.107103 -0.12432 -0.148955 -0.178282 -0.205635 -0.22278 -0.224246 -0.210247 -0.185328 -0.151807 -0.101999 -0.0170358 0.121196 0.308267 0.499672 0.614996 0.57432 0.349425 -0.00733832 -0.367965 -0.627725 -0.698517 -0.621637 -0.468462 -0.304974 -0.172562 -0.084151 -0.032772 -0.00435158 0.0135408 0.0280562 0.0409886 0.0512809 0.0576132 0.0592742 0.0570864 0.0536483 0.0504851 0.0472938 0.0450286 0.0445906 0.0434118 0.039811 0.0371953 0.0371741 0.0361298 0.0337211 0.0345984 0.0380379 0.03792 0.0349805 0.0368942 0.0443597 0.0474759 0.0383435 0.0205752 0.00835362 0 0 
0 0 -0.00175784 0.00188195 0.0140588 0.0313996 0.0445782 0.046512 0.0409919 0.0379766 0.0401812 0.0411674 0.0377984 0.0351882 0.0364459 0.0380589 0.0383947 0.040281 0.0437367 0.0457337 0.0467019 0.0489493 0.0517834 0.0533282 0.0532296 0.0507202 0.0442537 0.033762 0.0208411 0.00689359 -0.00758963 -0.0247375 -0.0511929 -0.0975751 -0.173724 -0.280008 -0.398209 -0.489917 -0.507548 -0.412563 -0.212352 0.0469758 0.292281 0.447108 0.473537 0.386673 0.239781 0.0921024 -0.0184968 -0.0847979 -0.120537 -0.144009 -0.165468 -0.184222 -0.19392 -0.189417 -0.170999 -0.144155 -0.116331 -0.0936738 -0.0787629 -0.0705478 -0.0658693 -0.0612975 -0.054669 -0.0461324 -0.0375318 -0.0314316 -0.0295417 -0.0317486 -0.0362045 -0.0402412 -0.0414577 -0.0389284 -0.033197 -0.0262243 -0.0200574 -0.0160164 -0.0139006 -0.0119815 -0.00775231 0.000425369 0.0123806 0.0256162 0.0362903 0.041099 0.0390395 0.0323192 0.0253259 0.0225244 0.0259826 0.0343499 0.0435766 0.0495907 0.0502425 0.0465197 0.0412733 0.037393 0.0359374 0.036292 0.0369216 0.0371318 0.037446 0.0392945 0.043271 0.0483438 0.0517172 0.0506584 0.0442782 0.0347676 0.0262135 0.0226435 0.0253884 0.0323685 0.0391 0.0411741 0.0363788 0.0257001 0.0124557 0.000502867 -0.00767112 -0.0118826 -0.013788 -0.0158785 -0.0199029 -0.0260633 -0.0330641 -0.0388227 -0.0413825 -0.0402062 -0.0362157 -0.0317994 -0.0296422 -0.0315679 -0.0376664 -0.0461611 -0.0544718 -0.0607358 -0.0648302 -0.0689779 -0.0766755 -0.0912263 -0.113775 -0.141781 -0.169112 -0.188205 -0.193433 -0.184376 -0.166072 -0.144858 -0.121439 -0.0856512 -0.0192739 0.0913937 0.239133 0.386078 0.472995 0.446599 0.291789 0.0465099 -0.212807 -0.413007 -0.507971 -0.490291 -0.39849 -0.280174 -0.173786 -0.0976856 -0.0515479 -0.0255169 -0.00870915 0.00578382 0.0201496 0.0336032 0.0442252 0.050477 0.0526996 0.0527013 0.0512351 0.048475 0.0462361 0.045254 0.0433024 0.0399341 0.0381194 0.0378189 0.0362061 0.034898 0.0373607 0.0404776 0.0392276 0.0369378 0.0403289 0.0468861 0.0464064 0.0341628 0.01623 0.0056682 0 0 
0 0 -0.00307498 -0.00120821 0.00894821 0.0263732 0.0425974 0.0485876 0.0448019 0.0405546 0.0414857 0.0431107 0.0404064 0.0366168 0.0365134 0.0384751 0.039595 0.0412887 0.0446075 0.047249 0.0483 0.049091 0.0493503 0.047258 0.0425072 0.0352775 0.025093 0.0123015 -0.00126762 -0.0142203 -0.0268856 -0.0423931 -0.0679038 -0.11294 -0.183764 -0.274572 -0.361235 -0.406039 -0.376197 -0.267818 -0.0891388 0.122996 0.3125 0.42509 0.433176 0.347766 0.210629 0.0720191 -0.0317293 -0.0894076 -0.1116 -0.117935 -0.124251 -0.135913 -0.148987 -0.155812 -0.150872 -0.133908 -0.109385 -0.0839745 -0.0634258 -0.0504676 -0.0444685 -0.0422912 -0.0403084 -0.0361193 -0.0295249 -0.0220684 -0.015746 -0.0119252 -0.0107383 -0.0113168 -0.0123387 -0.012812 -0.0121763 -0.0105055 -0.00812079 -0.00553054 -0.0027895 0.000586294 0.00580562 0.0138252 0.0247814 0.03716 0.0482018 0.0550499 0.056208 0.0527039 0.0478183 0.0456867 0.0488814 0.0572208 0.0676627 0.0762068 0.0798792 0.0781038 0.07251 0.065695 0.0598786 0.0563708 0.0554944 0.0572574 0.0614775 0.0676969 0.0745886 0.0799834 0.0813835 0.0772868 0.0683679 0.0576277 0.0491065 0.0458121 0.047896 0.0527598 0.056272 0.0551362 0.0482958 0.0372509 0.0248651 0.0139081 0.00588263 0.000683297 -0.00266529 -0.00538423 -0.00796476 -0.0103484 -0.0120315 -0.0126974 -0.0122618 -0.0112711 -0.0107312 -0.0119712 -0.015832 -0.0222008 -0.0296548 -0.0361477 -0.0401121 -0.0417396 -0.0434612 -0.0489571 -0.0614453 -0.0816608 -0.106972 -0.131682 -0.149107 -0.154658 -0.148514 -0.136011 -0.12475 -0.118657 -0.11238 -0.0901696 -0.0324329 0.0713669 0.210015 0.347209 0.432656 0.424603 0.312053 0.122588 -0.0895011 -0.268137 -0.376458 -0.406235 -0.361336 -0.274544 -0.183657 -0.112892 -0.0681335 -0.0430348 -0.0278258 -0.0150668 -0.00163851 0.0124565 0.0253131 0.0352015 0.0421054 0.0467449 0.0488954 0.0486885 0.0478782 0.0468046 0.0442075 0.0409625 0.0393191 0.0382327 0.0362832 0.03635 0.0400205 0.0425123 0.040627 0.039526 0.0439687 0.0485958 0.0440282 0.0290583 0.0116539 0.00302673 0 0 
0 0 -0.00411082 -0.00393058 0.00398059 0.0207291 0.0392665 0.0494518 0.0484164 0.0436955 0.0430317 0.044638 0.0427208 0.0383191 0.0369129 0.0390582 0.0413793 0.0434341 0.0463495 0.0485973 0.0483003 0.0458692 0.0417483 0.0351496 0.026179 0.015614 0.00370792 -0.00907849 -0.0211914 -0.0316346 -0.0415645 -0.0551269 -0.0800416 -0.125059 -0.19338 -0.274237 -0.338899 -0.351143 -0.302096 -0.183954 -0.0084145 0.19026 0.363226 0.464076 0.467647 0.380911 0.238965 0.0890916 -0.0289877 -0.0965709 -0.117684 -0.111147 -0.0982126 -0.0928514 -0.0982458 -0.108982 -0.116488 -0.114328 -0.100911 -0.0796033 -0.0563956 -0.0370198 -0.0245915 -0.0189937 -0.0176238 -0.0173791 -0.0160064 -0.0128618 -0.00846836 -0.00373723 0.000590444 0.00404592 0.00648989 0.00793203 0.00885736 0.00999225 0.0118391 0.0145743 0.0177743 0.0210141 0.0242972 0.0282363 0.0336567 0.0407392 0.0485308 0.0551628 0.0589286 0.0595797 0.058635 0.0590501 0.0633462 0.0721674 0.0836027 0.0941897 0.100592 0.101074 0.0960227 0.0875918 0.0788106 0.0724723 0.0704634 0.0734072 0.0804879 0.0896934 0.0981821 0.103003 0.10213 0.0952792 0.0843002 0.0725773 0.0635757 0.0591826 0.0587178 0.0596473 0.0590064 0.0552573 0.0486291 0.0408357 0.0337478 0.0283155 0.0243771 0.0211202 0.0179028 0.0147177 0.011996 0.010156 0.00901053 0.00805536 0.00658036 0.00410783 0.000599272 -0.00376671 -0.0085563 -0.0129974 -0.0161244 -0.0173936 -0.0174303 -0.0184624 -0.0236268 -0.035587 -0.0545187 -0.0774189 -0.0986418 -0.112222 -0.114797 -0.107871 -0.097767 -0.0928964 -0.0986383 -0.111787 -0.118393 -0.0972701 -0.0296399 0.0884839 0.238387 0.380385 0.46716 0.46364 0.36284 0.189942 -0.00865571 -0.184111 -0.302162 -0.351107 -0.338746 -0.273961 -0.193044 -0.124811 -0.0800996 -0.0555978 -0.0422872 -0.0321901 -0.0212204 -0.0086073 0.00418111 0.01573 0.0259576 0.0348128 0.0414485 0.0455734 0.0479478 0.0482107 0.0459935 0.043132 0.0411187 0.0388261 0.0366951 0.0380714 0.042379 0.0441243 0.0422709 0.0427035 0.0474648 0.0491424 0.0402815 0.0232053 0.00702521 0.000540165 0 0 
0 0 -0.00483912 -0.00618398 -0.000625644 0.0147018 0.0346037 0.0487757 0.0513748 0.0472 0.0449388 0.0458317 0.0446241 0.0403216 0.0380503 0.0402666 0.0438074 0.0462174 0.0477865 0.0477611 0.0442642 0.0373301 0.0283818 0.0180685 0.00677886 -0.00477437 -0.0162326 -0.0272391 -0.036687 -0.0439934 -0.050962 -0.0626764 -0.0871948 -0.132348 -0.198613 -0.271517 -0.320165 -0.326576 -0.272941 -0.151978 0.0253322 0.227413 0.408753 0.523977 0.544319 0.469032 0.325558 0.158382 0.0119199 -0.0847101 -0.124701 -0.120641 -0.0952159 -0.0699836 -0.0577824 -0.060541 -0.0718917 -0.0822314 -0.0839942 -0.0744789 -0.0561486 -0.0344926 -0.0151371 -0.00169153 0.0051567 0.00671543 0.00518336 0.0025756 0.000419532 -0.000197298 0.0012855 0.00485259 0.00979387 0.015283 0.0209167 0.0267723 0.0331999 0.0399715 0.0460759 0.0499963 0.0508995 0.0491768 0.0466236 0.0453034 0.0465018 0.0499279 0.0540745 0.057597 0.0602495 0.0632596 0.0684726 0.0768445 0.0874544 0.0978415 0.104954 0.106703 0.102725 0.094696 0.0855688 0.0786145 0.0763333 0.0795908 0.0873198 0.0968808 0.104954 0.10868 0.106515 0.0989414 0.0881561 0.0772547 0.0687016 0.0633954 0.0603418 0.0576814 0.0541624 0.0500259 0.046607 0.0454159 0.0467178 0.0492575 0.0509811 0.0500996 0.0462025 0.0401208 0.0333615 0.0269401 0.0210703 0.0154125 0.00989958 0.00491332 0.00130814 -0.000220699 0.000327835 0.00245798 0.00508749 0.00670964 0.00534871 -0.0011943 -0.0142396 -0.0331452 -0.0543855 -0.072429 -0.0818494 -0.0802403 -0.0702676 -0.0594597 -0.0572847 -0.0699822 -0.0955782 -0.121205 -0.125331 -0.0853419 0.0113253 0.157814 0.325024 0.46854 0.543886 0.523619 0.408476 0.22723 0.025267 -0.151935 -0.272788 -0.326321 -0.319807 -0.271054 -0.198133 -0.131996 -0.0871755 -0.0630715 -0.0515653 -0.0443617 -0.0365064 -0.0265826 -0.0156174 -0.00452753 0.00669723 0.0178938 0.0282306 0.0371534 0.043996 0.0474353 0.0474747 0.0459379 0.0435575 0.0400495 0.0378454 0.0400913 0.0443242 0.0453959 0.0442747 0.0462665 0.0503594 0.0482122 0.0352114 0.0168576 0.00254595 -0.00168275 0 0 
0 0 -0.00525189 -0.00789153 -0.00466271 0.00857962 0.0287463 0.0463117 0.0531519 0.0507099 0.0472751 0.0469308 0.0462133 0.0427303 0.0402945 0.0423771 0.0464086 0.0482883 0.0470275 0.0427602 0.0347447 0.0233443 0.010756 -0.00131147 -0.0125387 -0.022887 -0.0322994 -0.0405006 -0.0467423 -0.0507893 -0.0549658 -0.0650614 -0.0892946 -0.134333 -0.197511 -0.263603 -0.31243 -0.3231 -0.276189 -0.161791 0.0133043 0.222481 0.423699 0.570751 0.628447 0.585038 0.456594 0.281208 0.105084 -0.0327084 -0.111552 -0.132232 -0.112072 -0.0752702 -0.0431371 -0.0275881 -0.0297141 -0.042376 -0.0555198 -0.0608274 -0.0549644 -0.0394979 -0.0192047 0.000634503 0.0159559 0.0247265 0.026679 0.0229887 0.0158967 0.0082534 0.00295369 0.00177213 0.00516656 0.0123372 0.0222633 0.034028 0.0470249 0.0601422 0.0713074 0.0781026 0.0787337 0.0734249 0.0645772 0.0558954 0.0505894 0.0500839 0.0534237 0.0585883 0.0638692 0.0687702 0.0739932 0.0803812 0.0877955 0.0949813 0.09993 0.101117 0.0981292 0.0920362 0.08506 0.0797247 0.0780652 0.0807405 0.0868775 0.0942962 0.100434 0.10315 0.10151 0.0960856 0.088502 0.0808008 0.0742293 0.0689107 0.0639754 0.0586838 0.0535148 0.0501901 0.0507001 0.0560069 0.0646706 0.0735073 0.0788205 0.0782087 0.0714378 0.0602863 0.0471818 0.0341929 0.0224158 0.0124675 0.00527749 0.00183981 0.002987 0.00823129 0.0158194 0.0228882 0.02659 0.024727 0.0161375 0.00109122 -0.0183628 -0.0382409 -0.0533201 -0.0588925 -0.0534875 -0.0404684 -0.0281406 -0.0265145 -0.042597 -0.0752084 -0.112359 -0.132726 -0.112124 -0.03329 0.104528 0.280684 0.456109 0.584599 0.628089 0.570492 0.423549 0.222453 0.0134136 -0.161554 -0.275841 -0.322672 -0.311964 -0.263145 -0.197123 -0.134111 -0.0894277 -0.0656018 -0.0556654 -0.0511975 -0.046568 -0.0398847 -0.0317489 -0.0226928 -0.0126281 -0.00144641 0.0106628 0.0232164 0.0345244 0.0424833 0.0467468 0.0480206 0.0461659 0.0421624 0.040093 0.0425148 0.0459529 0.0465677 0.0467035 0.0498511 0.0521249 0.0455666 0.0289796 0.0103327 -0.00157456 -0.00354586 0 0 
0 0 -0.00536115 -0.00901003 -0.00795457 0.00268306 0.0219572 0.0419505 0.053232 0.0537345 0.0500223 0.0482881 0.047748 0.0455631 0.0435424 0.0449369 0.04791 0.0476305 0.0421581 0.0326334 0.0201337 0.00574831 -0.00821843 -0.0198495 -0.0291411 -0.0369292 -0.0435152 -0.0484799 -0.0512776 -0.0520704 -0.0536696 -0.0623345 -0.0863383 -0.130964 -0.190083 -0.254345 -0.307515 -0.328922 -0.297768 -0.200234 -0.0367974 0.173349 0.393792 0.579143 0.688177 0.696926 0.606891 0.4445 0.252116 0.0744099 -0.0551196 -0.121872 -0.131182 -0.102466 -0.0600169 -0.0244756 -0.00689365 -0.00801296 -0.0208666 -0.0355064 -0.043791 -0.0416574 -0.0295826 -0.0110849 0.00904525 0.0261574 0.0368197 0.0393202 0.0343486 0.0247753 0.0147187 0.00801189 0.00690018 0.0117265 0.0216127 0.0352656 0.0514472 0.0683328 0.0832841 0.0931196 0.0954086 0.0899265 0.0791439 0.067467 0.0593112 0.057184 0.0608616 0.0680545 0.07598 0.0828442 0.0881557 0.0923098 0.0956613 0.0980652 0.099048 0.0982219 0.0956824 0.0920459 0.0884274 0.0859039 0.0853355 0.0869506 0.0903054 0.0943691 0.0980397 0.100292 0.100649 0.0991834 0.0963746 0.0927292 0.0883952 0.0829914 0.0760895 0.0681528 0.0609648 0.0573028 0.0594298 0.0675784 0.0792391 0.090023 0.0955119 0.0932277 0.0834042 0.0684763 0.0515982 0.0354202 0.0217604 0.0118572 0.00700773 0.00807728 0.0147536 0.024768 0.0342861 0.0392295 0.0367505 0.0261666 0.00920652 -0.0106532 -0.0288061 -0.0404985 -0.042251 -0.0336867 -0.018927 -0.00617219 -0.00536405 -0.0233986 -0.0594425 -0.102341 -0.131402 -0.122298 -0.055637 0.0738729 0.251608 0.444033 0.606468 0.696572 0.687912 0.579009 0.393803 0.173504 -0.0364905 -0.19979 -0.297243 -0.328373 -0.30701 -0.25396 -0.189902 -0.131065 -0.0868211 -0.0632157 -0.0546461 -0.0526945 -0.0512985 -0.0481083 -0.0432242 -0.0369753 -0.0294035 -0.0200924 -0.00838652 0.00556572 0.0198802 0.0323449 0.0418635 0.0473521 0.0476512 0.0447072 0.0433326 0.0453498 0.047516 0.0479854 0.0495352 0.0529621 0.0522425 0.0411 0.0218698 0.00398648 -0.00514018 -0.00497618 0 0 
0 0 -0.00519867 -0.00953622 -0.0103763 -0.00266539 0.0146127 0.035768 0.0511951 0.0556868 0.0530044 0.0502174 0.0494729 0.0485102 0.0469604 0.0467243 0.0466678 0.0425595 0.0323912 0.0181621 0.00260505 -0.0125131 -0.025438 -0.0348218 -0.0411302 -0.0457996 -0.0493196 -0.0510636 -0.0504487 -0.0480616 -0.047228 -0.054619 -0.0781156 -0.118229 -0.173633 -0.237605 -0.296858 -0.332501 -0.323243 -0.251756 -0.111489 0.0873564 0.316718 0.535335 0.699126 0.773628 0.744696 0.622849 0.439938 0.239013 0.0617414 -0.0627633 -0.123837 -0.1289 -0.0975888 -0.0533718 -0.0157872 0.00443354 0.00608024 -0.00493088 -0.0197609 -0.0305652 -0.0324349 -0.0243305 -0.00830507 0.0114263 0.0296717 0.0419528 0.0459924 0.042494 0.0348393 0.0273269 0.023376 0.0244865 0.030543 0.040653 0.0537495 0.0683033 0.0819487 0.0916874 0.0947975 0.0906284 0.0811509 0.0705811 0.0634263 0.0626877 0.0684999 0.0786643 0.0898948 0.0995268 0.106243 0.109795 0.110612 0.109359 0.106823 0.103844 0.101279 0.0996337 0.0990301 0.099158 0.0996616 0.100238 0.100958 0.102018 0.103693 0.105954 0.108449 0.110497 0.111332 0.110217 0.106489 0.099682 0.0900086 0.0787655 0.068609 0.0628091 0.0635448 0.0706922 0.0812538 0.0907243 0.0948954 0.0917967 0.0820801 0.0684509 0.0538919 0.0408 0.0306814 0.0246166 0.0234935 0.0274055 0.0348851 0.0424904 0.0459415 0.0418859 0.0296207 0.0114428 -0.00814287 -0.0239401 -0.0317373 -0.0294967 -0.0183459 -0.00323147 0.00791938 0.00620546 -0.0142771 -0.052268 -0.0969585 -0.128709 -0.123986 -0.0631343 0.061277 0.238525 0.439485 0.62245 0.744354 0.773374 0.69899 0.535359 0.316906 0.0877126 -0.110982 -0.251137 -0.322596 -0.331886 -0.296407 -0.23738 -0.173709 -0.118655 -0.0789304 -0.0557936 -0.0484449 -0.0488727 -0.0506534 -0.0509264 -0.0492965 -0.0461028 -0.0416001 -0.035221 -0.0257333 -0.0128079 0.00225721 0.0177935 0.0320277 0.042213 0.0463492 0.0464432 0.0467127 0.0482827 0.0492561 0.049955 0.0525849 0.0550084 0.0502861 0.0348864 0.0142751 -0.00181992 -0.00798877 -0.00593251 0 0 
0 0 -0.00481315 -0.0095089 -0.0118711 -0.00717821 0.00717336 0.0280519 0.0468193 0.0559758 0.055837 0.0528128 0.051451 0.0509118 0.0491676 0.0462375 0.0416367 0.0328696 0.0187634 0.00175296 -0.0146623 -0.028394 -0.0384761 -0.0445129 -0.047431 -0.0488312 -0.0492751 -0.0479531 -0.0441655 -0.0388348 -0.0358353 -0.0419362 -0.0610359 -0.0959807 -0.147017 -0.209961 -0.274651 -0.324791 -0.340052 -0.300717 -0.19411 -0.0209567 0.200984 0.438271 0.648554 0.791129 0.838206 0.782891 0.641122 0.446703 0.241439 0.0639471 -0.0598549 -0.121298 -0.127994 -0.0984724 -0.0547011 -0.015203 0.00907765 0.0155997 0.00838354 -0.00528989 -0.0177894 -0.0232983 -0.0191088 -0.00598524 0.0123287 0.0305611 0.0441349 0.0509265 0.0520084 0.0502509 0.0486878 0.0490825 0.051726 0.0563428 0.0625492 0.0699632 0.077333 0.0826549 0.0837091 0.0795911 0.0715789 0.0630306 0.0579168 0.0590377 0.0667354 0.0790288 0.0927696 0.105047 0.114016 0.118958 0.119985 0.117823 0.113892 0.10977 0.106985 0.106217 0.107166 0.10874 0.109835 0.10986 0.109147 0.108656 0.109453 0.111918 0.115547 0.118973 0.12071 0.11939 0.114269 0.105204 0.0928775 0.0791389 0.0668542 0.0591567 0.0580367 0.0631443 0.0716818 0.0796923 0.0838101 0.0827691 0.0774717 0.0701038 0.0626831 0.056479 0.0518575 0.0492145 0.0488015 0.0503337 0.052063 0.0509359 0.0441016 0.0305086 0.0122883 -0.00596646 -0.0189603 -0.0229568 -0.0171578 -0.00432516 0.00968161 0.017191 0.0108283 -0.0134897 -0.0532116 -0.0973502 -0.127328 -0.121048 -0.059957 0.0636248 0.241025 0.446276 0.640732 0.782566 0.837964 0.790996 0.648559 0.438453 0.20135 -0.0204215 -0.193438 -0.299973 -0.339348 -0.324227 -0.274337 -0.209964 -0.14738 -0.0966842 -0.0620304 -0.0430977 -0.0369906 -0.0395414 -0.0442902 -0.0478216 -0.0493044 -0.0491896 -0.0479316 -0.0449386 -0.0388035 -0.0287418 -0.0150642 0.00132112 0.0183304 0.0324478 0.0412369 0.0458809 0.0488526 0.0506409 0.0512201 0.0525637 0.0554653 0.0553914 0.0460224 0.0272054 0.00666445 -0.00676213 -0.0100125 -0.00641084 0 0 
0 0 -0.00426552 -0.00900654 -0.0124584 -0.0106361 0.000142426 0.0193116 0.0401708 0.0541039 0.0578864 0.0557235 0.0533486 0.0518629 0.0487888 0.0425573 0.0331428 0.0202341 0.00396673 -0.01334 -0.028452 -0.0393675 -0.0457092 -0.0479632 -0.0474747 -0.0457798 -0.0432611 -0.0390313 -0.0323781 -0.0245145 -0.0196246 -0.0223857 -0.0366448 -0.0657191 -0.111214 -0.171181 -0.238715 -0.300803 -0.339355 -0.334066 -0.267951 -0.133258 0.0632405 0.298671 0.537177 0.737404 0.862709 0.890682 0.819181 0.666633 0.466635 0.258956 0.0795495 -0.0477341 -0.114594 -0.127529 -0.103081 -0.0612358 -0.0197803 0.00969856 0.0227539 0.0210442 0.0103434 -0.00207871 -0.00959651 -0.00847585 0.00137134 0.0166952 0.0329277 0.046448 0.0560162 0.0624061 0.0672098 0.0712573 0.0744223 0.0764294 0.0774616 0.078143 0.0786877 0.0783939 0.0758714 0.070341 0.0623932 0.054436 0.0495968 0.050259 0.0568638 0.0679399 0.0809658 0.0933924 0.103449 0.1101 0.112931 0.112161 0.108885 0.10476 0.101603 0.100415 0.101119 0.102615 0.103712 0.103765 0.103154 0.102911 0.104116 0.106946 0.110565 0.11333 0.113668 0.110543 0.103713 0.0935504 0.0810814 0.0680572 0.056986 0.0503806 0.0497246 0.054551 0.0624905 0.0704434 0.0759813 0.0785134 0.0788308 0.0782842 0.0776 0.0765684 0.0745518 0.071372 0.0673176 0.0624944 0.0560697 0.0464571 0.0328987 0.0166446 0.00132575 -0.00846587 -0.00947013 -0.00177644 0.0109008 0.0219188 0.023959 0.0111741 -0.0181387 -0.0596013 -0.101631 -0.126404 -0.113878 -0.0474197 0.0795226 0.258723 0.466296 0.666284 0.818872 0.890459 0.862585 0.737422 0.537357 0.299036 0.0637891 -0.132544 -0.267139 -0.333248 -0.33865 -0.300333 -0.238582 -0.171437 -0.111822 -0.0666085 -0.0376649 -0.0233729 -0.0203763 -0.0248019 -0.0321233 -0.0386078 -0.0430529 -0.0458984 -0.0477289 -0.0481428 -0.0458377 -0.0395567 -0.0287399 -0.0136951 0.0035656 0.0198011 0.0327094 0.0421389 0.048402 0.0515321 0.0530739 0.0554544 0.057541 0.0536085 0.0395037 0.0185507 -0.00045888 -0.0105894 -0.0111721 -0.0064458 0 0 
0 0 -0.00362268 -0.00813859 -0.0122308 -0.0129115 -0.00598709 0.0102344 0.0316227 0.0497201 0.0582348 0.0579982 0.0544064 0.0505895 0.0451262 0.0358294 0.0227746 0.00733126 -0.00906449 -0.0245377 -0.0367407 -0.044069 -0.0464067 -0.0448363 -0.0410907 -0.0365705 -0.0313775 -0.0244973 -0.015349 -0.00541059 0.00140767 0.0020058 -0.00730132 -0.0300704 -0.0687349 -0.123404 -0.190146 -0.259643 -0.317007 -0.34334 -0.319464 -0.231394 -0.0758557 0.135994 0.378356 0.614908 0.806387 0.919879 0.936881 0.857748 0.701474 0.500192 0.291296 0.10838 -0.025667 -0.101944 -0.124929 -0.108448 -0.0704133 -0.0277401 0.00705985 0.0274204 0.0328312 0.02749 0.0180595 0.010982 0.0101209 0.0158537 0.0258712 0.0372463 0.0481116 0.058117 0.0675059 0.0760177 0.0826093 0.0863495 0.0872059 0.0861681 0.0843027 0.0818503 0.0782094 0.072522 0.0649843 0.0570421 0.0511283 0.0490732 0.0516028 0.0578779 0.0663298 0.0753417 0.0836986 0.0903845 0.0945406 0.0955389 0.0936128 0.0899181 0.0861305 0.0835345 0.0826346 0.0828879 0.0835458 0.0840623 0.0847228 0.0860896 0.088695 0.09214 0.0953202 0.0967185 0.0952846 0.0908341 0.0839702 0.075506 0.0664518 0.0579891 0.0517215 0.0492015 0.051254 0.05715 0.0650891 0.072631 0.0783264 0.0819743 0.0844403 0.0863148 0.0873552 0.0864884 0.0827318 0.07614 0.0676256 0.0582129 0.0481631 0.0372549 0.0258516 0.0158072 0.0100825 0.0109869 0.018155 0.0277445 0.0333134 0.0282044 0.00814981 -0.0263758 -0.0688691 -0.106888 -0.12351 -0.100807 -0.0248995 0.108778 0.291384 0.500067 0.701238 0.857503 0.936692 0.91978 0.806417 0.615087 0.378697 0.136531 -0.0751326 -0.230533 -0.318561 -0.3425 -0.316385 -0.259343 -0.19025 -0.123904 -0.069544 -0.0310304 -0.00822992 0.00129426 0.00107485 -0.00526603 -0.0147133 -0.0237649 -0.0308808 -0.0363789 -0.040987 -0.0446406 -0.0461665 -0.0439301 -0.0367402 -0.0246617 -0.00928689 0.00702645 0.0224087 0.0354315 0.044724 0.05022 0.0540849 0.0576938 0.0578972 0.0493025 0.0310895 0.00959104 -0.00661118 -0.0131528 -0.0115015 -0.00610621 0 0 
0 0 -0.00294996 -0.00703206 -0.0113404 -0.0139834 -0.0108009 0.00158682 0.0218001 0.0426611 0.0557984 0.0582487 0.0536913 0.0468605 0.0386022 0.0272515 0.0126158 -0.00331352 -0.0182599 -0.030616 -0.0390034 -0.0423743 -0.0407363 -0.0355145 -0.0286832 -0.021576 -0.0139989 -0.00486374 0.0062732 0.0170504 0.0255206 0.0290941 0.0244703 0.00811938 -0.0229275 -0.0702699 -0.132549 -0.204057 -0.273752 -0.325482 -0.340421 -0.301044 -0.196264 -0.0263451 0.194685 0.439813 0.67347 0.858853 0.966134 0.979327 0.899824 0.745679 0.546855 0.338077 0.150903 0.00775654 -0.0811773 -0.117641 -0.112398 -0.0808948 -0.0392088 -0.000557254 0.0268516 0.0405836 0.0431667 0.0398291 0.0356658 0.0336888 0.0343712 0.0369488 0.0408098 0.0461358 0.0532516 0.0616335 0.069809 0.07609 0.0798616 0.081679 0.0826475 0.083355 0.0832624 0.081356 0.0772523 0.0716841 0.0662542 0.0624689 0.061196 0.0622249 0.0649495 0.0688395 0.0735137 0.0784021 0.0824412 0.0843423 0.0834301 0.0800428 0.0754894 0.0712307 0.0683397 0.0670176 0.0670597 0.0682194 0.0704764 0.0738453 0.0781011 0.0822983 0.0851635 0.0855381 0.0831987 0.0788605 0.07379 0.0690112 0.0650712 0.0623348 0.0613129 0.0625963 0.0663769 0.0718004 0.077363 0.0814703 0.083378 0.0834912 0.0827921 0.0818236 0.0800035 0.0762245 0.0699355 0.0617588 0.0533679 0.0462265 0.0408637 0.0369724 0.034357 0.0336547 0.0356321 0.0398216 0.0432373 0.0407857 0.0272515 0.000116739 -0.038229 -0.079645 -0.110962 -0.116158 -0.0797892 0.00890477 0.151742 0.33858 0.547058 0.745669 0.899714 0.979213 0.966074 0.858893 0.673629 0.440134 0.195192 -0.0256457 -0.195397 -0.300072 -0.33946 -0.324681 -0.273255 -0.203973 -0.132901 -0.0709919 -0.023862 0.00716512 0.0237099 0.0286719 0.0255117 0.0174328 0.00693611 -0.00414595 -0.0135078 -0.0213309 -0.0284474 -0.0351163 -0.0402568 -0.0419581 -0.0387179 -0.0304555 -0.018221 -0.0033903 0.0124352 0.0269827 0.0382822 0.0465255 0.053361 0.0579233 0.0554692 0.0423117 0.0213924 0.00107374 -0.0113932 -0.0144216 -0.0111016 -0.00548532 0 0 
0 0 -0.00230415 -0.00581571 -0.00997679 -0.0139387 -0.0140288 -0.00591815 0.0114706 0.0330208 0.0496366 0.0550713 0.0504368 0.041158 0.0306547 0.0186411 0.00455223 -0.0100162 -0.0224767 -0.0312105 -0.0354704 -0.0347524 -0.0293086 -0.0206697 -0.0110197 -0.00158623 0.00799943 0.0189068 0.0302987 0.0415344 0.0512423 0.0572039 0.0566531 0.0463113 0.0229669 -0.0158101 -0.0706854 -0.139076 -0.213805 -0.282547 -0.328663 -0.333894 -0.282526 -0.166094 0.0126304 0.238058 0.483147 0.713891 0.896021 1.00219 1.0179 0.94437 0.797801 0.605334 0.398628 0.207347 0.0537012 -0.0504318 -0.103638 -0.113325 -0.0923827 -0.0556203 -0.0162881 0.0165059 0.0388538 0.051259 0.0564435 0.0571609 0.0550262 0.0508872 0.0458978 0.0418144 0.0403785 0.0421997 0.0463452 0.0512343 0.0557597 0.0600852 0.0649436 0.0706755 0.076552 0.08121 0.0835876 0.0836755 0.0823795 0.0808543 0.0797883 0.0792504 0.0792505 0.0799816 0.0819562 0.0851156 0.0885954 0.0908319 0.0906119 0.08761 0.0827396 0.0774673 0.0732307 0.0707743 0.0704046 0.0719955 0.0754063 0.0801314 0.0854076 0.0899132 0.0923713 0.0920388 0.0893648 0.0855877 0.082237 0.0801571 0.079372 0.0793646 0.0799093 0.0809825 0.0824983 0.0837895 0.0837031 0.0813266 0.0766778 0.0708179 0.065084 0.0602223 0.0559017 0.0513658 0.0464728 0.0423198 0.0404917 0.041904 0.0459524 0.0509143 0.0550267 0.0571448 0.0564072 0.0512408 0.0388992 0.0166634 -0.015963 -0.0550459 -0.091527 -0.112209 -0.10232 -0.0490255 0.0550655 0.208531 0.39955 0.605948 0.798141 0.94451 1.01793 1.0022 0.896094 0.714064 0.483461 0.238543 0.0132995 -0.165243 -0.281529 -0.332852 -0.32771 -0.281849 -0.2135 -0.139245 -0.071291 -0.016726 0.0219589 0.0454304 0.0560881 0.057032 0.0514328 0.041971 0.0307769 0.0192386 0.00809796 -0.00169621 -0.0110666 -0.0204619 -0.0289189 -0.0343367 -0.0351021 -0.0309203 -0.022272 -0.00990361 0.00457115 0.0185708 0.0305003 0.0409355 0.0501668 0.054775 0.049343 0.0327442 0.0111771 -0.00630413 -0.0145524 -0.0144838 -0.0101249 -0.0046879 0 0 
0 0 -0.00172766 -0.0046042 -0.00834047 -0.0129605 -0.0156 -0.0117653 0.00141036 0.0212222 0.039324 0.0475259 0.0442392 0.0343225 0.0229927 0.0116564 -0.000297448 -0.012103 -0.0214192 -0.0264524 -0.0265906 -0.0218342 -0.0127674 -0.0010751 0.0110062 0.0223256 0.0334401 0.044551 0.055868 0.0671871 0.0775356 0.0851918 0.0877767 0.0825045 0.0662922 0.0362882 -0.00941622 -0.0706661 -0.14378 -0.220467 -0.287641 -0.32862 -0.326192 -0.266447 -0.143114 0.0394209 0.265128 0.507901 0.735874 0.917292 1.02685 1.05076 0.989108 0.85549 0.673533 0.471611 0.277394 0.112984 -0.00785196 -0.0807132 -0.109477 -0.104244 -0.0778413 -0.0425225 -0.00739465 0.0224354 0.0449821 0.059813 0.0668509 0.0665158 0.0602558 0.0509681 0.0418546 0.0352273 0.0315988 0.0302404 0.0304314 0.0323299 0.0366135 0.0435226 0.0523137 0.0613334 0.0691631 0.0752379 0.0799185 0.0838607 0.0873552 0.0902215 0.0924408 0.0944751 0.0970419 0.100651 0.104693 0.107852 0.108654 0.106626 0.102365 0.0972887 0.092884 0.0901762 0.0897035 0.0914329 0.0951032 0.0999974 0.105078 0.108971 0.110442 0.109074 0.105475 0.101129 0.0973264 0.0946459 0.0925644 0.0903313 0.0874709 0.0839835 0.0800367 0.0753557 0.0692813 0.0614648 0.0524509 0.0436686 0.036759 0.0324739 0.0305673 0.0303685 0.0317257 0.035347 0.0419754 0.0510606 0.0603118 0.0665437 0.0668603 0.0598016 0.0449631 0.0224209 -0.00736813 -0.042407 -0.0775811 -0.103773 -0.108743 -0.0797148 -0.00665455 0.114309 0.278716 0.472821 0.674532 0.856226 0.989603 1.05106 1.02705 0.917468 0.736095 0.508221 0.265588 0.0400459 -0.142302 -0.265472 -0.32511 -0.327557 -0.286751 -0.219922 -0.143707 -0.0710979 -0.0102537 0.0352377 0.0652694 0.0817374 0.087394 0.0851949 0.0777916 0.0675081 0.0560416 0.0444138 0.033034 0.0217124 0.0104821 -0.00129797 -0.0127375 -0.0216821 -0.0264006 -0.0262626 -0.0212564 -0.011969 -0.000191235 0.0117213 0.0229955 0.034247 0.0440866 0.0473214 0.039114 0.0210366 0.00122331 -0.0120348 -0.016034 -0.0135332 -0.00875356 -0.0038157 0 0 
0 0 -0.00124532 -0.00348627 -0.00662037 -0.0113128 -0.0156762 -0.0157431 -0.00770885 0.00806395 0.0252608 0.0355238 0.0351079 0.0270851 0.0169489 0.00746702 -0.001462 -0.00965243 -0.0153069 -0.0166138 -0.0128555 -0.00427581 0.00812613 0.0224327 0.0363915 0.0489371 0.0604745 0.0715254 0.0824938 0.0934705 0.103837 0.112304 0.11699 0.11555 0.105283 0.0833577 0.0473066 -0.00439815 -0.0708086 -0.147318 -0.224816 -0.289942 -0.326561 -0.31879 -0.254514 -0.129053 0.0525218 0.274635 0.512999 0.738291 0.921263 1.03823 1.07537 1.03101 0.915507 0.748552 0.554993 0.360357 0.186471 0.04868 -0.0457939 -0.0976215 -0.113616 -0.103707 -0.0780384 -0.0449896 -0.0106942 0.0202381 0.04409 0.0585362 0.0631761 0.0600151 0.0524694 0.0437626 0.0356126 0.0283684 0.0220872 0.0174495 0.0155236 0.0171167 0.0218694 0.0285735 0.0359279 0.0433384 0.0509636 0.0591508 0.0677048 0.075975 0.0833152 0.089711 0.0957765 0.101984 0.108059 0.112911 0.11532 0.114759 0.111853 0.107878 0.104292 0.102111 0.101798 0.103387 0.10655 0.110642 0.114614 0.117135 0.117133 0.114156 0.108858 0.102464 0.0960586 0.0898878 0.0834397 0.0760808 0.0678143 0.0592616 0.0510715 0.043442 0.0360453 0.0287082 0.0220174 0.017277 0.0156789 0.0175915 0.0222224 0.028495 0.0357438 0.043891 0.0525857 0.0601065 0.0632407 0.0585774 0.0441183 0.0202471 -0.0106985 -0.044998 -0.0780273 -0.103632 -0.113426 -0.0972353 -0.0451728 0.0495404 0.187557 0.361601 0.556291 0.749792 0.916588 1.03189 1.07605 1.03872 0.921642 0.738633 0.513367 0.275087 0.0531006 -0.128299 -0.253587 -0.317724 -0.32544 -0.28891 -0.22406 -0.146987 -0.0710069 -0.00509548 0.0462585 0.0822091 0.104292 0.114904 0.116755 0.112377 0.104024 0.0935556 0.0822799 0.0709307 0.0596393 0.0479877 0.0355043 0.0218433 0.00780352 -0.00444555 -0.0129438 -0.0166665 -0.015338 -0.00965893 -0.00142922 0.00752985 0.0170078 0.0271055 0.0350738 0.0354456 0.0251738 0.00799033 -0.007793 -0.0159089 -0.0160112 -0.01185 -0.00717824 -0.00295554 0 0 
0 0 -0.000864992 -0.00252153 -0.00498191 -0.00931546 -0.014629 -0.0179552 -0.015364 -0.00528047 0.0087978 0.020005 0.0234665 0.0197879 0.0131019 0.00663337 0.00119276 -0.00297655 -0.00460765 -0.00214571 0.0052061 0.0171674 0.0324508 0.0488024 0.0639749 0.0770404 0.0887356 0.099498 0.109876 0.12006 0.129849 0.138301 0.143987 0.14501 0.139139 0.123904 0.0967298 0.05534 -0.00121098 -0.0713211 -0.149689 -0.22688 -0.289754 -0.323232 -0.312932 -0.248296 -0.125499 0.0504783 0.265544 0.497693 0.720353 0.906737 1.03429 1.08882 1.06646 0.973899 0.826736 0.64613 0.455183 0.27508 0.121958 0.00529894 -0.0724756 -0.114393 -0.126676 -0.116483 -0.0910588 -0.0574044 -0.0224538 0.00789264 0.0299396 0.0429026 0.0484736 0.0490611 0.0463468 0.0409246 0.0331829 0.0242014 0.0156569 0.00908831 0.00510234 0.00334946 0.00336899 0.00516564 0.00930085 0.0162137 0.0256662 0.0364512 0.0473147 0.057474 0.0669186 0.0758478 0.0839117 0.0902599 0.093916 0.0945478 0.092809 0.0899938 0.0873739 0.0858805 0.0858126 0.0871824 0.0896701 0.0927981 0.0956203 0.0969604 0.0957564 0.091524 0.0847102 0.0763276 0.0672068 0.057651 0.0474382 0.0365607 0.0257768 0.0163237 0.00940274 0.00526782 0.00348812 0.00348888 0.00525449 0.00924549 0.0158081 0.0243459 0.0333354 0.041061 0.0464786 0.0491843 0.0485855 0.0429981 0.0300062 0.00793843 -0.0224276 -0.0573941 -0.0910551 -0.116491 -0.12668 -0.11435 -0.0723283 0.00560741 0.122467 0.275819 0.456162 0.647304 0.828003 0.975166 1.06764 1.08986 1.03515 0.907426 0.720929 0.498205 0.266057 0.0510703 -0.124791 -0.247424 -0.311916 -0.322115 -0.288645 -0.225943 -0.149106 -0.0712342 -0.00168551 0.0543948 0.0955137 0.122706 0.138201 0.14448 0.143828 0.138369 0.129872 0.119838 0.109262 0.0984916 0.0875423 0.075853 0.0629148 0.0480465 0.0319449 0.0168098 0.00492273 -0.00238748 -0.00483027 -0.00316107 0.00107736 0.0065864 0.0131059 0.019817 0.0234999 0.0200381 0.0088374 -0.00523972 -0.0153524 -0.0180292 -0.0148637 -0.00977391 -0.00558277 -0.00217393 0 0 
0 0 -0.000582258 -0.00174424 -0.00355936 -0.00730141 -0.0129537 -0.0187322 -0.0211817 -0.0174189 -0.00802584 0.00272386 0.0100851 0.0123468 0.0111475 0.0089981 0.00745764 0.00739624 0.00991474 0.0161556 0.0267979 0.0415705 0.0590274 0.0766901 0.0923609 0.106021 0.117776 0.128073 0.137561 0.146652 0.155326 0.16305 0.168722 0.170863 0.167794 0.157484 0.137653 0.105926 0.0603418 0.000432243 -0.071643 -0.150326 -0.226317 -0.287317 -0.319545 -0.309995 -0.249194 -0.133523 0.0329154 0.237955 0.462276 0.6821 0.87287 1.0131 1.08791 1.09115 1.02591 0.903615 0.741628 0.560178 0.379001 0.214288 0.0770227 -0.0273434 -0.0978015 -0.136297 -0.146947 -0.135659 -0.109917 -0.0777003 -0.0455953 -0.0176234 0.00502277 0.0225278 0.0349904 0.0419039 0.042905 0.0385406 0.0304837 0.0206575 0.0104471 0.000498001 -0.00865776 -0.0159844 -0.0200489 -0.0196718 -0.0147962 -0.00649933 0.00353633 0.0139756 0.024098 0.0336406 0.0420646 0.0484702 0.0520709 0.052743 0.0511779 0.0487021 0.0464921 0.0453178 0.0453637 0.0466377 0.048825 0.0515541 0.0540277 0.0551911 0.0539459 0.0497587 0.0428728 0.0341251 0.0243916 0.014155 0.00366266 -0.00638671 -0.0146935 -0.0195756 -0.0199487 -0.0158817 -0.00853325 0.000631499 0.0105862 0.0208179 0.0306482 0.0386994 0.0430593 0.0420448 0.0351249 0.0226532 0.00513658 -0.0175251 -0.0455183 -0.077648 -0.109883 -0.135632 -0.146931 -0.136295 -0.0978054 -0.0273213 0.0771283 0.214532 0.379419 0.560814 0.742514 0.90471 1.02716 1.09245 1.0892 1.01429 0.87391 0.682981 0.463036 0.238638 0.0335845 -0.132803 -0.248373 -0.309034 -0.318457 -0.286173 -0.225245 -0.149509 -0.0712678 0.000246616 0.0595847 0.104745 0.136301 0.156264 0.166923 0.170423 0.168589 0.163007 0.155108 0.146089 0.136582 0.126736 0.116356 0.104683 0.0912513 0.0758638 0.0584383 0.0411144 0.0264168 0.015816 0.00960431 0.00712595 0.00724361 0.00884797 0.0110649 0.0123312 0.0101346 0.00282666 -0.00789332 -0.0172902 -0.0210956 -0.0187312 -0.0130946 -0.00765964 -0.00413168 -0.00151747 0 0 
0 0 -0.000386636 -0.00117028 -0.00245152 -0.0055648 -0.0111489 -0.0185027 -0.0249622 -0.0270568 -0.0230004 -0.0141405 -0.00392765 0.00453759 0.0101592 0.0136802 0.016671 0.0207474 0.0272611 0.0371028 0.0506668 0.0676107 0.0864053 0.104548 0.121027 0.135179 0.146906 0.156685 0.165166 0.172855 0.180015 0.186448 0.19129 0.19345 0.191661 0.184433 0.170023 0.146348 0.111207 0.0629759 0.00155255 -0.070783 -0.148547 -0.223122 -0.283287 -0.316557 -0.311051 -0.257789 -0.152878 0.000886725 0.193433 0.408227 0.624276 0.819252 0.972685 1.06914 1.10038 1.06606 0.973658 0.836578 0.671681 0.496346 0.325938 0.172409 0.043957 -0.0543974 -0.120781 -0.156565 -0.166311 -0.157006 -0.135898 -0.108768 -0.079164 -0.0493021 -0.0212506 0.0024739 0.0196666 0.0293713 0.0320924 0.0292311 0.0220754 0.0117144 -0.000741425 -0.0134669 -0.0240532 -0.0304642 -0.0316855 -0.0283611 -0.0219813 -0.0140351 -0.0056233 0.00260902 0.00980422 0.01502 0.0174908 0.0172271 0.0149447 0.0120315 0.00956208 0.00827359 0.00831752 0.00961044 0.0119249 0.0149274 0.0178445 0.0197303 0.0193971 0.0163205 0.0106159 0.00309454 -0.00533654 -0.0138589 -0.0218451 -0.0282416 -0.0315825 -0.0303687 -0.023965 -0.0133745 -0.000630685 0.0118343 0.022222 0.0294001 0.0322627 0.0295392 0.0198224 0.0026171 -0.021107 -0.0491674 -0.0790354 -0.108659 -0.135815 -0.15694 -0.16626 -0.156519 -0.120761 -0.0543999 0.0439532 0.172422 0.326013 0.496528 0.672035 0.837151 0.974471 1.0671 1.10161 1.07048 0.974057 0.820562 0.625472 0.409283 0.194366 0.00171832 -0.152071 -0.256943 -0.310122 -0.315508 -0.282141 -0.22198 -0.147553 -0.070126 0.00169037 0.0625048 0.110179 0.144968 0.168589 0.183233 0.190869 0.19306 0.191113 0.186229 0.179504 0.17193 0.163845 0.155074 0.145306 0.13374 0.11983 0.103617 0.0856972 0.0670324 0.0501751 0.0366874 0.0269122 0.0204626 0.0164484 0.0135075 0.0100412 0.00449962 -0.0038683 -0.0139981 -0.0228183 -0.0268841 -0.0248371 -0.0184523 -0.0112132 -0.00582398 -0.00295789 -0.00101611 0 0 
0 0 -0.000267626 -0.000803988 -0.00171764 -0.00430969 -0.00959846 -0.017669 -0.0267044 -0.0333161 -0.0342988 -0.0284332 -0.0171149 -0.00351362 0.00918767 0.0194071 0.027736 0.0360904 0.0462904 0.0592707 0.075218 0.0936569 0.112989 0.131878 0.149014 0.163559 0.175305 0.184556 0.191963 0.198169 0.203607 0.208289 0.211701 0.213038 0.211314 0.20555 0.194608 0.176948 0.150665 0.113678 0.0645884 0.00330441 -0.0680078 -0.144329 -0.217961 -0.278722 -0.315152 -0.316247 -0.273242 -0.181749 -0.0431799 0.134563 0.337683 0.548025 0.745574 0.911044 1.02875 1.08876 1.08791 1.02985 0.923914 0.78308 0.621662 0.453522 0.291081 0.144809 0.0228448 -0.0701704 -0.133515 -0.170176 -0.185152 -0.183436 -0.168883 -0.144733 -0.114367 -0.0820459 -0.0519092 -0.0269774 -0.00860814 0.00304754 0.00825179 0.00741958 0.00142668 -0.00775751 -0.0174087 -0.0246556 -0.0278309 -0.0267345 -0.0223343 -0.0158969 -0.0085537 -0.00111239 0.00537759 0.00994339 0.0117584 0.0109084 0.00817512 0.00488597 0.00216535 0.000708917 0.000706824 0.00205483 0.00455216 0.0078172 0.0111248 0.0134605 0.0136989 0.0112603 0.00619771 -0.000630927 -0.00826698 -0.0157138 -0.0221922 -0.026611 -0.0277219 -0.0245571 -0.0173234 -0.00767313 0.00152812 0.00754107 0.0083955 0.00321987 -0.00843399 -0.0268038 -0.0517432 -0.0818881 -0.114208 -0.144577 -0.168745 -0.183324 -0.185063 -0.170106 -0.133454 -0.0701207 0.0228695 0.144801 0.291065 0.453527 0.621714 0.783231 0.924233 1.03039 1.08866 1.08978 1.02997 0.912406 0.747007 0.549439 0.339001 0.135754 -0.0421151 -0.180772 -0.272304 -0.315305 -0.314138 -0.277618 -0.2168 -0.14323 -0.0671245 0.00375492 0.0644572 0.112915 0.14938 0.175393 0.193111 0.204371 0.210576 0.212642 0.211413 0.207824 0.202768 0.196899 0.190343 0.182734 0.173564 0.162025 0.147729 0.13082 0.1121 0.0929034 0.0745682 0.0587353 0.0458701 0.035779 0.0275185 0.0192577 0.00910207 -0.00351273 -0.0170133 -0.0282535 -0.0340946 -0.0331378 -0.0265763 -0.0176 -0.00961451 -0.00449099 -0.00215029 -0.000686554 0 0 
0 0 -0.000218258 -0.000640497 -0.00136998 -0.00361476 -0.0085017 -0.0165358 -0.0266248 -0.035945 -0.0408744 -0.0384371 -0.0277852 -0.0109879 0.0078444 0.0249971 0.0393285 0.0522422 0.0658193 0.0812907 0.0988899 0.118098 0.138072 0.15757 0.175277 0.190181 0.201938 0.210693 0.217075 0.22182 0.225452 0.228252 0.229867 0.229772 0.227285 0.221762 0.212625 0.198938 0.179376 0.152004 0.114825 0.0663191 0.00628791 -0.0634039 -0.138427 -0.211739 -0.274153 -0.315191 -0.324467 -0.293514 -0.217386 -0.0962479 0.0642485 0.252998 0.454692 0.651704 0.826265 0.963034 1.05091 1.08442 1.0638 0.994288 0.884592 0.745658 0.589453 0.428361 0.274091 0.136321 0.0211547 -0.0692374 -0.135507 -0.179571 -0.203198 -0.208402 -0.198166 -0.176917 -0.149731 -0.121058 -0.0940617 -0.0706532 -0.0522152 -0.0397037 -0.0333523 -0.0319561 -0.0331353 -0.034004 -0.032522 -0.0279213 -0.0206291 -0.0116263 -0.00184873 0.00778519 0.0162424 0.0224381 0.0256745 0.0259652 0.0242055 0.0216681 0.0194662 0.0183042 0.0184072 0.019655 0.0218712 0.0246346 0.0272024 0.0285738 0.0276606 0.0237751 0.0170707 0.00826991 -0.0015626 -0.0114461 -0.0204884 -0.0277982 -0.0324108 -0.0339041 -0.0330455 -0.0318796 -0.0332617 -0.0395951 -0.0520729 -0.070484 -0.0938892 -0.120879 -0.149557 -0.176751 -0.197997 -0.208237 -0.203052 -0.179451 -0.13541 -0.0691478 0.0212326 0.136378 0.274118 0.428355 0.589444 0.745658 0.884635 0.99443 1.0641 1.08493 1.05165 0.964028 0.827472 0.653079 0.456164 0.254477 0.0656647 -0.0949281 -0.216191 -0.292425 -0.323445 -0.314157 -0.273068 -0.210586 -0.137269 -0.0623606 0.00702806 0.0665492 0.114408 0.150947 0.177847 0.197243 0.211097 0.220631 0.226591 0.229354 0.22943 0.227516 0.224274 0.220205 0.215188 0.208693 0.200094 0.188572 0.173895 0.156381 0.137041 0.117173 0.0980809 0.080614 0.0652851 0.0518497 0.0390734 0.0248556 0.00780485 -0.0109175 -0.0276126 -0.0382119 -0.0406581 -0.0357797 -0.0265175 -0.0164758 -0.00850216 -0.00375123 -0.001741 -0.00053223 0 0 
0 0 -0.000234481 -0.000663735 -0.00137148 -0.00343464 -0.00787606 -0.0152986 -0.0251225 -0.0353054 -0.0425801 -0.0431603 -0.0343349 -0.0164576 0.00662873 0.0298504 0.050187 0.0678169 0.0845514 0.101902 0.120308 0.140129 0.160625 0.180554 0.19865 0.213874 0.225663 0.234054 0.239594 0.242983 0.244907 0.24577 0.245482 0.243713 0.239965 0.233866 0.225277 0.213879 0.198916 0.178953 0.15195 0.115686 0.0685686 0.0101975 -0.0578467 -0.13167 -0.205023 -0.26956 -0.315756 -0.334055 -0.31623 -0.25701 -0.15525 -0.0145541 0.156647 0.345881 0.538047 0.717342 0.869192 0.98218 1.04902 1.06696 1.03722 0.964454 0.85629 0.722647 0.575192 0.425273 0.282382 0.152821 0.0402411 -0.0532215 -0.125928 -0.176902 -0.206768 -0.218302 -0.215765 -0.203604 -0.185673 -0.165013 -0.144326 -0.126024 -0.111661 -0.101335 -0.0935931 -0.086207 -0.0773198 -0.0660299 -0.0526693 -0.0379324 -0.0228437 -0.00834673 0.00441432 0.0143677 0.0208371 0.023946 0.0245207 0.0238491 0.0229703 0.0226492 0.0229988 0.0240002 0.0253841 0.026842 0.027561 0.0266029 0.0228586 0.015731 0.00525799 -0.0078561 -0.0225654 -0.0377465 -0.0525207 -0.0659085 -0.077205 -0.0861035 -0.093514 -0.101265 -0.111575 -0.125925 -0.144196 -0.164853 -0.1855 -0.203422 -0.215587 -0.218123 -0.206585 -0.176727 -0.12577 -0.0530934 0.0403484 0.152923 0.282461 0.425335 0.575224 0.722655 0.856287 0.964459 1.03728 1.06713 1.04935 0.982698 0.869931 0.718317 0.539237 0.347246 0.15813 -0.0130335 -0.153773 -0.25562 -0.314949 -0.332884 -0.314637 -0.268441 -0.203875 -0.130487 -0.0567032 0.0111559 0.0691298 0.115672 0.151233 0.177604 0.197163 0.212061 0.223733 0.232783 0.239295 0.24323 0.244854 0.244746 0.243399 0.241087 0.237482 0.231923 0.223733 0.212192 0.197193 0.17925 0.15947 0.139093 0.119401 0.101113 0.0839131 0.0673368 0.0498715 0.0296901 0.00661301 -0.0163349 -0.0341068 -0.0428972 -0.042357 -0.0351577 -0.0250434 -0.0152642 -0.00788814 -0.00355876 -0.00170004 -0.000540188 0 0 
0 0 -0.000311892 -0.000844259 -0.0016424 -0.00363171 -0.0076069 -0.014051 -0.0226632 -0.0321501 -0.0400088 -0.0424621 -0.0356846 -0.0183463 0.00676082 0.0342214 0.059593 0.0815507 0.10113 0.119881 0.138838 0.159044 0.179777 0.199964 0.218305 0.233736 0.245599 0.253757 0.258594 0.26084 0.261244 0.260305 0.258166 0.254681 0.249487 0.242458 0.233687 0.223318 0.211207 0.196389 0.177201 0.151295 0.116356 0.070734 0.0140649 -0.0522269 -0.124716 -0.197879 -0.264409 -0.315843 -0.343435 -0.339392 -0.29817 -0.2174 -0.0988377 0.0516207 0.224218 0.406567 0.585164 0.746853 0.88043 0.9774 1.0324 1.04324 1.01115 0.940838 0.840222 0.718937 0.586428 0.450631 0.317631 0.192548 0.0802351 -0.0149695 -0.090473 -0.146079 -0.183756 -0.206329 -0.216905 -0.218318 -0.213658 -0.20598 -0.197799 -0.190216 -0.182876 -0.174353 -0.163341 -0.149301 -0.132628 -0.114263 -0.0953688 -0.0772111 -0.0611363 -0.0482615 -0.0392039 -0.0338097 -0.0312064 -0.0301983 -0.0297684 -0.0293196 -0.0286999 -0.0279605 -0.0273451 -0.0271839 -0.0281264 -0.0311043 -0.0371364 -0.0468542 -0.0602724 -0.0767229 -0.0950899 -0.114074 -0.132484 -0.149182 -0.16323 -0.174254 -0.182804 -0.190152 -0.197727 -0.205886 -0.213537 -0.218163 -0.216731 -0.20615 -0.183567 -0.145884 -0.0902742 -0.0147786 0.0804073 0.192692 0.317756 0.450739 0.586508 0.718999 0.84026 0.940868 1.01117 1.04328 1.0325 0.977608 0.880784 0.747382 0.5859 0.407524 0.225384 0.0529595 -0.0973744 -0.215882 -0.296675 -0.337959 -0.342099 -0.314592 -0.263215 -0.196706 -0.123535 -0.0510414 0.0151683 0.0715729 0.116736 0.151015 0.17619 0.194766 0.209254 0.221415 0.232147 0.241415 0.248824 0.254097 0.257333 0.258989 0.259431 0.258687 0.256324 0.251534 0.243626 0.232004 0.216776 0.198576 0.178519 0.157906 0.137851 0.11903 0.100429 0.08102 0.0592448 0.0340458 0.00675197 -0.0182025 -0.0354367 -0.0421921 -0.0397932 -0.0320222 -0.0226104 -0.0140452 -0.00764409 -0.00376432 -0.00194432 -0.000679732 0 0 
0 0 -0.000441574 -0.00113863 -0.00207433 -0.00402188 -0.00750917 -0.0127919 -0.0196457 -0.027335 -0.0342007 -0.0370125 -0.031628 -0.015554 0.00966796 0.039098 0.0676622 0.0927647 0.114381 0.13391 0.15378 0.174265 0.195014 0.215182 0.233571 0.249144 0.261094 0.269087 0.273436 0.274775 0.273852 0.271355 0.267582 0.262508 0.255996 0.24797 0.238716 0.228648 0.21806 0.206521 0.192691 0.174567 0.149706 0.115884 0.0717103 0.0168837 -0.0472865 -0.117936 -0.190392 -0.258491 -0.314827 -0.351557 -0.361351 -0.338408 -0.27952 -0.184753 -0.057826 0.0942751 0.261881 0.434032 0.599403 0.747466 0.868981 0.956661 1.00595 1.01554 0.987965 0.928509 0.843841 0.740405 0.624077 0.500771 0.376836 0.258797 0.151892 0.0593684 -0.0178828 -0.0802599 -0.128903 -0.165362 -0.191847 -0.21102 -0.225365 -0.236346 -0.244057 -0.247732 -0.246427 -0.240032 -0.229137 -0.21507 -0.199301 -0.183611 -0.169586 -0.158561 -0.151045 -0.146833 -0.145005 -0.144409 -0.144154 -0.143797 -0.143162 -0.142452 -0.141738 -0.141387 -0.141896 -0.144084 -0.148928 -0.157117 -0.168699 -0.183112 -0.199022 -0.214884 -0.228995 -0.239907 -0.24631 -0.247631 -0.243974 -0.236279 -0.225294 -0.210935 -0.191734 -0.165216 -0.128733 -0.0800731 -0.0176848 0.0595705 0.152104 0.258993 0.377014 0.500929 0.624208 0.74051 0.843933 0.928586 0.988029 1.01559 1.00599 0.956752 0.869147 0.74773 0.599807 0.434595 0.262617 0.0952029 -0.0566975 -0.18346 -0.278106 -0.336921 -0.35987 -0.350123 -0.313469 -0.257219 -0.18918 -0.116736 -0.0460806 0.0180672 0.0727602 0.116598 0.149871 0.174014 0.191394 0.204637 0.215933 0.226668 0.237185 0.246954 0.255315 0.261807 0.266541 0.269779 0.271795 0.272431 0.271051 0.266824 0.259111 0.247403 0.23202 0.213752 0.193717 0.173081 0.15274 0.13303 0.113658 0.0922215 0.067311 0.0389249 0.00965796 -0.0154135 -0.0313905 -0.0367649 -0.0340131 -0.0272339 -0.019617 -0.0128099 -0.00757009 -0.00416802 -0.00235742 -0.000904779 0 0 
0 0 -0.000607127 -0.00149195 -0.00255015 -0.00442132 -0.00738722 -0.0114532 -0.0163311 -0.0216085 -0.0263375 -0.0280542 -0.022909 -0.00794586 0.0162774 0.0456759 0.0752632 0.101746 0.124037 0.144799 0.165154 0.185545 0.20596 0.22581 0.244073 0.259639 0.271658 0.27963 0.283684 0.284348 0.282409 0.27863 0.273458 0.267072 0.259464 0.250646 0.240926 0.230859 0.220942 0.211189 0.200681 0.187787 0.170299 0.146001 0.113078 0.0703944 0.0178367 -0.0436852 -0.111781 -0.182871 -0.251791 -0.312225 -0.357223 -0.37993 -0.374603 -0.337356 -0.267052 -0.165338 -0.0368295 0.111709 0.271775 0.434093 0.589029 0.727161 0.840378 0.922839 0.971979 0.988184 0.97382 0.931955 0.865978 0.780143 0.680097 0.572508 0.463737 0.358749 0.260733 0.171517 0.0921506 0.0229094 -0.0368758 -0.0886247 -0.133922 -0.173656 -0.2077 -0.235143 -0.255165 -0.267571 -0.273065 -0.27306 -0.269523 -0.264584 -0.260228 -0.257836 -0.257885 -0.260015 -0.263191 -0.266376 -0.268638 -0.269741 -0.269602 -0.268419 -0.266253 -0.263364 -0.260068 -0.25722 -0.255707 -0.256337 -0.259306 -0.264072 -0.269242 -0.272885 -0.272928 -0.267442 -0.255049 -0.235046 -0.207617 -0.173588 -0.133857 -0.0885438 -0.0367673 0.0230425 0.0923111 0.171707 0.260931 0.358956 0.463957 0.572711 0.680284 0.780309 0.866119 0.932082 0.973938 0.988282 0.972057 0.922915 0.840468 0.727308 0.589266 0.434439 0.27224 0.112301 -0.0360816 -0.164423 -0.265971 -0.336134 -0.373262 -0.37852 -0.355813 -0.310836 -0.25047 -0.181611 -0.110561 -0.0424608 0.0190516 0.0715483 0.114045 0.146557 0.170236 0.186937 0.19908 0.209037 0.218646 0.228813 0.239409 0.249658 0.258759 0.266264 0.272225 0.27685 0.280175 0.281921 0.281295 0.277405 0.269728 0.257928 0.242529 0.224382 0.204632 0.184344 0.164076 0.143878 0.123292 0.101194 0.0749052 0.045495 0.016255 -0.00782993 -0.0227049 -0.0278469 -0.0261927 -0.021542 -0.0163267 -0.0114894 -0.00746318 -0.00457464 -0.00281439 -0.00116082 0 0 
0 0 -0.000785422 -0.00184509 -0.00296585 -0.00468289 -0.00708035 -0.00993983 -0.0128395 -0.015498 -0.0174725 -0.0170389 -0.0109587 0.00360241 0.026572 0.0546402 0.0833973 0.109606 0.132071 0.153018 0.173138 0.192948 0.212594 0.231737 0.249581 0.265025 0.277114 0.285204 0.289158 0.289421 0.286778 0.281981 0.275709 0.268318 0.259926 0.250581 0.240634 0.230536 0.220884 0.211946 0.203103 0.193213 0.180472 0.162943 0.138901 0.106896 0.0661342 0.0164267 -0.0416087 -0.106396 -0.175155 -0.243722 -0.306774 -0.358285 -0.392025 -0.402483 -0.385578 -0.339104 -0.263225 -0.160155 -0.0342631 0.108453 0.260557 0.413484 0.558472 0.687727 0.795426 0.878282 0.934573 0.963638 0.965355 0.940983 0.893639 0.828263 0.750349 0.664919 0.575966 0.486558 0.399162 0.315484 0.236389 0.161835 0.0915559 0.0257507 -0.0345589 -0.0878452 -0.132717 -0.168517 -0.195568 -0.215205 -0.229455 -0.240812 -0.25136 -0.262569 -0.274717 -0.287215 -0.298817 -0.308383 -0.315125 -0.318833 -0.319601 -0.317545 -0.312783 -0.3054 -0.29569 -0.284379 -0.272472 -0.261006 -0.250396 -0.240278 -0.22918 -0.215043 -0.19544 -0.168395 -0.132605 -0.0877441 -0.0344738 0.0258178 0.0916157 0.161914 0.236496 0.315614 0.399322 0.48674 0.57616 0.665134 0.750569 0.828466 0.893836 0.941165 0.965517 0.963787 0.934706 0.878396 0.795545 0.687856 0.558638 0.413726 0.260884 0.108875 -0.0337418 -0.159515 -0.262461 -0.338216 -0.384555 -0.401353 -0.390806 -0.357 -0.305472 -0.242436 -0.173905 -0.105193 -0.0404224 0.0176268 0.0673136 0.108007 0.13976 0.163342 0.180178 0.192082 0.201206 0.209553 0.21843 0.228431 0.239124 0.249613 0.259184 0.267414 0.274329 0.280064 0.284459 0.286977 0.286833 0.283078 0.275276 0.263384 0.248067 0.230313 0.211261 0.191717 0.17204 0.152055 0.131274 0.10901 0.0829937 0.0544135 0.0265047 0.00367058 -0.0108095 -0.0168861 -0.0173772 -0.0154718 -0.0128616 -0.00999128 -0.0071633 -0.00483397 -0.00320585 -0.00139562 0 0 
0 0 -0.000950904 -0.00214379 -0.00324405 -0.00471032 -0.00648149 -0.0081625 -0.00918708 -0.00929665 -0.0083655 -0.0052657 0.00256779 0.0175067 0.0394807 0.0656487 0.0922343 0.116535 0.13859 0.15889 0.17805 0.196657 0.215037 0.233075 0.250179 0.265337 0.277436 0.285719 0.289838 0.290025 0.286955 0.28151 0.274451 0.26632 0.257418 0.247879 0.237929 0.227964 0.218391 0.209631 0.201389 0.192834 0.182703 0.169421 0.151599 0.127895 0.0973048 0.0591969 0.0131773 -0.0405319 -0.100956 -0.166053 -0.232585 -0.296188 -0.351737 -0.393898 -0.417608 -0.418814 -0.394714 -0.344082 -0.267385 -0.166801 -0.0463206 0.0882766 0.229929 0.371337 0.506041 0.62898 0.736109 0.823929 0.889329 0.930403 0.947247 0.941898 0.917694 0.878198 0.826715 0.766197 0.699373 0.62837 0.554779 0.479477 0.403261 0.327391 0.25392 0.185279 0.123679 0.0706575 0.0265488 -0.00950094 -0.0393552 -0.0655462 -0.0902263 -0.114657 -0.138912 -0.161904 -0.182153 -0.198367 -0.209836 -0.216336 -0.21802 -0.215092 -0.207561 -0.195436 -0.179028 -0.15903 -0.136603 -0.113015 -0.0892025 -0.0649823 -0.0390746 -0.00934283 0.0266666 0.0707671 0.123787 0.18538 0.254003 0.327461 0.403323 0.479554 0.554883 0.628493 0.69952 0.766378 0.826918 0.87841 0.917907 0.942109 0.947462 0.930601 0.889507 0.824095 0.736262 0.629151 0.506223 0.371547 0.23019 0.0886 -0.0458975 -0.166294 -0.266797 -0.343397 -0.393942 -0.417959 -0.416668 -0.392876 -0.350636 -0.295043 -0.231427 -0.164908 -0.099831 -0.039411 0.0142875 0.0603413 0.0984364 0.128938 0.152349 0.169638 0.182145 0.191395 0.199184 0.206986 0.21579 0.225815 0.236429 0.246922 0.256644 0.265331 0.272973 0.279527 0.284659 0.287676 0.287664 0.283755 0.275736 0.263789 0.248728 0.231677 0.213691 0.195398 0.176897 0.15788 0.137734 0.115854 0.0917441 0.0653329 0.0393299 0.0174988 0.00264395 -0.00518392 -0.00832931 -0.00931327 -0.00923747 -0.0082289 -0.0065676 -0.00485217 -0.00345241 -0.00156871 0 0 
0 0 -0.00108036 -0.00234497 -0.00333698 -0.00445492 -0.00553618 -0.00606133 -0.00534754 -0.00312244 0.000537235 0.00631666 0.0161824 0.0319377 0.0532358 0.0773701 0.100998 0.12335 0.143892 0.162701 0.180241 0.19707 0.21368 0.230179 0.246172 0.260765 0.272814 0.281359 0.285813 0.286225 0.283128 0.277324 0.269753 0.261152 0.251943 0.242421 0.232704 0.222987 0.213592 0.204743 0.196418 0.188181 0.179152 0.168268 0.15443 0.136594 0.11393 0.0856518 0.0510835 0.00970368 -0.038672 -0.0935164 -0.153491 -0.216144 -0.278058 -0.335166 -0.382987 -0.417196 -0.433936 -0.430028 -0.403312 -0.352889 -0.279363 -0.185195 -0.0745392 0.0475499 0.175858 0.305726 0.432689 0.552144 0.659401 0.750407 0.822736 0.875736 0.910118 0.927301 0.928959 0.916911 0.893018 0.858875 0.815678 0.764381 0.70616 0.642869 0.577198 0.512241 0.451046 0.395955 0.348154 0.3074 0.272089 0.239902 0.208711 0.177493 0.146633 0.117628 0.0922989 0.0721763 0.0579771 0.049847 0.0476119 0.0510277 0.0601641 0.0750229 0.0953934 0.120536 0.149018 0.179215 0.209808 0.240505 0.272385 0.307545 0.348253 0.396047 0.451145 0.512343 0.577293 0.642948 0.706227 0.764453 0.815777 0.859002 0.893169 0.917089 0.929152 0.927511 0.910347 0.875966 0.822958 0.750606 0.659593 0.552345 0.432908 0.305953 0.176103 0.0478435 -0.0741869 -0.184752 -0.278835 -0.352294 -0.402638 -0.429305 -0.433175 -0.416384 -0.382126 -0.334264 -0.277115 -0.215171 -0.152501 -0.0925414 -0.0376981 0.0106795 0.0520919 0.0867141 0.114996 0.137546 0.155057 0.16829 0.17835 0.186454 0.193938 0.201889 0.210863 0.220808 0.231224 0.241491 0.251169 0.260128 0.268252 0.275362 0.280933 0.284048 0.283854 0.279611 0.271276 0.259316 0.24475 0.228783 0.212314 0.195756 0.179019 0.161597 0.142945 0.122565 0.100396 0.0769389 0.0529721 0.0318239 0.016159 0.00631016 0.000502473 -0.00318798 -0.00542761 -0.00614379 -0.00562567 -0.00458417 -0.00350662 -0.00165469 0 0 
0 0 -0.00115626 -0.00241962 -0.00322342 -0.00390641 -0.00423674 -0.00361983 -0.00130348 0.00298311 0.00900816 0.0171129 0.028768 0.0452645 0.0659068 0.0880612 0.109129 0.12929 0.147827 0.164644 0.180062 0.194693 0.209136 0.223687 0.238167 0.251861 0.263693 0.272485 0.277452 0.278324 0.275431 0.269583 0.26173 0.252821 0.243502 0.234114 0.224781 0.215533 0.206393 0.197511 0.188935 0.18052 0.171845 0.162185 0.150838 0.137029 0.120091 0.0994497 0.0743974 0.0442454 0.00828517 -0.0339209 -0.0823265 -0.136062 -0.193429 -0.251951 -0.308517 -0.35962 -0.40168 -0.431147 -0.444733 -0.439721 -0.414393 -0.368401 -0.303021 -0.220513 -0.123726 -0.0156522 0.100346 0.220201 0.339236 0.452807 0.557174 0.64994 0.729729 0.795967 0.84862 0.887965 0.914561 0.928675 0.930473 0.920082 0.898294 0.866826 0.828439 0.786482 0.744368 0.704946 0.669992 0.639811 0.613066 0.587553 0.561281 0.533423 0.50481 0.477332 0.453147 0.433936 0.420424 0.412722 0.410557 0.413823 0.422489 0.436678 0.456191 0.48026 0.507275 0.535248 0.562468 0.588214 0.613378 0.639942 0.670071 0.705025 0.744459 0.786584 0.828542 0.866908 0.898363 0.920158 0.930575 0.928798 0.914706 0.888141 0.84882 0.796183 0.729959 0.650176 0.55741 0.453024 0.33946 0.220446 0.10061 -0.0153506 -0.123382 -0.220109 -0.30255 -0.367859 -0.413779 -0.439041 -0.444013 -0.430413 -0.400931 -0.358861 -0.307759 -0.251186 -0.192644 -0.135275 -0.0815408 -0.0331394 0.00906435 0.0450641 0.0752809 0.10041 0.121066 0.137875 0.151341 0.162024 0.170802 0.178526 0.186203 0.194464 0.203566 0.213341 0.223342 0.233213 0.242757 0.251803 0.260268 0.267719 0.273415 0.276379 0.275731 0.270953 0.262305 0.250504 0.236781 0.222274 0.207728 0.193331 0.17877 0.163456 0.146784 0.128397 0.108409 0.0875108 0.0655215 0.045022 0.0286206 0.0169973 0.00888944 0.00285995 -0.00141871 -0.00372137 -0.00433108 -0.00402061 -0.00334737 -0.00164137 0 0 
0 0 -0.00116846 -0.0023531 -0.00290275 -0.00308097 -0.00260988 -0.00086534 0.00291898 0.00897479 0.0169099 0.0267596 0.0395978 0.0563025 0.0758778 0.0957669 0.115288 0.133539 0.15001 0.164647 0.177749 0.189985 0.201987 0.214279 0.22693 0.239435 0.250729 0.259611 0.265072 0.266563 0.26414 0.258454 0.250543 0.241446 0.232034 0.222905 0.214088 0.205492 0.196879 0.188211 0.179589 0.171027 0.162507 0.153667 0.143994 0.133006 0.120152 0.105051 0.0871684 0.0659227 0.0405542 0.0102604 -0.0256359 -0.0673379 -0.114436 -0.165892 -0.219999 -0.274581 -0.326965 -0.374284 -0.41337 -0.441038 -0.454567 -0.451894 -0.432194 -0.395387 -0.341987 -0.272818 -0.189448 -0.0943859 0.00881177 0.116208 0.224215 0.329731 0.430514 0.524671 0.610963 0.688536 0.756649 0.814293 0.860212 0.893388 0.913658 0.922146 0.92103 0.913411 0.902483 0.891275 0.881713 0.874331 0.867864 0.860149 0.849125 0.834213 0.816374 0.79782 0.78094 0.767447 0.758075 0.752841 0.751473 0.753845 0.759983 0.770047 0.783903 0.800757 0.818923 0.836159 0.850416 0.860879 0.868203 0.874466 0.881781 0.891335 0.902568 0.91352 0.921141 0.92224 0.913738 0.893465 0.860315 0.814415 0.756799 0.688716 0.611161 0.524888 0.430752 0.32998 0.224456 0.116451 0.00908613 -0.0940858 -0.189102 -0.272426 -0.341554 -0.394882 -0.43163 -0.451262 -0.453868 -0.4403 -0.412612 -0.373533 -0.32624 -0.273879 -0.219339 -0.165255 -0.113824 -0.0667565 -0.0250659 0.0108109 0.0411253 0.0665649 0.0878965 0.105891 0.121027 0.133756 0.144353 0.15333 0.161236 0.168794 0.176621 0.185005 0.193983 0.203315 0.212737 0.222093 0.231362 0.240499 0.24919 0.256749 0.262352 0.264885 0.26361 0.258284 0.249465 0.238116 0.225536 0.212834 0.200522 0.188548 0.176391 0.16338 0.14889 0.132572 0.114476 0.0951175 0.0753765 0.0559358 0.0393197 0.0265262 0.0166981 0.00878681 0.00276101 -0.00099172 -0.00271012 -0.00317556 -0.00297288 -0.00152624 0 0 
0 0 -0.00111362 -0.00214279 -0.00238626 -0.00200824 -0.000703966 0.00213763 0.00724121 0.0147499 0.0240887 0.0350078 0.0482638 0.0644607 0.0823683 0.100917 0.118944 0.13548 0.150036 0.162565 0.17342 0.183234 0.192784 0.202678 0.213241 0.22417 0.234632 0.243399 0.249207 0.251302 0.249483 0.244124 0.236253 0.227131 0.217762 0.208914 0.200734 0.193042 0.185363 0.177429 0.169226 0.160943 0.152812 0.144745 0.136475 0.127547 0.117599 0.106308 0.093364 0.0784132 0.0608892 0.0399458 0.0148024 -0.0153352 -0.0507829 -0.0914919 -0.13693 -0.186038 -0.237358 -0.289037 -0.338807 -0.38395 -0.421789 -0.449822 -0.466169 -0.469311 -0.458055 -0.431483 -0.389332 -0.332483 -0.262781 -0.18275 -0.0950066 -0.00211468 0.0935895 0.18998 0.285418 0.378572 0.46798 0.551712 0.6274 0.69292 0.747068 0.790106 0.823478 0.849552 0.871037 0.890591 0.910007 0.929624 0.948105 0.963075 0.972411 0.975375 0.973052 0.967744 0.961836 0.956969 0.953829 0.952346 0.952209 0.953232 0.955553 0.959387 0.964681 0.970668 0.975683 0.977448 0.973823 0.963893 0.948484 0.929758 0.910049 0.890627 0.871106 0.849651 0.823588 0.790213 0.747164 0.693012 0.627506 0.551831 0.468122 0.378752 0.28562 0.1902 0.0938258 -0.00186237 -0.0947383 -0.182459 -0.262447 -0.332106 -0.388908 -0.431004 -0.457516 -0.468713 -0.465511 -0.449103 -0.421026 -0.383175 -0.338037 -0.288306 -0.236678 -0.185412 -0.136386 -0.0910044 -0.0503639 -0.0149602 0.015142 0.0402709 0.0612463 0.0788538 0.0939146 0.106997 0.118349 0.128182 0.136703 0.14424 0.151331 0.158479 0.166058 0.174094 0.182446 0.190918 0.199495 0.208243 0.217227 0.226321 0.235059 0.242631 0.247917 0.249857 0.247942 0.242222 0.233447 0.222877 0.211822 0.201191 0.191276 0.181754 0.17202 0.161273 0.148871 0.134461 0.118077 0.100193 0.0817876 0.0639916 0.0478757 0.0346724 0.023794 0.0144978 0.00703626 0.0019822 -0.000809571 -0.00207634 -0.00239403 -0.00131288 0 0 
0 0 -0.000992856 -0.00179372 -0.00169082 -0.000724127 0.00141747 0.00529084 0.0115287 0.0201454 0.030361 0.0416576 0.0545873 0.0697052 0.0860542 0.103114 0.119625 0.134578 0.147411 0.158087 0.166929 0.174565 0.181767 0.189305 0.197687 0.206831 0.216099 0.224377 0.230324 0.23292 0.231676 0.226815 0.219223 0.210189 0.201017 0.192655 0.185348 0.178827 0.172492 0.165848 0.158704 0.151275 0.143896 0.136775 0.129768 0.122509 0.114599 0.105767 0.0959049 0.0848359 0.0723028 0.057752 0.0404223 0.0195108 -0.00569309 -0.0355754 -0.0703033 -0.109647 -0.153185 -0.199981 -0.248855 -0.298052 -0.345657 -0.389542 -0.427768 -0.458314 -0.479106 -0.488158 -0.484035 -0.466291 -0.435325 -0.392136 -0.337996 -0.274408 -0.203118 -0.125763 -0.0437365 0.0418598 0.129543 0.217084 0.301527 0.3801 0.450818 0.51323 0.568011 0.616773 0.661552 0.704468 0.746835 0.788675 0.828352 0.863227 0.890977 0.910707 0.92335 0.931026 0.935994 0.939767 0.942887 0.945153 0.946223 0.945909 0.944402 0.94197 0.938693 0.933913 0.926054 0.912914 0.892535 0.864151 0.828788 0.788819 0.746854 0.704469 0.661595 0.616856 0.568119 0.51335 0.450932 0.380202 0.301637 0.217205 0.129692 0.0420404 -0.0435454 -0.125546 -0.202868 -0.274133 -0.337697 -0.391794 -0.434923 -0.465828 -0.483511 -0.487576 -0.478472 -0.45763 -0.427043 -0.388772 -0.344867 -0.297276 -0.248098 -0.199284 -0.152569 -0.109135 -0.0698883 -0.0352459 -0.00545632 0.0196756 0.0405269 0.057851 0.0724389 0.0850558 0.0962814 0.106311 0.115226 0.123029 0.129856 0.136106 0.142216 0.148599 0.155371 0.162403 0.169579 0.176815 0.184271 0.192175 0.200663 0.209561 0.218206 0.225527 0.230331 0.23167 0.229212 0.223283 0.214931 0.205512 0.196239 0.187786 0.180249 0.173089 0.165541 0.156809 0.146268 0.13357 0.118753 0.102368 0.0854267 0.0691745 0.0541348 0.0412587 0.0300108 0.0198452 0.0112826 0.00510857 0.00131031 -0.000757915 -0.00162921 -0.00100833 0 0 
0 0 -0.000809533 -0.00131572 -0.000838392 0.000726133 0.00367172 0.0084654 0.0156106 0.0249657 0.0355393 0.0465726 0.0584722 0.0718311 0.0866016 0.102012 0.116948 0.130404 0.141733 0.150828 0.157967 0.16376 0.168943 0.174316 0.1805 0.187694 0.195532 0.202991 0.20878 0.211723 0.21112 0.20691 0.199861 0.191281 0.182587 0.174926 0.168737 0.163718 0.159169 0.154322 0.148774 0.142693 0.136386 0.130293 0.124407 0.118396 0.111884 0.104557 0.0963797 0.0873863 0.077576 0.0667211 0.0543552 0.0398095 0.022364 0.00147993 -0.0233176 -0.0522122 -0.0853775 -0.122683 -0.163729 -0.207841 -0.254023 -0.301033 -0.347411 -0.391323 -0.430565 -0.462806 -0.486111 -0.499356 -0.501978 -0.493889 -0.475123 -0.446135 -0.407814 -0.361047 -0.306582 -0.244853 -0.176892 -0.104606 -0.030973 0.0411416 0.109406 0.172946 0.231958 0.287447 0.340897 0.393752 0.446895 0.499899 0.550919 0.597033 0.635809 0.666116 0.688665 0.705221 0.717795 0.727664 0.735167 0.740065 0.741956 0.740676 0.736443 0.729616 0.720319 0.708049 0.691427 0.668467 0.637537 0.598098 0.55144 0.500072 0.446897 0.393722 0.340909 0.287509 0.232062 0.173071 0.109534 0.041267 -0.0308504 -0.104477 -0.176747 -0.244682 -0.306383 -0.36082 -0.407555 -0.445837 -0.474775 -0.493477 -0.501495 -0.498799 -0.485487 -0.462121 -0.429839 -0.390568 -0.346627 -0.30024 -0.253241 -0.207086 -0.163028 -0.122066 -0.0848692 -0.0518209 -0.0230405 0.00162541 0.0224034 0.0397577 0.0542494 0.0665872 0.0774835 0.0874085 0.0965757 0.104939 0.112392 0.118784 0.124356 0.129442 0.134504 0.139806 0.145275 0.150807 0.156287 0.161852 0.167878 0.174694 0.18247 0.190894 0.199056 0.20582 0.20994 0.210606 0.207736 0.201939 0.194353 0.186358 0.17904 0.172814 0.167472 0.162354 0.156661 0.149632 0.140654 0.129443 0.116118 0.101285 0.0859798 0.0712919 0.057997 0.0461547 0.0351688 0.0246415 0.0153391 0.00826715 0.00357267 0.000735889 -0.000702495 -0.000621968 0 0 
0 0 -0.000568792 -0.000723841 0.000139614 0.00228319 0.00595922 0.0115143 0.019301 0.029017 0.0394713 0.0496966 0.0600425 0.0714094 0.0841636 0.0976425 0.110854 0.122797 0.132781 0.140574 0.14635 0.150614 0.154073 0.157557 0.161716 0.166932 0.173109 0.179498 0.184939 0.188143 0.188248 0.18499 0.178881 0.171179 0.163415 0.156779 0.151962 0.148674 0.14611 0.14335 0.13973 0.135204 0.130157 0.125036 0.12001 0.114887 0.109276 0.102818 0.0955248 0.0874949 0.0789736 0.0700106 0.0603951 0.049758 0.0374997 0.023137 0.00617444 -0.0137471 -0.0369732 -0.0638158 -0.0944586 -0.128969 -0.167269 -0.208989 -0.25343 -0.299232 -0.344445 -0.38689 -0.424721 -0.456665 -0.481937 -0.499706 -0.50943 -0.510654 -0.503607 -0.488413 -0.465175 -0.433641 -0.3941 -0.347919 -0.297467 -0.245477 -0.193992 -0.144028 -0.0955669 -0.0479517 -0.000110509 0.0489405 0.0997077 0.151391 0.202008 0.248663 0.288918 0.321535 0.346849 0.366381 0.381676 0.393784 0.402898 0.408726 0.410869 0.409181 0.403908 0.395449 0.383977 0.36911 0.349653 0.32403 0.290833 0.249894 0.202638 0.151604 0.0997022 0.0488794 -0.000141059 -0.0479202 -0.0954735 -0.143899 -0.193854 -0.245346 -0.297335 -0.347778 -0.393946 -0.43347 -0.464979 -0.488177 -0.503325 -0.510321 -0.509022 -0.499215 -0.481353 -0.456003 -0.423995 -0.386111 -0.343644 -0.298419 -0.252629 -0.208207 -0.166522 -0.128275 -0.0938403 -0.0632967 -0.0365791 -0.0134907 0.00629251 0.0231134 0.0373448 0.0494916 0.0600591 0.0696505 0.0786719 0.0873093 0.0955475 0.103072 0.109645 0.11514 0.11981 0.124007 0.128072 0.132129 0.136073 0.139787 0.143293 0.146989 0.15137 0.156863 0.163599 0.171048 0.178302 0.184064 0.187184 0.187077 0.1839 0.178424 0.171903 0.165596 0.160301 0.156135 0.152715 0.149341 0.145176 0.139507 0.131826 0.121933 0.11009 0.0969672 0.0835694 0.0708926 0.0595831 0.0492889 0.0391068 0.0286898 0.0190228 0.0113172 0.00588287 0.00234808 0.000354225 -0.000166423 0 0 
0 0 -0.000278577 -3.99831e-05 0.00120185 0.00387687 0.00817366 0.0142939 0.0224292 0.0321333 0.0420504 0.0510347 0.0593976 0.0686539 0.0790939 0.0903667 0.101665 0.112038 0.120714 0.127346 0.131992 0.135031 0.137076 0.138894 0.141211 0.144569 0.149073 0.154273 0.159237 0.162746 0.163747 0.161793 0.157172 0.150893 0.144472 0.139186 0.135846 0.134315 0.13372 0.132993 0.131284 0.128359 0.124477 0.120194 0.115803 0.111277 0.106333 0.100527 0.0937862 0.0862825 0.0783586 0.0702979 0.0621221 0.0536877 0.0445835 0.0344449 0.0229083 0.00959538 -0.00580063 -0.023693 -0.0444869 -0.0686972 -0.096853 -0.129387 -0.166276 -0.206705 -0.24915 -0.291674 -0.332846 -0.371627 -0.407421 -0.439301 -0.466412 -0.487975 -0.503708 -0.513385 -0.516524 -0.512419 -0.500745 -0.48218 -0.458426 -0.431569 -0.403291 -0.374363 -0.344773 -0.313956 -0.281051 -0.245376 -0.206745 -0.166078 -0.125332 -0.087088 -0.0535854 -0.026027 -0.00424425 0.012796 0.0263032 0.037054 0.045118 0.0502491 0.0520689 0.0505346 0.0458349 0.0383917 0.0283386 0.0153915 -0.00142163 -0.0233799 -0.0514647 -0.0856594 -0.124557 -0.165795 -0.206742 -0.245471 -0.281127 -0.313961 -0.344705 -0.374245 -0.40315 -0.431424 -0.458276 -0.482021 -0.500588 -0.512245 -0.51631 -0.513134 -0.503399 -0.487582 -0.46593 -0.438714 -0.406739 -0.37087 -0.33202 -0.290821 -0.248295 -0.205873 -0.16548 -0.128639 -0.096171 -0.0680842 -0.0439817 -0.023307 -0.00554879 0.0096972 0.0228476 0.0342351 0.0442356 0.0532112 0.0615791 0.0697288 0.0778522 0.0859258 0.0936524 0.10063 0.106581 0.111412 0.115453 0.119 0.12219 0.125079 0.127469 0.129371 0.130979 0.132853 0.135575 0.139627 0.144995 0.151045 0.156769 0.160976 0.162706 0.161666 0.158155 0.153169 0.147868 0.143258 0.139891 0.137612 0.135886 0.133949 0.131003 0.126434 0.11989 0.11129 0.100991 0.0897619 0.0785541 0.068175 0.0589691 0.0506537 0.0417038 0.0318176 0.0221599 0.0141147 0.00813526 0.00400849 0.0014993 0.000341147 0 0 
0 0 5.00917e-05 0.000707916 0.00230142 0.00543495 0.0102167 0.0166845 0.0248658 0.0342 0.0432148 0.0506696 0.0570795 0.0640639 0.072033 0.080894 0.0900812 0.0987598 0.106083 0.111592 0.115194 0.11715 0.117989 0.118378 0.119081 0.120734 0.123676 0.127772 0.132302 0.13623 0.138429 0.138202 0.135534 0.13119 0.126496 0.122762 0.120827 0.120753 0.12181 0.122848 0.122817 0.121348 0.118574 0.11502 0.11119 0.107171 0.102809 0.0977058 0.0916283 0.084722 0.0773118 0.0697916 0.0623642 0.0550634 0.0476732 0.0399616 0.031644 0.0225517 0.0124427 0.0010205 -0.0120845 -0.0275842 -0.0463941 -0.0693682 -0.0970391 -0.129009 -0.16407 -0.200709 -0.23776 -0.27468 -0.311132 -0.34659 -0.380165 -0.411091 -0.438923 -0.463261 -0.483427 -0.498543 -0.507865 -0.511573 -0.510626 -0.506448 -0.500135 -0.492205 -0.482476 -0.470414 -0.455221 -0.436442 -0.414081 -0.389039 -0.363031 -0.338147 -0.316124 -0.297931 -0.283519 -0.27223 -0.263293 -0.256155 -0.250771 -0.247382 -0.246206 -0.247275 -0.250363 -0.255174 -0.261565 -0.269812 -0.280703 -0.295149 -0.313783 -0.336489 -0.362077 -0.388662 -0.414054 -0.43656 -0.455342 -0.470466 -0.482441 -0.492103 -0.499993 -0.506293 -0.510467 -0.511403 -0.507684 -0.498343 -0.483197 -0.462974 -0.438549 -0.410635 -0.379602 -0.345906 -0.310359 -0.27382 -0.236852 -0.199797 -0.163192 -0.12818 -0.0962733 -0.0686937 -0.0458002 -0.0270931 -0.0117146 0.00126448 0.0125343 0.022491 0.031424 0.0395714 0.0471397 0.0544049 0.0616307 0.0690355 0.0766259 0.0842058 0.0913598 0.0976772 0.102938 0.1072 0.110717 0.113657 0.116096 0.117856 0.118862 0.119181 0.119176 0.119552 0.120902 0.123584 0.127362 0.131588 0.135291 0.137426 0.137371 0.135076 0.131153 0.126639 0.122508 0.119539 0.117921 0.117317 0.117022 0.116288 0.114412 0.110877 0.105413 0.0981382 0.0895075 0.080368 0.0715534 0.0636348 0.0566931 0.0503197 0.0428908 0.0339028 0.0246167 0.0165348 0.0102263 0.00564058 0.0026829 0.000879241 0 0 
0 0 0.000404184 0.00148882 0.00339073 0.00688945 0.012003 0.0185937 0.0265289 0.035171 0.0429791 0.0485899 0.0534162 0.0582558 0.0637292 0.0700764 0.0770147 0.0838318 0.0897135 0.0940606 0.0966331 0.0975633 0.0973121 0.0964674 0.0958003 0.0960207 0.0976405 0.100768 0.105035 0.109541 0.11314 0.114948 0.114604 0.112496 0.109687 0.107473 0.106756 0.107788 0.10997 0.112311 0.113686 0.11351 0.111828 0.109128 0.105951 0.102629 0.0989748 0.0947542 0.0895859 0.0835106 0.0767777 0.0697768 0.0628682 0.0561192 0.0495178 0.0429476 0.0362578 0.0293563 0.0222366 0.0147888 0.00673044 -0.00257066 -0.0141571 -0.0292169 -0.0485284 -0.0719907 -0.0986152 -0.127098 -0.156594 -0.186881 -0.218024 -0.249873 -0.281806 -0.31327 -0.343803 -0.373072 -0.400421 -0.425026 -0.446149 -0.463613 -0.477753 -0.489354 -0.498953 -0.506744 -0.512431 -0.51544 -0.515191 -0.511322 -0.504073 -0.494264 -0.483201 -0.472238 -0.462518 -0.454519 -0.448289 -0.443471 -0.439726 -0.436708 -0.43447 -0.433056 -0.432646 -0.433136 -0.434388 -0.436115 -0.43835 -0.441279 -0.445526 -0.451624 -0.459952 -0.470321 -0.482033 -0.493753 -0.503999 -0.511449 -0.515357 -0.515543 -0.512437 -0.506668 -0.498821 -0.489196 -0.477575 -0.463417 -0.44595 -0.424799 -0.400139 -0.372727 -0.343372 -0.312731 -0.281147 -0.249103 -0.217157 -0.185944 -0.15563 -0.126157 -0.09773 -0.0711856 -0.0478343 -0.0286275 -0.0136931 -0.00222532 0.00695095 0.0148645 0.0221646 0.0291326 0.0358649 0.0423933 0.0488162 0.0552857 0.061962 0.0688578 0.0759351 0.0828536 0.0892025 0.0946385 0.0990421 0.102581 0.105385 0.107614 0.109164 0.109844 0.10959 0.108623 0.107468 0.106859 0.107214 0.108705 0.110903 0.11311 0.114444 0.114137 0.111973 0.108275 0.103812 0.0996342 0.0965485 0.0949874 0.0948544 0.0956552 0.0966052 0.096947 0.0960566 0.0935222 0.0891982 0.0833345 0.0765397 0.0696335 0.0633172 0.0578788 0.0530733 0.0482704 0.0426837 0.0348984 0.0263076 0.0184798 0.0120635 0.0071688 0.00385171 0.001424 0 0 
0 0 0.000769806 0.00227091 0.00442319 0.00817628 0.0134551 0.0199468 0.0273695 0.0350545 0.0415367 0.0457148 0.0489654 0.0517886 0.0548656 0.0586907 0.0632774 0.0681175 0.0724346 0.0755359 0.0770668 0.0770305 0.0758178 0.0739729 0.072212 0.0713019 0.0719086 0.0743351 0.0784474 0.0835524 0.0886131 0.0924775 0.094528 0.0947468 0.0938694 0.0930527 0.0931928 0.0948758 0.0977801 0.100995 0.103531 0.104629 0.104188 0.102571 0.100332 0.0979201 0.0952478 0.0920598 0.0880582 0.0830205 0.0771375 0.0707505 0.0642139 0.0577658 0.0514604 0.0452512 0.0391081 0.0330673 0.0272529 0.0217842 0.0165343 0.0109824 0.00410279 -0.00537493 -0.0183911 -0.0349246 -0.0541492 -0.0748927 -0.0964241 -0.118774 -0.142238 -0.167063 -0.192953 -0.219604 -0.246676 -0.273882 -0.300806 -0.326838 -0.351467 -0.374317 -0.395422 -0.414879 -0.432775 -0.448954 -0.463144 -0.474808 -0.48366 -0.489554 -0.492965 -0.494613 -0.495374 -0.495777 -0.49618 -0.496574 -0.496979 -0.497336 -0.497648 -0.497913 -0.498161 -0.498414 -0.498632 -0.498675 -0.498407 -0.49773 -0.496664 -0.495421 -0.49432 -0.493598 -0.493393 -0.49358 -0.493954 -0.493927 -0.492807 -0.489675 -0.483867 -0.474969 -0.463203 -0.448915 -0.432657 -0.414716 -0.395234 -0.374104 -0.351231 -0.326564 -0.300469 -0.273465 -0.246156 -0.218976 -0.192206 -0.1662 -0.141294 -0.117785 -0.0954271 -0.07395 -0.0532995 -0.0341844 -0.0177881 -0.00491046 0.0044236 0.0111712 0.0165824 0.0216875 0.0270115 0.032664 0.0385571 0.0445349 0.0506025 0.0567987 0.0631553 0.069702 0.0761742 0.0822548 0.0875969 0.0918967 0.0952712 0.0978285 0.0996853 0.100937 0.101364 0.100796 0.0993155 0.0972969 0.0954189 0.0942326 0.0940491 0.0946596 0.0953867 0.0955249 0.0943591 0.0915653 0.0872902 0.0821571 0.0771764 0.0732645 0.0709781 0.070504 0.0715472 0.073439 0.0753793 0.0766531 0.0767085 0.0751703 0.0720624 0.0677438 0.0629088 0.058329 0.0545267 0.0514707 0.0486738 0.0454403 0.0412776 0.0348148 0.0271826 0.0198721 0.0135648 0.00852324 0.00495352 0.00195124 0 0 
0 0 0.00113257 0.00302218 0.00535286 0.00923427 0.014504 0.0206888 0.0273726 0.0338629 0.0387167 0.0420468 0.0439809 0.0449984 0.0458481 0.0472271 0.0494384 0.0522195 0.054893 0.0567328 0.0572781 0.0564155 0.0544268 0.0518797 0.0493974 0.0477489 0.0476032 0.0494772 0.0534482 0.0590088 0.065223 0.0709244 0.0751305 0.0775153 0.0784824 0.0789048 0.0797888 0.0818227 0.0850722 0.0889174 0.0924499 0.0949079 0.0959402 0.0957341 0.0947432 0.0934662 0.0919348 0.0898987 0.0870319 0.0831342 0.0782052 0.0725177 0.0664099 0.0601425 0.0538718 0.0476548 0.0415125 0.0355664 0.0300393 0.0252418 0.0211585 0.0174754 0.0131699 0.00702454 -0.00188959 -0.0136478 -0.0273582 -0.0420237 -0.0569442 -0.0722473 -0.0883426 -0.105672 -0.124308 -0.14409 -0.164888 -0.186431 -0.208558 -0.230973 -0.253493 -0.275784 -0.297571 -0.318442 -0.338065 -0.356012 -0.372038 -0.385872 -0.397496 -0.407291 -0.415926 -0.424134 -0.432257 -0.440116 -0.447154 -0.452939 -0.45729 -0.460502 -0.462923 -0.464897 -0.466505 -0.467694 -0.468291 -0.468131 -0.46708 -0.465131 -0.462362 -0.458917 -0.454793 -0.449927 -0.444157 -0.437619 -0.430542 -0.423226 -0.415647 -0.407386 -0.397731 -0.38609 -0.372161 -0.356017 -0.337974 -0.318292 -0.297374 -0.275543 -0.253217 -0.23064 -0.20814 -0.185921 -0.164276 -0.143358 -0.123469 -0.104746 -0.0873443 -0.0712233 -0.0559542 -0.0411164 -0.0265583 -0.0129914 -0.00140149 0.00735159 0.0133313 0.0174842 0.0210194 0.0249634 0.0296198 0.0349935 0.0408026 0.0467956 0.0528833 0.0590314 0.065244 0.0713644 0.0771626 0.0823092 0.0865257 0.0897206 0.0919483 0.0933533 0.0940648 0.094022 0.092992 0.0909287 0.0881467 0.0852273 0.0828779 0.0814873 0.0810223 0.0808838 0.0802379 0.0783789 0.0748976 0.0698377 0.0637296 0.0574879 0.052163 0.0485071 0.0468785 0.0472157 0.0490324 0.0516471 0.0542577 0.0562712 0.0571111 0.0565329 0.0546584 0.0519556 0.0491648 0.0469554 0.0455841 0.0447468 0.0437486 0.0418246 0.0385061 0.0336677 0.0272273 0.0206553 0.0146603 0.00964061 0.00593934 0.0024378 0 0 
0 0 0.00147769 0.00371061 0.00613556 0.0100098 0.0150982 0.0207938 0.0265838 0.0318572 0.0355261 0.03786 0.0385932 0.0379948 0.0367984 0.0358578 0.0357109 0.0364025 0.0374454 0.0381098 0.0378549 0.0364616 0.0340905 0.0311991 0.0283759 0.0263059 0.0256784 0.027027 0.0306494 0.0363066 0.043193 0.0501856 0.0561349 0.0604114 0.0630326 0.0646872 0.0662976 0.0686781 0.0721789 0.0765286 0.0809959 0.0847841 0.0874101 0.0888714 0.0893983 0.0894267 0.0890648 0.0881571 0.0864291 0.0835422 0.0795746 0.0746238 0.0690047 0.0629834 0.0567248 0.0503732 0.0440152 0.0378648 0.0321254 0.0272888 0.0234205 0.0202633 0.0170223 0.0124597 0.00582895 -0.00298708 -0.0131222 -0.0236397 -0.0339465 -0.0440396 -0.0544143 -0.0655709 -0.0777571 -0.0910201 -0.105256 -0.120335 -0.136229 -0.153006 -0.17075 -0.189346 -0.208252 -0.226662 -0.243787 -0.25904 -0.272158 -0.283271 -0.292816 -0.301742 -0.311049 -0.321465 -0.332865 -0.344391 -0.35471 -0.362859 -0.36857 -0.372316 -0.374892 -0.376941 -0.378706 -0.380098 -0.380857 -0.380701 -0.379591 -0.377591 -0.374776 -0.37111 -0.366298 -0.359864 -0.351533 -0.34159 -0.330818 -0.320283 -0.310605 -0.301775 -0.293065 -0.283546 -0.272344 -0.259101 -0.243736 -0.226527 -0.208046 -0.189076 -0.17042 -0.152594 -0.135716 -0.119727 -0.104536 -0.0901909 -0.0768406 -0.0645768 -0.0533884 -0.0430282 -0.0329885 -0.0227906 -0.0124107 -0.00243789 0.00617701 0.012622 0.0170104 0.0200874 0.0230964 0.0268269 0.0315286 0.0371212 0.0431437 0.0493836 0.0556159 0.0617769 0.0677533 0.0733874 0.078468 0.082677 0.0858941 0.0879895 0.089115 0.089339 0.0887144 0.0871182 0.0843807 0.0807118 0.0766169 0.0728649 0.0701442 0.068619 0.0678759 0.0669735 0.0649809 0.0612851 0.0557661 0.048878 0.0414955 0.0346872 0.0293845 0.0262097 0.0251876 0.0260678 0.0282948 0.031235 0.0341586 0.0365156 0.0378606 0.0380556 0.0373323 0.0362618 0.0355374 0.0356747 0.0366195 0.0378152 0.0384262 0.0377025 0.0353742 0.0317187 0.0264877 0.020805 0.0152989 0.0104675 0.00676461 0.00286186 0 0 
0 0 0.00179037 0.00430539 0.00673277 0.010463 0.0152086 0.0202619 0.0250282 0.028921 0.0317795 0.0331878 0.0328105 0.030769 0.0277115 0.0245654 0.0221276 0.0207593 0.0202347 0.0198944 0.019159 0.0176333 0.0153278 0.0125475 0.00978098 0.0075605 0.00656999 0.00734082 0.0103367 0.0155577 0.0224912 0.0301198 0.0372954 0.0431566 0.0473934 0.0503756 0.0528928 0.0557784 0.059601 0.0643749 0.0696448 0.0747066 0.0789315 0.0820855 0.0842289 0.0856298 0.086435 0.0865635 0.085795 0.0838967 0.0808057 0.0766401 0.0715909 0.0659136 0.0597674 0.0533629 0.0467848 0.0403258 0.0342976 0.0291064 0.024982 0.0216377 0.0184469 0.0143206 0.00862748 0.00142362 -0.00660537 -0.0146058 -0.0220241 -0.0288872 -0.0355224 -0.0423895 -0.0498762 -0.0580543 -0.0669459 -0.0764257 -0.0866646 -0.0979211 -0.110645 -0.124764 -0.139627 -0.154102 -0.166958 -0.177406 -0.185242 -0.191008 -0.195736 -0.200988 -0.208091 -0.217845 -0.229684 -0.242159 -0.253278 -0.261666 -0.266869 -0.269576 -0.270869 -0.271777 -0.272721 -0.27369 -0.274334 -0.274436 -0.27389 -0.272829 -0.271215 -0.268801 -0.264893 -0.258756 -0.249966 -0.23906 -0.227272 -0.216333 -0.207424 -0.200921 -0.195979 -0.19133 -0.185496 -0.177534 -0.166951 -0.153988 -0.13942 -0.124461 -0.110249 -0.0974246 -0.0860558 -0.0757045 -0.0661158 -0.0571299 -0.0488868 -0.0413704 -0.0344971 -0.0279021 -0.0211353 -0.0138478 -0.00600773 0.0018389 0.00883126 0.0143199 0.0182548 0.0212824 0.0244696 0.0284621 0.0335195 0.0394245 0.0457742 0.052253 0.0585483 0.0646145 0.0702712 0.0753619 0.0796759 0.0830254 0.0852863 0.0864314 0.0865342 0.0855979 0.0835815 0.0803243 0.0758492 0.0705657 0.0652233 0.0607544 0.0577227 0.0559914 0.054785 0.0529267 0.0494612 0.0439821 0.0367485 0.0285966 0.0206134 0.0138831 0.00914768 0.0067151 0.006336 0.00760554 0.00998204 0.012825 0.0156003 0.0178613 0.019304 0.0199764 0.0202366 0.0207182 0.0220581 0.0244788 0.0276188 0.0306756 0.0327213 0.0331014 0.0316997 0.0288514 0.0249915 0.0203216 0.0154526 0.0109644 0.00739138 0.00320376 0 0 
0 0 0.00205688 0.00477955 0.007116 0.0105746 0.014842 0.0191499 0.022887 0.0256873 0.0276073 0.0280882 0.0266938 0.0233742 0.018638 0.0134614 0.00883659 0.00544054 0.0034246 0.00227917 0.00137622 0.000166199 -0.001642 -0.00391588 -0.00632902 -0.00848225 -0.00980026 -0.00971146 -0.00762547 -0.00325265 0.00312325 0.0108045 0.018742 0.0259043 0.0317263 0.036199 0.0398944 0.0435561 0.0478354 0.0530221 0.0588566 0.0648889 0.070486 0.0752103 0.0789664 0.0817768 0.0837375 0.0848144 0.0848765 0.0838248 0.0815639 0.0781888 0.0738303 0.0686394 0.0627946 0.0564407 0.0497831 0.0431362 0.0368214 0.0312519 0.0266727 0.0228071 0.0190925 0.0147089 0.00920575 0.00270303 -0.00416167 -0.0107193 -0.0165946 -0.0216965 -0.0263249 -0.0307317 -0.0352851 -0.0401171 -0.0452788 -0.0507251 -0.0567229 -0.0638284 -0.0725306 -0.0829037 -0.0940921 -0.104753 -0.113251 -0.118649 -0.120772 -0.120566 -0.119699 -0.120309 -0.124128 -0.13185 -0.142667 -0.154583 -0.165198 -0.172697 -0.176544 -0.177477 -0.176847 -0.175967 -0.175535 -0.175666 -0.176099 -0.176536 -0.176956 -0.177396 -0.177659 -0.177173 -0.174935 -0.169956 -0.161817 -0.151211 -0.139868 -0.129955 -0.123175 -0.120086 -0.119902 -0.120923 -0.121098 -0.118847 -0.113296 -0.104665 -0.0938792 -0.0825602 -0.0720698 -0.0632419 -0.056004 -0.0498941 -0.0443474 -0.0391123 -0.0342513 -0.0296976 -0.0253277 -0.020786 -0.0157916 -0.0100764 -0.00370231 0.00296862 0.00924222 0.0145396 0.0187261 0.0222645 0.0259768 0.0304362 0.0358873 0.0420838 0.0486478 0.0552119 0.0614966 0.0672968 0.0724605 0.0768889 0.0804251 0.0829547 0.0844139 0.0847373 0.0839049 0.0818208 0.0783888 0.0734864 0.0673921 0.0607149 0.0544226 0.049452 0.0461088 0.0440115 0.0420515 0.0389563 0.033861 0.0266448 0.017994 0.00906418 0.0010982 -0.00496135 -0.00869706 -0.0101251 -0.00975793 -0.00817776 -0.00588154 -0.00343551 -0.00118934 0.000535754 0.00165592 0.00247794 0.00354836 0.00551623 0.00886866 0.0134759 0.0186409 0.0233679 0.0266924 0.0280865 0.0276071 0.0256945 0.0229172 0.0192626 0.0151277 0.0111112 0.00779144 0.0034476 0 0 
0 0 0.00226586 0.00511338 0.00727233 0.0103529 0.0140456 0.0175444 0.0201696 0.0221103 0.0231195 0.0227152 0.0204148 0.0160189 0.00986556 0.00287901 -0.00374658 -0.00902002 -0.0124823 -0.0143483 -0.0152527 -0.0159172 -0.0168871 -0.0183882 -0.0202722 -0.0222704 -0.0238449 -0.0244366 -0.0234049 -0.0201827 -0.0147195 -0.0074373 0.000813933 0.00900604 0.0163309 0.0224612 0.0275635 0.0322328 0.0370929 0.0426216 0.0488332 0.0554389 0.0620191 0.0680418 0.0732237 0.0774468 0.0805949 0.0826339 0.0834964 0.0831706 0.0816619 0.0790803 0.075466 0.0709276 0.0655408 0.0594768 0.0529179 0.046255 0.0398389 0.033981 0.0289463 0.0243955 0.0198718 0.0148072 0.00898014 0.00272038 -0.00353632 -0.00925968 -0.0143386 -0.0186795 -0.0224145 -0.0256923 -0.0287359 -0.0316759 -0.0345758 -0.0375699 -0.0409653 -0.0454906 -0.0516561 -0.0594913 -0.0680956 -0.0757977 -0.0807971 -0.0818924 -0.079082 -0.0735866 -0.0677478 -0.0641108 -0.0647298 -0.0702067 -0.079537 -0.0903267 -0.0999516 -0.106297 -0.108763 -0.107944 -0.105419 -0.102643 -0.100682 -0.0997869 -0.0998808 -0.100751 -0.102309 -0.104408 -0.106683 -0.108138 -0.107588 -0.103815 -0.0965834 -0.086725 -0.0763489 -0.0678845 -0.0634185 -0.0636645 -0.067868 -0.0739601 -0.0794737 -0.0821664 -0.0808981 -0.0757311 -0.0678753 -0.0591139 -0.0511216 -0.0448116 -0.0401577 -0.0366367 -0.0335508 -0.0306211 -0.0276769 -0.0246716 -0.0214759 -0.017858 -0.0136609 -0.00875267 -0.00321832 0.00281803 0.00884511 0.0144594 0.0193225 0.0236815 0.0280938 0.0330039 0.0387503 0.0450766 0.0516798 0.0581647 0.06418 0.0695374 0.0740847 0.0777755 0.0805462 0.0823367 0.0830806 0.082635 0.0808616 0.0776069 0.0727428 0.0663891 0.0589761 0.05128 0.0444071 0.0391016 0.0355009 0.0329004 0.0299375 0.0253725 0.0185012 0.00964504 -0.000112605 -0.00936253 -0.0168266 -0.0218473 -0.0243274 -0.0246168 -0.0235524 -0.0217092 -0.019618 -0.0177342 -0.016304 -0.01542 -0.0148644 -0.0140367 -0.0122537 -0.00883597 -0.00360104 0.00299824 0.00997212 0.0161156 0.0205069 0.0228063 0.023208 0.0221993 0.0202781 0.0177128 0.0143692 0.0109145 0.0079523 0.00358385 0 0 
0 0 0.00240988 0.00529674 0.0072038 0.00982313 0.0128841 0.0155977 0.0172984 0.0183459 0.0184828 0.017278 0.0142278 0.0090306 0.00184662 -0.00654399 -0.0148757 -0.0218833 -0.0267596 -0.029402 -0.0303742 -0.0305425 -0.0306721 -0.0313284 -0.0325708 -0.0342812 -0.0360596 -0.0372185 -0.0371263 -0.0350629 -0.0306608 -0.024087 -0.0158813 -0.00703015 0.00156269 0.00927489 0.015926 0.021793 0.0273727 0.0331827 0.0395231 0.0463603 0.0534748 0.0604348 0.0668506 0.0723819 0.0767706 0.0798403 0.0815161 0.0818981 0.081067 0.0792177 0.0764015 0.0726201 0.0678981 0.0622843 0.0560784 0.0495763 0.0432147 0.0372678 0.0318061 0.0265828 0.0211068 0.0151822 0.00878377 0.00241825 -0.00352062 -0.00880094 -0.0134238 -0.0174702 -0.0209391 -0.0238883 -0.0263259 -0.0283868 -0.0301345 -0.0318786 -0.0340563 -0.0373851 -0.042368 -0.0488664 -0.0558386 -0.0615144 -0.0639349 -0.0618518 -0.0553329 -0.0459771 -0.0364286 -0.0296937 -0.0278578 -0.0314995 -0.0393416 -0.048965 -0.0575314 -0.0629622 -0.0643983 -0.0624197 -0.0584411 -0.0541522 -0.0507556 -0.048867 -0.0486207 -0.0498961 -0.0525399 -0.0562038 -0.0601302 -0.0631274 -0.0637196 -0.0608339 -0.0542754 -0.0452034 -0.0357805 -0.0287111 -0.026117 -0.0289493 -0.036404 -0.0463293 -0.055781 -0.0622 -0.064093 -0.0614763 -0.0556076 -0.0484437 -0.041768 -0.0366213 -0.0331569 -0.0308682 -0.0290539 -0.0272954 -0.0252735 -0.0229163 -0.0200807 -0.0167612 -0.0128808 -0.00844875 -0.00337713 0.00235045 0.00848633 0.0146739 0.0203963 0.0257019 0.0307873 0.0361387 0.0420049 0.048289 0.0547557 0.0609116 0.0664954 0.071227 0.0750279 0.0779451 0.0799915 0.0811332 0.08118 0.07993 0.0771487 0.0726691 0.0664905 0.0589013 0.0505043 0.0422359 0.0351376 0.0297318 0.0258911 0.0226058 0.0184639 0.0122986 0.00373674 -0.00647216 -0.0169593 -0.0261184 -0.032802 -0.0366368 -0.037858 -0.0371631 -0.0355129 -0.033513 -0.0317337 -0.0305292 -0.0299679 -0.0299375 -0.0298793 -0.0289777 -0.0264135 -0.021584 -0.0146198 -0.00631259 0.00206213 0.00923424 0.0144254 0.0174659 0.0186626 0.0185194 0.0174799 0.015819 0.0132388 0.0103975 0.00787674 0.00361044 0 0 
0 0 0.00248596 0.00532829 0.00692283 0.00901237 0.011387 0.0133145 0.0142355 0.0144788 0.0138264 0.0119452 0.0083728 0.00273272 -0.00498952 -0.0142323 -0.0237738 -0.0322158 -0.0385055 -0.0421633 -0.0435409 -0.0435287 -0.0430802 -0.0430102 -0.0436232 -0.0449419 -0.0466566 -0.0481518 -0.048722 -0.0476314 -0.0442904 -0.0386157 -0.030885 -0.0218206 -0.0123799 -0.00330909 0.00482695 0.0119685 0.0183979 0.024561 0.0309015 0.0376407 0.044873 0.0523534 0.05972 0.0664663 0.0720911 0.0762768 0.0788432 0.0799489 0.0798162 0.0786287 0.0765965 0.0736221 0.0697116 0.0648231 0.0591568 0.0530941 0.0469563 0.0410073 0.0351956 0.0292586 0.022849 0.0159352 0.00886178 0.00222293 -0.00361035 -0.00860025 -0.0129387 -0.0168473 -0.0203211 -0.023249 -0.0255751 -0.0273117 -0.0286422 -0.0299859 -0.0319285 -0.0351246 -0.039881 -0.0458714 -0.0518985 -0.0561458 -0.0567005 -0.0523874 -0.0434402 -0.0316658 -0.0199742 -0.0114105 -0.00804008 -0.0102879 -0.0168375 -0.0252958 -0.0329729 -0.0377779 -0.0388236 -0.0363724 -0.031713 -0.0264146 -0.02194 -0.019165 -0.0185905 -0.0202256 -0.0238256 -0.028689 -0.0337814 -0.0375879 -0.0386883 -0.0360977 -0.0299413 -0.0214677 -0.0129493 -0.00701546 -0.00580117 -0.010279 -0.0197264 -0.0319495 -0.0439185 -0.0528051 -0.0569228 -0.0561346 -0.0516508 -0.0454056 -0.0392172 -0.0342908 -0.030967 -0.0289225 -0.0275305 -0.0262302 -0.0245645 -0.022348 -0.0195675 -0.0162709 -0.0125519 -0.00840737 -0.00362746 0.0019846 0.00839353 0.0152574 0.0219806 0.0282388 0.0340466 0.0397525 0.0456269 0.0517143 0.0577643 0.0634068 0.068304 0.0722305 0.0752555 0.0774024 0.0787985 0.0792656 0.0786032 0.0764835 0.0726066 0.066915 0.0595356 0.0509803 0.0420286 0.0336163 0.0265622 0.0211673 0.0169916 0.0128893 0.00748065 -0.000217181 -0.0101971 -0.0213376 -0.0320448 -0.0407024 -0.0463983 -0.0490796 -0.0492559 -0.0478639 -0.0458971 -0.0439729 -0.0426476 -0.0420979 -0.0422804 -0.042835 -0.0429475 -0.0416512 -0.0380482 -0.0318055 -0.0233976 -0.0138855 -0.00466206 0.00304943 0.00867716 0.0122379 0.0141008 0.014734 0.0144864 0.0135881 0.0117654 0.00958532 0.00757396 0.00353078 0 0 
0 0 0.00249565 0.00521602 0.00645285 0.0079565 0.00957604 0.0106139 0.010966 0.0105386 0.00921583 0.00680736 0.00295118 -0.00274007 -0.0104306 -0.01984 -0.0299935 -0.0394905 -0.0470694 -0.051988 -0.0542548 -0.0545841 -0.0539744 -0.0534076 -0.0534574 -0.0542381 -0.0556431 -0.0571374 -0.0580318 -0.0576499 -0.0552924 -0.0506627 -0.0437876 -0.0350752 -0.0253482 -0.0153848 -0.00596422 0.00245772 0.00985049 0.0164828 0.0228292 0.0293447 0.0363975 0.0440256 0.051964 0.0597159 0.0665284 0.0718811 0.0754584 0.0773467 0.0779136 0.077425 0.0761329 0.0740071 0.0709688 0.0669887 0.0621063 0.0566763 0.0509468 0.0450825 0.0389781 0.0323292 0.0249377 0.0170366 0.00921335 0.00219973 -0.00368994 -0.00849672 -0.0126236 -0.0163876 -0.0198319 -0.0228233 -0.0251722 -0.026903 -0.0282451 -0.0297488 -0.0320883 -0.0357672 -0.0408579 -0.0467309 -0.0520797 -0.0550935 -0.0541419 -0.0482852 -0.0380039 -0.0251961 -0.0127721 -0.00354707 0.000554898 -0.000655014 -0.00597894 -0.0132107 -0.0200024 -0.0244529 -0.0255604 -0.0233582 -0.018743 -0.013138 -0.00803209 -0.00466886 -0.00384256 -0.00573136 -0.00996258 -0.0155682 -0.0211306 -0.0250584 -0.0260007 -0.0233073 -0.0173168 -0.00943548 -0.00183829 0.00309374 0.00334882 -0.0019315 -0.0122048 -0.0253384 -0.0384743 -0.0487585 -0.0544235 -0.0551162 -0.0518273 -0.0462229 -0.0401445 -0.0348796 -0.0310756 -0.0286726 -0.0271522 -0.0258652 -0.0242377 -0.0220239 -0.0192096 -0.0159579 -0.0123945 -0.00847428 -0.00388249 0.00179335 0.00860281 0.0162249 0.0239355 0.0311853 0.037711 0.0437217 0.0495351 0.0552282 0.0606581 0.0655486 0.0695494 0.0726456 0.0748436 0.0762724 0.076984 0.0767547 0.075322 0.0722281 0.0672005 0.0603391 0.0519685 0.0428476 0.0337327 0.0254391 0.0185756 0.0131185 0.00847404 0.00341403 -0.00327012 -0.0122678 -0.0231676 -0.0346267 -0.0449762 -0.0527398 -0.0573211 -0.0589397 -0.0583641 -0.0566519 -0.0546965 -0.0531351 -0.0523564 -0.05241 -0.0530886 -0.0538077 -0.0535656 -0.0513665 -0.046508 -0.0389729 -0.0295124 -0.0193798 -0.00999065 -0.00231495 0.00336414 0.00720055 0.00958341 0.0108778 0.0112858 0.0109436 0.00997327 0.00851429 0.00706436 0.00335439 0 0 
0 0 0.00244418 0.00497605 0.00582645 0.00671212 0.00757349 0.00787474 0.00759224 0.00654462 0.00464623 0.00183736 -0.00208518 -0.00748652 -0.0146489 -0.0235551 -0.0336232 -0.0436807 -0.0523776 -0.0586764 -0.0622081 -0.06338 -0.0630816 -0.0622929 -0.0618331 -0.0620133 -0.0628436 -0.0640271 -0.0649449 -0.0650067 -0.0635524 -0.0600761 -0.0544385 -0.0466529 -0.0372544 -0.0269469 -0.0165913 -0.00696258 0.00150805 0.00879287 0.0152667 0.0215328 0.0282036 0.035661 0.0438507 0.0522903 0.0601698 0.0666742 0.0713646 0.0741585 0.0754666 0.0756702 0.0751156 0.0738396 0.0717173 0.0687045 0.0648001 0.0601661 0.0550168 0.0493418 0.0429709 0.0356464 0.0273102 0.0184453 0.00986809 0.00236515 -0.00368486 -0.00847411 -0.0123922 -0.0159608 -0.0192443 -0.0221797 -0.024595 -0.0264386 -0.0281072 -0.0301319 -0.0332483 -0.0377161 -0.0433171 -0.0491251 -0.053711 -0.0554396 -0.0530645 -0.0460747 -0.0352802 -0.022589 -0.0105976 -0.00173035 0.00258658 0.00221725 -0.0017298 -0.00755993 -0.0133113 -0.0174633 -0.0189446 -0.0175337 -0.0136137 -0.00838926 -0.00322938 0.000337115 0.00133946 -0.000695756 -0.00514902 -0.0109004 -0.0162473 -0.0196752 -0.0199697 -0.0169233 -0.0110931 -0.00397772 0.0025549 0.00640227 0.00597091 0.000459619 -0.00960012 -0.0224938 -0.0356795 -0.0465801 -0.0534081 -0.0555028 -0.0534617 -0.0485868 -0.0425642 -0.0368022 -0.0322285 -0.0290708 -0.0270641 -0.0254865 -0.0237699 -0.0215172 -0.0187751 -0.0156925 -0.0123341 -0.00861715 -0.00403392 0.00181148 0.00911618 0.0175029 0.026203 0.0344092 0.0416239 0.0479089 0.05354 0.058684 0.0633213 0.0672509 0.0703171 0.0725049 0.0738733 0.0745913 0.074627 0.0736676 0.0713456 0.067148 0.0610028 0.0531122 0.0440867 0.0347145 0.0257488 0.0177859 0.011097 0.00545691 0.000100999 -0.00604414 -0.0139289 -0.023845 -0.0350811 -0.0462028 -0.0556148 -0.062107 -0.0654753 -0.0661535 -0.0651078 -0.0633639 -0.0617543 -0.0607797 -0.0606492 -0.0612144 -0.0621273 -0.0625259 -0.0614366 -0.0579674 -0.0517145 -0.0430579 -0.0330356 -0.0229923 -0.0141039 -0.00695341 -0.00156787 0.00233009 0.00510261 0.00695973 0.00797529 0.00825014 0.00798492 0.00724559 0.0063868 0.00309756 0 0 
0 0 0.00233842 0.00462662 0.00507505 0.00531628 0.00536106 0.00502986 0.00412402 0.00249485 0.00010197 -0.00301874 -0.00689486 -0.011784 -0.0180778 -0.026008 -0.0353826 -0.0453929 -0.0548134 -0.0624212 -0.0674222 -0.0697645 -0.0701058 -0.069367 -0.0684764 -0.0680294 -0.0681669 -0.0688067 -0.0695442 -0.0698471 -0.069188 -0.0669548 -0.0627579 -0.0563829 -0.0479208 -0.0378576 -0.0270454 -0.0164275 -0.00684509 0.0013293 0.00818993 0.0143352 0.0205806 0.0276206 0.0357084 0.044501 0.0531648 0.0607484 0.0665673 0.0704297 0.0725809 0.0735163 0.0736476 0.0731443 0.0719469 0.0699587 0.0670908 0.0634241 0.0589552 0.0535471 0.0469719 0.0389957 0.0298299 0.0200599 0.0107708 0.00274694 -0.00361067 -0.00844772 -0.0122924 -0.0155581 -0.0185848 -0.0212818 -0.0236525 -0.0257158 -0.0279128 -0.0307674 -0.0348583 -0.0402322 -0.046267 -0.0517894 -0.0552961 -0.0555188 -0.0516715 -0.0438845 -0.0332185 -0.0215267 -0.0108774 -0.00303508 0.00111675 0.00159204 -0.000771182 -0.00488257 -0.00936084 -0.0130933 -0.0150434 -0.0147071 -0.0120692 -0.00782876 -0.00327992 6.92894e-05 0.000996095 -0.000906663 -0.00513701 -0.0103497 -0.0148676 -0.0172238 -0.0166364 -0.013209 -0.00772606 -0.00164443 0.00351984 0.0061321 0.00509212 -0.000187131 -0.00932626 -0.0210745 -0.0334579 -0.0443766 -0.0520657 -0.0556341 -0.0550754 -0.0512518 -0.0455003 -0.0393088 -0.0338553 -0.029766 -0.0269623 -0.0248857 -0.022975 -0.0207727 -0.0182874 -0.0154678 -0.012408 -0.00876505 -0.00411342 0.00205021 0.00990649 0.0190321 0.0286399 0.0376937 0.0455705 0.0520767 0.0574494 0.0619191 0.0656095 0.0685187 0.0705678 0.0718611 0.072463 0.0725074 0.0718222 0.0700397 0.066661 0.061355 0.0541567 0.0455229 0.0361773 0.0269434 0.0183707 0.0107875 0.00412583 -0.00201785 -0.00832499 -0.015625 -0.0244771 -0.0348206 -0.0457607 -0.0559101 -0.0638726 -0.0688918 -0.0709941 -0.0708521 -0.069567 -0.068023 -0.0669703 -0.0667179 -0.0672225 -0.0682376 -0.0690924 -0.0688455 -0.0665717 -0.0616307 -0.0540687 -0.0446863 -0.0347047 -0.0253473 -0.0174309 -0.0111537 -0.00628039 -0.00243436 0.000641236 0.00298304 0.00456459 0.00544506 0.00579428 0.00582105 0.0055753 0.00277741 0 0 
0 0 0.00218549 0.00418618 0.00423368 0.00384411 0.00314483 0.00212536 0.000593853 -0.00158117 -0.00439965 -0.00776516 -0.011586 -0.0159666 -0.021284 -0.0279719 -0.0362336 -0.0456791 -0.055267 -0.0637909 -0.0701424 -0.0737648 -0.0749814 -0.0745345 -0.0733566 -0.0723072 -0.0717811 -0.0717806 -0.0721894 -0.0725784 -0.0725055 -0.0714664 -0.0688433 -0.0641342 -0.0570891 -0.047833 -0.0370441 -0.0257753 -0.015158 -0.00598403 0.00150474 0.0077724 0.0136962 0.0202479 0.0279751 0.0367482 0.0458522 0.0542492 0.0611137 0.0660801 0.0692252 0.0709929 0.0718408 0.0720622 0.0716973 0.0706721 0.0688747 0.066184 0.0624915 0.0573975 0.0506933 0.0421949 0.0323166 0.0218784 0.0119465 0.00344779 -0.0033391 -0.00836521 -0.0121938 -0.0152393 -0.0178825 -0.0202931 -0.0225425 -0.0248853 -0.0277531 -0.0316229 -0.0367964 -0.0429659 -0.0491799 -0.0540638 -0.0561563 -0.0546124 -0.0492847 -0.0409286 -0.0309202 -0.0208798 -0.0122075 -0.00583744 -0.00204187 -0.000660437 -0.00127831 -0.00334237 -0.00626051 -0.00928466 -0.0116038 -0.0124423 -0.0114213 -0.00878484 -0.00550242 -0.00288839 -0.00217159 -0.0037868 -0.00725219 -0.0112451 -0.0142994 -0.0152545 -0.0137208 -0.0100775 -0.00530547 -0.000602392 0.00285268 0.00411086 0.00248874 -0.00227714 -0.00998015 -0.0199241 -0.030881 -0.0413378 -0.0497109 -0.054795 -0.0559959 -0.0535624 -0.0484316 -0.0420737 -0.03585 -0.0307107 -0.0269287 -0.024202 -0.0220369 -0.0199802 -0.0177732 -0.0153286 -0.0124816 -0.00884567 -0.0039905 0.00263474 0.0109836 0.0207707 0.0310836 0.040863 0.0492777 0.0559197 0.0609898 0.0646964 0.0674111 0.0692632 0.070355 0.0708296 0.0707357 0.0700601 0.0685523 0.0657774 0.0613045 0.0549645 0.0469847 0.0379501 0.028689 0.0198405 0.0117623 0.00443022 -0.00246285 -0.00936158 -0.0167813 -0.025165 -0.0346527 -0.044889 -0.0549471 -0.0635912 -0.0698568 -0.0732847 -0.0741908 -0.0734684 -0.0721048 -0.0709076 -0.0705099 -0.0709286 -0.0720481 -0.0733499 -0.0739138 -0.0727862 -0.0692281 -0.0629279 -0.0544441 -0.0448871 -0.0354711 -0.0272293 -0.0205509 -0.0152447 -0.0108857 -0.00709805 -0.00378243 -0.00102598 0.00108759 0.00257514 0.0035849 0.00431433 0.00467592 0.00241147 0 0 
0 0 0.00199346 0.0036723 0.00333839 0.00234051 0.000942404 -0.000762961 -0.0029011 -0.0055764 -0.00877281 -0.0123607 -0.0161741 -0.0201891 -0.0246898 -0.0301712 -0.0370788 -0.0454769 -0.0546873 -0.0635406 -0.0708638 -0.0756888 -0.0778433 -0.0779211 -0.0767233 -0.075193 -0.074036 -0.0734493 -0.0734019 -0.0737256 -0.0740476 -0.0739428 -0.0728009 -0.0698527 -0.0644918 -0.0565088 -0.046293 -0.0348048 -0.0234023 -0.0131973 -0.00482982 0.00184454 0.00768289 0.0137728 0.0209428 0.0293765 0.0385331 0.0474429 0.05515 0.061135 0.0653147 0.0680067 0.0696485 0.0705712 0.0709809 0.0708495 0.07007 0.068342 0.0653913 0.0606792 0.0539029 0.0450706 0.0346859 0.0237572 0.0133582 0.00443206 -0.00271489 -0.00805909 -0.0119377 -0.0148419 -0.0171374 -0.0192451 -0.0214503 -0.0241866 -0.0278888 -0.0328936 -0.0390816 -0.0458061 -0.0517642 -0.0555505 -0.0559228 -0.0524986 -0.0457941 -0.0371873 -0.0282367 -0.0202281 -0.0138774 -0.00918624 -0.0058869 -0.00362588 -0.00239196 -0.00227115 -0.00333833 -0.00536216 -0.0077436 -0.00965789 -0.0104212 -0.00983586 -0.00840885 -0.00707632 -0.00678357 -0.00788211 -0.010015 -0.0121745 -0.013292 -0.01267 -0.0103131 -0.00681984 -0.00313486 -0.000175959 0.00139272 0.00121256 -0.000890074 -0.00489524 -0.0108646 -0.0186165 -0.0277652 -0.0374061 -0.0462163 -0.0527584 -0.0558586 -0.055144 -0.0510898 -0.0449792 -0.0382222 -0.032099 -0.0272191 -0.0236887 -0.0211373 -0.0191253 -0.0172339 -0.0151312 -0.0124016 -0.0086957 -0.00349696 0.00350613 0.0123199 0.0226111 0.0334285 0.0437382 0.0525012 0.0592343 0.063931 0.06689 0.0686538 0.0694989 0.0696977 0.0693887 0.0686044 0.0671557 0.0647255 0.060928 0.0554339 0.0482698 0.0397993 0.0307638 0.0218957 0.0136578 0.00605181 -0.00123904 -0.00867895 -0.0166095 -0.0252146 -0.0344455 -0.0441277 -0.053701 -0.0623566 -0.0692324 -0.0736825 -0.0756229 -0.0756185 -0.0745281 -0.0732552 -0.0725309 -0.0727247 -0.0737726 -0.0753817 -0.0766907 -0.0767302 -0.0746528 -0.0698866 -0.0626114 -0.0537975 -0.0446211 -0.0362446 -0.0293476 -0.0238788 -0.0193903 -0.0153942 -0.0116187 -0.00808703 -0.00495823 -0.00235565 -0.000279787 0.00138864 0.00277765 0.00371736 0.00201622 0 0 
0 0 0.00177418 0.00311001 0.00243436 0.000850575 -0.00115426 -0.00349759 -0.00620398 -0.00933026 -0.0128609 -0.0166733 -0.0205822 -0.0244472 -0.0284015 -0.0329016 -0.0384899 -0.0455246 -0.0537871 -0.0623801 -0.0701175 -0.0758974 -0.0790751 -0.0798605 -0.0789603 -0.0772514 -0.075553 -0.0743545 -0.0737906 -0.0738305 -0.0742657 -0.0748014 -0.0748194 -0.0735139 -0.0699486 -0.0635238 -0.0543429 -0.0431549 -0.03135 -0.0203076 -0.0109796 -0.00357281 0.00250293 0.00833563 0.0149304 0.0227352 0.0315235 0.04049 0.0487336 0.0555844 0.0607914 0.064465 0.0669786 0.0686441 0.0697906 0.0704509 0.0705547 0.0697311 0.0674477 0.0631579 0.0564254 0.0474566 0.0368416 0.02569 0.01506 0.0057965 -0.00168022 -0.00733294 -0.011394 -0.0142469 -0.0163521 -0.0182908 -0.0206225 -0.0239325 -0.028612 -0.0347078 -0.041716 -0.0485639 -0.0537943 -0.0560143 -0.0544122 -0.0491642 -0.0414241 -0.0329468 -0.0253641 -0.0195662 -0.0155469 -0.0125535 -0.00977387 -0.00676718 -0.00378699 -0.00148575 -0.000548985 -0.00128212 -0.00337547 -0.00612611 -0.00868133 -0.0104404 -0.0113569 -0.0116815 -0.0119899 -0.0123843 -0.0127904 -0.012604 -0.0114663 -0.00923856 -0.00630311 -0.00335956 -0.00112926 -0.000157215 -0.00053844 -0.00206181 -0.00445345 -0.00757092 -0.0116651 -0.01714 -0.0242954 -0.0328355 -0.0417589 -0.0495023 -0.0544934 -0.055758 -0.0532573 -0.0478663 -0.0409862 -0.0340576 -0.0281106 -0.0236259 -0.0205254 -0.0183962 -0.0166498 -0.0147251 -0.0120329 -0.00811818 -0.00258254 0.00478953 0.0139603 0.0245163 0.0355931 0.0461521 0.0550698 0.0617685 0.06606 0.0683502 0.0692115 0.0691776 0.0685935 0.0675499 0.0660193 0.0636868 0.0602841 0.0554465 0.0490854 0.0413933 0.0329012 0.0242862 0.0161157 0.00851976 0.00117956 -0.00640257 -0.0147007 -0.0237682 -0.0333767 -0.0431043 -0.052466 -0.0608756 -0.0678189 -0.0727531 -0.0755079 -0.0762957 -0.0757107 -0.0745561 -0.0736118 -0.0734123 -0.0742199 -0.0757933 -0.0775742 -0.0785886 -0.0779166 -0.0748152 -0.069094 -0.0613966 -0.0528374 -0.0445985 -0.0375833 -0.0320145 -0.0275198 -0.0235802 -0.0197404 -0.0158682 -0.0121133 -0.00865486 -0.00560788 -0.00297585 -0.000690165 0.00127321 0.00271624 0.00161513 0 0 
0 0 0.00154323 0.00255854 0.00158286 -0.000469776 -0.00300768 -0.00591203 -0.00912641 -0.0126552 -0.0164902 -0.0205288 -0.0246128 -0.0285486 -0.0322615 -0.0360643 -0.0405076 -0.0460932 -0.0530225 -0.0607968 -0.0684498 -0.0748246 -0.0790091 -0.0807567 -0.0804545 -0.0788681 -0.0768823 -0.075111 -0.073896 -0.0734527 -0.0736762 -0.0744396 -0.0752381 -0.0752006 -0.0733217 -0.0686456 -0.0608644 -0.0504874 -0.0387618 -0.0271854 -0.0169874 -0.00871856 -0.00208432 0.00379654 0.00997957 0.0170659 0.0251487 0.0337033 0.0420228 0.0494135 0.0555153 0.0601951 0.0636901 0.0662316 0.0681756 0.0696072 0.0704421 0.0703156 0.0685873 0.0646424 0.058086 0.0492007 0.0386935 0.0276127 0.0170175 0.00764405 -8.36791e-05 -0.00604704 -0.0103453 -0.0133474 -0.0155184 -0.0176374 -0.020396 -0.0244913 -0.0301926 -0.0372141 -0.0446499 -0.0510612 -0.0549785 -0.0552247 -0.051579 -0.0447699 -0.0364607 -0.0285964 -0.0226272 -0.0189834 -0.0170464 -0.0155214 -0.0132467 -0.00969021 -0.00528052 -0.00105989 0.00182997 0.00259825 0.0011133 -0.00213605 -0.00629371 -0.0104338 -0.0138454 -0.0161156 -0.0170778 -0.0167135 -0.0150919 -0.0123829 -0.00892126 -0.00524724 -0.00206055 -1.59482e-05 0.000474697 -0.000586658 -0.00274606 -0.00533945 -0.00779605 -0.00994954 -0.0122777 -0.0156024 -0.0207613 -0.0279833 -0.036603 -0.0451466 -0.0518347 -0.0551964 -0.054657 -0.0505553 -0.0441036 -0.0367417 -0.0298774 -0.0243871 -0.0205038 -0.0179481 -0.0160327 -0.0140215 -0.0111472 -0.00696971 -0.00109096 0.00656334 0.0158822 0.0264326 0.037469 0.0479443 0.0568051 0.0633384 0.0672869 0.0690371 0.0691957 0.0684206 0.0670662 0.0652281 0.0628204 0.0595116 0.0550892 0.0493547 0.0424408 0.0346816 0.0266192 0.018763 0.011393 0.00428703 -0.00304554 -0.0112332 -0.0205315 -0.0306824 -0.0410219 -0.0507867 -0.0593098 -0.0661931 -0.0711901 -0.0743003 -0.0757096 -0.0757369 -0.0749848 -0.0741201 -0.0737044 -0.0741823 -0.0755375 -0.0773906 -0.0790268 -0.0794385 -0.0778012 -0.0736944 -0.0673687 -0.0597582 -0.0520151 -0.0451159 -0.0395431 -0.0351128 -0.0313247 -0.0276294 -0.0237175 -0.0196749 -0.0156935 -0.0119292 -0.0084806 -0.00534737 -0.00251371 -3.31537e-05 0.00187279 0.00126468 0 0 
0 0 0.00129367 0.00199697 0.000775827 -0.00157892 -0.0045035 -0.00785422 -0.0115013 -0.0153821 -0.0194877 -0.0237495 -0.0280317 -0.0321412 -0.0358694 -0.0392839 -0.042819 -0.0470613 -0.0524931 -0.0590756 -0.0661832 -0.0728198 -0.0778942 -0.0807584 -0.0814267 -0.0803437 -0.0782676 -0.0760471 -0.0741458 -0.0729778 -0.07271 -0.0732927 -0.0744068 -0.0752371 -0.0746889 -0.0716817 -0.0655722 -0.0564779 -0.045383 -0.0337401 -0.0229144 -0.0137537 -0.00632454 -6.1805e-05 0.00592334 0.0123707 0.0195609 0.0273518 0.0352972 0.0428281 0.0495484 0.0551666 0.0596961 0.063269 0.0660862 0.068322 0.0698094 0.070195 0.0688132 0.0650997 0.0588052 0.0502139 0.0401301 0.0294736 0.0192023 0.00994283 0.00213262 -0.00408926 -0.00874242 -0.0121187 -0.0147597 -0.0174372 -0.0210258 -0.0261267 -0.0328244 -0.0404204 -0.0477115 -0.053037 -0.0550739 -0.0531184 -0.0475326 -0.039636 -0.0313698 -0.0245598 -0.0203046 -0.0185754 -0.0182771 -0.0178754 -0.0160004 -0.012152 -0.00676121 -0.00107526 0.00351307 0.00576328 0.00513694 0.00172986 -0.00368713 -0.00996125 -0.015729 -0.0198318 -0.0214364 -0.0203258 -0.0167829 -0.0116701 -0.00609987 -0.0012865 0.0018366 0.00272394 0.00143863 -0.0014955 -0.00508858 -0.00838683 -0.0106618 -0.0118818 -0.0126595 -0.0141546 -0.0174681 -0.0232361 -0.0311536 -0.0399832 -0.0479726 -0.0533754 -0.0550614 -0.0528099 -0.0474042 -0.0401654 -0.0327112 -0.0262224 -0.0213481 -0.0179538 -0.0154543 -0.0129671 -0.00970175 -0.00513345 0.00103181 0.00881108 0.0180455 0.0283026 0.0389442 0.0490207 0.0576078 0.0638985 0.0676249 0.0690233 0.0686888 0.0672559 0.0650901 0.062367 0.0589249 0.054563 0.0492005 0.0428333 0.0357617 0.02837 0.0210929 0.0141796 0.00753423 0.00071852 -0.00694411 -0.0159529 -0.0262646 -0.0372621 -0.0478808 -0.057154 -0.0643919 -0.0694463 -0.0725625 -0.0741481 -0.0746018 -0.0743353 -0.0738575 -0.0735824 -0.073955 -0.0751362 -0.0769309 -0.0788394 -0.0799647 -0.0794004 -0.0766451 -0.0716515 -0.0650703 -0.0579977 -0.051438 -0.0460236 -0.0418016 -0.0382868 -0.0348875 -0.0311837 -0.0271047 -0.0228636 -0.0186546 -0.0146161 -0.0108135 -0.00724904 -0.00397804 -0.00111424 0.00118889 0.000947982 0 0 
0 0 0.00101858 0.00134694 -5.28346e-05 -0.00242882 -0.00555205 -0.00921555 -0.0132139 -0.0174001 -0.0217326 -0.0261755 -0.0306154 -0.0348826 -0.0387085 -0.0419725 -0.0449262 -0.048075 -0.052077 -0.0572976 -0.0635375 -0.0700535 -0.0758245 -0.0798312 -0.0816795 -0.0814882 -0.0797406 -0.0772177 -0.074674 -0.0726946 -0.0716544 -0.0717278 -0.0726945 -0.0739045 -0.074291 -0.0726839 -0.0682386 -0.0607763 -0.0508714 -0.0397513 -0.0287418 -0.0188669 -0.0105539 -0.00357143 0.00256409 0.0085621 0.0148574 0.0216159 0.0287703 0.036009 0.0430035 0.049404 0.0549939 0.0597329 0.063613 0.0666758 0.0687573 0.0694265 0.0681941 0.0645832 0.0585637 0.0504648 0.0410871 0.0312084 0.0215923 0.012758 0.00503515 -0.00136807 -0.00650569 -0.0105641 -0.0141306 -0.0179383 -0.0227697 -0.0290345 -0.0365199 -0.0441849 -0.0506018 -0.0541824 -0.0539001 -0.0496925 -0.042509 -0.0341284 -0.0264584 -0.0210791 -0.0184962 -0.0182836 -0.019085 -0.0193434 -0.0177532 -0.0138484 -0.00801343 -0.00148587 0.00425636 0.00773084 0.00800028 0.00474351 -0.00140441 -0.00914187 -0.016696 -0.0222117 -0.0243289 -0.0226094 -0.0175629 -0.0105988 -0.00355755 0.00190668 0.00469401 0.00440038 0.00156323 -0.00278665 -0.00730437 -0.0108789 -0.0127928 -0.01317 -0.0127521 -0.012797 -0.0145334 -0.0188378 -0.0256851 -0.0343098 -0.0430975 -0.0502769 -0.0542745 -0.0543295 -0.0506193 -0.0441985 -0.036634 -0.0293293 -0.0232767 -0.0186372 -0.0150036 -0.0115686 -0.00759565 -0.00251045 0.00386403 0.0115812 0.0204305 0.0300604 0.0399584 0.0493465 0.0574639 0.0634916 0.0671186 0.0683773 0.0677477 0.0657317 0.0627367 0.0589438 0.0543248 0.0489008 0.0427236 0.0360683 0.0292815 0.0226652 0.0164353 0.0104691 0.00436683 -0.00250323 -0.0107936 -0.0207042 -0.0318509 -0.0432581 -0.053603 -0.0618544 -0.0674692 -0.070718 -0.0722014 -0.0726433 -0.0726112 -0.0725091 -0.0726342 -0.0732348 -0.0744944 -0.0763484 -0.0784169 -0.0799811 -0.0801784 -0.0784284 -0.0745328 -0.0688445 -0.0623806 -0.0561771 -0.0509841 -0.0470063 -0.0438731 -0.0409451 -0.0377051 -0.033908 -0.0296735 -0.0252722 -0.0208816 -0.0166106 -0.0124957 -0.0085812 -0.00501519 -0.00203338 2.31856e-05 0.000561094 0 0 
0 0 0.000785787 0.000887095 -0.00054995 -0.00290925 -0.00610554 -0.00995409 -0.0142106 -0.0186538 -0.0231663 -0.0277084 -0.0322059 -0.036521 -0.0404127 -0.0436342 -0.0462372 -0.0486446 -0.0515 -0.0553915 -0.0605516 -0.0666064 -0.0727128 -0.0777712 -0.080898 -0.0818581 -0.080824 -0.0784012 -0.0753894 -0.0726199 -0.0707144 -0.0700127 -0.0704905 -0.0715977 -0.0724236 -0.0718544 -0.0689075 -0.0631967 -0.0549024 -0.044884 -0.034262 -0.0240418 -0.0149463 -0.00713704 -0.000488448 0.00539277 0.0109823 0.0166712 0.0227562 0.0293408 0.0362082 0.0431192 0.049678 0.0556275 0.060703 0.064699 0.0673266 0.0681584 0.0668671 0.0632369 0.0574476 0.0499807 0.0414988 0.0327072 0.0240528 0.0159482 0.00855649 0.00204851 -0.00365065 -0.00876727 -0.0137672 -0.0192206 -0.0256772 -0.0331463 -0.0410463 -0.0481396 -0.0529313 -0.0541849 -0.0513778 -0.0451347 -0.0368971 -0.0286741 -0.022138 -0.0183044 -0.0172107 -0.0180001 -0.019333 -0.0198042 -0.0183741 -0.0146388 -0.0089492 -0.00227041 0.00391397 0.00812615 0.00910618 0.00631761 8.01267e-05 -0.0082107 -0.0165378 -0.0227225 -0.025083 -0.0230316 -0.0172307 -0.00941958 -0.00178689 0.00372954 0.00590766 0.00464851 0.000740552 -0.00437534 -0.00924371 -0.0126381 -0.0140644 -0.0137394 -0.0125044 -0.0115308 -0.0120412 -0.0149427 -0.0205737 -0.0284967 -0.0375343 -0.0460487 -0.0522106 -0.0547989 -0.0533552 -0.0484893 -0.0414265 -0.0336495 -0.0263637 -0.020073 -0.0147697 -0.00988745 -0.00484898 0.000822298 0.00734279 0.0147559 0.0228988 0.0315886 0.0404217 0.0489451 0.0564412 0.0622662 0.0659235 0.0672352 0.0664449 0.0638717 0.059947 0.0549457 0.0491104 0.0426958 0.0360003 0.0294355 0.0232818 0.0177176 0.0125708 0.00734545 0.00145714 -0.00580707 -0.0148358 -0.0255006 -0.0371002 -0.0483404 -0.0578536 -0.0646826 -0.0685955 -0.0702008 -0.0704026 -0.0701571 -0.0700972 -0.0704846 -0.0714893 -0.0730863 -0.0752223 -0.0775734 -0.0795344 -0.0803441 -0.0793795 -0.0763388 -0.0713884 -0.0653767 -0.0593815 -0.0542605 -0.0503882 -0.0475502 -0.04517 -0.042592 -0.0394021 -0.0355459 -0.0312682 -0.0268133 -0.0223171 -0.0178606 -0.0134838 -0.00930542 -0.00555479 -0.00249537 -0.000366448 0.000365087 0 0 
0 0 0.000586596 0.000547261 -0.000813391 -0.0030595 -0.00620489 -0.0101152 -0.014532 -0.0191666 -0.0238094 -0.0283728 -0.0327975 -0.0369932 -0.0408053 -0.0439998 -0.0464501 -0.0483818 -0.0503937 -0.0531707 -0.0572092 -0.0625087 -0.0685206 -0.0742796 -0.0786631 -0.0809378 -0.0809674 -0.0790724 -0.0759957 -0.0726629 -0.0699155 -0.0683289 -0.0680418 -0.0686956 -0.0694924 -0.0694921 -0.067759 -0.0637224 -0.0573081 -0.0488753 -0.0392105 -0.0291686 -0.0195736 -0.0109792 -0.00362809 0.00245418 0.00766232 0.0124531 0.0174497 0.0231105 0.02957 0.0366732 0.0440149 0.0510643 0.057334 0.0622612 0.0654069 0.0663674 0.0649198 0.0612458 0.0557038 0.0489292 0.0415325 0.0339795 0.0265618 0.0193929 0.0125163 0.00593374 -0.000480056 -0.0069392 -0.0137734 -0.0213157 -0.029527 -0.0380625 -0.0458668 -0.0516881 -0.0542128 -0.0528104 -0.0476305 -0.0398506 -0.0312907 -0.0237851 -0.0186709 -0.0163188 -0.0163153 -0.0175937 -0.0189116 -0.0192151 -0.0178223 -0.0144358 -0.00936936 -0.00331497 0.00252427 0.00677269 0.00816231 0.00598681 0.000438816 -0.00723783 -0.0151072 -0.02102 -0.0232349 -0.021253 -0.0156468 -0.00821625 -0.00113723 0.00369531 0.00516727 0.00329219 -0.000964934 -0.00609308 -0.0106285 -0.0135008 -0.0144 -0.0135792 -0.0118867 -0.0103307 -0.00996146 -0.0116946 -0.0160808 -0.0230128 -0.0317956 -0.0410132 -0.0489429 -0.0539828 -0.0551559 -0.0524521 -0.0465618 -0.0387939 -0.0303768 -0.0223009 -0.0148817 -0.0081402 -0.0017327 0.00466238 0.0112733 0.0181998 0.025431 0.0329148 0.0405234 0.0479729 0.0547941 0.0603751 0.0640932 0.065574 0.0646512 0.0615581 0.0566946 0.0504921 0.0435426 0.0363368 0.0294252 0.023237 0.0179834 0.0134825 0.00923034 0.00444426 -0.00158239 -0.00941215 -0.0191184 -0.0302445 -0.0417446 -0.0522232 -0.0604251 -0.0656086 -0.0679258 -0.0682157 -0.0676126 -0.0671461 -0.0673734 -0.0685069 -0.0704812 -0.0730476 -0.0758446 -0.0783131 -0.07973 -0.0794654 -0.0771438 -0.072839 -0.0671905 -0.061268 -0.0560278 -0.0520254 -0.0492766 -0.0472898 -0.0453806 -0.0429685 -0.0398108 -0.0360383 -0.0318857 -0.0275008 -0.022984 -0.0183943 -0.013819 -0.00947675 -0.00565933 -0.0026388 -0.000592512 0.000241784 0 0 
0 0 0.000388276 0.000244307 -0.000943755 -0.0029613 -0.00592647 -0.00976543 -0.0142303 -0.0189824 -0.0237046 -0.0282227 -0.0324888 -0.036449 -0.0400157 -0.0430686 -0.0454353 -0.0471582 -0.0486251 -0.0504727 -0.0534069 -0.0577653 -0.0633033 -0.0692785 -0.0746078 -0.0782483 -0.0796065 -0.0786805 -0.0760164 -0.0725388 -0.0691943 -0.0667556 -0.0655695 -0.065464 -0.0658666 -0.0659792 -0.0650225 -0.0624124 -0.0578722 -0.0513636 -0.0432048 -0.0339561 -0.0243247 -0.0151641 -0.00708358 -0.000519808 0.00463651 0.00887121 0.0129487 0.0176812 0.0235124 0.0305261 0.0383527 0.0463074 0.0535696 0.0593426 0.0629322 0.0639562 0.0624095 0.0586911 0.0534777 0.0474745 0.0412357 0.0350764 0.0290189 0.0229185 0.0166463 0.00995955 0.00267157 -0.00545018 -0.0144423 -0.0241765 -0.0340852 -0.043239 -0.0503659 -0.054256 -0.0541609 -0.0500813 -0.0429425 -0.034334 -0.0261278 -0.0198348 -0.0161619 -0.0150065 -0.0155697 -0.0168114 -0.0177087 -0.0176058 -0.0161644 -0.013309 -0.00924107 -0.00445883 0.000215463 0.00375461 0.00513405 0.00373279 -0.000380137 -0.00625284 -0.0123477 -0.0169418 -0.0187034 -0.017113 -0.012755 -0.00702176 -0.00167205 0.00176616 0.0024238 0.000405821 -0.00341358 -0.00773845 -0.0113655 -0.0134723 -0.0138196 -0.0127208 -0.0108543 -0.00904954 -0.00817105 -0.00907129 -0.0123293 -0.0181804 -0.0262574 -0.0355963 -0.044688 -0.0518436 -0.0557111 -0.0555476 -0.0514564 -0.0442419 -0.0351077 -0.0252645 -0.0156133 -0.00668967 0.00139396 0.00868438 0.0154115 0.0217464 0.0279191 0.0340559 0.0402977 0.0466045 0.0526645 0.0579286 0.0616941 0.0632737 0.0622927 0.0587547 0.0530435 0.0458372 0.0379706 0.0302572 0.0234237 0.0178383 0.0134613 0.00986968 0.00614517 0.00144267 -0.00497252 -0.0134211 -0.023551 -0.0346395 -0.0453949 -0.0545643 -0.0611179 -0.06468 -0.0656951 -0.0651352 -0.0641927 -0.0638536 -0.0646505 -0.0666338 -0.0695333 -0.0728218 -0.0758782 -0.0779784 -0.078446 -0.0768144 -0.0731121 -0.0678408 -0.0619646 -0.0565254 -0.0522332 -0.0493443 -0.0475183 -0.0460769 -0.0443895 -0.0420595 -0.0390522 -0.035532 -0.0316172 -0.0273945 -0.0229236 -0.018252 -0.0135591 -0.00916613 -0.00541647 -0.00257141 -0.000734126 0.000109038 0 0 
0 0 0.000150133 -0.000234028 -0.00104353 -0.00271481 -0.00537719 -0.00900818 -0.0133898 -0.0181642 -0.0229348 -0.0274013 -0.0314631 -0.0351337 -0.0383909 -0.0411891 -0.0434126 -0.0450011 -0.0461757 -0.0473828 -0.049289 -0.0525244 -0.05723 -0.0629542 -0.0687587 -0.0735094 -0.0763179 -0.0767457 -0.0749905 -0.0718746 -0.0683565 -0.0652819 -0.0632137 -0.0621847 -0.0618389 -0.0616677 -0.0610859 -0.0595329 -0.0566587 -0.0521583 -0.0458358 -0.0379266 -0.0289011 -0.0196158 -0.0110565 -0.0038884 0.00156903 0.00569497 0.00927563 0.0132773 0.0184952 0.0251699 0.0331046 0.0415603 0.0494844 0.0558213 0.0597296 0.060862 0.0593497 0.0558172 0.0510858 0.0459565 0.0409147 0.0361007 0.0313569 0.026314 0.0205361 0.0136091 0.00523348 -0.00466774 -0.0158445 -0.0275786 -0.0387589 -0.0479426 -0.0537872 -0.0553804 -0.0526255 -0.0462908 -0.0378842 -0.0292531 -0.0219668 -0.0170473 -0.0146374 -0.0141849 -0.0147615 -0.015476 -0.0156669 -0.0150534 -0.0136015 -0.0114359 -0.00871965 -0.00573315 -0.00286426 -0.000642959 0.000376588 -0.00014142 -0.00219881 -0.00525245 -0.00849981 -0.0109472 -0.0118958 -0.0110684 -0.00879789 -0.00583881 -0.00322547 -0.00177674 -0.00199266 -0.00374227 -0.00646095 -0.00931968 -0.0115524 -0.0126511 -0.0124498 -0.0112023 -0.00938164 -0.00761505 -0.00658484 -0.00700038 -0.00943124 -0.0142382 -0.0213921 -0.0303475 -0.0399286 -0.0486379 -0.0548437 -0.0572873 -0.0553679 -0.0492849 -0.0399863 -0.0287699 -0.017051 -0.00590611 0.00398342 0.0123707 0.0193396 0.0251883 0.0303173 0.0351452 0.0400444 0.0451643 0.0503613 0.055146 0.0587324 0.0602929 0.059192 0.0553351 0.049055 0.0411893 0.0328062 0.0249726 0.0184419 0.0134499 0.00977297 0.0066308 0.00300963 -0.0019868 -0.00893158 -0.0177313 -0.0278386 -0.0382181 -0.0476361 -0.0551224 -0.0599408 -0.0621368 -0.0622637 -0.0613229 -0.0604699 -0.0606122 -0.0621114 -0.0648911 -0.0684691 -0.0720537 -0.0748617 -0.0761328 -0.0752541 -0.0721673 -0.0673236 -0.0615509 -0.0559263 -0.0513046 -0.0481341 -0.0462694 -0.0450961 -0.0439558 -0.0424001 -0.0402227 -0.0374727 -0.0342662 -0.030647 -0.0266311 -0.0222144 -0.0174956 -0.0127811 -0.00847299 -0.0049333 -0.00238522 -0.000847389 -0.000132695 0 0 
0 0 -7.57933e-05 -0.000519238 -0.00109828 -0.0024066 -0.00467128 -0.00795784 -0.0121159 -0.0167983 -0.0215707 -0.0260327 -0.0299635 -0.0333642 -0.0362889 -0.0387873 -0.0408179 -0.0422641 -0.0432169 -0.0439855 -0.0450858 -0.0471789 -0.050761 -0.0557377 -0.061495 -0.0669463 -0.0710255 -0.0729881 -0.0726405 -0.0703809 -0.0671753 -0.0638481 -0.0610507 -0.0590733 -0.0578183 -0.0569835 -0.0563084 -0.0554254 -0.0538576 -0.0511857 -0.0468546 -0.0406739 -0.0328589 -0.0240689 -0.015436 -0.00784875 -0.001863 0.00258903 0.00624283 0.00999074 0.0147943 0.0211022 0.0287937 0.0372061 0.0452258 0.0516924 0.0557298 0.0569904 0.0557596 0.0527193 0.0487888 0.0447028 0.0408886 0.0373264 0.0336746 0.0293512 0.0237381 0.0162728 0.00664498 -0.00502015 -0.0180508 -0.0311895 -0.0428472 -0.0513353 -0.0554328 -0.0546811 -0.049698 -0.041904 -0.0331187 -0.0251327 -0.01911 -0.0154973 -0.0138993 -0.0135705 -0.0136461 -0.0135193 -0.0128573 -0.0117496 -0.010422 -0.00913118 -0.00801755 -0.00715338 -0.00644821 -0.00587044 -0.00535241 -0.00490764 -0.00449731 -0.00419376 -0.00393487 -0.00380354 -0.00377318 -0.00388671 -0.00414475 -0.00462454 -0.00528656 -0.00622027 -0.00734911 -0.00862752 -0.00985469 -0.0108425 -0.0113518 -0.0112645 -0.0104845 -0.00914605 -0.00751639 -0.00600989 -0.00509539 -0.00536351 -0.00729358 -0.0113003 -0.0175073 -0.0257251 -0.035191 -0.0447004 -0.0525911 -0.0572911 -0.057614 -0.0531102 -0.0443382 -0.0325101 -0.0192845 -0.00622388 0.00545313 0.0151107 0.0226262 0.0282983 0.032698 0.0364434 0.0400964 0.0439914 0.0481469 0.0521411 0.0552309 0.0565074 0.0552897 0.0512954 0.0448817 0.0369071 0.0285698 0.0209668 0.0147884 0.0101705 0.00670051 0.00345065 -0.000528378 -0.00605077 -0.0133423 -0.0221028 -0.0315465 -0.0405698 -0.0482304 -0.0538417 -0.0570905 -0.0582877 -0.0579846 -0.0571774 -0.0568418 -0.0576306 -0.059836 -0.0632199 -0.0670599 -0.0704412 -0.0725082 -0.072456 -0.0700762 -0.0657128 -0.0601337 -0.0543938 -0.0494794 -0.0459862 -0.0439597 -0.0429131 -0.042175 -0.0412597 -0.0398538 -0.037873 -0.0354265 -0.0325573 -0.0292097 -0.0253288 -0.0209211 -0.0162034 -0.0115852 -0.0075039 -0.00431184 -0.00216489 -0.000979608 -0.00028078 0 0 
0 0 -0.000323172 -0.000846954 -0.00119458 -0.00212377 -0.0039202 -0.00673526 -0.0105191 -0.0149846 -0.0196939 -0.0241875 -0.0281176 -0.0313919 -0.0340774 -0.0362611 -0.0380378 -0.0393383 -0.0401163 -0.0405553 -0.04104 -0.0421403 -0.0444729 -0.0483356 -0.0534522 -0.0590355 -0.0640183 -0.0674161 -0.0686942 -0.0678671 -0.0654596 -0.0623243 -0.0591188 -0.0562851 -0.0540347 -0.052398 -0.0512494 -0.0505103 -0.0497849 -0.048535 -0.0460745 -0.0418141 -0.035708 -0.0281403 -0.020008 -0.0123377 -0.00581982 -0.00065201 0.00359595 0.00769435 0.0124797 0.0184758 0.0256735 0.0335052 0.0409837 0.0470813 0.0509858 0.0524294 0.0517664 0.0496384 0.0468464 0.0440119 0.0413919 0.0388224 0.0358309 0.0317117 0.0257304 0.0173659 0.00638511 -0.00672427 -0.0208934 -0.0344643 -0.0455897 -0.0526538 -0.0547792 -0.0521062 -0.0457584 -0.0375323 -0.0292482 -0.0224168 -0.0176784 -0.0149848 -0.0136392 -0.0128996 -0.01208 -0.0109215 -0.00946858 -0.00804674 -0.00707933 -0.00686648 -0.00748741 -0.00875444 -0.0101794 -0.0111306 -0.0110213 -0.00949611 -0.00663343 -0.00294686 0.000691266 0.00337552 0.00433453 0.00332091 0.000549417 -0.00325233 -0.00721927 -0.0105128 -0.0126409 -0.0134874 -0.0132664 -0.0123472 -0.0110907 -0.00971347 -0.00826551 -0.00679127 -0.00538585 -0.00422853 -0.00364133 -0.00404701 -0.00580375 -0.00929888 -0.0147212 -0.0221151 -0.031006 -0.0405362 -0.0492169 -0.0554346 -0.0576542 -0.0549817 -0.0474433 -0.0359723 -0.0221836 -0.00789112 0.0052854 0.0163102 0.0247308 0.0307743 0.0349567 0.0380235 0.0406757 0.0433799 0.0462875 0.049135 0.0513208 0.0520332 0.050624 0.0467602 0.0407136 0.0332766 0.0255 0.0183852 0.0124959 0.00787858 0.00402196 0.000113375 -0.00460312 -0.0106774 -0.0180086 -0.0261372 -0.0342048 -0.0413433 -0.0469959 -0.0507912 -0.0528456 -0.0535116 -0.0533441 -0.0531411 -0.0535279 -0.0550814 -0.0578926 -0.061516 -0.0651401 -0.067799 -0.0685566 -0.0669685 -0.0632055 -0.057938 -0.0522095 -0.0470684 -0.0432621 -0.0409959 -0.0399581 -0.0395188 -0.0391243 -0.0383878 -0.0371306 -0.0354067 -0.0332738 -0.0306493 -0.027429 -0.0235567 -0.0191212 -0.0144692 -0.0100703 -0.00636562 -0.00364972 -0.00197544 -0.00115917 -0.000425388 0 0 
0 0 -0.000585056 -0.00121727 -0.00136935 -0.00192971 -0.00322005 -0.00546478 -0.00872783 -0.0128313 -0.0173851 -0.0219101 -0.0259565 -0.0292797 -0.0318948 -0.0339017 -0.0354265 -0.0365322 -0.0371763 -0.037392 -0.0374249 -0.0377451 -0.0389317 -0.0414768 -0.0455144 -0.0506064 -0.0558921 -0.0603811 -0.0632236 -0.0640561 -0.0630042 -0.0605396 -0.0573308 -0.0539437 -0.0507502 -0.0481633 -0.0463382 -0.0453173 -0.044922 -0.0445735 -0.0435932 -0.0412305 -0.037085 -0.0312786 -0.0243435 -0.0171265 -0.0102746 -0.00422712 0.00108913 0.00613302 0.011366 0.0172687 0.0237915 0.0306012 0.0369703 0.0421712 0.0456992 0.047407 0.047595 0.0467691 0.0454612 0.0440312 0.0424905 0.0405463 0.0375967 0.0329765 0.0260132 0.0163638 0.00416967 -0.00977442 -0.0240103 -0.0368118 -0.0463554 -0.0514756 -0.0517561 -0.0478815 -0.0412658 -0.0336695 -0.0266545 -0.021178 -0.0174779 -0.01514 -0.0134997 -0.0118945 -0.01003 -0.00790394 -0.00591149 -0.00448274 -0.00414384 -0.00511892 -0.00740609 -0.0104825 -0.0135391 -0.0155094 -0.0154706 -0.0128589 -0.00793568 -0.00156139 0.00468265 0.00931872 0.0109592 0.00928483 0.00459135 -0.00176926 -0.00835425 -0.0136171 -0.0167336 -0.0174416 -0.016216 -0.0138072 -0.0110397 -0.00842717 -0.00626751 -0.00454428 -0.0032728 -0.00243119 -0.00224045 -0.00290491 -0.00476428 -0.00804911 -0.0129882 -0.0195992 -0.027656 -0.0365106 -0.0450619 -0.0518523 -0.0553671 -0.0544644 -0.0487006 -0.0386092 -0.025413 -0.0109332 0.00316195 0.0154366 0.0251459 0.0321691 0.036841 0.0398603 0.041872 0.0434773 0.0449797 0.0463496 0.0472163 0.0470785 0.0454156 0.0419206 0.0367617 0.0304316 0.0236702 0.0172115 0.0114044 0.00629764 0.0014703 -0.00355224 -0.00920608 -0.0156169 -0.02248 -0.0293024 -0.0354415 -0.0404251 -0.0440582 -0.0463794 -0.0477077 -0.0483493 -0.0487757 -0.0494276 -0.050765 -0.0530795 -0.0562029 -0.0596269 -0.0625131 -0.0638507 -0.0630604 -0.0599973 -0.0552145 -0.0496524 -0.0443956 -0.0403062 -0.0377771 -0.0366463 -0.0363862 -0.036409 -0.0362393 -0.0356375 -0.0345812 -0.0331075 -0.0311583 -0.028602 -0.0253375 -0.0213521 -0.0168859 -0.0123939 -0.00835889 -0.00517543 -0.00302938 -0.001861 -0.00139853 -0.00059666 0 0 
0 0 -0.000833889 -0.00161138 -0.00162644 -0.0018593 -0.00264441 -0.00426301 -0.00688696 -0.0104767 -0.0147396 -0.0192253 -0.0234395 -0.0269795 -0.0297091 -0.0317019 -0.0331065 -0.0340474 -0.0345599 -0.0346638 -0.0344256 -0.0341793 -0.0344331 -0.0357306 -0.0384123 -0.0425011 -0.0474611 -0.0524369 -0.0565295 -0.0589849 -0.0595226 -0.058238 -0.0554936 -0.0519367 -0.0481085 -0.0446155 -0.0419494 -0.0403536 -0.0397889 -0.0398526 -0.0398506 -0.0390694 -0.0368963 -0.0331342 -0.0278815 -0.0216279 -0.0148597 -0.00802886 -0.00145695 0.00488104 0.0110063 0.0170354 0.0229413 0.028482 0.0334143 0.0374213 0.0403792 0.0423669 0.0435665 0.0442868 0.0446327 0.0446073 0.043896 0.0420802 0.0385349 0.0326757 0.0242277 0.0131644 0.000145836 -0.0137407 -0.0268961 -0.0377185 -0.0449305 -0.0478749 -0.0467891 -0.0426278 -0.0367837 -0.0306429 -0.025278 -0.0210691 -0.0179831 -0.0154615 -0.0130743 -0.0104437 -0.00760589 -0.00485188 -0.00268962 -0.00165284 -0.00216298 -0.00433015 -0.0078737 -0.0121012 -0.0159124 -0.0181088 -0.0176801 -0.0141539 -0.00791729 -0.000126424 0.0074288 0.0129024 0.0149075 0.0128823 0.00737316 -0.000260047 -0.00820384 -0.0146976 -0.0186254 -0.0196265 -0.0181321 -0.0150293 -0.0113194 -0.00782339 -0.00496003 -0.00287486 -0.00153602 -0.000878127 -0.000952271 -0.00190133 -0.00395201 -0.00724865 -0.0119478 -0.0179398 -0.0250933 -0.0328636 -0.040545 -0.0470191 -0.0510763 -0.0515872 -0.0478875 -0.0399482 -0.0285246 -0.0149583 -0.000805024 0.012375 0.0235156 0.0320242 0.0379218 0.0415079 0.0433833 0.0441521 0.0442298 0.0439398 0.0432685 0.0420991 0.0401514 0.0372325 0.0332644 0.0283632 0.0228684 0.0170076 0.0110582 0.00503774 -0.00113495 -0.00745273 -0.0139504 -0.0203071 -0.0261922 -0.0312537 -0.0351895 -0.0380049 -0.0398638 -0.041158 -0.0421842 -0.0432573 -0.0445913 -0.0463399 -0.0486623 -0.0515 -0.0545693 -0.057322 -0.0589036 -0.05867 -0.0563228 -0.0521201 -0.046908 -0.041699 -0.0374318 -0.034661 -0.033365 -0.0331447 -0.0334455 -0.0337332 -0.0336794 -0.0332163 -0.0323249 -0.0309735 -0.0290356 -0.0263671 -0.0228878 -0.0187355 -0.0143134 -0.0101135 -0.00659023 -0.00404287 -0.00251929 -0.00185081 -0.00169543 -0.000795183 0 0 
0 0 -0.00103017 -0.00199913 -0.00194614 -0.00192242 -0.00224574 -0.00323142 -0.00514238 -0.00808192 -0.0118964 -0.0162003 -0.0205095 -0.0243418 -0.0273717 -0.0295416 -0.0309772 -0.0318643 -0.0322916 -0.0323325 -0.03201 -0.0314601 -0.0310516 -0.0313092 -0.0326936 -0.0354491 -0.0395181 -0.044311 -0.0490393 -0.0528129 -0.054911 -0.0550558 -0.0532702 -0.0500087 -0.0459652 -0.0418655 -0.0384274 -0.0361165 -0.0350367 -0.0350279 -0.0355124 -0.0358512 -0.0353947 -0.0336201 -0.030275 -0.0253185 -0.0190334 -0.0117606 -0.00404413 0.00359328 0.010787 0.0171278 0.0225404 0.0269515 0.0304512 0.0332978 0.0357145 0.0379817 0.0402198 0.0423965 0.0442293 0.0452826 0.0449694 0.0426663 0.0379238 0.0304331 0.020327 0.00818332 -0.00499127 -0.0178077 -0.02885 -0.0369406 -0.0415021 -0.0425285 -0.0407316 -0.0370996 -0.03275 -0.0284756 -0.0247466 -0.0215143 -0.0185572 -0.0155065 -0.0121863 -0.00864317 -0.00517178 -0.00224107 -0.000407012 -0.000109784 -0.00154741 -0.00461883 -0.00878745 -0.0132083 -0.016735 -0.018318 -0.0171555 -0.0130623 -0.00654712 0.00111841 0.00840298 0.0135752 0.0154555 0.0135644 0.00836994 0.00103667 -0.00673294 -0.0134367 -0.0178333 -0.0194566 -0.0184926 -0.015664 -0.011873 -0.00803553 -0.00471273 -0.00222704 -0.000620775 0.000120337 -2.32909e-05 -0.00111046 -0.0032881 -0.00666569 -0.0112137 -0.0167451 -0.0230155 -0.0295905 -0.0360073 -0.0415593 -0.0454976 -0.0469256 -0.045151 -0.0397305 -0.0308507 -0.0191966 -0.00596848 0.00747189 0.0197648 0.0299437 0.0374765 0.0422405 0.0445712 0.0449218 0.0439187 0.0421264 0.0399922 0.0377918 0.0355504 0.0331646 0.0303517 0.0268764 0.0224998 0.0171352 0.010844 0.00374549 -0.00376993 -0.0112752 -0.0182671 -0.0241961 -0.0287862 -0.0318882 -0.03369 -0.0345954 -0.0351372 -0.03582 -0.0369634 -0.0387633 -0.0411277 -0.0439443 -0.047025 -0.0500601 -0.0526532 -0.0542388 -0.0542376 -0.0523946 -0.0487797 -0.0440253 -0.0390724 -0.0347916 -0.0318513 -0.0303603 -0.0300664 -0.0304885 -0.0310868 -0.0314559 -0.0314743 -0.0310916 -0.0302599 -0.0288768 -0.0267641 -0.0237946 -0.0200231 -0.0157789 -0.0115366 -0.00778372 -0.00491003 -0.00307092 -0.00217221 -0.00195519 -0.00203336 -0.0010089 0 0 
0 0 -0.00120699 -0.00234538 -0.00229186 -0.00210405 -0.00205152 -0.00245229 -0.00363286 -0.00581682 -0.00901535 -0.012964 -0.0172073 -0.0212487 -0.0246531 -0.0271856 -0.0288481 -0.029819 -0.0302718 -0.0302992 -0.0299772 -0.0293561 -0.0286155 -0.0281268 -0.0284162 -0.0298598 -0.0326855 -0.0367127 -0.0413529 -0.0458119 -0.0491614 -0.0507274 -0.0502185 -0.0477916 -0.0440473 -0.0398045 -0.0358872 -0.0329593 -0.0312731 -0.0308533 -0.0313896 -0.0323311 -0.0330612 -0.0328921 -0.0312491 -0.0277028 -0.0221628 -0.0149309 -0.00655834 0.00205223 0.0100933 0.0168583 0.0220096 0.0256616 0.0281816 0.0302193 0.032331 0.0349132 0.0379918 0.0412231 0.0439916 0.0454524 0.0448529 0.0415516 0.03525 0.0261339 0.0147572 0.00223227 -0.0101308 -0.0210013 -0.0293245 -0.0345147 -0.0366954 -0.0364155 -0.0345647 -0.0319912 -0.0293219 -0.0268165 -0.0243358 -0.021686 -0.0185567 -0.0149031 -0.0108327 -0.0067675 -0.0031993 -0.000638854 0.000453284 -0.000133471 -0.00233093 -0.00574663 -0.0097027 -0.013283 -0.0156344 -0.0160099 -0.0140659 -0.00994269 -0.00427033 0.00197482 0.00759249 0.0114858 0.0128688 0.0114812 0.00757303 0.00192758 -0.00438165 -0.0101877 -0.0145322 -0.0168257 -0.016961 -0.0152426 -0.0123194 -0.00887322 -0.00556349 -0.00281632 -0.000870148 0.000180166 0.000257501 -0.000693472 -0.00278169 -0.00605603 -0.010357 -0.0154545 -0.0209162 -0.0264166 -0.0315498 -0.0360327 -0.0394667 -0.041324 -0.0410236 -0.0379692 -0.0318459 -0.0227155 -0.0112394 0.00152374 0.0142892 0.0257924 0.0349615 0.0412821 0.0445938 0.0452019 0.0437637 0.0410321 0.0378295 0.0347876 0.0322362 0.030149 0.0281409 0.025644 0.022008 0.0168908 0.0101646 0.0021858 -0.00632306 -0.0145426 -0.0215351 -0.0267732 -0.0299814 -0.0313492 -0.0314467 -0.0309757 -0.0307055 -0.0311617 -0.0326846 -0.0352192 -0.0384848 -0.0420942 -0.0455543 -0.0483412 -0.0500111 -0.050124 -0.0485333 -0.045351 -0.0410561 -0.0364486 -0.0323284 -0.0293251 -0.0277024 -0.0272863 -0.0277153 -0.0284594 -0.0291083 -0.029481 -0.0295069 -0.0291061 -0.0281942 -0.0265817 -0.0241086 -0.0207639 -0.0167836 -0.012603 -0.00871602 -0.00557922 -0.00345693 -0.00234145 -0.00201882 -0.00216482 -0.00238358 -0.00121873 0 0 
0 0 -0.00134371 -0.00261929 -0.00262034 -0.00236752 -0.00205811 -0.00197346 -0.00247008 -0.00385824 -0.00629189 -0.00967585 -0.0136517 -0.0177303 -0.021427 -0.0243777 -0.0264416 -0.0276767 -0.0282798 -0.0284063 -0.0281374 -0.0275466 -0.0267351 -0.0258739 -0.0253709 -0.025699 -0.0272231 -0.0301174 -0.0340897 -0.0385103 -0.0425221 -0.0452213 -0.046058 -0.0448636 -0.0420174 -0.0382344 -0.0343252 -0.0310734 -0.0289155 -0.0280081 -0.0282687 -0.0293215 -0.0306061 -0.0313984 -0.0309085 -0.0285319 -0.0238639 -0.0170695 -0.008745 0.00017589 0.00858165 0.0156416 0.0208605 0.0243473 0.0266569 0.0285381 0.0307223 0.0335901 0.0370675 0.0406045 0.0433724 0.0443668 0.0427559 0.038087 0.030325 0.0200903 0.00836203 -0.00351401 -0.0141631 -0.0225571 -0.0281221 -0.0308969 -0.0314366 -0.0305925 -0.0291717 -0.0277415 -0.0264248 -0.0250939 -0.0233357 -0.0208624 -0.017529 -0.0135111 -0.00923861 -0.00526782 -0.00219368 -0.000468791 -0.000304917 -0.00163588 -0.00411667 -0.00713991 -0.0100219 -0.0120099 -0.0126463 -0.0116788 -0.00923815 -0.0057244 -0.00171582 0.00218083 0.00537083 0.00747249 0.00818749 0.00747212 0.00535987 0.00215483 -0.00177741 -0.00587507 -0.00954555 -0.0122386 -0.0136005 -0.0134961 -0.0121232 -0.00982822 -0.00715758 -0.00454769 -0.00239433 -0.000951502 -0.00040984 -0.000911881 -0.00255142 -0.0053261 -0.00910253 -0.013575 -0.0183311 -0.0229809 -0.0271903 -0.0308333 -0.0337258 -0.0356813 -0.0362806 -0.0350083 -0.0312789 -0.024763 -0.0155771 -0.00434131 0.00791206 0.0198511 0.0301809 0.037969 0.0426389 0.0442432 0.0432472 0.040496 0.0369793 0.0335221 0.0306828 0.0285247 0.0266668 0.0243813 0.0209118 0.0157111 0.00867793 0.000313595 -0.00853747 -0.0167457 -0.0233627 -0.0277779 -0.0298571 -0.0300651 -0.0291235 -0.0279484 -0.0273618 -0.0279023 -0.0298005 -0.032869 -0.0366551 -0.0405582 -0.0438215 -0.0458682 -0.0462684 -0.044917 -0.0420157 -0.0380601 -0.0337642 -0.0298608 -0.0269252 -0.0252677 -0.0247785 -0.0251483 -0.0259313 -0.0267211 -0.0273267 -0.0276415 -0.0275635 -0.0270195 -0.0258395 -0.0238328 -0.0209433 -0.0173042 -0.0132861 -0.00937225 -0.00604775 -0.00367207 -0.00234179 -0.00190577 -0.00205943 -0.00244759 -0.00270955 -0.00140342 0 0 
0 0 -0.00142722 -0.00279979 -0.00289056 -0.00265994 -0.00222708 -0.00179956 -0.00171605 -0.00234097 -0.00393719 -0.00656966 -0.0100342 -0.0139173 -0.0177376 -0.0210398 -0.0235465 -0.0251977 -0.0260891 -0.0264194 -0.0263108 -0.0258154 -0.0250348 -0.0240853 -0.0231678 -0.0227128 -0.0231242 -0.0247507 -0.0276471 -0.0314377 -0.035443 -0.0387993 -0.0407747 -0.0409868 -0.0394949 -0.0367856 -0.0335378 -0.0304619 -0.0281389 -0.0268577 -0.0266892 -0.0274313 -0.0286145 -0.0296007 -0.0295847 -0.0278643 -0.0240205 -0.0179962 -0.0103518 -0.00190318 0.00629925 0.0134005 0.0189446 0.0229268 0.0258318 0.0282919 0.0309194 0.0339529 0.0372376 0.0401589 0.0418365 0.0414198 0.0382543 0.0321635 0.0234905 0.0130796 0.00215954 -0.00802068 -0.0163609 -0.0222368 -0.0255602 -0.0267748 -0.0266028 -0.0258316 -0.0250223 -0.0243848 -0.0237773 -0.0228544 -0.0212533 -0.018731 -0.0153644 -0.0115106 -0.00769913 -0.0045255 -0.00245524 -0.00175928 -0.0023984 -0.00403349 -0.00613404 -0.00806192 -0.00927057 -0.00937233 -0.00832702 -0.00636915 -0.00394166 -0.00156445 0.000389355 0.00170122 0.0024483 0.00274675 0.00283385 0.0027501 0.00244426 0.00168676 0.000356657 -0.00165048 -0.00413338 -0.00673591 -0.00897996 -0.0104425 -0.0108681 -0.0102386 -0.00879399 -0.00686899 -0.0048839 -0.00319422 -0.00212771 -0.0019225 -0.00270119 -0.00455259 -0.00740168 -0.0110143 -0.0150378 -0.0190768 -0.0228301 -0.026074 -0.0286976 -0.0306288 -0.0316547 -0.031397 -0.0293494 -0.0250419 -0.0182371 -0.00914333 0.00158431 0.0128482 0.0234411 0.0321813 0.03828 0.0414262 0.0418192 0.0401377 0.0372245 0.0339523 0.0309353 0.0283308 0.0258938 0.0230057 0.0190368 0.0135083 0.00642163 -0.00175511 -0.0101574 -0.0177207 -0.0236111 -0.0272606 -0.0287353 -0.0284886 -0.0273139 -0.0261139 -0.0256536 -0.0264176 -0.0285431 -0.0317445 -0.0354927 -0.0389892 -0.0414568 -0.0423516 -0.0414187 -0.0388477 -0.0351581 -0.0310702 -0.0273382 -0.0245042 -0.0228702 -0.0223612 -0.0226782 -0.0234595 -0.0243192 -0.0250593 -0.0255589 -0.0257005 -0.0254187 -0.024586 -0.0229926 -0.0205476 -0.0173045 -0.0135441 -0.00972049 -0.00631413 -0.00373905 -0.00219962 -0.0016296 -0.00176871 -0.00225673 -0.00275483 -0.00297491 -0.00154401 0 0 
0 0 -0.00145545 -0.00287946 -0.00307171 -0.0029255 -0.00249008 -0.00188403 -0.00137827 -0.00134212 -0.0021121 -0.00388706 -0.00663514 -0.0100625 -0.0137488 -0.0172407 -0.0201362 -0.0222462 -0.0235536 -0.0241773 -0.0242995 -0.0240014 -0.0233322 -0.0224098 -0.0213647 -0.0204623 -0.0201095 -0.0206503 -0.0223342 -0.0251028 -0.0285375 -0.0319907 -0.03475 -0.0362774 -0.036373 -0.0351922 -0.0331923 -0.0308851 -0.0288425 -0.0274263 -0.026808 -0.0269367 -0.0274761 -0.0279342 -0.02768 -0.0260933 -0.0228108 -0.0177456 -0.0112014 -0.00381272 0.00370119 0.0106538 0.0166411 0.0215625 0.0256313 0.029153 0.0323907 0.0353695 0.0378153 0.039226 0.0389734 0.0365099 0.0316289 0.0244731 0.0156895 0.00619001 -0.00295788 -0.0107791 -0.0166779 -0.0204457 -0.0223425 -0.0228964 -0.0227381 -0.0223593 -0.021994 -0.021629 -0.0210279 -0.0198999 -0.0180646 -0.0155079 -0.0124736 -0.00934983 -0.00662316 -0.00471365 -0.00386985 -0.00407332 -0.00507374 -0.00639502 -0.00748589 -0.00788423 -0.00728188 -0.00574661 -0.00356063 -0.00126882 0.000578185 0.00155866 0.00154754 0.000731605 -0.000448106 -0.00145108 -0.00183042 -0.00144614 -0.000446639 0.000724449 0.00153093 0.00151375 0.000465905 -0.00149786 -0.00398491 -0.00647775 -0.00843273 -0.00954533 -0.00966293 -0.0089274 -0.00760886 -0.00606458 -0.00464945 -0.00367481 -0.00340204 -0.00400197 -0.00557413 -0.00805517 -0.0112462 -0.0148066 -0.018385 -0.0216379 -0.0243311 -0.0263385 -0.0275355 -0.0277338 -0.026633 -0.0238618 -0.0191263 -0.012342 -0.00381769 0.00582635 0.0156323 0.024568 0.0317729 0.0366495 0.0390767 0.0393003 0.0378767 0.0354294 0.0324598 0.0292359 0.025737 0.0216871 0.0167766 0.0107986 0.0038572 -0.00364771 -0.0110058 -0.0175 -0.0224725 -0.0256102 -0.0269982 -0.0270264 -0.0263678 -0.0257422 -0.0257348 -0.0267545 -0.0288244 -0.0316574 -0.0346718 -0.0370999 -0.0383032 -0.0378453 -0.0357423 -0.0323978 -0.028524 -0.0248888 -0.0220859 -0.0204305 -0.019888 -0.020177 -0.0209623 -0.0218849 -0.0227097 -0.0233226 -0.0236089 -0.0235055 -0.0229254 -0.0216706 -0.0196225 -0.0167884 -0.0133593 -0.00973304 -0.0063627 -0.00367244 -0.00195303 -0.00123672 -0.00132466 -0.00188299 -0.00254395 -0.00303311 -0.00315246 -0.00162874 0 0 
0 0 -0.00143528 -0.00286546 -0.00314972 -0.00312042 -0.00277217 -0.0021397 -0.00139876 -0.000868739 -0.000913739 -0.00182065 -0.003719 -0.00648569 -0.00977743 -0.0131934 -0.0163147 -0.0188193 -0.0205835 -0.0216088 -0.0220198 -0.0219611 -0.0215038 -0.0207074 -0.0197069 -0.0186422 -0.0178305 -0.0176095 -0.0182597 -0.019919 -0.0224734 -0.025544 -0.0286208 -0.0311602 -0.0327837 -0.0333373 -0.0329391 -0.0318939 -0.0305641 -0.029314 -0.028352 -0.0277205 -0.0272885 -0.0267273 -0.0256831 -0.0237797 -0.0207486 -0.0165242 -0.0111907 -0.00503775 0.00156255 0.00824828 0.0146797 0.020625 0.0259358 0.0304932 0.0341395 0.0366635 0.0377713 0.037154 0.0346135 0.0300932 0.0238193 0.0162954 0.008227 0.000414417 -0.00644499 -0.0118526 -0.0156652 -0.0180033 -0.0192256 -0.0197425 -0.0198838 -0.019817 -0.0195467 -0.0189537 -0.0179033 -0.0163118 -0.0142404 -0.0118977 -0.00956817 -0.00760762 -0.00627501 -0.00571431 -0.0058886 -0.00656571 -0.00735422 -0.00781307 -0.00755532 -0.00640468 -0.00439959 -0.00189613 0.000616377 0.00255504 0.00345124 0.00311722 0.00166515 -0.000461911 -0.00268207 -0.00431857 -0.00492693 -0.00431445 -0.0026777 -0.000463948 0.00165575 0.00309526 0.00339091 0.00241979 0.000354399 -0.00236876 -0.00518487 -0.00760068 -0.00922453 -0.0099103 -0.00967689 -0.00873584 -0.00736454 -0.00589598 -0.00467141 -0.00400179 -0.0041589 -0.00533495 -0.00750452 -0.0104807 -0.0138865 -0.0172811 -0.0202666 -0.0225335 -0.0239227 -0.0243472 -0.0237166 -0.021892 -0.0186957 -0.013968 -0.00773674 -0.000233432 0.0080264 0.0163664 0.0240183 0.0303302 0.0348345 0.0373343 0.0379207 0.0367917 0.0342593 0.0306144 0.026069 0.0207761 0.0148448 0.00842322 0.00174943 -0.00484528 -0.0109857 -0.0162852 -0.020453 -0.0233834 -0.0251364 -0.025993 -0.026363 -0.0266701 -0.0273146 -0.0285113 -0.0302275 -0.0322057 -0.0339268 -0.0348472 -0.0345153 -0.0327684 -0.0298345 -0.0262543 -0.0227411 -0.019897 -0.0181143 -0.0174374 -0.0176465 -0.0184088 -0.019383 -0.0202736 -0.0209708 -0.0213605 -0.021391 -0.0209872 -0.0199948 -0.0182804 -0.0158346 -0.0127736 -0.00942079 -0.00618717 -0.00347872 -0.00163486 -0.000780748 -0.000788298 -0.00136942 -0.00216163 -0.00284498 -0.00323936 -0.00323078 -0.00165543 0 0 
0 0 -0.00137895 -0.00277647 -0.00313016 -0.00322276 -0.00301415 -0.00247292 -0.00167824 -0.000857217 -0.000350965 -0.000490971 -0.00150619 -0.00345596 -0.0061477 -0.00922878 -0.0123226 -0.0150547 -0.0171869 -0.0186371 -0.0194212 -0.0196461 -0.0194363 -0.0188623 -0.0180191 -0.0170307 -0.0160596 -0.0154025 -0.0153295 -0.0160697 -0.017718 -0.0201783 -0.0231675 -0.0262915 -0.029106 -0.0312654 -0.0325559 -0.0329821 -0.0326764 -0.0318461 -0.0307062 -0.029359 -0.0278461 -0.026101 -0.0240116 -0.0214682 -0.0183678 -0.014624 -0.0101888 -0.00503127 0.000791754 0.00714646 0.0137896 0.0203702 0.0264182 0.0314362 0.0349555 0.0365964 0.0361444 0.0335723 0.0290752 0.0231011 0.0161952 0.00904154 0.00226616 -0.00362512 -0.00832674 -0.0118015 -0.0141798 -0.0157368 -0.0167317 -0.0173506 -0.0176548 -0.0175839 -0.0170474 -0.015972 -0.0144039 -0.0124835 -0.0104779 -0.00866934 -0.00732073 -0.00661104 -0.00654462 -0.00699712 -0.0076789 -0.00825608 -0.00836089 -0.00771908 -0.00622305 -0.00397839 -0.0013129 0.00131998 0.00340316 0.0045122 0.00442201 0.00316134 0.00101481 -0.00152904 -0.00390445 -0.00558023 -0.00618045 -0.00557757 -0.00389964 -0.00152765 0.00100959 0.00315049 0.0043921 0.00443757 0.0032504 0.00103155 -0.00181896 -0.00479191 -0.00742457 -0.00933541 -0.0103101 -0.0103108 -0.00945242 -0.00798348 -0.00622908 -0.00461837 -0.00356512 -0.00344784 -0.00446074 -0.00658553 -0.00956194 -0.0129172 -0.0161413 -0.0187668 -0.0205096 -0.0212496 -0.0210022 -0.0198009 -0.0176381 -0.0144562 -0.0101451 -0.00469819 0.00177306 0.00895257 0.0163494 0.0233691 0.0293738 0.0338493 0.0363831 0.0368009 0.0351335 0.0316005 0.0265799 0.0205394 0.0139707 0.00733585 0.000993439 -0.00481958 -0.00997113 -0.0143875 -0.0180946 -0.0211314 -0.0235694 -0.0255153 -0.0270956 -0.0284655 -0.0297597 -0.0309967 -0.0321292 -0.0329201 -0.0330787 -0.0323301 -0.0305255 -0.027785 -0.0244687 -0.0211079 -0.0182464 -0.0162722 -0.0153398 -0.0153222 -0.0159386 -0.01686 -0.017774 -0.0185222 -0.0190012 -0.0191367 -0.0188708 -0.0180771 -0.0166462 -0.0145526 -0.0118703 -0.00883477 -0.00581185 -0.00317724 -0.00128236 -0.000319564 -0.000232911 -0.000790362 -0.00166247 -0.00250833 -0.00309923 -0.00335074 -0.00321544 -0.00163149 0 0 
0 0 -0.00129948 -0.0026358 -0.00303461 -0.00323629 -0.00318665 -0.00281008 -0.00210919 -0.00120529 -0.000360769 8.91636e-05 -0.000138765 -0.00121367 -0.00312797 -0.00565131 -0.00845094 -0.0111765 -0.0135084 -0.0152811 -0.016444 -0.0170199 -0.0171065 -0.0168147 -0.0162266 -0.0154555 -0.0146056 -0.0138534 -0.0134333 -0.0135948 -0.014545 -0.016397 -0.0190827 -0.0223828 -0.0259096 -0.0292336 -0.0319397 -0.0337274 -0.0345013 -0.0342428 -0.0331012 -0.0312357 -0.0287989 -0.0259613 -0.022831 -0.0194988 -0.015983 -0.0122297 -0.00810311 -0.00343815 0.00190136 0.00788824 0.0143184 0.0207567 0.0266026 0.0311833 0.0339078 0.0343974 0.0325502 0.0286071 0.0230567 0.0165842 0.00991881 0.00368153 -0.00166152 -0.00590553 -0.00905718 -0.0113136 -0.0129113 -0.014076 -0.0149215 -0.0154491 -0.0155634 -0.015151 -0.0141649 -0.0126752 -0.0108656 -0.00902441 -0.00746763 -0.00644188 -0.00608311 -0.00634391 -0.00704613 -0.00786674 -0.00845165 -0.00846709 -0.00771337 -0.00613951 -0.0038941 -0.00129767 0.00124541 0.00328967 0.00450085 0.0046821 0.0038475 0.00217966 2.53837e-05 -0.00223337 -0.0041749 -0.00548756 -0.00594069 -0.00548611 -0.00417096 -0.0022303 2.44241e-05 0.0021747 0.00383327 0.00464384 0.00441742 0.00312338 0.000937495 -0.00181946 -0.0047074 -0.00730348 -0.0092246 -0.0102188 -0.0102033 -0.00924672 -0.00760501 -0.00565593 -0.00388331 -0.00274726 -0.00262814 -0.00368844 -0.00584691 -0.00875838 -0.0119168 -0.0148004 -0.016986 -0.0182431 -0.0185295 -0.0179216 -0.0165125 -0.0143456 -0.0113648 -0.00746829 -0.00256542 0.00329332 0.00989551 0.0167823 0.023361 0.0289385 0.0328606 0.0346714 0.0341447 0.0313909 0.026794 0.0209445 0.0145117 0.00809001 0.0021102 -0.00321619 -0.00787268 -0.0119878 -0.0157171 -0.0191923 -0.0224567 -0.0254839 -0.0281931 -0.0304967 -0.0322735 -0.0334268 -0.0338401 -0.0333955 -0.0320644 -0.0298509 -0.0269371 -0.0236276 -0.0203172 -0.0174218 -0.015263 -0.0140041 -0.013617 -0.0138976 -0.0145731 -0.0153649 -0.0160693 -0.016576 -0.0167765 -0.0166133 -0.0159808 -0.0147941 -0.0130243 -0.0107154 -0.00802984 -0.00527671 -0.0028036 -0.000941533 8.21495e-05 0.000257762 -0.000243073 -0.0011383 -0.00209477 -0.00284815 -0.00327538 -0.00336769 -0.00312516 -0.00157051 0 0 
0 0 -0.00120616 -0.00246294 -0.00289154 -0.00318451 -0.00329215 -0.00311552 -0.00260388 -0.00179376 -0.000839344 -1.54259e-05 0.000371714 9.16478e-05 -0.000967271 -0.00274257 -0.00500088 -0.00744668 -0.00976277 -0.0116947 -0.0131354 -0.0140564 -0.0144979 -0.0145522 -0.0143178 -0.0138839 -0.0133473 -0.0128087 -0.0124348 -0.012434 -0.0130473 -0.0144769 -0.0168192 -0.0199945 -0.0237383 -0.0276231 -0.031169 -0.0339045 -0.0354957 -0.0357998 -0.034797 -0.0326548 -0.0296121 -0.0259446 -0.0219257 -0.0177642 -0.0135691 -0.00934073 -0.00497005 -0.000308004 0.0047621 0.0102352 0.0159066 0.0213507 0.0260126 0.0293043 0.0307389 0.0300602 0.0273221 0.0228806 0.0173235 0.0113218 0.00553209 0.000432488 -0.0037197 -0.0068814 -0.00919048 -0.0108545 -0.0120762 -0.0129512 -0.0134874 -0.013617 -0.0132516 -0.0123622 -0.0110228 -0.00941129 -0.00777982 -0.00642265 -0.00555921 -0.00531562 -0.00564867 -0.00636997 -0.00719136 -0.00777089 -0.00781521 -0.00713222 -0.00570465 -0.00368459 -0.00136226 0.000893692 0.00272773 0.00385416 0.00414112 0.0036158 0.00243048 0.00083378 -0.00089566 -0.00250458 -0.00378244 -0.00460206 -0.00488099 -0.00460098 -0.00377994 -0.00250149 -0.000893806 0.000832413 0.00242401 0.00359778 0.0040985 0.00376372 0.00255081 0.000578503 -0.00187917 -0.00446887 -0.00679311 -0.00849827 -0.00933711 -0.00921125 -0.00821125 -0.00658428 -0.00472101 -0.00307719 -0.00209525 -0.00209861 -0.00318911 -0.00524816 -0.00792312 -0.0107508 -0.0132623 -0.0150985 -0.0160742 -0.0161677 -0.0154459 -0.013984 -0.0118169 -0.00887754 -0.00507091 -0.000347849 0.0052068 0.0113246 0.0175289 0.0231881 0.0276571 0.0303805 0.0310272 0.0295558 0.0262345 0.0215558 0.0161071 0.0104421 0.00497679 -8.28273e-05 -0.00473222 -0.00909275 -0.0133049 -0.0174733 -0.0215907 -0.0255424 -0.029115 -0.0320503 -0.0340951 -0.0350619 -0.0348185 -0.033418 -0.0310069 -0.0278619 -0.024372 -0.0209213 -0.0178683 -0.0154717 -0.0138522 -0.0130006 -0.0127792 -0.0129954 -0.0134274 -0.0138927 -0.0142601 -0.0144194 -0.014281 -0.0137612 -0.0127742 -0.0112957 -0.00934476 -0.00703501 -0.00461011 -0.00238421 -0.000649832 0.000365329 0.000599225 0.000164217 -0.000708645 -0.00171445 -0.00257779 -0.00314341 -0.00337268 -0.00330967 -0.00298298 -0.00148602 0 0 
0 0 -0.00110189 -0.00226628 -0.0027232 -0.00309753 -0.00335199 -0.0033862 -0.00311455 -0.00251397 -0.00164858 -0.000690193 9.72913e-05 0.000449171 0.000182584 -0.00076529 -0.00229999 -0.00421453 -0.00625706 -0.00815873 -0.00973692 -0.0109228 -0.0117148 -0.0121701 -0.0123705 -0.0124021 -0.0123368 -0.0122509 -0.0122476 -0.0124811 -0.0131496 -0.0144491 -0.016536 -0.0194163 -0.022945 -0.026775 -0.0304537 -0.0334936 -0.0354459 -0.0360513 -0.035198 -0.0329712 -0.0296066 -0.0254154 -0.0207185 -0.0157918 -0.0108286 -0.00591127 -0.00105004 0.00378296 0.00858765 0.013291 0.017702 0.0215267 0.0243938 0.0259622 0.0259902 0.0244068 0.0213681 0.0172156 0.0124225 0.0074872 0.0028435 -0.00120512 -0.00452456 -0.00711532 -0.00906879 -0.0104889 -0.0114484 -0.0119708 -0.0120351 -0.0116176 -0.0107434 -0.00951101 -0.00808749 -0.00669255 -0.00554908 -0.00483223 -0.00461978 -0.00487144 -0.00543635 -0.00607373 -0.00651173 -0.00651846 -0.00594207 -0.00477086 -0.00312144 -0.00123447 0.000591289 0.00207781 0.00299802 0.00326575 0.00290131 0.0020462 0.000895112 -0.000333893 -0.00147215 -0.00239616 -0.00306026 -0.00345068 -0.00358188 -0.00344987 -0.00305883 -0.00239372 -0.00146977 -0.000333399 0.000892693 0.00203818 0.00288066 0.00321935 0.00290255 0.00189872 0.000282464 -0.0017289 -0.00385123 -0.00575392 -0.00713743 -0.00779959 -0.00765645 -0.00678553 -0.0053975 -0.00383014 -0.00248088 -0.0017186 -0.00181276 -0.00285022 -0.00471168 -0.00709956 -0.00960657 -0.0118282 -0.0134396 -0.014254 -0.0142192 -0.0133645 -0.0117352 -0.00936073 -0.00624305 -0.00238305 0.00214894 0.00718776 0.0124125 0.0173923 0.0216449 0.0247169 0.0262963 0.0262454 0.0246475 0.0217553 0.017916 0.0135013 0.00880491 0.00400964 -0.000810524 -0.00565936 -0.0105634 -0.015509 -0.0204068 -0.0250597 -0.0291876 -0.0324714 -0.0346147 -0.0354066 -0.0348058 -0.0329462 -0.03011 -0.0267269 -0.023233 -0.0200106 -0.0173321 -0.0153142 -0.0139463 -0.0131306 -0.012721 -0.0125722 -0.0125395 -0.0125188 -0.0124188 -0.0121467 -0.0116165 -0.010743 -0.00948655 -0.00785159 -0.0059143 -0.00385853 -0.00194628 -0.000428789 0.000493618 0.000727837 0.000337867 -0.000492078 -0.00149673 -0.00241164 -0.00306455 -0.0033902 -0.00340991 -0.00320269 -0.00280502 -0.00138556 0 0 
0 0 -0.000983383 -0.00204114 -0.00253402 -0.00299233 -0.00338622 -0.00362724 -0.00361788 -0.00329131 -0.00264729 -0.00176841 -0.000829685 -6.88677e-05 0.000290848 0.000103258 -0.000660765 -0.00190354 -0.0034581 -0.00511943 -0.00668615 -0.00803857 -0.00913555 -0.0100015 -0.0106899 -0.01127 -0.0118019 -0.0123347 -0.0129265 -0.013665 -0.0146773 -0.0160997 -0.0180457 -0.0205533 -0.0235408 -0.0267855 -0.0299319 -0.0325698 -0.0342964 -0.0347879 -0.0338963 -0.0316189 -0.0281139 -0.0236477 -0.0185324 -0.0130669 -0.00751314 -0.00206931 0.00311222 0.00790869 0.0122109 0.0158903 0.0188114 0.020844 0.0218723 0.021827 0.0207081 0.0186106 0.0157109 0.012255 0.00851355 0.00475546 0.00120026 -0.00199658 -0.00473823 -0.00698811 -0.00872648 -0.0099402 -0.0106085 -0.0107317 -0.0103362 -0.00949413 -0.00833685 -0.00704834 -0.0058224 -0.00483688 -0.00422071 -0.00400188 -0.0041332 -0.00447778 -0.00485028 -0.00505833 -0.00494053 -0.00440847 -0.00346735 -0.00221581 -0.000827259 0.000488654 0.00153109 0.00215835 0.00230687 0.00201139 0.00137657 0.00055517 -0.000296469 -0.00105005 -0.00163424 -0.00202572 -0.0022553 -0.00236264 -0.00239403 -0.00236257 -0.00225434 -0.00202383 -0.00163268 -0.00104937 -0.000296572 0.000552462 0.00136691 0.0019884 0.0022587 0.00206321 0.00135745 0.000196186 -0.00128355 -0.00287112 -0.00432675 -0.00542277 -0.00598669 -0.00593877 -0.00531532 -0.00427593 -0.0030845 -0.00206229 -0.00152804 -0.00170711 -0.00268674 -0.00436411 -0.00648236 -0.00869203 -0.0106219 -0.0119669 -0.0125353 -0.0122478 -0.0111161 -0.00921387 -0.00663115 -0.00346811 0.000164267 0.00411739 0.00820859 0.0122007 0.0158288 0.0188275 0.0209692 0.0220983 0.0221352 0.0210903 0.0190424 0.0161124 0.0124323 0.00813721 0.00335112 -0.00181781 -0.00724818 -0.0127869 -0.0182338 -0.0233201 -0.0277455 -0.0311947 -0.0334078 -0.0342406 -0.0337198 -0.0320249 -0.0294954 -0.0265442 -0.0235547 -0.0208382 -0.0185599 -0.0167557 -0.0153705 -0.0143031 -0.0134587 -0.0127488 -0.0121045 -0.0114848 -0.0108338 -0.010079 -0.0091425 -0.00796756 -0.00654139 -0.00490764 -0.00319741 -0.00160957 -0.000351086 0.000414557 0.000591672 0.000210751 -0.00057878 -0.00155277 -0.002472 -0.00316119 -0.00353623 -0.00359623 -0.00340716 -0.0030612 -0.00259128 -0.0012678 0 0 
0 0 -0.000844503 -0.00177522 -0.00230804 -0.00285389 -0.00338445 -0.00382294 -0.00407733 -0.00405933 -0.0037193 -0.00307448 -0.00221958 -0.00132341 -0.000593987 -0.00021998 -0.000321059 -0.000910896 -0.00191086 -0.00319437 -0.004609 -0.00602484 -0.00736619 -0.00861557 -0.00979764 -0.0109473 -0.0121062 -0.0132986 -0.0145469 -0.0158735 -0.0173189 -0.0189381 -0.0207703 -0.0228294 -0.0250617 -0.0273411 -0.0294505 -0.0311119 -0.0320372 -0.0319646 -0.0307274 -0.0282797 -0.0247004 -0.020173 -0.0149639 -0.00936902 -0.00368914 0.00178819 0.00680847 0.0111542 0.0146539 0.0171912 0.0187139 0.0192372 0.0188465 0.0176662 0.0158559 0.013585 0.0110104 0.00826288 0.00545296 0.00267034 -8.82555e-06 -0.00250632 -0.00473921 -0.00661628 -0.00804515 -0.00894845 -0.00929278 -0.00909419 -0.00843546 -0.00745709 -0.00633576 -0.00525483 -0.00437023 -0.00377324 -0.00348463 -0.00344998 -0.00355463 -0.00366187 -0.00363318 -0.00337465 -0.00284759 -0.00208119 -0.00116462 -0.000225828 0.00059738 0.00118603 0.00146893 0.00143024 0.00111593 0.000610236 2.18728e-05 -0.000541726 -0.000998678 -0.00131006 -0.00147462 -0.00152277 -0.00150083 -0.00146076 -0.00144458 -0.00146085 -0.0015003 -0.00152167 -0.00147379 -0.00130976 -0.000998374 -0.000541997 1.8087e-05 0.000599294 0.00109271 0.00138314 0.00137785 0.00102388 0.000330652 -0.000631999 -0.00173393 -0.00280939 -0.00368278 -0.00420507 -0.0042909 -0.00394382 -0.00326946 -0.00247322 -0.00180541 -0.00152669 -0.0018233 -0.00275426 -0.00423496 -0.0060373 -0.00785485 -0.00936702 -0.0103056 -0.0105002 -0.00989896 -0.00854646 -0.00655768 -0.00408093 -0.00126621 0.00174792 0.00484701 0.00792883 0.010892 0.0136245 0.0159969 0.0178648 0.0190717 0.0194715 0.0189461 0.01742 0.0148808 0.0113842 0.00704589 0.00203606 -0.00342985 -0.00909589 -0.0146762 -0.0198666 -0.0243673 -0.0279104 -0.0303114 -0.0315008 -0.0315362 -0.0306063 -0.0289913 -0.0269924 -0.0248859 -0.022864 -0.0210161 -0.0193539 -0.0178362 -0.0164158 -0.0150548 -0.0137392 -0.0124609 -0.011225 -0.0100088 -0.00876798 -0.00745452 -0.00604417 -0.0045553 -0.0030704 -0.00172632 -0.000679395 -5.90324e-05 5.76615e-05 -0.000314978 -0.00105374 -0.00196867 -0.00285008 -0.00352758 -0.00390529 -0.00396413 -0.00375305 -0.00335977 -0.00287311 -0.0023256 -0.0011244 0 0 
0 0 -0.000682617 -0.00146055 -0.00201861 -0.00263589 -0.00328718 -0.00390633 -0.00441062 -0.00471103 -0.00473111 -0.00443747 -0.00386206 -0.0031064 -0.00232822 -0.00170698 -0.00140201 -0.00151204 -0.00205055 -0.00296726 -0.00417326 -0.0055678 -0.00707073 -0.00863108 -0.0102339 -0.01188 -0.0135707 -0.0153009 -0.0170563 -0.0188145 -0.0205409 -0.0222111 -0.0237997 -0.0252779 -0.0266043 -0.0277143 -0.028513 -0.0288706 -0.0286326 -0.0276538 -0.025817 -0.0230735 -0.0194561 -0.0150864 -0.0101653 -0.00495658 0.000247069 0.00514439 0.00945864 0.0129599 0.0154851 0.0169642 0.0174158 0.0169481 0.0157367 0.0139893 0.0119149 0.00968456 0.0074216 0.00519142 0.00302333 0.000925595 -0.00108512 -0.00296468 -0.00464115 -0.00601825 -0.00700337 -0.00753214 -0.0075929 -0.00723403 -0.00656101 -0.00571643 -0.00485107 -0.00408857 -0.00350857 -0.00313181 -0.00291524 -0.00278518 -0.00264383 -0.00240754 -0.00202736 -0.001498 -0.000862456 -0.000200341 0.000392976 0.000827883 0.00104395 0.00102034 0.000781626 0.000387113 -8.11187e-05 -0.000537242 -0.000911341 -0.00116095 -0.00126991 -0.0012545 -0.0011482 -0.00100018 -0.000853881 -0.000750905 -0.000713538 -0.000750673 -0.000853713 -0.00100005 -0.00114787 -0.00125419 -0.00126999 -0.00116137 -0.000912596 -0.00054145 -9.16768e-05 0.000364836 0.000737119 0.00093666 0.00089847 0.000593305 4.3261e-05 -0.000679977 -0.00146193 -0.00216748 -0.00267094 -0.00288781 -0.00280174 -0.00247929 -0.00206133 -0.00173829 -0.0016952 -0.00206992 -0.00289583 -0.00408966 -0.00546859 -0.00678733 -0.00779772 -0.00830285 -0.00819142 -0.00745203 -0.0061556 -0.00442088 -0.00238134 -0.000149304 0.00219368 0.00460351 0.00705068 0.0094972 0.0118712 0.0140502 0.0158666 0.0171213 0.0176135 0.0171739 0.0157024 0.0131827 0.00968825 0.00538276 0.000495543 -0.00469731 -0.00989317 -0.0147997 -0.0191506 -0.0227434 -0.0254554 -0.0272548 -0.0281992 -0.0284156 -0.0280677 -0.0273206 -0.0263127 -0.0251314 -0.0238207 -0.0223928 -0.0208484 -0.0191968 -0.0174628 -0.0156901 -0.0139107 -0.0121626 -0.0104643 -0.00881217 -0.00719979 -0.00563929 -0.00418001 -0.00290813 -0.00192963 -0.0013396 -0.00119094 -0.00147155 -0.00208138 -0.00285977 -0.00362598 -0.00421951 -0.0045373 -0.00454543 -0.00427595 -0.0038045 -0.00321967 -0.00260267 -0.00198857 -0.000946941 0 0 
0 0 -0.000504571 -0.00110575 -0.00164791 -0.00228793 -0.00300926 -0.00376302 -0.00447997 -0.00507957 -0.00548158 -0.00562469 -0.00549118 -0.00512224 -0.00461699 -0.00411484 -0.00376573 -0.00370069 -0.00400045 -0.00468561 -0.00572866 -0.00706978 -0.00864117 -0.0103804 -0.0122367 -0.0141738 -0.0161549 -0.0181395 -0.0200775 -0.0219106 -0.023568 -0.0249749 -0.0260667 -0.026791 -0.027113 -0.027014 -0.0264837 -0.0255081 -0.0240623 -0.0221132 -0.0196306 -0.0166033 -0.0130594 -0.00908278 -0.00481475 -0.000453195 0.00376971 0.00760986 0.0108428 0.0132907 0.0148453 0.0154805 0.0152541 0.0142946 0.0127779 0.0109028 0.00885194 0.00677144 0.00475728 0.00286165 0.00109849 -0.00053061 -0.00201796 -0.00333705 -0.00444102 -0.00527413 -0.00579153 -0.00597695 -0.00585075 -0.00547379 -0.00493549 -0.00433468 -0.00375723 -0.00325859 -0.00285403 -0.00252561 -0.00222852 -0.00190916 -0.00152821 -0.00106806 -0.000546653 -9.29293e-06 0.00047662 0.000842145 0.00103035 0.00101362 0.000798157 0.000425947 -3.6247e-05 -0.0005108 -0.000924592 -0.0012201 -0.001368 -0.00137004 -0.00124947 -0.00104469 -0.000800706 -0.000561932 -0.000366051 -0.000239419 -0.000194075 -0.000239228 -0.000366085 -0.000562244 -0.00080082 -0.00104447 -0.00124953 -0.00137076 -0.00136889 -0.00122136 -0.0009285 -0.000520718 -5.69503e-05 0.000385485 0.000723897 0.000887053 0.000830211 0.00054959 8.30668e-05 -0.000491023 -0.00107227 -0.00155881 -0.00187522 -0.00199188 -0.00194411 -0.00181787 -0.00173947 -0.00183545 -0.00219088 -0.002826 -0.00367857 -0.00461768 -0.00547521 -0.00608797 -0.00633029 -0.0061384 -0.00551195 -0.00449766 -0.00316719 -0.00158991 0.000181624 0.00211577 0.00418971 0.0063741 0.00860709 0.0107862 0.0127628 0.0143545 0.015368 0.0156303 0.0150188 0.0134809 0.0110455 0.0078237 0.00399513 -0.000216356 -0.00456577 -0.00882021 -0.0127812 -0.016306 -0.0193102 -0.0217646 -0.0236836 -0.0251036 -0.0260675 -0.0266125 -0.02676 -0.0265237 -0.0259149 -0.0249503 -0.0236627 -0.0220973 -0.0203207 -0.0184027 -0.0164062 -0.0143968 -0.0124274 -0.0105365 -0.00876043 -0.00714659 -0.00575664 -0.00466058 -0.00392274 -0.00357528 -0.00360178 -0.00392378 -0.00441048 -0.00491136 -0.00528484 -0.00542967 -0.00530283 -0.00492013 -0.00434146 -0.00364615 -0.00291437 -0.00221456 -0.00157695 -0.000736235 0 0 
0 0 -0.000326853 -0.000739841 -0.00120674 -0.00179394 -0.00249874 -0.0032969 -0.0041433 -0.00497557 -0.00572357 -0.00632082 -0.00671998 -0.00691125 -0.00693272 -0.006868 -0.00682857 -0.00693218 -0.00728045 -0.00793603 -0.00891914 -0.0102102 -0.0117596 -0.0135039 -0.0153728 -0.017297 -0.019215 -0.0210639 -0.0227714 -0.0242585 -0.0254449 -0.026247 -0.0265949 -0.0264411 -0.0257669 -0.0245874 -0.0229451 -0.0208984 -0.0185108 -0.0158371 -0.0129222 -0.00980576 -0.0065328 -0.00316662 0.000202566 0.00345611 0.00645208 0.00904233 0.0110912 0.0124986 0.0132135 0.0132406 0.0126413 0.0115199 0.0100085 0.00825123 0.00638317 0.00451926 0.00274238 0.00110869 -0.000350354 -0.00161672 -0.00267751 -0.00352084 -0.00413493 -0.00451388 -0.00466313 -0.00460518 -0.00438068 -0.00404239 -0.00364556 -0.00323784 -0.0028492 -0.00248818 -0.00214415 -0.00179368 -0.00141496 -0.00099314 -0.000533105 -6.01139e-05 0.000384056 0.000747839 0.000982145 0.00105185 0.000945607 0.000678153 0.000289475 -0.000161959 -0.00061083 -0.000995513 -0.00126872 -0.00140566 -0.00140261 -0.00127697 -0.00106251 -0.00079857 -0.000525689 -0.00027776 -8.24644e-05 4.28511e-05 8.5572e-05 4.27499e-05 -8.26632e-05 -0.000278019 -0.000525949 -0.00079874 -0.0010626 -0.00127724 -0.00140324 -0.00140637 -0.00126994 -0.000999277 -0.000619916 -0.000180652 0.0002534 0.000613324 0.000837545 0.000884569 0.00074208 0.000430319 2.41129e-06 -0.000468235 -0.000904703 -0.00124432 -0.00145599 -0.00155038 -0.00157942 -0.00161936 -0.00175221 -0.00203558 -0.00248445 -0.00306313 -0.00369142 -0.00426637 -0.00468454 -0.00485979 -0.00473939 -0.00430299 -0.00355485 -0.00251521 -0.00120902 0.000335133 0.00208283 0.00398729 0.00598044 0.00796984 0.0098353 0.0114375 0.0126318 0.0132881 0.0133031 0.0126197 0.0112365 0.00920733 0.00663403 0.00365438 0.00041631 -0.00293761 -0.00628794 -0.00954298 -0.0126388 -0.01553 -0.0181772 -0.020539 -0.0225647 -0.0241992 -0.0253914 -0.0261049 -0.0263251 -0.0260631 -0.025354 -0.0242524 -0.0228271 -0.0211468 -0.0193234 -0.0174103 -0.0154756 -0.0135899 -0.011825 -0.0102508 -0.0089299 -0.00791256 -0.00722056 -0.00683729 -0.00670367 -0.00672047 -0.00677119 -0.00674396 -0.00655392 -0.00616157 -0.00557491 -0.00483938 -0.00402007 -0.00318618 -0.00239955 -0.00170463 -0.00111669 -0.000507683 0 0 
0 0 -0.000169605 -0.000404084 -0.000740402 -0.00119528 -0.00178083 -0.00249792 -0.00333172 -0.00424937 -0.00520256 -0.00613421 -0.00698853 -0.00772471 -0.00833042 -0.00882937 -0.00927871 -0.00975704 -0.010348 -0.0111207 -0.0121144 -0.0133335 -0.014747 -0.0162968 -0.017908 -0.0194981 -0.0210005 -0.0223548 -0.0234868 -0.0243218 -0.0247897 -0.0248278 -0.0243876 -0.0234447 -0.022005 -0.0201063 -0.0178166 -0.015226 -0.0124347 -0.00954071 -0.00663014 -0.00377376 -0.00102848 0.00155692 0.00393432 0.00605224 0.00785387 0.00928292 0.0102893 0.0108399 0.010925 0.0105626 0.00979784 0.00869836 0.00734744 0.00583555 0.00425374 0.00268634 0.00120579 -0.000130536 -0.00127993 -0.00221552 -0.00292437 -0.00340731 -0.00367766 -0.00376002 -0.00368768 -0.00349928 -0.00323489 -0.00293083 -0.00261432 -0.00230032 -0.00199201 -0.00168296 -0.00136282 -0.00102253 -0.000660844 -0.000287672 7.63432e-05 0.000400936 0.000652978 0.000802469 0.000830168 0.000731058 0.000517389 0.000217005 -0.000130561 -0.000480642 -0.000790687 -0.00102582 -0.00116384 -0.00119825 -0.00113564 -0.000993152 -0.000796019 -0.000572436 -0.000349717 -0.00015141 3.71917e-06 0.000102452 0.000135944 0.00010225 3.43745e-06 -0.000151656 -0.000349969 -0.000572775 -0.000796344 -0.000993352 -0.00113586 -0.00119866 -0.00116447 -0.00102729 -0.000794502 -0.000489136 -0.000147754 0.000184628 0.000460743 0.000638892 0.000690728 0.00060671 0.000399874 0.000103567 -0.000234278 -0.000561999 -0.000835742 -0.0010328 -0.00115629 -0.00123604 -0.00132076 -0.00146206 -0.00169906 -0.00204446 -0.00247887 -0.00295262 -0.00339665 -0.0037349 -0.00389705 -0.00382767 -0.00349009 -0.00286849 -0.00196621 -0.000804447 0.000579606 0.00213209 0.00378548 0.00545851 0.00706018 0.00849453 0.00966776 0.0104958 0.0109107 0.0108684 0.0103529 0.00937558 0.00797144 0.00619205 0.00409474 0.00173676 -0.000829809 -0.00355592 -0.00639183 -0.00928009 -0.0121496 -0.0149152 -0.0174813 -0.0197519 -0.0216428 -0.0230913 -0.0240626 -0.0245505 -0.0245731 -0.024169 -0.0233886 -0.0222364 -0.0209605 -0.0194918 -0.0179069 -0.0162932 -0.0147373 -0.0133157 -0.0120857 -0.0110781 -0.0102888 -0.00967996 -0.00918474 -0.00872161 -0.00821348 -0.00760366 -0.00686815 -0.00601834 -0.00509362 -0.00414842 -0.00323861 -0.00241154 -0.00169943 -0.00111669 -0.000660141 -0.000287719 0 0 
0 0 -7.16036e-05 -0.000175509 -0.000343261 -0.000574756 -0.000877832 -0.00125484 -0.00169998 -0.00219747 -0.00272192 -0.00324201 -0.00372621 -0.00414931 -0.00449938 -0.00478299 -0.00502607 -0.00526843 -0.00555514 -0.005927 -0.00641035 -0.00701253 -0.00772171 -0.00850924 -0.00933618 -0.0101591 -0.0109371 -0.0116322 -0.0122047 -0.0126141 -0.0128224 -0.0127976 -0.0125151 -0.0119632 -0.0111463 -0.0100864 -0.00882173 -0.00740421 -0.00589238 -0.00434529 -0.00281593 -0.00134765 2.64686e-05 0.00128208 0.00239991 0.0033624 0.00415243 0.004754 0.00515402 0.00534456 0.00532616 0.00510893 0.00471251 0.00416541 0.0035027 0.00276269 0.00198595 0.00121201 0.000478489 -0.000182473 -0.000744789 -0.00119132 -0.00151465 -0.00171712 -0.00181022 -0.00181269 -0.00174766 -0.00163883 -0.00150678 -0.00136688 -0.00122743 -0.00108894 -0.000946687 -0.000793722 -0.000623965 -0.000435971 -0.000234269 -3.00333e-05 0.00016064 0.000318951 0.000427061 0.000472106 0.0004491 0.000361655 0.00022125 4.64372e-05 -0.000140462 -0.000316923 -0.000463504 -0.000566088 -0.00061737 -0.000616901 -0.000570442 -0.000487617 -0.000380584 -0.000262613 -0.000146527 -4.36912e-05 3.65787e-05 8.72591e-05 0.000104586 8.71365e-05 3.64135e-05 -4.3803e-05 -0.000146608 -0.000262796 -0.000380853 -0.000487767 -0.000570447 -0.000616995 -0.000617635 -0.000566553 -0.000464688 -0.000319785 -0.000146498 3.45888e-05 0.000199593 0.00032504 0.000391783 0.000388877 0.000315141 0.000181131 8.18134e-06 -0.000176487 -0.000345818 -0.000479632 -0.000569781 -0.000622916 -0.00065849 -0.00070359 -0.000783927 -0.000915993 -0.00110129 -0.00132341 -0.00155192 -0.00174861 -0.00187292 -0.00188917 -0.00177073 -0.00150293 -0.00108439 -0.000525784 0.000151376 0.00091581 0.00173035 0.00255284 0.00333953 0.00404701 0.00463471 0.00506639 0.00531356 0.00535639 0.00518545 0.00480123 0.00421286 0.00343409 0.00248186 0.0013738 0.000127513 -0.00123748 -0.00269618 -0.00421511 -0.00575059 -0.00724976 -0.00865486 -0.00990898 -0.0109629 -0.0117806 -0.0123426 -0.0126449 -0.0126969 -0.0125185 -0.0121338 -0.0115698 -0.0109038 -0.0101445 -0.00932813 -0.00850192 -0.00771277 -0.00700093 -0.00639495 -0.00590624 -0.00552739 -0.00523264 -0.00498224 -0.00473239 -0.00444404 -0.00409168 -0.00366871 -0.00318644 -0.00266938 -0.00214839 -0.00165412 -0.0012114 -0.000835617 -0.000532174 -0.000297856 -0.000127805 0 0 
0 0 0 0 0 0 0 0 0 0 0 0 0 0 0 0 0 0 0 0 0 0 0 0 0 0 0 0 0 0 0 0 0 0 0 0 0 0 0 0 0 0 0 0 0 0 0 0 0 0 0 0 0 0 0 0 0 0 0 0 0 0 0 0 0 0 0 0 0 0 0 0 0 0 0 0 0 0 0 0 0 0 0 0 0 0 0 0 0 0 0 0 0 0 0 0 0 0 0 0 0 0 0 0 0 0 0 0 0 0 0 0 0 0 0 0 0 0 0 0 0 0 0 0 0 0 0 0 0 0 0 0 0 0 0 0 0 0 0 0 0 0 0 0 0 0 0 0 0 0 0 0 0 0 0 0 0 0 0 0 0 0 0 0 0 0 0 0 0 0 0 0 0 0 0 0 0 0 0 0 0 0 0 0 0 0 0 0 0 0 0 0 0 0 0 0 0 0 0 0 
0 0 0 0 0 0 0 0 0 0 0 0 0 0 0 0 0 0 0 0 0 0 0 0 0 0 0 0 0 0 0 0 0 0 0 0 0 0 0 0 0 0 0 0 0 0 0 0 0 0 0 0 0 0 0 0 0 0 0 0 0 0 0 0 0 0 0 0 0 0 0 0 0 0 0 0 0 0 0 0 0 0 0 0 0 0 0 0 0 0 0 0 0 0 0 0 0 0 0 0 0 0 0 0 0 0 0 0 0 0 0 0 0 0 0 0 0 0 0 0 0 0 0 0 0 0 0 0 0 0 0 0 0 0 0 0 0 0 0 0 0 0 0 0 0 0 0 0 0 0 0 0 0 0 0 0 0 0 0 0 0 0 0 0 0 0 0 0 0 0 0 0 0 0 0 0 0 0 0 0 0 0 0 0 0 0 0 0 0 0 0 0 0 0 0 0 0 0 0 0 
</DataArray>
</PointData>
</Piece>
</ImageData>
</VTKFile>
