<?xml version="1.0"?>
<VTKFile type="ImageData" version="0.1" byte_order="LittleEndian">
<ImageData WholeExtent="0 199 0 199 0 0" Origin="0 0 0" Spacing="15 15 0">
<Piece Extent="0 199 0 199 0 0">
<PointData Scalars="Amplitude">
<DataArray type="Float32" Name="Amplitude" format="ascii">
0 0 0 0 0 0 0 0 0 0 0 0 0 0 0 0 0 0 0 0 0 0 0 0 0 0 0 0 0 0 0 0 0 0 0 0 0 0 0 0 0 0 0 0 0 0 0 0 0 0 0 0 0 0 0 0 0 0 0 0 0 0 0 0 0 0 0 0 0 0 0 0 0 0 0 0 0 0 0 0 0 0 0 0 0 0 0 0 0 0 0 0 0 0 0 0 0 0 0 0 0 0 0 0 0 0 0 0 0 0 0 0 0 0 0 0 0 0 0 0 0 0 0 0 0 0 0 0 0 0 0 0 0 0 0 0 0 0 0 0 0 0 0 0 0 0 0 0 0 0 0 0 0 0 0 0 0 0 0 0 0 0 0 0 0 0 0 0 0 0 0 0 0 0 0 0 0 0 0 0 0 0 0 0 0 0 0 0 0 0 0 0 0 0 0 0 0 0 0 0 
0 0 0 0 0 0 0 0 0 0 0 0 0 0 0 0 0 0 0 0 0 0 0 0 0 0 0 0 0 0 0 0 0 0 0 0 0 0 0 0 0 0 0 0 0 0 0 0 0 0 0 0 0 0 0 0 0 0 0 0 0 0 0 0 0 0 0 0 0 0 0 0 0 0 0 0 0 0 0 0 0 0 0 0 0 0 0 0 0 0 0 0 0 0 0 0 0 0 0 0 0 0 0 0 0 0 0 0 0 0 0 0 0 0 0 0 0 0 0 0 0 0 0 0 0 0 0 0 0 0 0 0 0 0 0 0 0 0 0 0 0 0 0 0 0 0 0 0 0 0 0 0 0 0 0 0 0 0 0 0 0 0 0 0 0 0 0 0 0 0 0 0 0 0 0 0 0 0 0 0 0 0 0 0 0 0 0 0 0 0 0 0 0 0 0 0 0 0 0 0 
0 0 -3.00584e-27 -1.329e-26 -2.28707e-26 4.96923e-25 4.12175e-24 1.04545e-23 -5.72678e-23 -6.4519e-22 -2.539e-21 -7.32572e-22 4.7181e-20 2.79861e-19 7.45531e-19 -3.01742e-19 -1.19784e-17 -5.62925e-17 -1.33019e-16 -1.50562e-17 1.28273e-15 5.91481e-15 1.45826e-14 1.31561e-14 -6.02087e-14 -3.49693e-13 -9.99229e-13 -1.61684e-12 2.45915e-13 1.1568e-11 4.43116e-11 1.03629e-10 1.43417e-10 -3.16621e-11 -8.96097e-10 -3.20691e-09 -7.46095e-09 -1.2092e-08 -9.71903e-09 1.82102e-08 1.0515e-07 2.93309e-07 6.03515e-07 9.64479e-07 1.09239e-06 3.37054e-07 -2.44352e-06 -8.85881e-06 -2.06396e-05 -3.87886e-05 -6.2116e-05 -8.52124e-05 -9.61584e-05 -7.45397e-05 9.46185e-06 0.000194112 0.000522706 0.00103758 0.00177202 0.00274122 0.0039339 0.00530636 0.00678051 0.00824682 0.00957227 0.0106126 0.011227 0.0112936 0.0107228 0.00946775 0.00752986 0.00495857 0.00184691 -0.00167769 -0.00546491 -0.00935419 -0.0131874 -0.0168197 -0.0201279 -0.0230165 -0.0254199 -0.0273031 -0.0286592 -0.0295056 -0.0298799 -0.0298342 -0.0294305 -0.0287357 -0.027818 -0.0267434 -0.0255744 -0.0243667 -0.0231703 -0.0220275 -0.020974 -0.0200387 -0.0192452 -0.0186109 -0.018149 -0.0178684 -0.0177744 -0.0178684 -0.018149 -0.0186109 -0.0192452 -0.0200387 -0.020974 -0.0220275 -0.0231703 -0.0243667 -0.0255744 -0.0267434 -0.027818 -0.0287357 -0.0294305 -0.0298342 -0.0298799 -0.0295056 -0.0286592 -0.0273031 -0.0254199 -0.0230165 -0.0201279 -0.0168197 -0.0131874 -0.00935419 -0.00546491 -0.00167769 0.00184691 0.00495857 0.00752986 0.00946775 0.0107228 0.0112936 0.011227 0.0106126 0.00957227 0.00824683 0.00678052 0.00530636 0.0039339 0.00274122 0.00177202 0.00103758 0.000522706 0.000194112 9.46198e-06 -7.45395e-05 -9.61581e-05 -8.52123e-05 -6.2116e-05 -3.87886e-05 -2.06397e-05 -8.85883e-06 -2.44352e-06 3.37055e-07 1.09239e-06 9.64477e-07 6.03515e-07 2.93309e-07 1.0515e-07 1.82102e-08 -9.71898e-09 -1.2092e-08 -7.46093e-09 -3.2069e-09 -8.96097e-10 -3.16624e-11 1.43417e-10 1.03629e-10 4.43121e-11 1.15712e-11 2.56142e-13 -1.59495e-12 -9.86502e-13 -3.45646e-13 -5.95371e-14 1.30234e-14 1.44331e-14 5.85433e-15 1.26941e-15 -1.51246e-17 -1.31776e-16 -5.57523e-17 -1.18604e-17 -2.97247e-19 7.38878e-19 2.77266e-19 4.67287e-20 -7.31319e-22 -2.5166e-21 -6.39308e-22 -5.67145e-23 1.03675e-23 4.08435e-24 5.02271e-25 6.17687e-26 -6.52442e-27 0 0 
0 0 -1.2728e-26 6.45868e-26 6.42339e-25 6.31201e-24 1.94306e-23 -7.81177e-23 -1.07333e-21 -4.64594e-21 -2.50704e-21 8.67064e-20 5.52694e-19 1.55181e-18 -5.85772e-19 -2.64112e-17 -1.28243e-16 -3.08674e-16 -7.57819e-18 3.28939e-15 1.5188e-14 3.72796e-14 3.01081e-14 -1.77847e-13 -9.78846e-13 -2.71596e-12 -4.1065e-12 2.02946e-12 3.5256e-11 1.26697e-10 2.80426e-10 3.40016e-10 -2.87454e-10 -2.95062e-09 -9.58912e-09 -2.0803e-08 -3.01618e-08 -1.3276e-08 8.59745e-08 3.60215e-07 9.07496e-07 1.72277e-06 2.47011e-06 2.12987e-06 -1.39408e-06 -1.1474e-05 -3.2365e-05 -6.77108e-05 -0.000117502 -0.000173364 -0.000212651 -0.000192609 -4.65728e-05 0.000315473 0.000999987 0.00211566 0.00375268 0.00595834 0.00871308 0.0119126 0.0153607 0.0187759 0.0218128 0.0240963 0.0252637 0.0250081 0.0231177 0.0195034 0.0142119 0.00742393 -0.000563806 -0.00936749 -0.0185531 -0.0276743 -0.0363093 -0.0440904 -0.0507261 -0.0560133 -0.0598404 -0.0621832 -0.0630928 -0.0626821 -0.0611096 -0.0585624 -0.0552413 -0.0513472 -0.0470724 -0.0425917 -0.0380588 -0.0336039 -0.029333 -0.0253301 -0.0216585 -0.0183639 -0.0154781 -0.013021 -0.0110043 -0.00943376 -0.0083119 -0.00763887 -0.0074147 -0.00763887 -0.0083119 -0.00943376 -0.0110043 -0.013021 -0.0154781 -0.0183639 -0.0216585 -0.0253301 -0.029333 -0.0336039 -0.0380588 -0.0425917 -0.0470724 -0.0513472 -0.0552413 -0.0585624 -0.0611096 -0.0626821 -0.0630928 -0.0621832 -0.0598404 -0.0560133 -0.0507261 -0.0440904 -0.0363093 -0.0276743 -0.0185531 -0.00936749 -0.000563806 0.00742393 0.0142119 0.0195034 0.0231177 0.0250081 0.0252637 0.0240963 0.0218128 0.0187759 0.0153607 0.0119126 0.00871307 0.00595833 0.00375268 0.00211565 0.000999985 0.000315472 -4.65728e-05 -0.000192608 -0.000212651 -0.000173364 -0.000117502 -6.77108e-05 -3.2365e-05 -1.1474e-05 -1.39407e-06 2.12987e-06 2.47011e-06 1.72276e-06 9.07495e-07 3.60214e-07 8.59745e-08 -1.32759e-08 -3.01617e-08 -2.0803e-08 -9.58914e-09 -2.95064e-09 -2.87457e-10 3.40018e-10 2.80435e-10 1.26722e-10 3.53003e-11 2.06088e-12 -4.05048e-12 -2.68474e-12 -9.68034e-13 -1.75883e-13 2.98307e-14 3.69091e-14 1.50359e-14 3.25577e-15 -8.06164e-18 -3.05832e-16 -1.27025e-16 -2.61529e-17 -5.7669e-19 1.53805e-18 5.47594e-19 8.58762e-20 -2.49423e-21 -4.605e-21 -1.06355e-21 -7.73548e-23 1.92814e-23 6.42331e-24 1.35633e-24 9.9804e-26 0 0 
0 0 -1.00311e-26 6.42339e-25 4.07892e-24 2.54287e-23 2.78063e-23 -6.24706e-22 -4.74986e-21 -1.31775e-20 3.21584e-20 4.70971e-19 2.07939e-18 3.29503e-18 -1.55989e-17 -1.30701e-16 -4.5818e-16 -6.53804e-16 2.09154e-15 1.67297e-14 5.56757e-14 9.36391e-14 -7.29977e-14 -1.06743e-12 -3.87952e-12 -8.08892e-12 -5.56143e-12 3.23007e-11 1.64467e-10 4.44156e-10 7.35916e-10 2.54982e-10 -3.13934e-09 -1.32149e-08 -3.31421e-08 -5.69684e-08 -5.07258e-08 7.56944e-08 4.88927e-07 1.39901e-06 2.89295e-06 4.54175e-06 4.73768e-06 -1.19321e-07 -1.61781e-05 -5.16661e-05 -0.000114346 -0.000205894 -0.000312781 -0.000394452 -0.000371293 -0.000116444 0.000543505 0.00181454 0.00390578 0.00698605 0.0111326 0.0162817 0.0221927 0.0284362 0.0344134 0.0394087 0.0426665 0.0434862 0.0413157 0.0358314 0.0269901 0.0150452 0.000527176 -0.0158085 -0.0330583 -0.0502575 -0.0664696 -0.0808615 -0.092765 -0.101712 -0.107447 -0.109925 -0.109281 -0.1058 -0.099872 -0.0919536 -0.0825279 -0.0720714 -0.0610292 -0.0497947 -0.0387017 -0.028019 -0.0179514 -0.00864355 -0.000188854 0.00736353 0.0139981 0.0197251 0.0245718 0.0285761 0.0317796 0.0342226 0.0359398 0.0369587 0.0372965 0.0369587 0.0359398 0.0342226 0.0317796 0.0285761 0.0245718 0.0197251 0.0139981 0.00736353 -0.000188854 -0.00864355 -0.0179514 -0.028019 -0.0387017 -0.0497947 -0.0610292 -0.0720714 -0.0825279 -0.0919536 -0.099872 -0.1058 -0.109281 -0.109925 -0.107447 -0.101712 -0.092765 -0.0808615 -0.0664696 -0.0502575 -0.0330583 -0.0158085 0.000527176 0.0150452 0.0269901 0.0358314 0.0413157 0.0434862 0.0426664 0.0394087 0.0344135 0.0284362 0.0221926 0.0162817 0.0111326 0.00698603 0.00390578 0.00181454 0.000543504 -0.000116444 -0.000371292 -0.000394452 -0.000312781 -0.000205894 -0.000114346 -5.16661e-05 -1.61781e-05 -1.1932e-07 4.73766e-06 4.54174e-06 2.89295e-06 1.399e-06 4.88927e-07 7.56945e-08 -5.07256e-08 -5.69683e-08 -3.31421e-08 -1.32149e-08 -3.13936e-09 2.5499e-10 7.35949e-10 4.44233e-10 1.64543e-10 3.2156e-11 -5.46969e-12 -7.99494e-12 -3.83675e-12 -1.05587e-12 -7.21124e-14 9.27298e-14 5.51245e-14 1.65622e-14 2.06924e-15 -6.48121e-16 -4.53894e-16 -1.29448e-16 -1.54397e-17 3.26773e-18 2.06049e-18 4.66559e-19 3.18243e-20 -1.3065e-20 -4.70715e-21 -6.1888e-22 2.77084e-23 2.59468e-23 6.42733e-24 7.08716e-25 0 0 
0 0 8.55823e-25 6.88049e-24 2.53809e-23 -9.55962e-24 -9.1207e-22 -5.60719e-21 -9.74268e-21 8.36852e-20 7.35108e-19 2.57646e-18 6.88949e-19 -4.12783e-17 -2.35438e-16 -6.39369e-16 -1.21027e-16 7.26491e-15 3.63756e-14 9.4009e-14 7.36678e-14 -5.25528e-13 -2.89307e-12 -8.02492e-12 -1.14225e-11 1.10167e-11 1.22885e-10 4.17206e-10 8.64421e-10 8.19522e-10 -1.9333e-09 -1.20648e-08 -3.52083e-08 -6.88985e-08 -7.8741e-08 4.28379e-08 5.17446e-07 1.659e-06 3.66469e-06 6.04949e-06 6.60632e-06 2.0851e-08 -2.32201e-05 -7.62749e-05 -0.000171751 -0.000311767 -0.000471153 -0.000575039 -0.000475561 6.39348e-05 0.0013666 0.00381207 0.00777398 0.0135288 0.0211496 0.0304083 0.0407111 0.0510933 0.0602835 0.0668407 0.0693417 0.0665917 0.0578179 0.042817 0.02202 -0.00352602 -0.0322638 -0.0622954 -0.0915883 -0.118187 -0.140398 -0.156936 -0.167003 -0.170311 -0.167048 -0.157807 -0.143483 -0.125163 -0.10401 -0.0811769 -0.0577219 -0.0345618 -0.0124363 0.00810069 0.0266737 0.043072 0.0572263 0.0691775 0.0790496 0.0870273 0.0933262 0.098182 0.101829 0.10449 0.10637 0.107651 0.108489 0.10901 0.109312 0.109465 0.109511 0.109465 0.109312 0.10901 0.108489 0.107651 0.10637 0.10449 0.101829 0.098182 0.0933262 0.0870273 0.0790496 0.0691775 0.0572263 0.043072 0.0266737 0.00810069 -0.0124363 -0.0345618 -0.0577219 -0.0811769 -0.10401 -0.125163 -0.143483 -0.157807 -0.167048 -0.170311 -0.167003 -0.156936 -0.140398 -0.118187 -0.0915883 -0.0622954 -0.0322638 -0.00352602 0.02202 0.0428169 0.0578176 0.0665916 0.0693418 0.0668407 0.0602835 0.0510933 0.0407111 0.0304082 0.0211495 0.0135287 0.00777396 0.00381207 0.0013666 6.39367e-05 -0.00047556 -0.000575038 -0.000471153 -0.000311767 -0.000171751 -7.62748e-05 -2.32201e-05 2.08525e-08 6.60632e-06 6.04948e-06 3.66468e-06 1.659e-06 5.17445e-07 4.28384e-08 -7.87407e-08 -6.88985e-08 -3.52084e-08 -1.20648e-08 -1.9332e-09 8.19441e-10 8.63351e-10 4.13626e-10 1.21574e-10 1.09023e-11 -1.12992e-11 -7.94039e-12 -2.86289e-12 -5.19931e-13 7.30468e-14 9.31096e-14 3.60211e-14 7.192e-15 -1.2111e-16 -6.33573e-16 -2.3323e-16 -4.08768e-17 6.88309e-19 2.55362e-18 7.28348e-19 8.28749e-20 -9.66552e-21 -5.55737e-21 -9.02948e-22 -8.4474e-24 1.42748e-23 5.36379e-24 0 0 
0 0 4.91647e-24 6.98839e-24 -4.79889e-23 -1.14922e-21 -5.97324e-21 -3.26595e-21 1.47123e-19 1.00199e-18 2.70178e-18 -5.01619e-18 -8.06181e-17 -3.65323e-16 -7.11325e-16 1.53824e-15 1.73215e-14 6.72195e-14 1.29076e-13 -9.39089e-14 -1.665e-12 -6.5068e-12 -1.40929e-11 -8.24997e-12 7.03759e-11 3.43784e-10 9.04198e-10 1.36097e-09 -2.94186e-10 -9.32081e-09 -3.42171e-08 -7.87677e-08 -1.14945e-07 -2.66499e-08 4.63678e-07 1.812e-06 4.43365e-06 7.95949e-06 9.6865e-06 2.26261e-06 -2.8526e-05 -0.000103661 -0.000244819 -0.00045797 -0.000703558 -0.000854434 -0.000649757 0.000338709 0.00270572 0.00715514 0.0143739 0.0248439 0.0386214 0.055135 0.0730627 0.090342 0.104344 0.112203 0.111253 0.0994927 0.0759974 0.0411684 -0.00319978 -0.0540829 -0.10757 -0.159335 -0.205155 -0.241388 -0.265347 -0.275522 -0.271636 -0.254567 -0.226127 -0.188781 -0.145351 -0.0987187 -0.051574 -0.00623961 0.0354453 0.0721737 0.103158 0.12808 0.147013 0.160332 0.168621 0.172591 0.173007 0.170632 0.166185 0.160316 0.153589 0.146481 0.13938 0.132597 0.126366 0.120866 0.116228 0.112545 0.109875 0.108259 0.107718 0.108259 0.109875 0.112545 0.116228 0.120866 0.126366 0.132597 0.13938 0.146481 0.153589 0.160316 0.166185 0.170632 0.173007 0.172591 0.168621 0.160332 0.147013 0.12808 0.103158 0.0721737 0.0354453 -0.00623961 -0.051574 -0.0987187 -0.145351 -0.188781 -0.226127 -0.254567 -0.271636 -0.275522 -0.265347 -0.241388 -0.205155 -0.159335 -0.10757 -0.0540828 -0.00319971 0.0411683 0.0759975 0.0994928 0.111253 0.112203 0.104345 0.0903419 0.0730625 0.0551349 0.0386214 0.0248439 0.0143739 0.00715511 0.00270572 0.00033871 -0.000649759 -0.000854431 -0.000703556 -0.000457969 -0.000244818 -0.00010366 -2.8526e-05 2.26262e-06 9.68649e-06 7.95949e-06 4.43364e-06 1.812e-06 4.6368e-07 -2.66489e-08 -1.14945e-07 -7.87677e-08 -3.42177e-08 -9.32386e-09 -3.02829e-10 1.34533e-09 8.93689e-10 3.39941e-10 6.96006e-11 -8.1726e-12 -1.39508e-11 -6.44107e-12 -1.64799e-12 -9.27451e-14 1.27891e-13 6.65801e-14 1.71528e-14 1.52158e-15 -7.05186e-16 -3.61965e-16 -7.98534e-17 -4.96157e-18 2.67863e-18 9.92918e-19 1.45738e-19 -3.24999e-21 -5.9215e-21 -1.16667e-21 -2.11243e-22 -4.17685e-24 0 0 
0 0 -1.17522e-23 -2.58109e-22 -1.30599e-21 -5.62847e-21 5.5989e-21 2.09544e-19 1.1885e-18 2.15218e-18 -1.41399e-17 -1.29239e-16 -4.80804e-16 -4.73225e-16 4.98749e-15 3.31649e-14 1.04169e-13 1.16396e-13 -5.95982e-13 -3.96445e-12 -1.22785e-11 -1.91183e-11 1.88489e-11 2.2617e-10 7.91781e-10 1.63803e-09 1.31104e-09 -5.21008e-09 -2.83814e-08 -7.93452e-08 -1.44167e-07 -1.17547e-07 3.06678e-07 1.71993e-06 4.83714e-06 9.6603e-06 1.3428e-05 7.11989e-06 -2.85732e-05 -0.000124695 -0.000316874 -0.000621422 -0.000987408 -0.00122388 -0.000914146 0.000654223 0.00450073 0.0118587 0.0239468 0.0416122 0.0649008 0.0926591 0.122297 0.149826 0.17025 0.178272 0.169219 0.140002 0.0898918 0.0209427 -0.0620546 -0.152101 -0.240884 -0.319903 -0.38159 -0.420253 -0.432685 -0.418404 -0.37949 -0.320111 -0.245858 -0.162992 -0.077742 0.00429938 0.0785825 0.14184 0.192122 0.228717 0.251958 0.262973 0.263425 0.255268 0.240537 0.221182 0.198966 0.175386 0.151647 0.128671 0.107112 0.0873934 0.0697557 0.0542839 0.0409607 0.0296993 0.0203644 0.0128004 0.00685693 0.00239481 -0.000703665 -0.0025259 -0.0031264 -0.0025259 -0.000703665 0.00239481 0.00685693 0.0128004 0.0203644 0.0296993 0.0409607 0.0542839 0.0697557 0.0873934 0.107112 0.128671 0.151647 0.175386 0.198966 0.221182 0.240537 0.255268 0.263425 0.262973 0.251958 0.228717 0.192122 0.14184 0.0785825 0.00429938 -0.077742 -0.162992 -0.245858 -0.320111 -0.37949 -0.418404 -0.432685 -0.420253 -0.38159 -0.319903 -0.240883 -0.1521 -0.0620544 0.0209427 0.0898919 0.140002 0.169219 0.178272 0.17025 0.149826 0.122297 0.0926591 0.0649008 0.0416121 0.0239468 0.0118587 0.00450073 0.000654227 -0.00091414 -0.00122387 -0.000987406 -0.000621421 -0.000316874 -0.000124694 -2.85731e-05 7.11996e-06 1.34279e-05 9.66029e-06 4.83714e-06 1.71993e-06 3.06679e-07 -1.17549e-07 -1.44174e-07 -7.93603e-08 -2.83972e-08 -5.18896e-09 1.29215e-09 1.61963e-09 7.83241e-10 2.23762e-10 1.86298e-11 -1.8935e-11 -1.21581e-11 -3.9251e-12 -5.89777e-13 1.15429e-13 1.03203e-13 3.28491e-14 4.93765e-15 -4.69762e-16 -4.76482e-16 -1.28036e-16 -1.39997e-17 2.13497e-18 1.17791e-18 2.07606e-19 5.49705e-21 -5.77193e-21 -1.73064e-21 -2.54762e-22 0 0 
0 0 -2.60386e-22 -1.62697e-21 -4.88644e-21 1.45801e-20 2.55851e-19 1.23923e-18 9.0979e-19 -2.54202e-17 -1.77058e-16 -5.32315e-16 2.4234e-16 1.04879e-14 5.3473e-14 1.33254e-13 -1.42792e-14 -1.65771e-12 -7.78115e-12 -1.94077e-11 -1.49541e-11 1.02197e-10 5.56474e-10 1.54846e-09 2.36731e-09 -9.43038e-10 -1.90305e-08 -6.89718e-08 -1.55057e-07 -2.02653e-07 7.89232e-08 1.36386e-06 4.68257e-06 1.0654e-05 1.7118e-05 1.44346e-05 -2.09942e-05 -0.000131274 -0.000370987 -0.000776954 -0.00129902 -0.00168487 -0.00133215 0.000848227 0.00648237 0.0176074 0.0362993 0.0640495 0.100979 0.145086 0.191787 0.233985 0.262824 0.269091 0.245021 0.186149 0.0927078 -0.0297135 -0.170578 -0.315727 -0.449451 -0.556834 -0.625964 -0.649556 -0.625774 -0.558132 -0.454647 -0.32642 -0.185967 -0.0456023 0.0839214 0.194337 0.280308 0.339475 0.372113 0.380586 0.368697 0.341016 0.302311 0.25709 0.209286 0.162073 0.117823 0.0781159 0.0438465 0.0153382 -0.00751913 -0.0251368 -0.0381204 -0.0471683 -0.0530015 -0.056318 -0.0577471 -0.0578485 -0.0570956 -0.0558757 -0.0545004 -0.0532049 -0.0521612 -0.0514892 -0.0512577 -0.0514892 -0.0521612 -0.0532049 -0.0545004 -0.0558757 -0.0570956 -0.0578485 -0.0577471 -0.056318 -0.0530015 -0.0471683 -0.0381204 -0.0251368 -0.00751913 0.0153382 0.0438465 0.0781159 0.117823 0.162073 0.209286 0.25709 0.302311 0.341016 0.368697 0.380586 0.372113 0.339475 0.280308 0.194337 0.0839214 -0.0456023 -0.185967 -0.32642 -0.454647 -0.558132 -0.625774 -0.649556 -0.625964 -0.556834 -0.44945 -0.315727 -0.170578 -0.0297132 0.0927085 0.186149 0.245022 0.269091 0.262824 0.233985 0.191787 0.145086 0.100979 0.0640495 0.0362993 0.0176074 0.00648238 0.000848238 -0.00133215 -0.00168487 -0.00129902 -0.000776954 -0.000370987 -0.000131273 -2.0994e-05 1.44346e-05 1.71179e-05 1.06539e-05 4.68256e-06 1.36385e-06 7.89032e-08 -2.02648e-07 -1.54898e-07 -6.84134e-08 -1.88349e-08 -9.33832e-10 2.34233e-09 1.5324e-09 5.50736e-10 1.01119e-10 -1.48281e-11 -1.92228e-11 -7.70568e-12 -1.64118e-12 -1.38699e-14 1.32057e-13 5.29734e-14 1.03864e-14 2.38662e-16 -5.27665e-16 -1.75437e-16 -2.51769e-17 9.04664e-19 1.22833e-18 2.5335e-19 1.44991e-20 -8.45161e-22 -1.17102e-21 0 0 
0 0 -9.02371e-22 1.04486e-21 2.16885e-20 2.75166e-19 1.14209e-18 -7.70012e-19 -3.64059e-17 -2.11347e-16 -4.78847e-16 1.47706e-15 1.7549e-14 7.38878e-14 1.32108e-13 -3.42727e-13 -3.44497e-12 -1.29669e-11 -2.47845e-11 1.38587e-11 2.88706e-10 1.14081e-09 2.56566e-09 2.21313e-09 -8.86649e-09 -5.01066e-08 -1.42164e-07 -2.53122e-07 -1.54609e-07 8.17431e-07 3.92131e-06 1.05039e-05 1.96815e-05 2.27954e-05 -5.70319e-06 -0.000117497 -0.000389052 -0.000889655 -0.0015928 -0.00221108 -0.00196184 0.000679026 0.00811748 0.0235161 0.0502569 0.090941 0.146048 0.212579 0.283156 0.346072 0.38658 0.389422 0.342146 0.238464 0.080739 -0.11912 -0.340753 -0.558299 -0.744609 -0.875797 -0.935168 -0.915724 -0.820898 -0.663407 -0.462737 -0.241779 -0.0233845 0.172625 0.331501 0.444617 0.509443 0.528723 0.509149 0.459818 0.390709 0.311471 0.230502 0.154399 0.0877831 0.0333612 -0.00782996 -0.0360564 -0.0525148 -0.0589521 -0.0573839 -0.0498421 -0.038204 -0.0240915 -0.00883851 0.00653396 0.0212777 0.0348954 0.0470836 0.0576954 0.0666894 0.0741014 0.0799961 0.0844611 0.0875802 0.0894229 0.0900319 0.0894229 0.0875802 0.0844611 0.0799961 0.0741014 0.0666894 0.0576954 0.0470836 0.0348954 0.0212777 0.00653396 -0.00883851 -0.0240915 -0.038204 -0.0498421 -0.0573839 -0.0589521 -0.0525148 -0.0360564 -0.00782996 0.0333612 0.0877831 0.154399 0.230502 0.311471 0.390709 0.459818 0.509149 0.528723 0.509443 0.444617 0.331501 0.172625 -0.0233845 -0.241779 -0.462737 -0.663407 -0.820898 -0.915724 -0.935168 -0.875797 -0.744609 -0.5583 -0.340752 -0.119119 0.0807407 0.238464 0.342146 0.389422 0.38658 0.346071 0.283156 0.212578 0.146048 0.090941 0.0502568 0.0235161 0.00811748 0.000679037 -0.00196183 -0.00221108 -0.0015928 -0.000889656 -0.000389052 -0.000117497 -5.70323e-06 2.27953e-05 1.96815e-05 1.05039e-05 3.92139e-06 8.17869e-07 -1.53307e-07 -2.50575e-07 -1.40585e-07 -4.95604e-08 -8.76986e-09 2.1917e-09 2.53998e-09 1.12936e-09 2.85771e-10 1.36802e-11 -2.45571e-11 -1.28438e-11 -3.41148e-12 -3.39065e-13 1.30983e-13 7.32106e-14 1.73829e-14 1.46158e-15 -4.7485e-16 -2.09443e-16 -3.60648e-17 -7.59617e-19 1.13268e-18 2.80041e-19 5.86728e-20 3.3661e-21 0 0 
0 0 4.43693e-21 6.08691e-20 2.7281e-19 9.3354e-19 -2.44982e-18 -4.43789e-17 -2.22239e-16 -3.12203e-16 3.07017e-15 2.48313e-14 8.78142e-14 7.76871e-14 -9.17796e-13 -5.9132e-12 -1.84653e-11 -2.24222e-11 8.8825e-11 6.26725e-10 2.00111e-09 3.47863e-09 -7.53652e-10 -2.82489e-08 -1.09223e-07 -2.52924e-07 -3.23389e-07 2.30693e-07 2.71281e-06 9.07648e-06 2.01006e-05 2.97656e-05 1.4121e-05 -8.34201e-05 -0.000359325 -0.00092423 -0.00180456 -0.00273067 -0.00279968 -7.18707e-05 0.00873817 0.0282198 0.0635984 0.119281 0.196731 0.292145 0.39475 0.486597 0.544521 0.544321 0.466455 0.301871 0.0563106 -0.248377 -0.576604 -0.884796 -1.12926 -1.27437 -1.29907 -1.20043 -0.993458 -0.707609 -0.380967 -0.053496 0.23922 0.470605 0.625573 0.70075 0.702873 0.645984 0.548139 0.428259 0.303584 0.187961 0.0910205 0.0180997 -0.0292781 -0.0525752 -0.0552762 -0.0419532 -0.0175066 0.0134398 0.0469314 0.0798602 0.110008 0.135993 0.157156 0.173384 0.18498 0.192498 0.196619 0.198075 0.197572 0.195751 0.19317 0.190294 0.187494 0.185052 0.183169 0.181985 0.181582 0.181985 0.183169 0.185052 0.187494 0.190294 0.19317 0.195751 0.197572 0.198075 0.196619 0.192498 0.18498 0.173384 0.157156 0.135993 0.110008 0.0798602 0.0469314 0.0134398 -0.0175066 -0.0419532 -0.0552762 -0.0525752 -0.0292781 0.0180997 0.0910205 0.187961 0.303584 0.428259 0.548139 0.645984 0.702873 0.70075 0.625573 0.470605 0.23922 -0.053496 -0.380967 -0.707609 -0.993458 -1.20043 -1.29907 -1.27437 -1.12927 -0.884796 -0.576603 -0.248375 0.0563101 0.301869 0.466453 0.544322 0.544521 0.486596 0.39475 0.292145 0.196731 0.119281 0.0635984 0.0282198 0.00873815 -7.18686e-05 -0.00279968 -0.00273067 -0.00180457 -0.000924229 -0.000359324 -8.34201e-05 1.41209e-05 2.97658e-05 2.01016e-05 9.07875e-06 2.71611e-06 2.31547e-07 -3.19465e-07 -2.50168e-07 -1.08065e-07 -2.79508e-08 -7.42252e-10 3.44511e-09 1.98151e-09 6.20509e-10 8.78944e-11 -2.2232e-11 -1.82938e-11 -5.85684e-12 -9.08618e-13 7.71432e-14 8.70268e-14 2.46003e-14 3.0399e-15 -3.09876e-16 -2.2027e-16 -4.39689e-17 -2.4162e-18 9.62252e-19 3.33974e-19 5.77817e-20 0 0 
0 0 5.1615e-20 2.7746e-19 7.0679e-19 -3.69292e-18 -4.74865e-17 -2.07291e-16 -6.71343e-17 4.67867e-15 3.05239e-14 8.90098e-14 -4.10503e-14 -1.71061e-12 -8.68932e-12 -2.22244e-11 -4.4705e-12 2.30459e-10 1.13709e-09 3.01375e-09 3.41181e-09 -9.72837e-09 -6.66404e-08 -2.05167e-07 -3.84265e-07 -2.34456e-07 1.38021e-06 6.67706e-06 1.79688e-05 3.29133e-05 3.28418e-05 -3.65375e-05 -0.000283389 -0.000859439 -0.00186894 -0.0031292 -0.00373523 -0.00146395 0.00779573 0.0302254 0.0734093 0.144448 0.246859 0.376869 0.52031 0.651679 0.736639 0.738331 0.626554 0.387449 0.0308058 -0.407726 -0.870846 -1.28977 -1.5979 -1.74469 -1.70596 -1.48837 -1.12717 -0.678076 -0.205787 0.228061 0.575005 0.80591 0.912669 0.905989 0.81023 0.657004 0.47902 0.304983 0.156399 0.04626 -0.020688 -0.0464899 -0.0379253 -0.00440932 0.0439791 0.0979167 0.149788 0.194138 0.227675 0.249065 0.258521 0.257341 0.247449 0.231051 0.210334 0.187263 0.163496 0.140306 0.118612 0.0989993 0.0817873 0.0670773 0.0548366 0.0449222 0.0371674 0.0313772 0.0273789 0.0250357 0.0242635 0.0250357 0.0273789 0.0313772 0.0371674 0.0449222 0.0548366 0.0670773 0.0817873 0.0989993 0.118612 0.140306 0.163496 0.187263 0.210334 0.231051 0.247449 0.257341 0.258521 0.249065 0.227675 0.194138 0.149788 0.0979167 0.0439791 -0.00440932 -0.0379253 -0.0464899 -0.020688 0.04626 0.156399 0.304983 0.47902 0.657004 0.81023 0.905989 0.912669 0.80591 0.575005 0.228061 -0.205787 -0.678079 -1.12717 -1.48837 -1.70596 -1.74469 -1.5979 -1.28976 -0.870846 -0.407726 0.0308025 0.387448 0.626552 0.738328 0.736636 0.651678 0.52031 0.376869 0.246859 0.144447 0.0734091 0.0302254 0.00779572 -0.00146395 -0.00373524 -0.0031292 -0.00186893 -0.000859437 -0.000283388 -3.65356e-05 3.28453e-05 3.29157e-05 1.79583e-05 6.62795e-06 1.36702e-06 -2.31871e-07 -3.80267e-07 -2.03058e-07 -6.59561e-08 -9.6241e-09 3.38097e-09 2.98491e-09 1.12603e-09 2.28149e-10 -4.46956e-12 -2.20235e-11 -8.60795e-12 -1.69402e-12 -4.04225e-14 8.82341e-14 3.02445e-14 4.63386e-15 -6.71338e-17 -2.05481e-16 -4.70267e-17 -3.69749e-18 -1.25559e-19 1.88274e-19 0 0 
0 0 1.2613e-19 -3.94202e-19 -4.32932e-18 -4.54126e-17 -1.7229e-16 1.91282e-16 5.90344e-15 3.30805e-14 7.48019e-14 -2.12418e-13 -2.59251e-12 -1.10969e-11 -2.17279e-11 3.5658e-11 4.45811e-10 1.77633e-09 3.8349e-09 9.32481e-10 -2.87438e-08 -1.30796e-07 -3.35626e-07 -4.72977e-07 2.71625e-07 3.95517e-06 1.37954e-05 3.10647e-05 4.47797e-05 1.0473e-05 -0.000178198 -0.000700913 -0.00174693 -0.00328255 -0.00455293 -0.00329741 0.00515507 0.0284692 0.0768828 0.161092 0.288159 0.456016 0.648232 0.831429 0.957743 0.973432 0.832598 0.51257 0.0261632 -0.574125 -1.20245 -1.756 -2.13736 -2.27677 -2.14809 -1.77426 -1.22094 -0.580981 0.0461156 0.573929 0.943808 1.13172 1.14703 1.02501 0.81564 0.571925 0.340174 0.153715 0.030455 -0.0263444 -0.0248424 0.0195888 0.0887073 0.164982 0.234076 0.286106 0.315891 0.322408 0.307841 0.276409 0.233324 0.183883 0.132851 0.0840777 0.0403158 0.00327782 -0.0263021 -0.0484115 -0.063604 -0.0727883 -0.0770443 -0.0775085 -0.0752589 -0.0712754 -0.0663768 -0.0612515 -0.0564328 -0.0523113 -0.0491798 -0.047228 -0.0465671 -0.047228 -0.0491798 -0.0523113 -0.0564328 -0.0612515 -0.0663768 -0.0712754 -0.0752589 -0.0775085 -0.0770443 -0.0727883 -0.063604 -0.0484115 -0.0263021 0.00327782 0.0403158 0.0840777 0.132851 0.183883 0.233324 0.276409 0.307841 0.322408 0.315891 0.286106 0.234076 0.164982 0.0887073 0.0195888 -0.0248424 -0.0263444 0.030455 0.153715 0.340174 0.571925 0.81564 1.02501 1.14703 1.13172 0.943808 0.573927 0.0461188 -0.580974 -1.22094 -1.77425 -2.14809 -2.27678 -2.13736 -1.756 -1.20245 -0.574129 0.0261583 0.512567 0.832591 0.97343 0.957744 0.831429 0.648231 0.456016 0.288157 0.161091 0.0768825 0.0284692 0.00515506 -0.00329744 -0.00455293 -0.00328254 -0.00174693 -0.000700908 -0.0001782 1.04398e-05 4.46594e-05 3.07915e-05 1.36493e-05 3.9129e-06 2.68462e-07 -4.68279e-07 -3.32267e-07 -1.29483e-07 -2.84492e-08 9.28637e-10 3.79919e-09 1.75936e-09 4.41451e-10 3.52604e-11 -2.15395e-11 -1.09948e-11 -2.56788e-12 -2.10162e-13 7.41787e-14 3.27824e-14 5.848e-15 1.88939e-16 -1.7092e-16 -4.62908e-17 -1.04436e-17 -7.66925e-19 0 0 
0 0 -8.16051e-19 -9.614e-18 -4.05115e-17 -1.28125e-16 3.96281e-16 6.45526e-15 3.1904e-14 4.79223e-14 -4.01321e-13 -3.36326e-12 -1.23766e-11 -1.51139e-11 9.8951e-11 7.15851e-10 2.4138e-09 3.91083e-09 -5.65946e-09 -6.12363e-08 -2.2186e-07 -4.74904e-07 -3.87021e-07 1.59918e-06 8.79246e-06 2.49537e-05 4.6918e-05 4.51064e-05 -7.05325e-05 -0.000483688 -0.00144996 -0.0031116 -0.00500146 -0.00512916 0.00126633 0.0228533 0.0723633 0.164667 0.311985 0.516469 0.762073 1.00906 1.19512 1.24565 1.09272 0.698232 0.0737371 -0.710939 -1.5356 -2.2538 -2.72727 -2.86046 -2.62496 -2.06607 -1.29068 -0.440059 0.343427 0.946761 1.30611 1.41265 1.30518 1.05351 0.738451 0.433552 0.192417 0.0429687 -0.0115791 0.0129186 0.0894105 0.187722 0.280926 0.34937 0.38237 0.377644 0.339589 0.276905 0.20011 0.119566 0.0440513 -0.0199958 -0.068707 -0.100634 -0.116212 -0.117333 -0.106684 -0.0873096 -0.0622199 -0.0341198 -0.00527921 0.0225842 0.0482617 0.0710141 0.090493 0.106662 0.11968 0.129851 0.137506 0.143022 0.146712 0.148819 0.14951 0.148819 0.146712 0.143022 0.137506 0.129851 0.11968 0.106662 0.090493 0.0710141 0.0482617 0.0225842 -0.00527921 -0.0341198 -0.0622199 -0.0873096 -0.106684 -0.117333 -0.116212 -0.100634 -0.068707 -0.0199958 0.0440513 0.119566 0.20011 0.276905 0.339589 0.377644 0.38237 0.34937 0.280926 0.187722 0.0894105 0.0129186 -0.0115791 0.0429687 0.192417 0.433552 0.738451 1.05351 1.30518 1.41265 1.30612 0.946769 0.343428 -0.44006 -1.29069 -2.0661 -2.62498 -2.86048 -2.72727 -2.2538 -1.5356 -0.710949 0.0737297 0.698228 1.09272 1.24565 1.19512 1.00906 0.76207 0.516467 0.311984 0.164667 0.0723633 0.0228533 0.00126632 -0.00512915 -0.00500144 -0.00311161 -0.00145003 -0.000483901 -7.09641e-05 4.45522e-05 4.64019e-05 2.46881e-05 8.70002e-06 1.58206e-06 -3.83475e-07 -4.70272e-07 -2.19675e-07 -6.06239e-08 -5.59625e-09 3.87592e-09 2.39116e-09 7.08976e-10 9.79444e-11 -1.49959e-11 -1.22648e-11 -3.33183e-12 -3.97324e-13 4.75614e-14 3.16213e-14 6.39546e-15 3.90884e-16 -1.32516e-16 -4.9313e-17 -9.08674e-18 0 0 
0 0 -7.31029e-18 -3.74078e-17 -8.95024e-17 5.05661e-16 6.26432e-15 2.75666e-14 1.56026e-14 -5.61385e-13 -3.82571e-12 -1.20208e-11 -2.362e-12 1.77669e-10 9.9159e-10 2.84912e-09 2.63229e-09 -1.76304e-08 -1.07743e-07 -3.29667e-07 -5.64292e-07 7.77811e-08 4.24629e-06 1.66462e-05 4.00705e-05 6.04678e-05 1.40348e-05 -0.000260224 -0.00104331 -0.0026291 -0.00490646 -0.00643031 -0.00292279 0.014462 0.0601733 0.15312 0.311855 0.545628 0.842924 1.16167 1.42694 1.54107 1.40744 0.96303 0.209317 -0.770877 -1.82042 -2.74022 -3.33893 -3.48487 -3.1429 -2.38431 -1.36676 -0.291455 0.648267 1.31109 1.63368 1.63294 1.38832 1.01195 0.616778 0.291319 0.0858334 0.0105279 0.0435308 0.143995 0.266185 0.370683 0.431321 0.437326 0.391667 0.307036 0.201068 0.0918759 -0.00520229 -0.0794753 -0.125494 -0.14255 -0.133658 -0.104179 -0.0605964 -0.00946405 0.0433824 0.0932287 0.136783 0.17199 0.198012 0.214948 0.22353 0.224973 0.220729 0.212321 0.201194 0.188673 0.175844 0.163643 0.15281 0.143881 0.137233 0.133155 0.131783 0.133155 0.137233 0.143881 0.15281 0.163643 0.175844 0.188673 0.201194 0.212321 0.220729 0.224973 0.22353 0.214948 0.198012 0.17199 0.136783 0.0932287 0.0433824 -0.00946405 -0.0605964 -0.104179 -0.133658 -0.14255 -0.125494 -0.0794753 -0.00520229 0.0918759 0.201068 0.307036 0.391667 0.437326 0.431321 0.370683 0.266185 0.143995 0.0435308 0.0105279 0.0858334 0.291319 0.61678 1.01196 1.38833 1.63295 1.63368 1.31108 0.64825 -0.291474 -1.3668 -2.38433 -3.14292 -3.48487 -3.33893 -2.74022 -1.82042 -0.770885 0.209307 0.963022 1.40744 1.54107 1.42694 1.16167 0.842923 0.545627 0.311855 0.15312 0.0601733 0.014462 -0.00292279 -0.00643041 -0.00490678 -0.00262963 -0.00104356 -0.000258751 1.37841e-05 5.98296e-05 3.96566e-05 1.64753e-05 4.2023e-06 7.63393e-08 -5.58951e-07 -3.26477e-07 -1.06685e-07 -1.74493e-08 2.6114e-09 2.82292e-09 9.8222e-10 1.75924e-10 -2.36953e-12 -1.19149e-11 -3.7905e-12 -5.5596e-13 1.55434e-14 2.73258e-14 6.20342e-15 5.06169e-16 2.15088e-17 -2.5209e-17 0 0 
0 0 -1.56028e-17 4.91999e-17 5.24655e-16 5.47584e-15 2.14583e-14 -1.36336e-14 -6.53964e-13 -3.86869e-12 -1.00372e-11 1.42224e-11 2.56019e-10 1.20568e-09 2.87954e-09 -3.83772e-10 -3.48996e-08 -1.63677e-07 -4.29456e-07 -5.14446e-07 1.16051e-06 8.64682e-06 2.77166e-05 5.69721e-05 6.10967e-05 -7.93504e-05 -0.000622745 -0.00194568 -0.00426267 -0.00681697 -0.00631773 0.00526799 0.0427629 0.127983 0.285897 0.535165 0.873725 1.26372 1.62325 1.83316 1.76329 1.31458 0.46449 -0.702618 -1.99641 -3.15909 -3.93274 -4.13408 -3.71051 -2.75717 -1.48888 -0.177541 0.922899 1.63951 1.91313 1.79523 1.41499 0.931591 0.488077 0.179516 0.0408483 0.0536002 0.164576 0.308607 0.428379 0.486836 0.471345 0.39066 0.267614 0.130502 0.00564959 -0.0876147 -0.139184 -0.147846 -0.119486 -0.0643263 0.0056654 0.0790435 0.146387 0.200976 0.238992 0.259248 0.262484 0.250933 0.227673 0.196016 0.159199 0.120111 0.0811639 0.0441471 0.0103139 -0.0195545 -0.0451504 -0.0664311 -0.0836558 -0.0971791 -0.107411 -0.11482 -0.1198 -0.122652 -0.123607 -0.122652 -0.1198 -0.11482 -0.107411 -0.0971791 -0.0836558 -0.0664311 -0.0451504 -0.0195545 0.0103139 0.0441471 0.0811639 0.120111 0.159199 0.196016 0.227673 0.250933 0.262484 0.259248 0.238992 0.200976 0.146387 0.0790435 0.0056654 -0.0643263 -0.119486 -0.147846 -0.139184 -0.0876147 0.00564959 0.130502 0.267614 0.39066 0.471345 0.486836 0.428379 0.308607 0.164576 0.0536003 0.0408506 0.17952 0.488079 0.931589 1.41498 1.79522 1.91313 1.6395 0.922876 -0.177574 -1.48891 -2.7572 -3.71053 -4.13409 -3.93275 -3.1591 -1.99643 -0.702632 0.464471 1.31458 1.76329 1.83316 1.62326 1.26372 0.873726 0.535166 0.285897 0.127983 0.0427627 0.00526756 -0.00631823 -0.00681638 -0.00425758 -0.00193059 -0.000616472 -7.85027e-05 6.0489e-05 5.63995e-05 2.74377e-05 8.55916e-06 1.14801e-06 -5.09823e-07 -4.25375e-07 -1.62095e-07 -3.45525e-08 -3.74239e-10 2.85376e-09 1.19446e-09 2.53558e-10 1.40573e-11 -9.95159e-12 -3.83359e-12 -6.4777e-13 -1.34328e-14 2.12873e-14 5.58521e-15 1.28925e-15 9.73695e-17 0 0 
0 0 9.28004e-17 1.0841e-15 4.49551e-15 1.51411e-14 -3.35272e-14 -6.63224e-13 -3.51019e-12 -6.96759e-12 3.06848e-11 3.15309e-10 1.2974e-09 2.39438e-09 -5.0084e-09 -5.53982e-08 -2.18705e-07 -4.84946e-07 -2.2765e-07 3.04774e-06 1.49164e-05 4.10765e-05 7.04422e-05 3.17131e-05 -0.000275688 -0.0012266 -0.00324483 -0.00622389 -0.00812546 -0.00259012 0.0239711 0.0942344 0.238102 0.484304 0.844487 1.29298 1.75055 2.08371 2.12864 1.74058 0.855069 -0.461636 -1.99945 -3.44284 -4.45506 -4.78102 -4.3312 -3.21328 -1.69963 -0.142121 1.13308 1.91356 2.14367 1.91428 1.41051 0.841432 0.376816 0.109581 0.0495201 0.14248 0.303456 0.449507 0.523571 0.504272 0.403034 0.252834 0.0941879 -0.037178 -0.118087 -0.140624 -0.110326 -0.0419474 0.0456287 0.134129 0.208862 0.260539 0.285256 0.28371 0.25992 0.219739 0.169502 0.115301 0.0621319 0.0138106 -0.0271811 -0.059518 -0.0828714 -0.0976244 -0.104684 -0.105267 -0.100762 -0.0925532 -0.0819538 -0.0701348 -0.0581197 -0.046741 -0.0366568 -0.0283767 -0.0221848 -0.0183985 -0.0171323 -0.0183985 -0.0221848 -0.0283767 -0.0366568 -0.046741 -0.0581197 -0.0701348 -0.0819538 -0.0925532 -0.100762 -0.105267 -0.104684 -0.0976244 -0.0828714 -0.059518 -0.0271811 0.0138106 0.0621319 0.115301 0.169502 0.219739 0.25992 0.28371 0.285256 0.260539 0.208862 0.134129 0.0456287 -0.0419474 -0.110326 -0.140624 -0.118087 -0.037178 0.0941879 0.252834 0.403034 0.504272 0.523571 0.449505 0.303456 0.142482 0.0495267 0.109586 0.376806 0.841431 1.41051 1.91426 2.14365 1.91353 1.13304 -0.142138 -1.69965 -3.21329 -4.33118 -4.78104 -4.45507 -3.44286 -1.99946 -0.461643 0.855063 1.74057 2.12865 2.08371 1.75055 1.29298 0.844487 0.484304 0.238102 0.0942342 0.0239734 -0.00257983 -0.00809741 -0.00616937 -0.00321107 -0.00121372 -0.000272757 3.14426e-05 6.97524e-05 4.06702e-05 1.47677e-05 3.01646e-06 -2.26078e-07 -4.80437e-07 -2.16622e-07 -5.48582e-08 -4.95393e-09 2.37384e-09 1.28551e-09 3.12329e-10 3.03684e-11 -6.91149e-12 -3.47883e-12 -6.57029e-13 -3.30143e-14 1.56682e-14 5.76854e-15 1.04638e-15 0 0 
0 0 7.76268e-16 4.09843e-15 1.01958e-14 -4.19052e-14 -5.99311e-13 -2.87834e-12 -3.64577e-12 4.29963e-11 3.41317e-10 1.23898e-09 1.4451e-09 -1.0492e-08 -7.52304e-08 -2.58948e-07 -4.59494e-07 3.61233e-07 5.75539e-06 2.25878e-05 5.42629e-05 7.20964e-05 -4.93561e-05 -0.000617114 -0.00212263 -0.00491589 -0.00815589 -0.00761343 0.00767414 0.058765 0.177546 0.401074 0.756523 1.23763 1.77998 2.2489 2.45475 2.20292 1.36951 -0.0240637 -1.77338 -3.51824 -4.83717 -5.38094 -4.99386 -3.77285 -2.03826 -0.227134 1.24802 2.12106 2.33179 2.00987 1.39969 0.762275 0.292259 0.0749415 0.0888365 0.241902 0.421183 0.53589 0.541323 0.441812 0.276986 0.100659 -0.0391107 -0.11272 -0.113464 -0.0541623 0.0405389 0.142937 0.229298 0.284345 0.302258 0.285488 0.242214 0.183228 0.11944 0.0599017 0.0109662 -0.0238813 -0.0437176 -0.04948 -0.0432865 -0.0278761 -0.00610589 0.0194545 0.0465599 0.07349 0.0988536 0.121844 0.141881 0.158804 0.172566 0.18335 0.191521 0.197444 0.201558 0.204245 0.205898 0.206759 0.207038 0.206759 0.205898 0.204245 0.201558 0.197444 0.191521 0.18335 0.172566 0.158804 0.141881 0.121844 0.0988536 0.07349 0.0465599 0.0194545 -0.00610589 -0.0278761 -0.0432865 -0.04948 -0.0437176 -0.0238813 0.0109662 0.0599017 0.11944 0.183228 0.242214 0.285488 0.302258 0.284345 0.229298 0.142937 0.0405389 -0.0541623 -0.113464 -0.11272 -0.0391104 0.100659 0.276984 0.441809 0.541319 0.535899 0.421194 0.241905 0.0888332 0.0749445 0.292227 0.762228 1.39968 2.00985 2.33177 2.12104 1.248 -0.227157 -2.03827 -3.77284 -4.99386 -5.38096 -4.8372 -3.51826 -1.7734 -0.0240854 1.36949 2.20292 2.45475 2.24889 1.77998 1.23763 0.756524 0.401079 0.177564 0.0588073 0.00774793 -0.00752611 -0.00806921 -0.00486473 -0.00210069 -0.000610701 -4.87719e-05 7.14136e-05 5.37351e-05 2.23657e-05 5.6977e-06 3.56864e-07 -4.55354e-07 -2.56516e-07 -7.45082e-08 -1.03855e-08 1.43398e-09 1.22783e-09 3.38137e-10 4.25713e-11 -3.62035e-12 -2.85295e-12 -5.93372e-13 -4.16968e-14 2.8295e-16 2.90175e-15 0 0 
0 0 1.73789e-15 -2.57598e-15 -4.12219e-14 -4.89529e-13 -2.14678e-12 -8.40395e-13 4.86524e-11 3.29858e-10 1.04822e-09 2.44122e-10 -1.56486e-08 -8.98147e-08 -2.71776e-07 -3.32231e-07 1.24021e-06 9.03296e-06 3.0486e-05 6.33919e-05 5.17717e-05 -0.000202903 -0.00113182 -0.0033082 -0.00679389 -0.00940591 -0.0035417 0.0280736 0.11564 0.300486 0.623523 1.1017 1.69688 2.29055 2.68391 2.63908 1.96159 0.599302 -1.28586 -3.31812 -4.99907 -5.86703 -5.66405 -4.43838 -2.53419 -0.470885 1.23795 2.25087 2.48529 2.10148 1.40316 0.706755 0.23369 0.0609781 0.134385 0.325496 0.499177 0.565741 0.501758 0.341466 0.149834 -0.0081221 -0.089937 -0.084969 -0.0108799 0.098083 0.204836 0.28033 0.309787 0.292905 0.240555 0.169555 0.0971868 0.0372238 -0.00184218 -0.0174652 -0.011721 0.0102676 0.0420773 0.0773758 0.111102 0.139616 0.160987 0.174615 0.180793 0.180524 0.174958 0.165435 0.153112 0.139099 0.124253 0.10928 0.0947705 0.0811315 0.0688413 0.0580774 0.0491339 0.0420642 0.0369389 0.0338498 0.0328274 0.0338498 0.0369389 0.0420642 0.0491339 0.0580774 0.0688413 0.0811315 0.0947705 0.10928 0.124253 0.139099 0.153112 0.165435 0.174958 0.180524 0.180793 0.174615 0.160987 0.139616 0.111102 0.0773758 0.0420773 0.0102676 -0.011721 -0.0174652 -0.00184218 0.0372238 0.0971868 0.169555 0.240555 0.292905 0.309787 0.28033 0.204836 0.098083 -0.0108798 -0.0849695 -0.0899384 -0.00812541 0.149839 0.341484 0.501772 0.56575 0.499169 0.325473 0.134357 0.0609815 0.233701 0.706739 1.40316 2.10149 2.48528 2.25083 1.23793 -0.470896 -2.53418 -4.43839 -5.66407 -5.86706 -4.99911 -3.31813 -1.28588 0.599285 1.96157 2.63907 2.6839 2.29055 1.69688 1.10173 0.623583 0.300571 0.115686 0.0279234 -0.00349592 -0.00930918 -0.00672467 -0.00327457 -0.00112026 -0.000200753 5.13175e-05 6.27861e-05 3.01901e-05 8.94394e-06 1.22723e-06 -3.29426e-07 -2.69265e-07 -8.89641e-08 -1.54946e-08 2.44477e-10 1.039e-09 3.26827e-10 4.81833e-11 -8.39659e-13 -2.1291e-12 -4.99159e-13 -1.1327e-13 -7.48798e-15 0 0 
0 0 -6.89407e-15 -8.92033e-14 -3.76717e-13 -1.46682e-12 1.01303e-12 4.74353e-11 2.87578e-10 7.79858e-10 -9.14832e-10 -1.92818e-08 -9.55825e-08 -2.51183e-07 -1.11457e-07 2.29667e-06 1.2356e-05 3.68883e-05 6.40351e-05 6.33038e-07 -0.000440276 -0.00181491 -0.00469301 -0.00852068 -0.00898299 0.00628174 0.0625263 0.200096 0.468298 0.905836 1.50774 2.18886 2.76458 2.97321 2.55217 1.35384 -0.544801 -2.79863 -4.86067 -6.15254 -6.27789 -5.18506 -3.19944 -0.905466 1.07188 2.28765 2.60789 2.20504 1.43775 0.683124 0.197012 0.0533987 0.16859 0.380478 0.536734 0.554149 0.434288 0.24013 0.0549223 -0.0563483 -0.0682861 0.00401088 0.119102 0.22928 0.297842 0.30855 0.266085 0.190009 0.105751 0.036217 -0.00385624 -0.00976046 0.014223 0.0578785 0.108793 0.155478 0.18942 0.206149 0.205138 0.188606 0.160738 0.126172 0.0893095 0.0537757 0.0219641 -0.00471735 -0.0258626 -0.0415722 -0.0524409 -0.0591327 -0.0624613 -0.0631932 -0.0619466 -0.0592483 -0.055694 -0.0517843 -0.0478702 -0.0443984 -0.0416605 -0.0399104 -0.0392816 -0.0399104 -0.0416605 -0.0443984 -0.0478702 -0.0517843 -0.055694 -0.0592483 -0.0619466 -0.0631932 -0.0624613 -0.0591327 -0.0524409 -0.0415722 -0.0258626 -0.00471735 0.0219641 0.0537757 0.0893095 0.126172 0.160738 0.188606 0.205138 0.206149 0.18942 0.155478 0.108793 0.0578785 0.014223 -0.00976046 -0.00385624 0.036217 0.105751 0.190009 0.266085 0.30855 0.297842 0.22928 0.119103 0.00401719 -0.0682743 -0.0563387 0.0549355 0.240129 0.434273 0.554122 0.536726 0.380464 0.168555 0.0533821 0.197024 0.683131 1.43773 2.20501 2.60788 2.28762 1.07187 -0.905481 -3.19947 -5.18507 -6.2779 -6.15256 -4.86069 -2.79865 -0.544811 1.35382 2.55217 2.97323 2.76462 2.18893 1.50782 0.905796 0.467801 0.198604 0.0619062 0.00621269 -0.0088945 -0.00843549 -0.00464595 -0.00179662 -0.000435754 7.09261e-07 6.34369e-05 3.6535e-05 1.22359e-05 2.27356e-06 -1.10847e-07 -2.48909e-07 -9.46892e-08 -1.90958e-08 -9.03738e-10 7.73204e-10 2.84972e-10 4.69852e-11 9.85981e-13 -1.51571e-12 -5.27623e-13 -8.97253e-14 0 0 
0 0 -6.26609e-14 -3.56938e-13 -9.65516e-13 1.86536e-12 4.10619e-11 2.28002e-10 5.01234e-10 -1.77339e-09 -2.06401e-08 -9.13818e-08 -2.00842e-07 1.63014e-07 3.33501e-06 1.50444e-05 4.00025e-05 5.27475e-05 -8.47498e-05 -0.000754311 -0.00261251 -0.00608116 -0.00955199 -0.00563449 0.0242678 0.114783 0.316208 0.682308 1.24085 1.95145 2.66821 3.13555 3.04328 2.14305 0.390012 -1.95898 -4.3609 -6.14121 -6.74168 -5.95353 -4.02037 -1.55187 0.716706 2.20739 2.69399 2.32995 1.5174 0.699632 0.180484 0.0433084 0.182277 0.404867 0.54265 0.520093 0.362549 0.157387 -0.0016938 -0.0584884 -0.0106718 0.101088 0.218476 0.292419 0.299443 0.245065 0.15558 0.0649985 0.00214528 -0.0172712 0.0069335 0.062716 0.131294 0.193561 0.234871 0.247521 0.231136 0.191293 0.136917 0.0779685 0.0232928 -0.0206433 -0.0503445 -0.0650292 -0.0661388 -0.0563774 -0.0390275 -0.0172424 0.00619326 0.0292149 0.0505629 0.0695631 0.0859347 0.0998113 0.111324 0.120857 0.128577 0.134804 0.139637 0.143251 0.145785 0.147268 0.147751 0.147268 0.145785 0.143251 0.139637 0.134804 0.128577 0.120857 0.111324 0.0998113 0.0859347 0.0695631 0.0505629 0.0292149 0.00619326 -0.0172424 -0.0390275 -0.0563774 -0.0661388 -0.0650292 -0.0503445 -0.0206433 0.0232928 0.0779685 0.136917 0.191293 0.231136 0.247521 0.234871 0.193561 0.131294 0.0627161 0.00693351 -0.0172712 0.00214553 0.0650003 0.15558 0.245066 0.299447 0.292428 0.218483 0.101097 -0.0106569 -0.0585019 -0.00171373 0.157367 0.362534 0.52005 0.542622 0.404859 0.182278 0.0433006 0.180468 0.699585 1.51738 2.32991 2.69402 2.2074 0.716705 -1.55186 -4.02033 -5.95355 -6.7417 -6.14121 -4.3609 -1.95898 0.390035 2.14311 3.04338 3.13561 2.66802 1.9505 1.23818 0.676774 0.313001 0.113588 0.0240079 -0.00558351 -0.00945825 -0.00602096 -0.00258651 -0.000746706 -8.38163e-05 5.22739e-05 3.96248e-05 1.48998e-05 3.30215e-06 1.60975e-07 -1.99077e-07 -9.05393e-08 -2.04439e-08 -1.75467e-09 4.97162e-10 2.25957e-10 4.06394e-11 1.81342e-12 -3.97067e-13 -2.73294e-13 0 0 
0 0 -1.60841e-13 -8.43764e-14 1.97136e-12 3.21014e-11 1.65567e-10 2.66581e-10 -2.19901e-09 -1.96637e-08 -7.88372e-08 -1.32986e-07 4.31773e-07 4.13579e-06 1.64788e-05 3.86138e-05 2.8692e-05 -0.000199018 -0.00111404 -0.00341843 -0.00718635 -0.00923742 0.00190346 0.0524759 0.187491 0.465715 0.939186 1.61406 2.40108 3.08423 3.34222 2.84459 1.40722 -0.856885 -3.48104 -5.74794 -6.94167 -6.64703 -4.94787 -2.41237 0.139354 1.97405 2.72402 2.47641 1.65317 0.766809 0.187762 0.028685 0.173512 0.402315 0.528258 0.479142 0.2998 0.0971367 -0.0305052 -0.0398784 0.0478713 0.171205 0.264421 0.287652 0.238131 0.144189 0.04764 -0.0147585 -0.0236708 0.0190461 0.0948294 0.177433 0.24211 0.272339 0.262969 0.219228 0.153581 0.0813721 0.0168804 -0.0293341 -0.0520508 -0.0507645 -0.0292936 0.00619667 0.0485705 0.0914482 0.129531 0.159606 0.18014 0.191151 0.19371 0.189384 0.180142 0.167634 0.15336 0.138298 0.123323 0.108894 0.0955418 0.0834966 0.0731011 0.0646539 0.0584065 0.0545711 0.0532519 0.0545711 0.0584065 0.0646539 0.0731011 0.0834966 0.0955418 0.108894 0.123323 0.138298 0.15336 0.167634 0.180142 0.189384 0.19371 0.191151 0.18014 0.159606 0.129531 0.0914482 0.0485705 0.00619667 -0.0292936 -0.0507645 -0.0520508 -0.0293341 0.0168804 0.0813721 0.153581 0.219228 0.262969 0.272339 0.24211 0.177433 0.0948299 0.0190473 -0.023669 -0.0147547 0.0476457 0.144198 0.238141 0.287655 0.264416 0.171187 0.04787 -0.0398838 -0.0305336 0.097098 0.299802 0.479144 0.528275 0.402302 0.173509 0.0286759 0.187754 0.766821 1.65319 2.47644 2.724 1.97404 0.139375 -2.41234 -4.94789 -6.64708 -6.94165 -5.7479 -3.48097 -0.856814 1.40723 2.84417 3.34065 3.08024 2.3929 1.60022 0.9296 0.460903 0.185551 0.0519267 0.00187506 -0.00914901 -0.00711612 -0.00338477 -0.00110295 -0.000196961 2.84641e-05 3.82554e-05 1.63223e-05 4.09566e-06 4.27204e-07 -1.31879e-07 -7.81216e-08 -1.94792e-08 -2.17689e-09 2.64588e-10 1.64138e-10 3.26913e-11 6.99197e-12 2.9817e-13 0 0 
0 0 3.12451e-13 5.3147e-12 2.36415e-11 1.10948e-10 1.0256e-10 -2.20753e-09 -1.69157e-08 -6.1521e-08 -6.35937e-08 6.37067e-07 4.53199e-06 1.6325e-05 3.26121e-05 -5.43895e-06 -0.000327275 -0.00146715 -0.00408998 -0.00768817 -0.00697652 0.0145436 0.0918812 0.280784 0.646167 1.23044 2.00509 2.82068 3.38887 3.33921 2.36104 0.388218 -2.26589 -4.92568 -6.76359 -7.137 -5.89103 -3.45865 -0.685228 1.54063 2.65989 2.63036 1.85155 0.898824 0.229931 0.0146814 0.145265 0.378379 0.502975 0.441592 0.2518 0.0554238 -0.0456415 -0.0211299 0.0873761 0.203883 0.263154 0.240385 0.154772 0.0522391 -0.0201908 -0.0341926 0.0115432 0.0958094 0.186309 0.253128 0.277707 0.256702 0.200153 0.125879 0.0535651 -0.00072861 -0.0276131 -0.0251785 0.00211558 0.0457829 0.0956963 0.142339 0.178702 0.200508 0.206644 0.198629 0.179572 0.153468 0.124187 0.0950257 0.0684572 0.0457076 0.027314 0.0129853 0.00204579 -0.0063545 -0.012986 -0.0184579 -0.0232607 -0.0274941 -0.031192 -0.0342404 -0.0365934 -0.038027 -0.0385618 -0.038027 -0.0365934 -0.0342404 -0.031192 -0.0274941 -0.0232607 -0.0184579 -0.012986 -0.0063545 0.00204579 0.0129853 0.027314 0.0457076 0.0684572 0.0950257 0.124187 0.153468 0.179572 0.198629 0.206644 0.200508 0.178702 0.142339 0.0956963 0.0457829 0.00211558 -0.0251785 -0.0276131 -0.000728622 0.0535649 0.125879 0.200153 0.256703 0.277709 0.25313 0.186314 0.0958143 0.0115484 -0.0341859 -0.020185 0.0522283 0.154755 0.240377 0.263146 0.203872 0.0873537 -0.021143 -0.0456407 0.0554133 0.251827 0.441593 0.503009 0.378368 0.145281 0.0146832 0.229936 0.898837 1.85158 2.63036 2.65989 1.54063 -0.685256 -3.45869 -5.89105 -7.13695 -6.76354 -4.92581 -2.26665 0.385876 2.35551 3.32847 3.37096 2.7951 1.98455 1.21779 0.639541 0.277907 0.0909348 0.0143858 -0.00691272 -0.0076141 -0.00405012 -0.00145272 -0.000323979 -5.3289e-06 3.23166e-05 1.61719e-05 4.48857e-06 6.30628e-07 -6.31416e-08 -6.09729e-08 -1.67592e-08 -2.18591e-09 1.02751e-10 1.14382e-10 3.6925e-11 5.6935e-12 0 0 
0 0 3.83397e-12 2.41998e-11 7.19769e-11 9.36052e-12 -1.92056e-09 -1.32763e-08 -4.34558e-08 -6.44832e-09 7.42912e-07 4.46591e-06 1.46562e-05 2.31244e-05 -4.38021e-05 -0.000448028 -0.00175155 -0.00448283 -0.00732109 -0.00241782 0.0324538 0.141699 0.391315 0.849046 1.54001 2.38833 3.17431 3.54338 3.10374 1.61156 -0.832136 -3.69332 -6.12333 -7.28024 -6.71571 -4.61883 -1.76021 0.85499 2.44276 2.75701 2.10866 1.11093 0.325317 0.0136237 0.104194 0.338507 0.473572 0.413941 0.220611 0.0281598 -0.0567814 -0.0128841 0.103051 0.205375 0.233246 0.178317 0.0782014 -0.0112524 -0.0466894 -0.0152333 0.0651897 0.159359 0.231624 0.259622 0.239452 0.183547 0.113028 0.049701 0.00900854 -0.00223388 0.0138214 0.0487124 0.0912599 0.130337 0.157799 0.169007 0.163392 0.143532 0.114102 0.0806321 0.0484467 0.0217643 0.00333209 -0.00577883 -0.0060285 0.0011951 0.0137214 0.0294561 0.0463086 0.0627712 0.0777878 0.0908796 0.101931 0.111165 0.118848 0.125295 0.130546 0.134735 0.137785 0.139694 0.140372 0.139694 0.137785 0.134735 0.130546 0.125295 0.118848 0.111165 0.101931 0.0908796 0.0777878 0.0627712 0.0463086 0.0294561 0.0137214 0.0011951 -0.0060285 -0.00577883 0.00333209 0.0217643 0.0484467 0.0806321 0.114102 0.143532 0.163392 0.169007 0.157799 0.130337 0.0912599 0.0487123 0.0138212 -0.00223478 0.00900828 0.0497012 0.11303 0.183552 0.239458 0.259628 0.231626 0.159362 0.0651891 -0.0152555 -0.0467159 -0.011263 0.0781928 0.178296 0.233244 0.205377 0.103055 -0.0128392 -0.0567783 0.0281546 0.220612 0.413953 0.473575 0.338533 0.10423 0.0136283 0.325319 1.1109 2.10865 2.75699 2.44276 0.854991 -1.76018 -4.6188 -6.71597 -7.28148 -6.12672 -3.70062 -0.845574 1.59021 3.07443 3.50872 3.14173 2.3639 1.52431 0.840419 0.387346 0.140257 0.0321159 -0.00240124 -0.00725179 -0.00443962 -0.0017345 -0.000443588 -4.33205e-05 2.29235e-05 1.45207e-05 4.42361e-06 7.35584e-07 -6.51833e-09 -4.30779e-08 -1.31546e-08 -1.8993e-09 1.54259e-11 5.60756e-11 2.02065e-11 0 0 
0 0 1.18133e-11 2.69063e-11 -2.82778e-11 -1.49259e-09 -9.58856e-09 -2.77591e-08 3.09751e-08 7.44525e-07 4.0003e-06 1.1914e-05 1.21547e-05 -7.90915e-05 -0.000539179 -0.00191279 -0.00449427 -0.00596791 0.00436383 0.0547672 0.19899 0.511905 1.05998 1.84358 2.73086 3.42641 3.52058 2.63574 0.643515 -2.1513 -5.00063 -6.95044 -7.25635 -5.76798 -3.04792 -0.125149 1.99597 2.79439 2.40173 1.414 0.497924 0.0454666 0.060492 0.286823 0.443189 0.399532 0.208235 0.0137654 -0.0675844 -0.0167556 0.0991867 0.18772 0.192685 0.119506 0.0194542 -0.0481294 -0.0493326 0.0119061 0.10279 0.18245 0.22147 0.212006 0.165899 0.105892 0.0545694 0.0263865 0.0249711 0.0445292 0.074161 0.102345 0.120446 0.12433 0.11422 0.093678 0.0679042 0.0424035 0.0219218 0.00956055 0.00663156 0.0129834 0.0269748 0.0460033 0.0672168 0.087876 0.105478 0.118604 0.12658 0.129641 0.128727 0.125248 0.120516 0.115864 0.112405 0.110678 0.110806 0.112499 0.115244 0.11833 0.121142 0.12307 0.123785 0.12307 0.121142 0.11833 0.115244 0.112499 0.110806 0.110678 0.112405 0.115864 0.120516 0.125248 0.128727 0.129641 0.12658 0.118604 0.105478 0.087876 0.0672168 0.0460033 0.0269748 0.0129834 0.00663156 0.00956055 0.0219218 0.0424035 0.0679038 0.0936779 0.11422 0.124329 0.120445 0.102344 0.0741611 0.04453 0.0249728 0.0263912 0.0545768 0.105899 0.165898 0.211998 0.221459 0.182431 0.102774 0.0118946 -0.0493547 -0.0481397 0.0194577 0.119518 0.192714 0.187742 0.0991658 -0.0167593 -0.0675826 0.0137749 0.208256 0.399567 0.443198 0.286809 0.06045 0.0454175 0.49787 1.41399 2.40178 2.79443 1.99592 -0.125706 -3.04972 -5.77254 -7.26565 -6.96667 -5.02515 -2.18306 0.60911 2.60534 3.48438 3.39159 2.7032 1.82495 1.04931 0.506758 0.196984 0.054208 0.00431197 -0.00591297 -0.00445146 -0.00189435 -0.000533903 -7.82754e-05 1.20603e-05 1.18058e-05 3.96287e-06 7.3731e-07 3.05806e-08 -2.75233e-08 -9.50096e-09 -1.51557e-09 -2.80541e-10 4.54951e-12 0 0 
0 0 -3.70264e-12 -2.17599e-10 -1.08599e-09 -6.42571e-09 -1.59899e-08 4.82717e-08 6.64157e-07 3.28238e-06 8.73331e-06 1.8993e-06 -0.000104844 -0.000584754 -0.00192086 -0.00409867 -0.00372086 0.0127882 0.0795324 0.258773 0.632065 1.26018 2.11224 2.99501 3.54026 3.30041 1.94996 -0.48126 -3.46668 -6.07786 -7.34494 -6.73112 -4.45074 -1.40901 1.23718 2.6508 2.67834 1.80527 0.773855 0.137971 0.0293965 0.226893 0.411214 0.398987 0.216557 0.0138764 -0.0769014 -0.0298512 0.0827851 0.161996 0.153449 0.0720427 -0.0219072 -0.0692203 -0.0466552 0.0273205 0.110792 0.16488 0.172353 0.140786 0.0930881 0.0532459 0.0358959 0.0421123 0.0627267 0.0844931 0.0967996 0.0948908 0.0803524 0.0590425 0.038372 0.024308 0.020312 0.0268322 0.0419393 0.062372 0.084611 0.105215 0.121671 0.132141 0.135684 0.132128 0.122054 0.106595 0.0874106 0.0664843 0.0457862 0.0272071 0.0121213 0.00144223 -0.00465425 -0.00645233 -0.00468912 -0.00028314 0.00550721 0.011844 0.0178305 0.0228631 0.0266642 0.0289842 0.0297781 0.0289842 0.0266642 0.0228631 0.0178305 0.011844 0.00550721 -0.00028314 -0.00468912 -0.00645233 -0.00465425 0.00144223 0.0121213 0.0272071 0.0457862 0.0664843 0.0874106 0.106595 0.122054 0.132128 0.135684 0.132141 0.121671 0.105215 0.084611 0.062372 0.0419393 0.0268323 0.0203122 0.0243074 0.0383715 0.0590421 0.0803522 0.0948907 0.0968004 0.0844973 0.062734 0.042118 0.0358909 0.0532281 0.093068 0.140765 0.172337 0.164867 0.110783 0.0273391 -0.0466424 -0.0692351 -0.0218796 0.0720572 0.153448 0.162014 0.082795 -0.0298158 -0.0768844 0.0138849 0.216547 0.398966 0.411188 0.226879 0.029417 0.138035 0.773929 1.80517 2.67753 2.64829 1.23134 -1.4204 -4.46972 -6.75838 -7.37815 -6.11074 -3.48951 -0.486253 1.92991 3.26722 3.50464 2.96494 2.09107 1.24759 0.625755 0.256187 0.0787306 0.0126528 -0.0036888 -0.00406021 -0.00190253 -0.000579089 -0.000103791 1.90215e-06 8.65587e-06 3.25209e-06 6.57823e-07 4.77457e-08 -1.58945e-08 -6.60607e-09 -1.94654e-09 -2.59312e-10 0 0 
0 0 -1.7478e-10 -1.2694e-09 -4.18395e-09 -8.28741e-09 5.00104e-08 5.37647e-07 2.48301e-06 5.7206e-06 -5.94068e-06 -0.000117319 -0.000579398 -0.0017792 -0.00335983 -0.00088287 0.0218303 0.103959 0.31469 0.739459 1.42913 2.31692 3.14668 3.48526 2.87067 1.06649 -1.70393 -4.696 -6.85925 -7.30757 -5.80342 -2.94545 0.102405 2.21076 2.84662 2.25446 1.17371 0.327394 0.0347737 0.164113 0.373809 0.409472 0.247168 0.032602 -0.0802154 -0.0473784 0.0601079 0.135928 0.122068 0.0380021 -0.0499982 -0.0837359 -0.0487109 0.0256001 0.093151 0.121577 0.107337 0.0704916 0.0382183 0.0282842 0.0419334 0.0668319 0.0863046 0.0885174 0.0713848 0.042035 0.0126636 -0.00541335 -0.00578289 0.0115779 0.0415236 0.0759636 0.107163 0.129136 0.139458 0.13812 0.127563 0.110807 0.0911239 0.0712372 0.053033 0.0378269 0.0265314 0.0196784 0.0174495 0.0199812 0.0267626 0.0370365 0.0497066 0.0633876 0.0766321 0.0881832 0.0971511 0.103037 0.105821 0.106036 0.104385 0.101738 0.0990934 0.0971798 0.0965557 0.0971798 0.0990934 0.101738 0.104385 0.106036 0.105821 0.103037 0.0971511 0.0881832 0.0766321 0.0633876 0.0497066 0.0370365 0.0267626 0.0199812 0.0174495 0.0196784 0.0265314 0.0378269 0.053033 0.0712372 0.0911239 0.110807 0.127563 0.13812 0.139458 0.129136 0.107162 0.075963 0.0415232 0.0115778 -0.00578321 -0.00541421 0.0126639 0.0420376 0.0713906 0.0885195 0.0862932 0.0668054 0.0419009 0.0282671 0.0382172 0.0704802 0.107337 0.121598 0.0931553 0.0256044 -0.0486925 -0.0837087 -0.0499872 0.0380228 0.122089 0.135956 0.060156 -0.0473579 -0.0802122 0.032609 0.24721 0.409526 0.373903 0.164164 0.0344912 0.326235 1.17041 2.24709 2.83302 2.18906 0.0729435 -2.97911 -5.83331 -7.32303 -6.85047 -4.66067 -1.68626 1.05651 2.84224 3.45056 3.11535 2.29389 1.41495 0.732131 0.311569 0.102921 0.0216064 -0.000879108 -0.00332895 -0.0017624 -0.000573839 -0.00011616 -5.86562e-06 5.67171e-06 2.46046e-06 5.32571e-07 4.9335e-08 -8.75316e-09 -4.64587e-09 -1.16235e-09 0 0 
0 0 -6.90004e-10 -2.60319e-09 -4.10696e-09 4.2503e-08 3.99586e-07 1.73997e-06 3.28061e-06 -1.0572e-05 -0.000116159 -0.000528466 -0.00152025 -0.00240989 0.00210057 0.0301973 0.124804 0.359741 0.821137 1.54655 2.43134 3.15944 3.24565 2.23858 0.0216717 -2.96624 -5.77875 -7.32057 -6.889 -4.60778 -1.4311 1.34196 2.76106 2.6809 1.69762 0.657749 0.117373 0.11334 0.325645 0.422315 0.298807 0.0755291 -0.0703783 -0.0635554 0.0359621 0.113789 0.101797 0.018063 -0.067226 -0.0948471 -0.0562493 0.0118456 0.0622525 0.070437 0.0449292 0.0142213 0.00411864 0.0218952 0.0549616 0.0815982 0.0847002 0.0605441 0.0195491 -0.0205159 -0.0430492 -0.039371 -0.0113232 0.0312054 0.074498 0.10668 0.120656 0.115753 0.0961777 0.0689979 0.0418397 0.0203527 0.00782018 0.00477617 0.00991983 0.0209772 0.0355761 0.0517095 0.0681803 0.0841539 0.0990694 0.112613 0.124035 0.132682 0.137833 0.138906 0.135878 0.128987 0.118847 0.106649 0.0934171 0.080314 0.0684085 0.058394 0.0509121 0.0463051 0.044816 0.0463051 0.0509121 0.058394 0.0684085 0.080314 0.0934171 0.106649 0.118847 0.128987 0.135878 0.138906 0.137833 0.132682 0.124035 0.112613 0.0990694 0.0841539 0.0681803 0.0517095 0.0355761 0.0209772 0.00991984 0.00477629 0.00782047 0.0203527 0.0418397 0.0689981 0.0961774 0.115753 0.120656 0.10668 0.0744977 0.0312046 -0.0113239 -0.0393694 -0.0430472 -0.0205178 0.0195324 0.0605087 0.0846606 0.0815851 0.0549759 0.0219061 0.00412807 0.0142398 0.0449466 0.070446 0.0622831 0.0119049 -0.056219 -0.0948047 -0.0671869 0.018104 0.101795 0.113758 0.0360069 -0.0635115 -0.0702941 0.0755961 0.298774 0.42185 0.32398 0.109073 0.108424 0.641868 1.67349 2.64973 2.72813 1.31645 -1.43818 -4.58784 -6.84097 -7.25289 -5.71878 -2.93482 0.0225307 2.21685 3.21366 3.12825 2.40735 1.53131 0.813054 0.356197 0.123568 0.0298928 0.00207505 -0.00238849 -0.00150609 -0.000523449 -0.000115028 -1.04568e-05 3.25419e-06 1.72433e-06 3.95633e-07 4.27783e-08 4.2919e-09 -1.64714e-09 0 0 
0 0 -7.35253e-10 4.38594e-09 3.23163e-08 2.74645e-07 1.13364e-06 1.56899e-06 -1.2117e-05 -0.000103949 -0.000445454 -0.00119511 -0.00141412 0.00474575 0.0365984 0.138983 0.387475 0.865608 1.59551 2.43622 3.01997 2.82667 1.44011 -1.11506 -4.1858 -6.65733 -7.46404 -6.17293 -3.29422 -0.0657043 2.21956 2.91402 2.27735 1.15067 0.32951 0.108039 0.270604 0.428417 0.367079 0.14764 -0.0384405 -0.0718219 0.0131525 0.0970183 0.0942581 0.0136831 -0.0724579 -0.101092 -0.0648782 -0.00484741 0.031295 0.0256178 -0.0038392 -0.0238805 -0.01319 0.0242933 0.0648722 0.0827032 0.0655808 0.0208045 -0.0306322 -0.0657848 -0.0706649 -0.0449753 -0.000371937 0.0458816 0.0782759 0.0883574 0.0763205 0.0493056 0.0178934 -0.00795344 -0.0216762 -0.0210924 -0.00837269 0.0117112 0.0336643 0.0527138 0.0662378 0.0732701 0.0748296 0.0726932 0.0687342 0.0644523 0.0605618 0.0571198 0.0535889 0.0495547 0.0445491 0.0386737 0.0323582 0.0261805 0.0207457 0.0166788 0.0141208 0.0131688 0.0134354 0.0144289 0.0156371 0.0165539 0.0169127 0.0165539 0.0156371 0.0144289 0.0134354 0.0131688 0.0141208 0.0166788 0.0207457 0.0261805 0.0323582 0.0386737 0.0445491 0.0495547 0.0535889 0.0571198 0.0605618 0.0644523 0.0687342 0.0726932 0.0748296 0.0732701 0.0662378 0.0527138 0.0336644 0.0117115 -0.0083725 -0.0210923 -0.0216765 -0.00795381 0.017893 0.0493048 0.0763202 0.088357 0.0782752 0.0458801 -0.000375749 -0.0449863 -0.0706886 -0.0658191 -0.0306607 0.0208005 0.0655979 0.0827158 0.064889 0.0243137 -0.0131585 -0.0238508 -0.00379735 0.0256665 0.031348 -0.00480446 -0.0648719 -0.101069 -0.0724506 0.0137577 0.0942912 0.0971115 0.0132157 -0.0719308 -0.0391416 0.145428 0.361719 0.417737 0.252431 0.0817406 0.29749 1.11952 2.2574 2.91604 2.24994 -0.00933898 -3.22423 -6.10487 -7.38632 -6.58846 -4.14228 -1.10273 1.42661 2.79916 2.99043 2.41239 1.5799 0.857146 0.383683 0.137616 0.0362334 0.00469476 -0.00140244 -0.00118417 -0.000441276 -0.00010295 -1.19919e-05 1.55765e-06 1.12462e-06 2.81378e-07 7.30825e-08 7.16961e-09 0 0 
0 0 5.15212e-09 4.86588e-08 1.81934e-07 6.90645e-07 5.40014e-07 -1.13401e-05 -8.50709e-05 -0.000347955 -0.000860475 -0.000530375 0.00665162 0.0400782 0.144385 0.39376 0.86609 1.56761 2.32626 2.7355 2.26039 0.541001 -2.24726 -5.25631 -7.2599 -7.29298 -5.24574 -1.99745 1.03598 2.70443 2.73854 1.75541 0.699654 0.184097 0.214666 0.412409 0.440261 0.253006 0.0291989 -0.0601821 -0.0029928 0.086143 0.0992263 0.0257889 -0.0639239 -0.0995006 -0.069336 -0.016452 0.00982253 -0.0047089 -0.0354415 -0.0462751 -0.0205941 0.0279758 0.0683398 0.0744259 0.0413893 -0.0137515 -0.0638488 -0.086852 -0.0757859 -0.0392038 0.00497809 0.0391917 0.0527198 0.0449144 0.0231399 -0.00134879 -0.0182566 -0.0216906 -0.0111903 0.00902646 0.0321353 0.0515467 0.0624007 0.0627426 0.0538182 0.0389968 0.0225485 0.00850832 -0.000407244 -0.00315342 -0.000126831 0.00690149 0.016008 0.0252398 0.0333476 0.0399747 0.0452342 0.049808 0.0544548 0.0596744 0.0657078 0.0724384 0.0794933 0.0863208 0.092456 0.0974948 0.101254 0.103475 0.104215 0.103475 0.101254 0.0974948 0.092456 0.0863208 0.0794933 0.0724384 0.0657078 0.0596744 0.0544548 0.049808 0.0452342 0.0399747 0.0333476 0.0252398 0.016008 0.00690149 -0.000126829 -0.00315344 -0.000407441 0.00850823 0.0225484 0.0389967 0.0538184 0.062743 0.0624009 0.0515469 0.0321351 0.00902606 -0.0111904 -0.0216901 -0.0182565 -0.00134975 0.023136 0.0449063 0.052707 0.0391714 0.00495234 -0.0392231 -0.0757977 -0.0868519 -0.0638256 -0.0137244 0.041414 0.0744668 0.0683742 0.0280228 -0.0205526 -0.0462334 -0.0353899 -0.00469328 0.00985076 -0.0164248 -0.0692604 -0.09942 -0.063895 0.025808 0.0990118 0.0851305 -0.005907 -0.0667634 0.0167158 0.232762 0.412313 0.380329 0.186425 0.170617 0.71104 1.79534 2.80084 2.77368 1.09343 -1.96226 -5.19066 -7.21818 -7.18561 -5.20235 -2.22367 0.53657 2.23872 2.70901 2.30368 1.55239 0.85768 0.38993 0.142975 0.039682 0.0065828 -0.000527154 -0.000852782 -0.000344739 -8.42657e-05 -1.12261e-05 5.4427e-07 7.16071e-07 2.61988e-07 4.97971e-08 0 0 
0 0 3.02579e-08 1.56882e-07 4.1405e-07 3.4625e-08 -9.25386e-06 -6.41466e-05 -0.000252445 -0.000563441 0.000130944 0.00759943 0.0402551 0.140414 0.377839 0.822355 1.46561 2.11295 2.33573 1.60477 -0.368621 -3.26276 -6.06981 -7.51607 -6.80335 -4.16647 -0.800645 1.8269 2.82675 2.329 1.21101 0.374333 0.165758 0.34207 0.476506 0.369842 0.134481 -0.0174795 -0.0047314 0.0838807 0.118214 0.0572817 -0.0377734 -0.0863591 -0.0665129 -0.0197239 0.0011959 -0.0186964 -0.0512373 -0.0576843 -0.0244522 0.0282804 0.0649541 0.0614356 0.0197197 -0.0366104 -0.0791524 -0.0909173 -0.0725707 -0.0383572 -0.00617414 0.0118662 0.0129302 0.00277525 -0.00937445 -0.0151982 -0.0106869 0.00308126 0.0213462 0.0378998 0.0475888 0.0476835 0.0385274 0.0232167 0.00626331 -0.00773289 -0.0150047 -0.0136893 -0.00409233 0.0117918 0.0306372 0.0488895 0.0635357 0.0725545 0.0754968 0.0732516 0.067562 0.0603198 0.053356 0.0479114 0.0445611 0.0432825 0.0433928 0.0444475 0.0457573 0.046852 0.0475762 0.0479208 0.0480092 0.0479964 0.0479381 0.0479964 0.0480092 0.0479208 0.0475762 0.046852 0.0457573 0.0444475 0.0433928 0.0432825 0.0445611 0.0479114 0.053356 0.0603198 0.067562 0.0732516 0.0754968 0.0725545 0.0635357 0.0488895 0.0306372 0.0117917 -0.00409229 -0.0136891 -0.0150044 -0.00773323 0.00626317 0.0232164 0.0385272 0.0476834 0.0475886 0.0379006 0.0213456 0.00307599 -0.0106986 -0.0152151 -0.00939492 0.00275288 0.012915 0.011863 -0.00616798 -0.0383487 -0.0725524 -0.0908892 -0.0791176 -0.0365603 0.0197589 0.0614828 0.0650036 0.0283217 -0.0244062 -0.0576359 -0.051161 -0.0186329 0.00129611 -0.019674 -0.0665579 -0.0867087 -0.0391401 0.0536181 0.110338 0.0696248 -0.0268682 -0.0466019 0.10325 0.345603 0.470376 0.362725 0.213983 0.440411 1.27726 2.37721 2.84683 1.82274 -0.791101 -4.12388 -6.73419 -7.43974 -6.00805 -3.22917 -0.363931 1.5898 2.31339 2.09264 1.4515 0.814427 0.374189 0.139052 0.0398604 0.00752243 0.000128025 -0.000558571 -0.00025015 -6.35441e-05 -9.14475e-06 6.91862e-08 3.26396e-07 1.32342e-07 0 0 
0 0 7.19001e-08 1.4904e-07 -1.34673e-07 -6.76178e-06 -4.48041e-05 -0.000170516 -0.000331809 0.000527979 0.0075929 0.0373926 0.128104 0.34253 0.740877 1.30314 1.82294 1.86813 0.934466 -1.1889 -4.05262 -6.53717 -7.38539 -6.01188 -2.9836 0.267489 2.33746 2.68117 1.80254 0.717694 0.164753 0.20039 0.415221 0.440659 0.247944 0.0468889 0.00122704 0.0799431 0.142679 0.106735 0.0108126 -0.0555765 -0.0517413 -0.0119031 0.00633999 -0.0171387 -0.0537924 -0.0620457 -0.0283193 0.0239578 0.0568289 0.0481943 0.00479806 -0.0467473 -0.0805738 -0.0861805 -0.0701536 -0.0477453 -0.0316332 -0.0260039 -0.0269316 -0.0273672 -0.0222775 -0.0110877 0.00282818 0.0145381 0.0199121 0.0172693 0.0077973 -0.00528277 -0.0180701 -0.0268276 -0.0290966 -0.0237429 -0.0115076 0.00571769 0.0250934 0.0434655 0.0577404 0.065758 0.0662723 0.059615 0.0472305 0.0315822 0.0154031 0.00115907 -0.00934086 -0.0153851 -0.0172889 -0.0158129 -0.0120402 -0.0070181 -0.00158846 0.00383391 0.00891343 0.0136651 0.0179141 0.0215706 0.024425 0.0263628 0.0269743 0.0263628 0.024425 0.0215706 0.0179141 0.0136651 0.00891343 0.00383391 -0.00158846 -0.0070181 -0.0120402 -0.0158129 -0.0172889 -0.0153851 -0.00934086 0.00115907 0.0154031 0.0315822 0.0472305 0.059615 0.0662723 0.065758 0.0577406 0.0434658 0.0250933 0.00571756 -0.0115077 -0.0237427 -0.0290966 -0.0268282 -0.0180699 -0.00528299 0.00779202 0.0172562 0.0198934 0.0145172 0.00281023 -0.0110986 -0.0222796 -0.0273613 -0.0269127 -0.025983 -0.0316074 -0.0477026 -0.0701047 -0.0861398 -0.08056 -0.0466992 0.00486488 0.0482283 0.0568647 0.0240098 -0.0282795 -0.0620044 -0.0537431 -0.0172716 0.00580453 -0.0137139 -0.0562167 -0.0647585 -0.0051641 0.0830431 0.11312 0.0505617 -0.018037 0.0486692 0.277512 0.495673 0.482857 0.261742 0.203487 0.727744 1.79036 2.65993 2.31536 0.265688 -2.95291 -5.9509 -7.31078 -6.47111 -4.01132 -1.17602 0.926253 1.85057 1.80562 1.29071 0.733794 0.339248 0.126871 0.0370293 0.00751722 0.000521612 -0.000329072 -0.000168984 -4.43859e-05 -6.8793e-06 -1.30376e-06 3.42864e-08 0 0 
0 0 -1.09903e-08 -9.50151e-07 -4.63311e-06 -2.91208e-05 -0.00010755 -0.000172425 0.000683673 0.00682632 0.0322801 0.109799 0.293478 0.633312 1.10163 1.49225 1.38803 0.325358 -1.83077 -4.53435 -6.60984 -6.87326 -4.97297 -1.76405 1.18609 2.63093 2.39641 1.28979 0.343388 0.0571395 0.232218 0.397571 0.315811 0.107004 -0.00299853 0.048359 0.141739 0.149719 0.0689077 -0.0114775 -0.0259826 0.00701755 0.0264649 0.00189825 -0.0412809 -0.0577987 -0.0301439 0.0182729 0.048352 0.0389871 -0.000694517 -0.0443397 -0.0704319 -0.0747813 -0.0674751 -0.0609803 -0.0601536 -0.0612351 -0.0569619 -0.0438094 -0.0244711 -0.00638751 0.00303929 0.000457735 -0.0122855 -0.0293984 -0.044447 -0.0524635 -0.0515604 -0.042629 -0.0287352 -0.0132466 0.000953939 0.0119806 0.0189745 0.0218288 0.020992 0.0169577 0.0106554 0.00298068 -0.00477203 -0.0109397 -0.0142346 -0.0134896 -0.00867867 -0.000487994 0.00975388 0.0204871 0.0301474 0.0378117 0.0431128 0.0462793 0.0480343 0.0490523 0.0499741 0.0511148 0.0525583 0.0540591 0.0554704 0.0565074 0.0569341 0.0565074 0.0554704 0.0540591 0.0525583 0.0511148 0.0499741 0.0490523 0.0480343 0.0462793 0.0431128 0.0378117 0.0301474 0.0204871 0.00975388 -0.000487994 -0.00867867 -0.0134896 -0.0142347 -0.0109397 -0.00477203 0.00298075 0.0106556 0.0169579 0.0209923 0.0218289 0.0189746 0.0119808 0.000953511 -0.0132469 -0.0287354 -0.0426329 -0.0515736 -0.0524832 -0.0444681 -0.0294147 -0.0122941 0.00045686 0.00304261 -0.0063682 -0.0244301 -0.0437823 -0.0569428 -0.0611833 -0.0600995 -0.0609418 -0.0674235 -0.0747276 -0.07039 -0.0443048 -0.000638592 0.0390456 0.048425 0.0183049 -0.0303036 -0.0585482 -0.0435655 -0.00346655 0.0159827 -0.0104671 -0.0508194 -0.04074 0.0422044 0.136168 0.151577 0.0860919 0.0571808 0.174197 0.371001 0.426994 0.234163 0.0413976 0.324114 1.2759 2.3747 2.60658 1.17572 -1.74532 -4.92249 -6.80407 -6.54336 -4.48844 -1.81155 0.323245 1.3753 1.47827 1.09124 0.627317 0.290692 0.108752 0.0319699 0.00675936 0.000676246 -0.000171107 -0.000106774 -2.99663e-05 -8.78897e-06 -1.20132e-06 0 0 
0 0 -7.65302e-07 -5.48256e-06 -1.83784e-05 -6.37218e-05 -7.62287e-05 0.00066307 0.00560077 0.0259774 0.088497 0.237721 0.513714 0.885504 1.15838 0.946614 -0.16164 -2.23549 -4.67137 -6.29474 -6.0383 -3.77859 -0.591092 1.92482 2.75311 2.07079 0.886925 0.137068 0.053041 0.253883 0.308042 0.142849 -0.0272465 -0.0321416 0.0777564 0.145906 0.105616 0.0243476 -0.00736535 0.0203429 0.0485612 0.0319663 -0.0139953 -0.0408903 -0.0232537 0.0191795 0.0473656 0.0396952 0.00571694 -0.0297144 -0.0498592 -0.0561939 -0.0602519 -0.0698201 -0.0816319 -0.0854164 -0.0739559 -0.0494952 -0.022606 -0.00610574 -0.00685391 -0.0228649 -0.0451038 -0.0630547 -0.0693369 -0.0628313 -0.0474398 -0.0298534 -0.0158682 -0.00885252 -0.00894068 -0.0138591 -0.0201345 -0.0247573 -0.0259204 -0.0234818 -0.0184116 -0.0122716 -0.00625287 -0.000826557 0.0040465 0.00890018 0.0141241 0.0194784 0.0243936 0.0280221 0.0295499 0.028671 0.025665 0.0212032 0.016009 0.0107517 0.00595616 0.00170405 -0.00199506 -0.00529592 -0.0083054 -0.010918 -0.0129982 -0.0143934 -0.014853 -0.0143934 -0.0129982 -0.010918 -0.0083054 -0.00529592 -0.00199506 0.00170405 0.00595616 0.0107517 0.016009 0.0212032 0.025665 0.028671 0.0295499 0.0280221 0.0243936 0.0194784 0.0141241 0.00890028 0.00404661 -0.000826306 -0.00625257 -0.0122711 -0.0184117 -0.0234821 -0.0259206 -0.0247578 -0.0201353 -0.0138598 -0.00894496 -0.00886484 -0.0158889 -0.0298752 -0.0474553 -0.0628378 -0.0693349 -0.0630467 -0.0450908 -0.0228343 -0.00680817 -0.00606288 -0.0225739 -0.0494481 -0.073909 -0.0853869 -0.0815613 -0.0697657 -0.0602023 -0.0561455 -0.0497986 -0.0296451 0.00570926 0.0394389 0.0463491 0.0164075 -0.0294534 -0.0525074 -0.0326564 0.00655648 0.0202546 -0.00278038 -0.0146594 0.0421742 0.150523 0.209388 0.142676 0.0157038 -0.00682181 0.138116 0.290396 0.236959 0.0440871 0.134945 0.881219 2.0531 2.72809 1.9074 -0.583978 -3.74021 -5.97771 -6.23173 -4.62437 -2.21242 -0.158977 0.938256 1.14771 0.877256 0.508908 0.235488 0.0876624 0.0257308 0.00554672 0.000656107 -7.64944e-05 -6.62522e-05 -2.57326e-05 -5.51694e-06 0 0 
0 0 -3.18228e-06 -1.48367e-05 -3.73588e-05 -2.66839e-05 0.000544037 0.00422631 0.0195257 0.0671162 0.18209 0.395519 0.677075 0.852754 0.580847 -0.492797 -2.38658 -4.48147 -5.656 -4.98613 -2.54775 0.446488 2.4567 2.73512 1.75661 0.623224 0.0933434 0.140029 0.284984 0.207228 -0.00995958 -0.122022 -0.0538975 0.0603765 0.0831345 0.0237619 -0.0186553 0.00386633 0.0473419 0.0508554 0.0121753 -0.0207948 -0.0120811 0.0265331 0.0562223 0.0532438 0.0259426 -0.0023693 -0.0187158 -0.0287998 -0.0447473 -0.0692926 -0.0919572 -0.0981354 -0.0818249 -0.0509563 -0.0223323 -0.0104969 -0.0193473 -0.0413471 -0.0630543 -0.0733763 -0.0688306 -0.0536676 -0.0365106 -0.0253198 -0.0238166 -0.03093 -0.0418781 -0.0510959 -0.0541991 -0.0493554 -0.0375566 -0.0220289 -0.00689047 0.00406616 0.00882034 0.00731578 0.00127888 -0.00674046 -0.0143112 -0.0198602 -0.0229134 -0.0240578 -0.0240197 -0.0233614 -0.022385 -0.0208646 -0.0184465 -0.0151417 -0.0111359 -0.00694902 -0.00326017 -0.00062751 0.000649525 0.000558941 -0.000608537 -0.00239243 -0.00419692 -0.00548747 -0.00599794 -0.00548747 -0.00419692 -0.00239243 -0.000608537 0.000558941 0.000649525 -0.00062751 -0.00326017 -0.00694902 -0.0111359 -0.0151417 -0.0184465 -0.0208646 -0.022385 -0.0233614 -0.0240197 -0.0240578 -0.0229133 -0.0198601 -0.0143111 -0.00674003 0.00127939 0.00731628 0.00882031 0.00406581 -0.00689096 -0.0220298 -0.0375582 -0.0493587 -0.0542095 -0.0511151 -0.0419011 -0.0309469 -0.0238212 -0.0253146 -0.0365014 -0.0536533 -0.068805 -0.0733347 -0.0629968 -0.041297 -0.0193168 -0.0104617 -0.0222964 -0.0509144 -0.0817728 -0.0980876 -0.0919003 -0.0692419 -0.0446844 -0.0288245 -0.0191197 -0.00366899 0.022646 0.0462468 0.043583 0.00700527 -0.0374871 -0.0473666 -0.0067566 0.0501204 0.0725053 0.0544378 0.0460663 0.084441 0.122808 0.0720233 -0.0643358 -0.14102 -0.0252062 0.200165 0.283564 0.139876 0.0944073 0.619227 1.74121 2.70962 2.4335 0.442742 -2.52219 -4.93664 -5.59988 -4.43676 -2.3623 -0.487014 0.576027 0.845062 0.670865 0.391865 0.1804 0.0664911 0.0193428 0.00418576 0.000536789 -3.00982e-05 -3.40519e-05 -1.28809e-05 0 0 
0 0 -6.8422e-06 -1.66668e-05 -6.86052e-06 0.000392746 0.00294601 0.013724 0.0479144 0.131925 0.289141 0.492851 0.595844 0.308181 -0.665376 -2.3101 -4.0308 -4.80121 -3.85004 -1.4055 1.26876 2.76426 2.60285 1.47942 0.487059 0.165927 0.277263 0.328168 0.14214 -0.0855637 -0.142607 -0.0548814 0.0110463 -0.0192466 -0.0728578 -0.0638214 -0.00496876 0.0316159 0.0155175 -0.0150878 -0.0125622 0.0248814 0.0607973 0.0674079 0.0496758 0.0299129 0.0187775 0.00731938 -0.0173534 -0.0545358 -0.0875834 -0.098375 -0.0821767 -0.0510122 -0.0246244 -0.0170792 -0.0289854 -0.0498197 -0.0659114 -0.0691638 -0.0606626 -0.0481915 -0.0403901 -0.0419313 -0.0515697 -0.0636743 -0.0719745 -0.0721379 -0.0632955 -0.0479049 -0.0303355 -0.015058 -0.00590593 -0.00494007 -0.0116724 -0.0238585 -0.0375792 -0.0488094 -0.0545562 -0.0537486 -0.0472567 -0.0372061 -0.0259286 -0.0154054 -0.00666998 0.000158676 0.00551601 0.00988882 0.0133728 0.0158798 0.0172966 0.017342 0.0160618 0.0136421 0.0104671 0.00693553 0.00349384 0.000529721 -0.00177137 -0.00319694 -0.00366267 -0.00319694 -0.00177137 0.000529721 0.00349384 0.00693553 0.0104671 0.0136421 0.0160618 0.017342 0.0172966 0.0158798 0.0133728 0.00988882 0.00551601 0.000158676 -0.00666998 -0.0154054 -0.0259286 -0.0372061 -0.0472566 -0.0537488 -0.0545563 -0.0488092 -0.0375789 -0.0238589 -0.0116736 -0.00494265 -0.00590961 -0.015066 -0.030351 -0.047927 -0.0633138 -0.0721404 -0.0719658 -0.0636648 -0.0515557 -0.0419026 -0.0403478 -0.048144 -0.060614 -0.0691313 -0.0658815 -0.0497705 -0.0289536 -0.017053 -0.0245871 -0.0509684 -0.0821161 -0.0983232 -0.0876581 -0.055018 -0.0189015 0.00355631 0.011075 0.01649 0.0296741 0.0425078 0.0365406 0.0104734 -0.00697151 0.0163937 0.069807 0.0953482 0.0496161 -0.0333171 -0.0697691 -0.0349393 -0.00920028 -0.0696156 -0.149741 -0.0888719 0.138897 0.324044 0.273294 0.163474 0.481883 1.46465 2.57701 2.73667 1.25577 -1.39222 -3.81275 -4.75434 -3.99113 -2.28695 -0.658121 0.305907 0.590601 0.488404 0.286509 0.130718 0.0474746 0.0135966 0.00291742 0.000399114 6.53066e-05 -8.18947e-06 0 0 
0 0 -2.59473e-06 4.82732e-05 0.000262469 0.00190176 0.00902567 0.0322053 0.0904188 0.200786 0.341899 0.395892 0.12726 -0.702948 -2.06359 -3.41538 -3.85636 -2.76223 -0.457734 1.82189 2.84605 2.37769 1.24325 0.446126 0.300543 0.422212 0.372343 0.122338 -0.0762802 -0.0867806 -0.0196823 -0.0262446 -0.10305 -0.143654 -0.104334 -0.0448089 -0.0287771 -0.0453751 -0.0428859 -0.0031847 0.0436782 0.0643855 0.0588914 0.0493663 0.0471142 0.0411427 0.0160617 -0.0265357 -0.0665542 -0.0828716 -0.0707502 -0.0439992 -0.0223602 -0.0178851 -0.0289399 -0.0448599 -0.0551521 -0.0560766 -0.0514825 -0.0485119 -0.0521022 -0.0618938 -0.0728979 -0.079089 -0.076964 -0.067037 -0.0529802 -0.0394867 -0.0301809 -0.0267022 -0.0289762 -0.0356811 -0.0449639 -0.0542424 -0.0609683 -0.0628052 -0.0587335 -0.0493109 -0.0366089 -0.0238446 -0.0137515 -0.00793162 -0.00651456 -0.00841829 -0.0120722 -0.0161411 -0.0197887 -0.022821 -0.0254297 -0.0278524 -0.0301991 -0.0325655 -0.0346544 -0.0363724 -0.0377198 -0.0385975 -0.0391886 -0.0393706 -0.0394606 -0.039432 -0.0394849 -0.039432 -0.0394606 -0.0393706 -0.0391886 -0.0385975 -0.0377198 -0.0363724 -0.0346544 -0.0325655 -0.0301991 -0.0278524 -0.0254297 -0.022821 -0.0197887 -0.0161411 -0.0120722 -0.00841829 -0.00651456 -0.00793155 -0.0137514 -0.0238448 -0.0366091 -0.0493108 -0.0587335 -0.0628059 -0.0609705 -0.0542469 -0.0449708 -0.035693 -0.0289958 -0.0267222 -0.0301861 -0.0394736 -0.0529658 -0.0670252 -0.0769352 -0.0790423 -0.0728556 -0.0618645 -0.0520759 -0.0484797 -0.0514356 -0.0560333 -0.0551317 -0.0448281 -0.028896 -0.01783 -0.0223239 -0.0441349 -0.0713646 -0.0846496 -0.0707263 -0.034801 0.0020884 0.0210075 0.0231555 0.0277772 0.0490284 0.0756222 0.0799839 0.0527458 0.0177147 0.00153949 -0.00781354 -0.0498275 -0.124447 -0.165209 -0.117876 -0.0345388 -0.0254915 -0.0931401 -0.0830525 0.116077 0.364253 0.413995 0.294044 0.438839 1.22867 2.35233 2.8163 1.80226 -0.454944 -2.73662 -3.8196 -3.38239 -2.04329 -0.695614 0.126582 0.392497 0.338867 0.198986 0.0896038 0.0319145 0.00895393 0.00195639 0.000550863 6.96388e-05 0 0 
0 0 4.35614e-05 0.000336978 0.00118308 0.005562 0.0203804 0.0586289 0.132502 0.22633 0.250879 0.0231496 -0.644787 -1.71876 -2.73711 -2.93737 -1.82622 0.230558 2.09103 2.72272 2.08056 1.03723 0.453995 0.44144 0.539438 0.406339 0.139355 -0.00635522 0.0144791 0.0420827 -0.0270152 -0.125067 -0.151757 -0.114996 -0.0905137 -0.103964 -0.111087 -0.0751154 -0.0154202 0.0265072 0.0393507 0.0431526 0.053101 0.0590229 0.0423504 0.00275921 -0.0385292 -0.0581007 -0.0503021 -0.0284528 -0.0110382 -0.00734602 -0.0144811 -0.0240569 -0.0302462 -0.0333839 -0.037273 -0.045223 -0.0567777 -0.0678152 -0.0734776 -0.0711221 -0.0620623 -0.0509612 -0.0426556 -0.0400598 -0.0424738 -0.0470478 -0.0507441 -0.0521134 -0.0513828 -0.0497388 -0.048081 -0.0461839 -0.0435735 -0.0400663 -0.0363411 -0.0338306 -0.0337399 -0.0366797 -0.0418135 -0.047368 -0.0516135 -0.0531279 -0.0518697 -0.0484463 -0.043778 -0.0388147 -0.0342982 -0.0302631 -0.0267783 -0.0238705 -0.0211589 -0.0186412 -0.0161381 -0.013507 -0.0110011 -0.00854486 -0.0065685 -0.00522426 -0.00471343 -0.00522426 -0.0065685 -0.00854486 -0.0110011 -0.013507 -0.0161381 -0.0186412 -0.0211589 -0.0238705 -0.0267783 -0.0302631 -0.0342982 -0.0388147 -0.043778 -0.0484463 -0.0518696 -0.0531279 -0.0516135 -0.0473678 -0.0418136 -0.0366803 -0.0337396 -0.0338305 -0.0363417 -0.0400688 -0.0435782 -0.0461904 -0.0480911 -0.049755 -0.0514021 -0.0521214 -0.050731 -0.0470264 -0.0424603 -0.0400368 -0.0426111 -0.0509232 -0.062041 -0.0710953 -0.0734467 -0.0677896 -0.0567505 -0.0451904 -0.0372303 -0.033334 -0.0301985 -0.0240453 -0.0146564 -0.0080755 -0.0130494 -0.0330092 -0.0590417 -0.0724468 -0.0584782 -0.0199117 0.0236266 0.0534652 0.0690564 0.0827193 0.0949201 0.0821364 0.0230482 -0.0633985 -0.123039 -0.127278 -0.112386 -0.129498 -0.160508 -0.132337 -0.0347274 0.034576 0.00800315 -0.0124684 0.132697 0.397452 0.529488 0.432883 0.445898 1.02404 2.05755 2.69358 2.06811 0.225957 -1.81046 -2.91023 -2.71126 -1.70221 -0.638286 0.0233065 0.248779 0.224354 0.131333 0.0581175 0.0202529 0.00575511 0.00194703 0.000370096 0 0 
0 0 0.000210746 0.00113046 0.0033473 0.0121708 0.0359675 0.0831225 0.143166 0.152282 -0.0254127 -0.533588 -1.34382 -2.08238 -2.12887 -1.09981 0.645777 2.10359 2.43785 1.73675 0.847564 0.465863 0.541268 0.599799 0.415175 0.172677 0.0901958 0.126471 0.110956 0.00473831 -0.0869024 -0.0990637 -0.0843069 -0.106079 -0.145878 -0.147509 -0.103004 -0.0525664 -0.0235229 -0.00447864 0.0221361 0.048014 0.0502098 0.0225634 -0.0147743 -0.0359744 -0.0325201 -0.0155246 -0.000810448 0.00494387 0.00502723 0.00434177 0.00307056 -0.00234272 -0.0143856 -0.030967 -0.0466201 -0.0559193 -0.0567703 -0.0511409 -0.0440086 -0.0402658 -0.0424061 -0.0490203 -0.0561558 -0.0590739 -0.055699 -0.0474905 -0.0386808 -0.0337566 -0.0348501 -0.0410958 -0.0491448 -0.0554762 -0.0581188 -0.0572518 -0.0544506 -0.0512436 -0.0483824 -0.0454735 -0.0418635 -0.037242 -0.0319146 -0.0267662 -0.0229077 -0.0210144 -0.0212321 -0.0231605 -0.0263666 -0.0300693 -0.0338322 -0.037154 -0.0394965 -0.0406132 -0.0402683 -0.0385787 -0.0358494 -0.0328221 -0.0299765 -0.0279537 -0.0272545 -0.0279537 -0.0299765 -0.0328221 -0.0358494 -0.0385787 -0.0402683 -0.0406132 -0.0394965 -0.037154 -0.0338322 -0.0300693 -0.0263666 -0.0231605 -0.0212322 -0.0210144 -0.0229077 -0.0267662 -0.0319146 -0.037242 -0.0418633 -0.0454736 -0.0483823 -0.0512442 -0.0544523 -0.0572559 -0.0581248 -0.0554845 -0.0491573 -0.0411118 -0.0348601 -0.0337466 -0.0386554 -0.047473 -0.0556845 -0.0590392 -0.0561187 -0.0490049 -0.0423839 -0.0402304 -0.0439885 -0.0511216 -0.0567346 -0.0558879 -0.0465835 -0.0309239 -0.0144023 -0.00258253 0.00219682 0.00209645 0.000145228 -0.00416917 -0.0153056 -0.0350404 -0.0536622 -0.0518927 -0.0164922 0.0421271 0.0913969 0.101582 0.0718093 0.0255564 -0.019797 -0.0695201 -0.127531 -0.168111 -0.158733 -0.113893 -0.0909246 -0.105577 -0.092487 0.000356752 0.106755 0.12156 0.0859922 0.168036 0.4084 0.591277 0.533441 0.458993 0.837222 1.71775 2.41194 2.08079 0.637145 -1.09126 -2.1099 -2.0632 -1.33119 -0.528384 -0.0249488 0.151031 0.141939 0.0824371 0.0358191 0.0126517 0.00488347 0.0011419 0 0 
0 0 0.000624496 0.00274402 0.00716024 0.0209574 0.0495972 0.086642 0.0890212 -0.0395836 -0.405821 -0.991108 -1.50948 -1.47506 -0.592384 0.820507 1.9208 2.05177 1.37746 0.667612 0.453506 0.574999 0.591262 0.387951 0.197623 0.177099 0.218015 0.169696 0.054855 -0.0131983 -0.0161329 -0.0289313 -0.0841441 -0.132588 -0.132441 -0.104522 -0.0856203 -0.0744121 -0.0482936 -0.00825634 0.0184361 0.0138192 -0.00996432 -0.0273115 -0.026032 -0.0135738 -0.00204259 0.00533222 0.0127671 0.0223589 0.0288441 0.0251531 0.0100159 -0.0100189 -0.0257992 -0.0322904 -0.0310499 -0.0277757 -0.027805 -0.0331558 -0.04215 -0.0508472 -0.0550476 -0.0523605 -0.0438988 -0.0337461 -0.0275417 -0.0293464 -0.0395804 -0.0544731 -0.0681381 -0.075291 -0.0738596 -0.0652652 -0.0536137 -0.0428239 -0.035474 -0.0320007 -0.0313446 -0.0319769 -0.0332628 -0.0352187 -0.0380276 -0.0417382 -0.0460988 -0.0505888 -0.0546969 -0.0581335 -0.0606313 -0.0621274 -0.062331 -0.0611053 -0.0584403 -0.0545888 -0.0500807 -0.0454584 -0.0414463 -0.0383634 -0.0363143 -0.0351654 -0.0348206 -0.0351654 -0.0363143 -0.0383634 -0.0414463 -0.0454584 -0.0500807 -0.0545888 -0.0584403 -0.0611053 -0.062331 -0.0621275 -0.0606315 -0.0581337 -0.0546969 -0.0505888 -0.0460986 -0.041738 -0.0380274 -0.0352185 -0.0332626 -0.0319769 -0.0313446 -0.0320015 -0.0354771 -0.0428295 -0.0536212 -0.0652748 -0.0738715 -0.0753 -0.0681314 -0.0544481 -0.0395568 -0.0293375 -0.0275239 -0.0337114 -0.0438757 -0.0523469 -0.0550178 -0.050817 -0.0421279 -0.033122 -0.027769 -0.027765 -0.031049 -0.032332 -0.0261014 -0.0110091 0.00753088 0.0199848 0.0195236 0.0078517 -0.00612353 -0.0142716 -0.0153666 -0.0121398 -0.0039226 0.0141825 0.0405177 0.057245 0.0409042 -0.0106745 -0.0678661 -0.0980009 -0.103372 -0.11446 -0.138028 -0.137133 -0.0881934 -0.0316718 -0.0177157 -0.0147843 0.0525987 0.16706 0.215151 0.175065 0.195773 0.384415 0.58567 0.569415 0.448939 0.660838 1.36353 2.03088 1.90067 0.810736 -0.588538 -1.46238 -1.49593 -0.98202 -0.401992 -0.0390964 0.0883234 0.0860159 0.0495529 0.0218854 0.00956903 0.00263042 0 0 
0 0 0.0013997 0.00524243 0.0121215 0.0283281 0.0502654 0.0504377 -0.0362781 -0.286607 -0.692082 -1.04624 -0.983141 -0.276149 0.81712 1.62025 1.62951 1.036 0.501312 0.410983 0.544804 0.523865 0.327697 0.200234 0.230191 0.268574 0.203439 0.104142 0.0672262 0.0673716 0.0304857 -0.0383112 -0.079335 -0.0788307 -0.0751366 -0.0863547 -0.0891318 -0.0669369 -0.0388334 -0.0310122 -0.0425396 -0.0520412 -0.0466722 -0.0325879 -0.0203353 -0.0106109 0.0030327 0.0216709 0.0367043 0.0379764 0.0244586 0.00545509 -0.00778322 -0.0110636 -0.00876886 -0.00842933 -0.0139594 -0.0236323 -0.0326234 -0.0370573 -0.0357014 -0.0303861 -0.0240715 -0.0202454 -0.0217281 -0.0297183 -0.0424961 -0.0561973 -0.0658457 -0.0678507 -0.0619376 -0.0512727 -0.0407574 -0.0347208 -0.0349862 -0.0403577 -0.0478489 -0.0544455 -0.0585274 -0.0597324 -0.0588737 -0.0568263 -0.0542165 -0.0512412 -0.0482932 -0.0455769 -0.0434001 -0.0417552 -0.0403003 -0.0386034 -0.0362607 -0.0332455 -0.0300555 -0.0274761 -0.0260908 -0.0261351 -0.0275441 -0.0297624 -0.0320461 -0.0337948 -0.034449 -0.0337948 -0.0320461 -0.0297624 -0.0275441 -0.0261351 -0.0260908 -0.0274761 -0.0300555 -0.0332455 -0.0362607 -0.0386035 -0.0403004 -0.0417552 -0.0434 -0.0455766 -0.0482931 -0.0512412 -0.0542162 -0.0568261 -0.0588739 -0.0597326 -0.0585278 -0.0544477 -0.0478537 -0.0403648 -0.0349939 -0.0347291 -0.0407636 -0.0512681 -0.0619172 -0.0678254 -0.0658359 -0.056195 -0.0424742 -0.0296874 -0.0217095 -0.0202257 -0.0240391 -0.03035 -0.0356736 -0.0370371 -0.0326052 -0.0236425 -0.0140586 -0.00881292 -0.00988674 -0.0137365 -0.0132259 -0.0040608 0.0101197 0.0198666 0.0187125 0.0107187 0.00700359 0.013035 0.0204899 0.0143433 -0.0091447 -0.0357313 -0.0489899 -0.0512159 -0.0600341 -0.0811073 -0.0958748 -0.0895458 -0.0775752 -0.0806241 -0.0798647 -0.0381139 0.0303267 0.0665435 0.0662 0.103136 0.202 0.266882 0.229235 0.199977 0.326437 0.520667 0.541226 0.408448 0.49767 1.02681 1.61401 1.60415 0.808158 -0.274876 -0.974949 -1.03707 -0.685889 -0.283972 -0.0358229 0.0502765 0.0505369 0.0297397 0.0149809 0.00480651 0 0 
0 0 0.00250447 0.00803673 0.0161881 0.0282727 0.0279683 -0.0267056 -0.189121 -0.458835 -0.695641 -0.634923 -0.103644 0.706721 1.27663 1.22673 0.74013 0.358352 0.348857 0.472423 0.423642 0.250396 0.181789 0.244725 0.275369 0.207263 0.137032 0.130333 0.130255 0.0804988 0.0165871 -0.00993403 -0.0129855 -0.0303799 -0.0563867 -0.0626905 -0.052021 -0.0520549 -0.0717328 -0.0917659 -0.0943376 -0.0823521 -0.0677192 -0.052451 -0.0302094 -0.000412044 0.025888 0.0358943 0.0277639 0.0120218 0.00129619 -0.000251658 0.00187098 0.000348614 -0.00684803 -0.0152798 -0.0193394 -0.0172735 -0.0120641 -0.00823999 -0.00832807 -0.0122438 -0.0182382 -0.0251216 -0.0321492 -0.0384283 -0.0427864 -0.0439955 -0.042163 -0.0387112 -0.0363413 -0.0371483 -0.0417152 -0.0483928 -0.0542409 -0.0569679 -0.0557212 -0.0515108 -0.0461758 -0.0414182 -0.0382438 -0.0367461 -0.0369127 -0.038532 -0.0415394 -0.0454732 -0.0494832 -0.0526452 -0.0541323 -0.0539983 -0.0528554 -0.0515459 -0.0509909 -0.0516406 -0.0533899 -0.055724 -0.0579222 -0.059756 -0.0609322 -0.0615311 -0.0616674 -0.0615311 -0.0609322 -0.059756 -0.0579222 -0.055724 -0.0533899 -0.0516406 -0.0509909 -0.051546 -0.0528554 -0.0539983 -0.0541323 -0.0526452 -0.0494833 -0.0454732 -0.0415395 -0.0385321 -0.0369126 -0.036746 -0.0382441 -0.0414187 -0.0461768 -0.0515132 -0.0557259 -0.0569746 -0.0542475 -0.0483962 -0.0417114 -0.0371341 -0.0363205 -0.0386996 -0.042165 -0.0439893 -0.0427596 -0.0383999 -0.032128 -0.0250948 -0.0181988 -0.0122053 -0.00831118 -0.00822972 -0.0120729 -0.0174135 -0.019828 -0.0165676 -0.00973437 -0.00527485 -0.00770032 -0.014279 -0.0159425 -0.00439188 0.0188581 0.0417891 0.050312 0.0390361 0.0129476 -0.0200704 -0.0560918 -0.0910679 -0.113716 -0.109993 -0.0824112 -0.056175 -0.0536298 -0.0639851 -0.0571685 -0.0302302 -0.0126242 -0.0102073 0.0156147 0.0794596 0.129172 0.128885 0.135838 0.205647 0.273374 0.243426 0.181472 0.249763 0.421558 0.469871 0.34743 0.356757 0.734543 1.21595 1.26464 0.699502 -0.103491 -0.629715 -0.689647 -0.45477 -0.18728 -0.0260083 0.0287491 0.0299132 0.018401 0.0070278 0 0 
0 0 0.00360295 0.00969766 0.0160743 0.0156383 -0.0168231 -0.11697 -0.289351 -0.444856 -0.400233 -0.0247653 0.551575 0.947111 0.880353 0.505486 0.246698 0.282615 0.384313 0.318415 0.174663 0.152207 0.229926 0.249021 0.186523 0.148158 0.164812 0.163501 0.113411 0.0671563 0.0562131 0.0475697 0.017576 -0.00956976 -0.014769 -0.0184953 -0.0438211 -0.0812154 -0.107833 -0.117795 -0.119209 -0.113354 -0.0923145 -0.0547379 -0.0142954 0.0114969 0.0167763 0.0102939 0.00444018 0.00413634 0.00530231 0.00233502 -0.00462186 -0.0101298 -0.00925607 -0.00268078 0.00385065 0.00498206 4.0025e-05 -0.00713409 -0.0119786 -0.0131326 -0.0127397 -0.0143653 -0.0197453 -0.0276327 -0.0352256 -0.0400904 -0.041559 -0.0408599 -0.0394972 -0.0385127 -0.0377416 -0.0366149 -0.0351369 -0.0340975 -0.0345724 -0.0372415 -0.041781 -0.0471953 -0.0525026 -0.0572312 -0.0611576 -0.0640879 -0.0655079 -0.0646455 -0.0611834 -0.0555174 -0.048739 -0.042531 -0.038018 -0.035835 -0.0357742 -0.0369457 -0.0384214 -0.0396025 -0.0401607 -0.0401986 -0.0399604 -0.0397055 -0.0395379 -0.0397055 -0.0399604 -0.0401986 -0.0401607 -0.0396025 -0.0384214 -0.0369457 -0.0357742 -0.0358351 -0.038018 -0.0425311 -0.048739 -0.0555174 -0.0611837 -0.0646457 -0.0655078 -0.0640879 -0.0611575 -0.0572313 -0.0525032 -0.0471958 -0.0417822 -0.0372433 -0.0345762 -0.0341024 -0.0351395 -0.0366126 -0.037732 -0.0384986 -0.0394863 -0.0408596 -0.04156 -0.0400761 -0.0352002 -0.0276074 -0.0197167 -0.0143308 -0.0126971 -0.0130955 -0.0119639 -0.00716204 -0.000152086 0.00438754 0.00240213 -0.00576193 -0.0150296 -0.0196548 -0.0182442 -0.0139373 -0.00959225 -0.00297111 0.0117098 0.0348441 0.0544831 0.0511293 0.0137989 -0.0464288 -0.10203 -0.131183 -0.134481 -0.125769 -0.110399 -0.0822384 -0.0449198 -0.0191642 -0.0147461 -0.00959595 0.0168185 0.0463577 0.0549182 0.0657164 0.11158 0.161365 0.162765 0.146506 0.184652 0.246725 0.228074 0.151437 0.174073 0.31671 0.382109 0.281507 0.245988 0.502257 0.873177 0.938688 0.54634 -0.0249013 -0.396916 -0.44096 -0.286575 -0.11533 -0.0155502 0.0169013 0.0162159 0.00795562 0 0 
0 0 0.00403404 0.00841801 0.00905062 -0.00895933 -0.0677302 -0.173647 -0.274017 -0.247743 0.00204156 0.395725 0.665713 0.606229 0.333901 0.16753 0.223365 0.300131 0.226976 0.112845 0.121084 0.198783 0.204951 0.151437 0.140205 0.17104 0.168633 0.12751 0.104125 0.106319 0.0942778 0.0630476 0.0436685 0.0388276 0.0202239 -0.0201145 -0.0616786 -0.0913608 -0.114863 -0.134337 -0.137905 -0.116526 -0.07913 -0.0446966 -0.0242846 -0.0148507 -0.00838998 -0.00166193 0.00219504 0.000567456 -0.0043993 -0.00692506 -0.0033695 0.00425834 0.0100642 0.00970384 0.00427037 -0.000825495 -0.000980864 0.00362077 0.00818596 0.00712547 -0.00178577 -0.0158026 -0.0290538 -0.0363444 -0.0360519 -0.0301514 -0.0231393 -0.0187339 -0.0185461 -0.0218911 -0.0269591 -0.0322796 -0.0372134 -0.0414383 -0.0447968 -0.0468991 -0.0476468 -0.0474341 -0.0472466 -0.0474778 -0.0479663 -0.0477025 -0.0458879 -0.0423594 -0.0380077 -0.034318 -0.0326182 -0.0332757 -0.0359323 -0.039431 -0.0429635 -0.0458334 -0.0479748 -0.0495668 -0.0508289 -0.0520764 -0.0531018 -0.0539077 -0.0541121 -0.0539077 -0.0531018 -0.0520764 -0.0508288 -0.0495668 -0.0479748 -0.0458334 -0.0429636 -0.039431 -0.0359323 -0.0332758 -0.0326184 -0.0343182 -0.0380077 -0.0423594 -0.0458878 -0.0477023 -0.0479667 -0.0474782 -0.0472469 -0.0474343 -0.047647 -0.0468999 -0.0447984 -0.04144 -0.0372123 -0.0322749 -0.0269522 -0.0218842 -0.0185438 -0.018736 -0.023135 -0.0301351 -0.0360298 -0.0363126 -0.0290108 -0.0157597 -0.00174569 0.00714457 0.00814192 0.00338789 -0.00168311 -0.00244785 0.000990639 0.00379029 0.000630264 -0.0088358 -0.0185778 -0.020321 -0.00996906 0.00875386 0.0264275 0.0340921 0.0280066 0.00979139 -0.0182177 -0.0545456 -0.0951775 -0.129304 -0.144059 -0.136213 -0.115918 -0.09263 -0.0624825 -0.0202463 0.019949 0.0379639 0.042586 0.0620799 0.0931085 0.104809 0.102373 0.125836 0.166669 0.169177 0.138759 0.15005 0.203103 0.197113 0.120334 0.112361 0.225577 0.298134 0.222226 0.167116 0.331995 0.601548 0.660105 0.392256 0.00199067 -0.245482 -0.271286 -0.171481 -0.0663363 -0.00882696 0.00624419 0.00608601 0 0 
0 0 0.00308222 0.00318918 -0.00448683 -0.0366348 -0.0990057 -0.162517 -0.150991 0.00525821 0.263571 0.445479 0.403237 0.216651 0.115724 0.175059 0.228936 0.156409 0.0685579 0.0937366 0.162206 0.156237 0.112182 0.119968 0.156391 0.153007 0.125198 0.123319 0.135232 0.123976 0.101039 0.0934565 0.087965 0.0591623 0.0147079 -0.0247546 -0.0589983 -0.0948232 -0.123367 -0.129771 -0.114828 -0.0933868 -0.0767836 -0.0638116 -0.0496707 -0.0346924 -0.0235943 -0.0184338 -0.016409 -0.0127818 -0.00575217 0.00205724 0.00681013 0.00678188 0.0041028 0.00323848 0.0068458 0.0135565 0.018517 0.0171279 0.00833651 -0.0041459 -0.0146666 -0.0186438 -0.0154346 -0.00813757 -0.00215428 -0.00138135 -0.00691548 -0.0163256 -0.0259439 -0.0325356 -0.0350593 -0.0341269 -0.0313731 -0.0280039 -0.0251351 -0.0237794 -0.024835 -0.0286677 -0.034541 -0.0407125 -0.0454846 -0.0478863 -0.0482728 -0.0478712 -0.0480239 -0.0492937 -0.0512849 -0.0530339 -0.0538114 -0.0532148 -0.0516558 -0.0496872 -0.047895 -0.0465905 -0.0457993 -0.0453505 -0.0452296 -0.0452043 -0.0451615 -0.0452043 -0.0452296 -0.0453505 -0.0457991 -0.0465905 -0.047895 -0.0496873 -0.051656 -0.0532149 -0.0538114 -0.053034 -0.0512851 -0.0492939 -0.0480243 -0.0478714 -0.0482729 -0.0478865 -0.0454851 -0.0407128 -0.0345408 -0.0286664 -0.0248325 -0.0237775 -0.0251348 -0.0280044 -0.031373 -0.0341255 -0.0350571 -0.0325336 -0.0259454 -0.016327 -0.00690727 -0.00136292 -0.00212429 -0.0080891 -0.0153825 -0.0186102 -0.0146578 -0.00421216 0.00804793 0.0163303 0.0167315 0.0100905 0.000824421 -0.00604296 -0.00839248 -0.00732335 -0.00512118 -0.00215533 0.00307157 0.0107721 0.0172931 0.0150472 -0.00163423 -0.0300896 -0.0591945 -0.0782285 -0.0877056 -0.0984644 -0.116555 -0.131078 -0.124763 -0.0955336 -0.0590182 -0.0249574 0.0140777 0.0584076 0.0872982 0.0925856 0.0997622 0.122555 0.133832 0.121842 0.123835 0.151403 0.154781 0.11891 0.111289 0.155011 0.160979 0.0932336 0.0683683 0.155425 0.22725 0.17395 0.115335 0.215429 0.400265 0.441953 0.261535 0.00552029 -0.149245 -0.160628 -0.0981318 -0.0380745 -0.00970528 0.000853185 0 0 
0 0 0.000498893 -0.0049901 -0.019779 -0.0539017 -0.0926881 -0.0904349 0.00120152 0.163787 0.284759 0.260592 0.140271 0.083048 0.136771 0.172199 0.105836 0.0398702 0.0720041 0.127392 0.111973 0.0762797 0.0953643 0.13094 0.126437 0.111492 0.125669 0.143321 0.136359 0.126421 0.130344 0.124531 0.0932528 0.0535601 0.0178374 -0.0220796 -0.0651915 -0.094037 -0.100464 -0.0953829 -0.0915332 -0.0893191 -0.0839641 -0.0755788 -0.0682317 -0.0625817 -0.0549636 -0.0426035 -0.0275949 -0.0148368 -0.00700315 -0.00326418 -0.000658618 0.00296043 0.00792562 0.0125204 0.0145879 0.0127333 0.00745155 0.00113746 -0.0035233 -0.0045579 -0.00213763 0.00202047 0.00496723 0.00461674 0.00046447 -0.00567251 -0.0110688 -0.0137389 -0.0137441 -0.0127115 -0.0126084 -0.0144492 -0.0181109 -0.0228389 -0.0283411 -0.0340358 -0.039319 -0.0428303 -0.0433101 -0.0403187 -0.0351198 -0.0297914 -0.0264076 -0.0259021 -0.0279028 -0.0310817 -0.0340216 -0.0360277 -0.037 -0.0372989 -0.0372763 -0.0371942 -0.0371346 -0.0370087 -0.0368958 -0.036764 -0.0366689 -0.0366763 -0.0366457 -0.0366763 -0.0366689 -0.036764 -0.0368957 -0.0370087 -0.0371347 -0.0371942 -0.0372764 -0.037299 -0.0370001 -0.036028 -0.0340215 -0.0310818 -0.0279028 -0.025902 -0.0264077 -0.0297916 -0.03512 -0.0403182 -0.043308 -0.0428261 -0.0393133 -0.0340321 -0.0283418 -0.0228424 -0.0181148 -0.0144515 -0.0126089 -0.0127134 -0.013748 -0.0137356 -0.0110505 -0.00564362 0.000503498 0.00466847 0.00500705 0.00201066 -0.0022425 -0.00490063 -0.00442484 -0.000813337 0.00380181 0.00664115 0.00552246 0.000710513 -0.00500237 -0.00755544 -0.00369235 0.00589235 0.0156166 0.0167358 0.00323143 -0.0228526 -0.0513005 -0.0716203 -0.0812843 -0.0852116 -0.0883933 -0.0910546 -0.0929814 -0.0967647 -0.100974 -0.0938785 -0.0652298 -0.022583 0.0173016 0.0529973 0.0923423 0.123266 0.128922 0.124959 0.134703 0.141542 0.124008 0.110007 0.124858 0.1294 0.0942634 0.0755868 0.111065 0.126407 0.071676 0.0399132 0.105251 0.170908 0.135793 0.0826655 0.139498 0.2588 0.282744 0.162835 0.00160763 -0.0895877 -0.0928882 -0.0566228 -0.0254267 -0.00641066 0 0 
0 0 -0.00306659 -0.0130002 -0.0296482 -0.0514539 -0.0531979 -0.00285367 0.0951186 0.174174 0.164252 0.0916241 0.0618433 0.105979 0.128047 0.0712876 0.0231023 0.0561367 0.0982506 0.0767828 0.0482384 0.0725587 0.103717 0.0975563 0.0920262 0.115481 0.135022 0.133255 0.136016 0.148673 0.144232 0.117616 0.0877092 0.0560354 0.0136565 -0.028529 -0.0529109 -0.0615406 -0.0673366 -0.0737955 -0.0774116 -0.0793872 -0.084978 -0.0931994 -0.0961554 -0.0879116 -0.0714639 -0.0539579 -0.0395089 -0.0272316 -0.0150013 -0.00350955 0.00467639 0.00801063 0.00783343 0.00650052 0.00571676 0.0052722 0.00400923 0.00140051 -0.00172205 -0.00360225 -0.00305086 -0.000545818 0.00238812 0.00438298 0.00521631 0.00525907 0.00465766 0.00307484 -0.000105356 -0.00484548 -0.0101225 -0.0146218 -0.0180861 -0.0209008 -0.023559 -0.0256182 -0.026032 -0.0241055 -0.0202309 -0.01621 -0.0140039 -0.0149559 -0.0189675 -0.0247725 -0.0309677 -0.0366273 -0.0414999 -0.0457252 -0.0493573 -0.0522773 -0.0542857 -0.0551448 -0.0550124 -0.0539982 -0.0524852 -0.0507423 -0.0492146 -0.0481285 -0.0477137 -0.0481285 -0.0492146 -0.0507423 -0.0524852 -0.0539982 -0.0550123 -0.0551447 -0.0542856 -0.0522772 -0.0493573 -0.0457252 -0.0414998 -0.0366273 -0.0309678 -0.0247725 -0.0189677 -0.014956 -0.0140032 -0.0162069 -0.0202253 -0.0240975 -0.0260251 -0.0256165 -0.0235645 -0.0209094 -0.0180924 -0.014625 -0.0101269 -0.00485152 -0.000104021 0.00309326 0.00468812 0.00528937 0.00525087 0.00442059 0.00237781 -0.000692447 -0.00347631 -0.00461539 -0.00383413 -0.00242016 -0.00212481 -0.00352656 -0.00535605 -0.00521087 -0.00126401 0.00604263 0.0139321 0.017972 0.0144208 0.00115711 -0.021579 -0.0508985 -0.0799152 -0.0998029 -0.104807 -0.0972021 -0.0867028 -0.0808563 -0.0785946 -0.074083 -0.0670577 -0.0615778 -0.0533944 -0.0290831 0.0130502 0.055087 0.0863903 0.116227 0.142765 0.147035 0.134273 0.131466 0.133226 0.113838 0.0906382 0.0961384 0.102268 0.0715418 0.0476122 0.0760004 0.0974003 0.0558139 0.0232191 0.0709661 0.127143 0.10523 0.0615515 0.0911992 0.163274 0.17309 0.0944822 -0.00331915 -0.0545233 -0.0544487 -0.0334147 -0.0126614 0 0 
0 0 -0.00617042 -0.0171465 -0.0290319 -0.0314148 -0.00522086 0.0513764 0.101903 0.101074 0.0604881 0.0468581 0.0807077 0.0940497 0.0485919 0.0146803 0.0452882 0.0759232 0.0516685 0.0292214 0.0548995 0.0799217 0.0715812 0.0715314 0.0981521 0.116474 0.118774 0.131189 0.149541 0.148292 0.130797 0.111926 0.0849247 0.0455584 0.0110012 -0.00747597 -0.0193281 -0.031851 -0.0414572 -0.0483308 -0.059995 -0.0789197 -0.0971668 -0.10521 -0.102612 -0.0949276 -0.0853016 -0.0716433 -0.052575 -0.0318242 -0.0157302 -0.00728807 -0.00382996 -0.000707932 0.00442999 0.00935725 0.0105427 0.00630053 -0.000936926 -0.00641618 -0.00637639 -0.00083913 0.00677514 0.0118868 0.0120496 0.00805075 0.00246711 -0.00219372 -0.00484855 -0.0053149 -0.00393548 -0.00115233 0.00193324 0.00356333 0.0022176 -0.00219767 -0.00834301 -0.0139041 -0.0176366 -0.0198179 -0.0216652 -0.0242462 -0.0276379 -0.0309925 -0.033333 -0.0343289 -0.0345612 -0.0347059 -0.0354051 -0.0368397 -0.0388264 -0.0411181 -0.0434256 -0.0453827 -0.046949 -0.0477091 -0.0476835 -0.0470531 -0.0461754 -0.0453816 -0.0450656 -0.0453816 -0.0461754 -0.0470532 -0.0476836 -0.0477091 -0.0469489 -0.0453825 -0.0434254 -0.0411178 -0.0388263 -0.0368396 -0.0354051 -0.0347059 -0.0345614 -0.0343293 -0.0333332 -0.0309915 -0.0276344 -0.0242395 -0.0216559 -0.0198087 -0.017632 -0.0139079 -0.0083536 -0.00220821 0.00221128 0.00355739 0.00192498 -0.00115395 -0.00392009 -0.00528603 -0.00482038 -0.00217005 0.00248782 0.00803236 0.011879 0.0113735 0.00562051 -0.00311113 -0.0103606 -0.0125857 -0.00943453 -0.00400494 7.89319e-05 0.00167407 0.00345028 0.00853101 0.0163445 0.0199326 0.0103686 -0.015445 -0.0498237 -0.079443 -0.0961624 -0.102815 -0.106316 -0.106898 -0.0985344 -0.0798966 -0.0600352 -0.0480047 -0.0415349 -0.0323108 -0.0198092 -0.00802955 0.0101528 0.0444062 0.0837626 0.110654 0.129319 0.146684 0.147964 0.129588 0.117254 0.114913 0.096711 0.0703816 0.070447 0.0787746 0.0540667 0.0287083 0.0510623 0.0751762 0.044948 0.014758 0.0484498 0.0934685 0.0802176 0.046706 0.0602425 0.100362 0.100803 0.0499662 -0.00710494 -0.0335323 -0.0298256 -0.0147964 0 0 
0 0 -0.00733811 -0.0155377 -0.0187799 -0.00624836 0.0251155 0.0566373 0.0604839 0.0400092 0.035253 0.0599291 0.0681463 0.0341405 0.0113568 0.0378274 0.0592784 0.0350099 0.0177463 0.0425533 0.0612209 0.0505722 0.052995 0.079064 0.0944288 0.0991413 0.117594 0.139182 0.142044 0.134238 0.124927 0.1033 0.071422 0.0476778 0.0347861 0.0220617 0.00967386 0.00138422 -0.00989552 -0.0315488 -0.0584345 -0.0794979 -0.0916452 -0.0990658 -0.104448 -0.104147 -0.0942525 -0.0768313 -0.0589132 -0.0453039 -0.0350491 -0.0243774 -0.0120459 -0.00120765 0.00389377 0.00174476 -0.00430752 -0.00882936 -0.00736508 -0.000189645 0.00881453 0.0143375 0.013839 0.00853447 0.00224309 -0.00152942 -0.00175302 0.000254229 0.00274616 0.00435927 0.00446141 0.0027164 -0.00113495 -0.00656456 -0.0118708 -0.0150093 -0.0148052 -0.0121218 -0.00929618 -0.00859059 -0.0112748 -0.0165425 -0.023006 -0.0292201 -0.0345493 -0.0390701 -0.0430345 -0.0466346 -0.0500375 -0.0534127 -0.0569205 -0.0605807 -0.0641688 -0.0675619 -0.0705864 -0.0733073 -0.0758142 -0.0781415 -0.0801984 -0.0816612 -0.0821768 -0.0816612 -0.0801985 -0.0781416 -0.0758143 -0.0733073 -0.0705862 -0.0675619 -0.0641686 -0.0605805 -0.0569203 -0.0534126 -0.0500375 -0.0466347 -0.0430348 -0.0390702 -0.0345481 -0.0292164 -0.0229988 -0.0165324 -0.0112646 -0.008584 -0.00929722 -0.0121313 -0.0148182 -0.0150193 -0.0118785 -0.00657384 -0.00113999 0.00272602 0.00448386 0.00438478 0.00276993 0.000265249 -0.00179758 -0.00173914 0.00165413 0.00723634 0.0113859 0.0102108 0.00264346 -0.00836945 -0.0168966 -0.018089 -0.010608 0.00173197 0.0130631 0.0176354 0.0129288 -0.000501857 -0.0200173 -0.0427092 -0.0659924 -0.0867713 -0.101472 -0.107605 -0.106085 -0.10034 -0.0924172 -0.0795145 -0.0581057 -0.0316503 -0.0102665 0.00105159 0.00932904 0.0213658 0.0338133 0.0466088 0.0702167 0.101862 0.123337 0.132713 0.140398 0.137496 0.11606 0.0976951 0.0929837 0.0777268 0.0519875 0.0496554 0.0602404 0.0418723 0.0174323 0.0346287 0.0586927 0.0375259 0.0114142 0.0340929 0.0678076 0.0596156 0.0350405 0.0394981 0.0593558 0.0550171 0.0235062 -0.00694889 -0.0173891 -0.0117824 0 0 
0 0 -0.00604106 -0.00946599 -0.00527016 0.0105845 0.0293613 0.0347117 0.0259807 0.0257561 0.0431333 0.0486505 0.0249701 0.0104912 0.0321172 0.0466145 0.0243625 0.0116649 0.0343961 0.0474662 0.035299 0.0389803 0.0630098 0.0750067 0.0807562 0.102288 0.124919 0.130821 0.130367 0.127577 0.111486 0.0891713 0.0762949 0.0691351 0.0600353 0.0533321 0.0477908 0.0323013 0.00530748 -0.0226201 -0.0449351 -0.0634859 -0.0804072 -0.0929184 -0.0970905 -0.0934128 -0.0864587 -0.079271 -0.0709425 -0.0589095 -0.0434777 -0.0283603 -0.0178358 -0.013471 -0.0133136 -0.0137928 -0.0119984 -0.00731911 -0.00161763 0.0024654 0.00349995 0.00213333 0.000773776 0.00149108 0.00426383 0.00749458 0.0091207 0.00833866 0.0056623 0.00211624 -0.00198271 -0.0065296 -0.0109656 -0.0141474 -0.0149947 -0.0135687 -0.0117393 -0.0116696 -0.014995 -0.0214546 -0.0298088 -0.0386307 -0.047003 -0.0544797 -0.0609436 -0.0659826 -0.0694743 -0.071345 -0.0719064 -0.0716512 -0.0710414 -0.0702247 -0.0695574 -0.069538 -0.0702467 -0.0719432 -0.0743453 -0.0770094 -0.0794844 -0.0811419 -0.0817043 -0.081142 -0.0794843 -0.0770092 -0.0743453 -0.0719432 -0.0702467 -0.0695378 -0.0695574 -0.0702249 -0.0710416 -0.0716513 -0.0719065 -0.0713455 -0.0694742 -0.0659815 -0.0609399 -0.0544722 -0.0469927 -0.0386198 -0.0298009 -0.021453 -0.0150015 -0.0116819 -0.0117519 -0.0135786 -0.0150048 -0.0141563 -0.0109642 -0.0065145 -0.00196062 0.00213933 0.00566796 0.0082684 0.00885753 0.00682526 0.00283702 -0.00113686 -0.00348499 -0.00401465 -0.00437092 -0.00630848 -0.0096983 -0.0123092 -0.0110662 -0.00466916 0.0042127 0.00927908 0.00383022 -0.0145802 -0.0409239 -0.0651994 -0.0799832 -0.0859351 -0.0896667 -0.0949451 -0.0982847 -0.0935919 -0.0802843 -0.0631277 -0.0449757 -0.0228387 0.00517502 0.0320471 0.0471945 0.0524029 0.058995 0.0679258 0.0748466 0.0876001 0.109904 0.125845 0.128596 0.129121 0.123241 0.100766 0.0793471 0.0736382 0.0617454 0.0379955 0.0344546 0.0466439 0.0338344 0.0114428 0.0241255 0.0462144 0.0319012 0.010553 0.0249412 0.0483418 0.0426863 0.0251436 0.0250111 0.0335105 0.0285546 0.0109347 -0.00348775 -0.00553327 0 0 
0 0 -0.00312008 -0.00250571 0.00428995 0.0142638 0.0188388 0.0161173 0.017882 0.0298781 0.0340806 0.0188744 0.0102866 0.0270179 0.0365513 0.0177507 0.00911641 0.0293241 0.0381004 0.0257697 0.030509 0.0523438 0.0611927 0.0669759 0.0892396 0.110768 0.117504 0.120933 0.121758 0.110527 0.0972035 0.0934802 0.0925567 0.09051 0.0916211 0.0890068 0.072328 0.0466283 0.0212729 -0.00294501 -0.0273414 -0.048608 -0.0628357 -0.0702813 -0.0745146 -0.0776813 -0.0786024 -0.0753549 -0.0678087 -0.0575979 -0.0465399 -0.0358639 -0.0263893 -0.0187833 -0.0135097 -0.00990551 -0.00690125 -0.00360707 -0.000389164 0.00173708 0.00209536 0.00101108 -0.00062995 -0.00242883 -0.00412574 -0.00522446 -0.00506825 -0.00345083 -0.00118726 -0.000215493 -0.00205483 -0.0066693 -0.012823 -0.0189665 -0.0246561 -0.0304145 -0.0369643 -0.0439908 -0.0503644 -0.0548524 -0.056826 -0.0569939 -0.0562608 -0.0555057 -0.0551745 -0.0553225 -0.0558239 -0.0562994 -0.0561303 -0.0549488 -0.0527487 -0.0502596 -0.0483579 -0.0478575 -0.0486143 -0.0502884 -0.0520196 -0.0533232 -0.054056 -0.0543016 -0.0543785 -0.0543015 -0.0540559 -0.053323 -0.0520195 -0.0502885 -0.0486143 -0.0478574 -0.048358 -0.05026 -0.0527491 -0.0549492 -0.0561308 -0.0562997 -0.0558229 -0.0553187 -0.0551672 -0.0554954 -0.0562499 -0.0569855 -0.0568225 -0.0548554 -0.0503733 -0.0440024 -0.0369759 -0.0304267 -0.0246685 -0.0189728 -0.0128162 -0.00665107 -0.00203586 -0.000219597 -0.00127799 -0.00376251 -0.00582692 -0.00677598 -0.00690649 -0.0068094 -0.00673801 -0.00653511 -0.0059756 -0.00524831 -0.00412249 -0.00175448 0.00222799 0.00640085 0.00706511 0.000635606 -0.0139354 -0.0333347 -0.0519723 -0.0656956 -0.0739204 -0.0783848 -0.0800509 -0.0787799 -0.0751088 -0.0701101 -0.0624432 -0.048564 -0.0274622 -0.00298988 0.0210713 0.0460048 0.0714658 0.0880195 0.0904531 0.089102 0.091041 0.0918763 0.0954772 0.108746 0.12 0.119264 0.115839 0.109126 0.0877301 0.0657172 0.0599487 0.0512001 0.0296787 0.0250452 0.0374187 0.0288043 0.00893989 0.0176395 0.0363125 0.0268572 0.0102425 0.0186627 0.0335583 0.0291728 0.0171444 0.0155409 0.0187524 0.0148424 0.00526379 0.000397531 0 0 
0 0 -0.000222261 0.0020688 0.00699185 0.0099841 0.00959537 0.0116993 0.0197603 0.0232381 0.0143645 0.0097254 0.0221274 0.0284485 0.0138017 0.00857655 0.0260323 0.0319039 0.0205547 0.0262922 0.0456542 0.0514658 0.0564236 0.0776087 0.0963131 0.101715 0.10625 0.108399 0.100433 0.0936413 0.0964282 0.101295 0.10691 0.115101 0.11549 0.101632 0.0812516 0.0590137 0.0332587 0.00752266 -0.0129078 -0.0282957 -0.041448 -0.0531403 -0.0618299 -0.0669752 -0.0699586 -0.0715844 -0.0701866 -0.0638216 -0.052956 -0.0410588 -0.0316286 -0.024925 -0.0183967 -0.00962455 0.000949548 0.0102 0.014594 0.0130498 0.00757081 0.00140238 -0.00320682 -0.00561131 -0.00645338 -0.00677605 -0.00783688 -0.0109186 -0.0166265 -0.0244841 -0.032424 -0.0380704 -0.0405259 -0.0406514 -0.0406344 -0.0421875 -0.0455614 -0.0497411 -0.0532023 -0.054979 -0.0545387 -0.0518169 -0.0470302 -0.0406325 -0.0334789 -0.0263355 -0.0196497 -0.0133454 -0.00728926 -0.00123724 0.00470607 0.0104362 0.0158637 0.0211234 0.0260769 0.0304701 0.0340888 0.0366599 0.0382901 0.0391232 0.0393267 0.0391234 0.0382904 0.0366602 0.0340888 0.0304704 0.0260771 0.0211233 0.0158636 0.0104359 0.00470542 -0.00123777 -0.00728981 -0.0133444 -0.0196463 -0.0263289 -0.0334693 -0.040622 -0.0470211 -0.0518123 -0.0545395 -0.0549835 -0.0532102 -0.0497523 -0.0455767 -0.0422042 -0.0406458 -0.0406504 -0.0405119 -0.0380563 -0.0324428 -0.0245991 -0.0169778 -0.0117616 -0.00952208 -0.00969554 -0.0109273 -0.0116688 -0.0104143 -0.00598319 0.00156799 0.0104248 0.0172878 0.0194148 0.0162465 0.00897337 -0.00120876 -0.0139365 -0.0292099 -0.0456146 -0.0600332 -0.0693677 -0.0730489 -0.0729417 -0.0709509 -0.0675407 -0.0616972 -0.0527847 -0.0413572 -0.0283341 -0.0129141 0.00730067 0.0326777 0.0581826 0.0803761 0.100515 0.114102 0.113591 0.10528 0.0995026 0.0946283 0.0918586 0.0987339 0.106838 0.104684 0.10015 0.0947154 0.0761961 0.0552242 0.0503611 0.0446731 0.025588 0.0200306 0.0313382 0.0256161 0.00842953 0.0136891 0.0282031 0.0218714 0.00946702 0.0139339 0.0226685 0.0193046 0.011555 0.00976463 0.01028 0.00730574 0.00337975 0 0 
0 0 0.00136848 0.00338151 0.00526738 0.00570528 0.0074328 0.0125619 0.0153386 0.0107161 0.00857099 0.0174388 0.0218457 0.0113899 0.00871173 0.0232159 0.0271221 0.0174117 0.0234104 0.0397175 0.0424458 0.0458925 0.0646283 0.0793999 0.0821796 0.0859141 0.0876019 0.08065 0.0773332 0.0839816 0.0933351 0.105159 0.118828 0.123018 0.114782 0.101038 0.0821479 0.0583781 0.0366488 0.0191076 0.00168487 -0.0160571 -0.0308059 -0.0419564 -0.0518985 -0.0625606 -0.0716739 -0.0754925 -0.0733047 -0.0681712 -0.0635377 -0.0596026 -0.0533423 -0.0417309 -0.0255642 -0.00916143 0.00255334 0.00768322 0.0079655 0.00693982 0.00712385 0.00844065 0.00876907 0.00640217 0.000749765 -0.00785061 -0.0185949 -0.0305323 -0.0419761 -0.051 -0.056056 -0.057088 -0.0557264 -0.0537134 -0.0520092 -0.050086 -0.0469022 -0.0415168 -0.0339464 -0.0245806 -0.0136602 -0.00139831 0.0118834 0.0260392 0.0407037 0.0554233 0.0696291 0.0823472 0.0925617 0.099816 0.104797 0.108626 0.112698 0.117786 0.123965 0.130289 0.135924 0.140258 0.143103 0.144584 0.14508 0.144584 0.143104 0.140258 0.135924 0.13029 0.123965 0.117786 0.112698 0.108626 0.104797 0.0998157 0.0925627 0.0823506 0.0696356 0.0554323 0.0407137 0.0260479 0.011889 -0.0013971 -0.0136624 -0.0245847 -0.0339554 -0.0415339 -0.0469226 -0.0501013 -0.0520116 -0.053703 -0.0557182 -0.0571205 -0.0562013 -0.0513981 -0.0428965 -0.0323463 -0.0216543 -0.012384 -0.00521269 -0.000468809 0.00202802 0.00331822 0.00544556 0.0103895 0.0173316 0.0221828 0.0194202 0.00590555 -0.0161685 -0.0396636 -0.0570725 -0.065555 -0.0684124 -0.0708306 -0.074597 -0.0763894 -0.0722129 -0.0624854 -0.0515716 -0.0418303 -0.0308332 -0.016069 0.00145254 0.0185293 0.0358871 0.0574915 0.081038 0.0996225 0.113242 0.121368 0.117061 0.10337 0.0916285 0.0823953 0.0759169 0.0794904 0.0863414 0.0846124 0.0808133 0.0780303 0.0633887 0.0447913 0.0414668 0.0388224 0.0228062 0.0169436 0.0266603 0.022849 0.00850327 0.0111743 0.0215022 0.017075 0.00824193 0.0104047 0.0151328 0.0125428 0.00751919 0.00583662 0.00569981 0.00335272 0 0 
0 0 0.00153405 0.00282371 0.0032836 0.00460069 0.00780047 0.00988533 0.00778448 0.00704622 0.0131863 0.0164371 0.00958889 0.00854716 0.0200236 0.0225252 0.0144383 0.019867 0.0325951 0.03244 0.0340794 0.0497954 0.0603035 0.0600317 0.0619495 0.0616179 0.0539483 0.0519238 0.0605909 0.0729098 0.0891746 0.10701 0.11572 0.114024 0.106713 0.0929171 0.0754353 0.0608259 0.0465074 0.0288145 0.011743 -0.00194706 -0.0151934 -0.0306027 -0.0468343 -0.0593036 -0.0660089 -0.0695331 -0.0730329 -0.0766699 -0.077694 -0.0730244 -0.0623425 -0.0481946 -0.0343495 -0.0232696 -0.0153021 -0.00923578 -0.00416452 -0.000316785 0.00108112 -0.000618191 -0.00501616 -0.0107306 -0.0168923 -0.023772 -0.0318748 -0.0406809 -0.0486052 -0.0540883 -0.0563265 -0.0557497 -0.0526516 -0.046684 -0.0367335 -0.022237 -0.00367407 0.0172412 0.0385719 0.0583782 0.0753732 0.0887807 0.0985953 0.105744 0.111375 0.116464 0.12137 0.125896 0.129799 0.132858 0.135316 0.137166 0.138795 0.140505 0.142828 0.146137 0.15033 0.154931 0.15904 0.161873 0.162878 0.161874 0.15904 0.154931 0.15033 0.146137 0.142828 0.140505 0.138795 0.137167 0.135316 0.132859 0.129803 0.125902 0.121379 0.116474 0.111384 0.105751 0.0985987 0.0887813 0.0753723 0.0583717 0.038555 0.017218 -0.00369174 -0.022241 -0.0367265 -0.0466822 -0.0526964 -0.055926 -0.0567865 -0.0550955 -0.050529 -0.043859 -0.0364522 -0.0295978 -0.0234041 -0.016884 -0.00936083 -0.00149689 0.0051216 0.00921011 0.0097888 0.00624211 -0.0021494 -0.0155652 -0.0329137 -0.0513154 -0.0671157 -0.0770391 -0.0801242 -0.0779725 -0.0738751 -0.0700081 -0.0659401 -0.0590207 -0.046746 -0.0306765 -0.0152262 -0.00217745 0.0111767 0.0280649 0.0456372 0.0596932 0.0740822 0.0914584 0.105187 0.112344 0.114067 0.105466 0.0877998 0.0717455 0.0597101 0.0513328 0.0532607 0.0608065 0.0609997 0.059058 0.0592397 0.0488072 0.03323 0.0316071 0.0318328 0.0192907 0.0140017 0.022078 0.0196058 0.00825368 0.00929252 0.0161075 0.0129292 0.00689103 0.00769421 0.00984262 0.00784286 0.00491956 0.00409092 0.00216145 0 0 
0 0 0.00107896 0.0021483 0.00284371 0.00469506 0.00619443 0.0054874 0.00549233 0.00962419 0.0120642 0.00791416 0.00771223 0.0162877 0.0178383 0.0112374 0.0155377 0.02491 0.0226702 0.0229364 0.0358211 0.042773 0.0401364 0.0402289 0.0374826 0.0282249 0.0263484 0.0357422 0.0493185 0.0678868 0.0883996 0.100625 0.104171 0.102478 0.0947837 0.0853128 0.0775947 0.0668115 0.0524785 0.0398474 0.0277923 0.0120083 -0.00663107 -0.0244511 -0.0387379 -0.0498914 -0.0598843 -0.0689866 -0.076159 -0.0802905 -0.0804698 -0.0764218 -0.068337 -0.0573136 -0.0456047 -0.0352161 -0.0274761 -0.0225757 -0.0202022 -0.0200524 -0.0216933 -0.0246114 -0.0285825 -0.0338823 -0.0408256 -0.0485597 -0.0544174 -0.0554552 -0.0500678 -0.0388166 -0.0239046 -0.00751592 0.00914391 0.0257954 0.0424278 0.0585868 0.0736914 0.0872794 0.0988821 0.108121 0.114687 0.118254 0.1189 0.116901 0.112435 0.105993 0.0984511 0.0911907 0.0854218 0.0816478 0.0795059 0.0776552 0.0751133 0.0714574 0.0671242 0.0629082 0.0599485 0.0586529 0.0587154 0.0593857 0.0597567 0.059386 0.0587154 0.0586523 0.0599482 0.0629083 0.0671241 0.0714565 0.0751124 0.077655 0.0795067 0.0816508 0.0854272 0.0911979 0.0984597 0.106003 0.112442 0.116906 0.118903 0.118256 0.114684 0.108107 0.0988606 0.0872609 0.0736851 0.0585907 0.0424227 0.0257362 0.00893737 -0.00804085 -0.0250126 -0.0408466 -0.0533281 -0.0600457 -0.0600926 -0.0546956 -0.0464107 -0.0375532 -0.0288219 -0.0201281 -0.0120618 -0.00648124 -0.00572682 -0.0109858 -0.0213902 -0.0346985 -0.0485044 -0.0610411 -0.0713576 -0.078463 -0.0818112 -0.081132 -0.0765635 -0.0689801 -0.0597064 -0.0498644 -0.0388275 -0.0245367 -0.00684769 0.0115174 0.0271004 0.039064 0.0514538 0.06558 0.0763117 0.0839822 0.0933126 0.101031 0.102817 0.0994109 0.0873658 0.0671965 0.0488875 0.0354935 0.0261408 0.0279137 0.0369663 0.0396198 0.0394321 0.0419445 0.035032 0.0222753 0.0219826 0.0242142 0.014966 0.0107603 0.01738 0.0159103 0.0074525 0.00769893 0.0118688 0.00948352 0.00540768 0.00547977 0.00638678 0.00523956 0.00358536 0.00145777 0 0 
0 0 0.000781146 0.00193186 0.00295599 0.00383818 0.00370679 0.00403296 0.00677719 0.00860893 0.00629576 0.00643601 0.0125198 0.0135053 0.00831775 0.0114494 0.0182501 0.0153038 0.0151572 0.0260964 0.0311192 0.0277219 0.0268689 0.0223341 0.0117139 0.00938913 0.0180666 0.0309965 0.0495049 0.0703148 0.083791 0.0901045 0.0924324 0.090454 0.0879265 0.0860576 0.0803071 0.0723017 0.065105 0.0546381 0.0389261 0.0215096 0.0041598 -0.0126646 -0.0284299 -0.0426992 -0.0550722 -0.0663279 -0.0766888 -0.0841309 -0.0860634 -0.0821638 -0.0745972 -0.0670634 -0.0616837 -0.0579184 -0.0542199 -0.0497545 -0.0458765 -0.0440639 -0.0453135 -0.049297 -0.0549345 -0.0602039 -0.0622506 -0.0583996 -0.0466702 -0.0276289 -0.00395941 0.0209602 0.0448064 0.0664069 0.0852778 0.100884 0.112412 0.118972 0.120234 0.116499 0.108408 0.0971982 0.0844315 0.0713991 0.0586993 0.0464178 0.0339327 0.0212255 0.00861355 -0.00304278 -0.0132164 -0.0216364 -0.0284063 -0.0339184 -0.0389033 -0.0442888 -0.0508796 -0.0587336 -0.0671852 -0.0751794 -0.0816228 -0.0856991 -0.0871286 -0.0856993 -0.0816226 -0.0751795 -0.0671852 -0.0587333 -0.0508795 -0.0442894 -0.0389037 -0.0339181 -0.0284049 -0.0216324 -0.0132102 -0.0030348 0.00862199 0.0212333 0.0339391 0.0464224 0.0587022 0.0713964 0.0844199 0.0971832 0.108394 0.116491 0.120233 0.11896 0.112337 0.100643 0.0846914 0.065203 0.0426659 0.0176294 -0.0085287 -0.0331307 -0.0524204 -0.063427 -0.0653295 -0.0599554 -0.0501754 -0.0396485 -0.0320231 -0.0302607 -0.0354049 -0.0450683 -0.0548249 -0.0610383 -0.0646833 -0.0690575 -0.0760456 -0.0834745 -0.0870244 -0.0844972 -0.0766986 -0.0662741 -0.0550848 -0.0427771 -0.0285064 -0.0128489 0.00373701 0.0208937 0.0382725 0.0538029 0.0641247 0.0712207 0.0791298 0.0847979 0.0866157 0.0892262 0.0912977 0.0891247 0.0830856 0.0698535 0.049217 0.030846 0.0179672 0.00932797 0.011558 0.0220079 0.0264077 0.0271388 0.0304373 0.0253769 0.0145028 0.0146235 0.0175816 0.0109322 0.00793099 0.0131776 0.0122742 0.00625701 0.00612364 0.0084614 0.00672949 0.00415941 0.00405156 0.00431664 0.00327372 0.0014179 0 0 
0 0 0.00076078 0.0017703 0.00244032 0.0025252 0.00286661 0.00460737 0.00591289 0.00475067 0.00505529 0.00925442 0.0100015 0.00622399 0.00849568 0.0136141 0.0111543 0.0115165 0.0215841 0.0262581 0.0233981 0.0226005 0.0172491 0.00594396 0.00297672 0.0102453 0.0212578 0.0382465 0.0575729 0.0702724 0.0774239 0.082287 0.0845528 0.0872322 0.0907054 0.0911611 0.0904632 0.0887438 0.0818391 0.0707551 0.057879 0.0420491 0.0244911 0.00804486 -0.00702056 -0.0223349 -0.0390785 -0.055693 -0.0680024 -0.0741796 -0.0757405 -0.0766619 -0.0792869 -0.083266 -0.0862005 -0.0868241 -0.0856852 -0.0848069 -0.0850574 -0.0853384 -0.0838717 -0.0789553 -0.0698427 -0.0559072 -0.0366061 -0.0122496 0.0152571 0.0433832 0.0692859 0.0912852 0.108689 0.121077 0.12779 0.128048 0.121443 0.108217 0.0892724 0.0665505 0.0421578 0.0185096 -0.00215008 -0.018745 -0.0309934 -0.0389902 -0.0433827 -0.044926 -0.0448201 -0.0445587 -0.0453991 -0.0479322 -0.0518639 -0.0564585 -0.0610339 -0.0650732 -0.0687279 -0.072541 -0.0774996 -0.0837986 -0.0906179 -0.0960454 -0.09812 -0.0960454 -0.0906179 -0.0837987 -0.0775003 -0.0725419 -0.0687277 -0.0650733 -0.0610328 -0.0564564 -0.0518595 -0.0479258 -0.0453909 -0.0445507 -0.0448119 -0.0449185 -0.0433777 -0.0389878 -0.0309959 -0.0187551 -0.00216334 0.0184995 0.0421503 0.0665437 0.0892527 0.108125 0.121164 0.127397 0.1265 0.118837 0.105288 0.0867535 0.0639918 0.0380288 0.0107627 -0.0148079 -0.0359978 -0.0510217 -0.0603001 -0.0659187 -0.0704887 -0.0755864 -0.0813965 -0.0865248 -0.0894461 -0.0895576 -0.0872958 -0.0839093 -0.0803628 -0.0777561 -0.076229 -0.0741931 -0.0680004 -0.0557405 -0.0390784 -0.0223306 -0.00716927 0.00776335 0.0240659 0.0415375 0.0571947 0.0698795 0.0809024 0.0876725 0.0892348 0.0899177 0.0894919 0.0861017 0.0835334 0.0815037 0.0767859 0.0697855 0.0571597 0.0379458 0.0210771 0.0101346 0.00291101 0.00575908 0.0168654 0.0220538 0.0227511 0.0254354 0.0207318 0.010783 0.0105383 0.0131494 0.00820733 0.00600611 0.00976618 0.00902249 0.00487171 0.00466954 0.00598821 0.00483684 0.00316396 0.00275051 0.00252969 0.00134855 0 0 
0 0 0.000715282 0.001376 0.00159694 0.00198997 0.00312323 0.00398983 0.00341626 0.0037541 0.00664554 0.00737545 0.00494582 0.00677926 0.0108937 0.00940335 0.0105547 0.0200954 0.0250121 0.0231108 0.0225451 0.017024 0.00568806 0.00229594 0.00805181 0.0171927 0.0320667 0.0490332 0.0596535 0.0660607 0.0715109 0.0754945 0.0809836 0.0881803 0.0936604 0.0981367 0.101107 0.0996419 0.0950703 0.0871683 0.0742141 0.0600854 0.0472663 0.0334585 0.016879 -0.00186917 -0.0196004 -0.0332407 -0.0429953 -0.0511535 -0.0596917 -0.0695427 -0.0801046 -0.0908542 -0.101389 -0.111189 -0.119081 -0.122825 -0.120051 -0.109755 -0.0925787 -0.0696202 -0.041763 -0.00957905 0.0256278 0.0607109 0.0916312 0.114798 0.128076 0.131293 0.125223 0.11151 0.0918329 0.0684955 0.0439578 0.0205439 0.000233707 -0.0155703 -0.0263665 -0.0324943 -0.0350623 -0.035213 -0.0336468 -0.0305913 -0.0260807 -0.0206175 -0.0153529 -0.0114603 -0.00980218 -0.0106931 -0.0139604 -0.0184743 -0.022647 -0.0249617 -0.0246919 -0.0220645 -0.0181096 -0.0139398 -0.0103595 -0.00802395 -0.00724044 -0.00802384 -0.0103593 -0.0139401 -0.0181109 -0.0220649 -0.0246911 -0.0249603 -0.0226444 -0.0184694 -0.0139548 -0.0106872 -0.00979485 -0.0114538 -0.0153461 -0.0206118 -0.0260784 -0.0305953 -0.0336566 -0.0352226 -0.0350698 -0.032499 -0.0263762 -0.0156009 0.000124758 0.0202303 0.0432449 0.0671185 0.0895059 0.108056 0.120741 0.126223 0.123125 0.110801 0.0895258 0.0615801 0.0305247 -0.000239133 -0.0290446 -0.0565408 -0.0831954 -0.10671 -0.122619 -0.127418 -0.122098 -0.111808 -0.101229 -0.0913928 -0.0811631 -0.0701546 -0.0597307 -0.051133 -0.0430779 -0.0332047 -0.019486 -0.00189976 0.0166703 0.0331731 0.0468277 0.0594747 0.0734166 0.0862365 0.0940529 0.0984447 0.099815 0.0968591 0.092376 0.0870491 0.0800133 0.0746623 0.0707949 0.0654271 0.0591236 0.0485368 0.0317345 0.0169164 0.00783125 0.001996 0.0052449 0.016338 0.0216662 0.0221624 0.0240689 0.0193211 0.0100777 0.00911343 0.0106706 0.00653646 0.00465384 0.00711322 0.0065087 0.00379167 0.00358739 0.00418263 0.00325474 0.00209454 0.00178486 0.000959132 0 0 
0 0 0.000510048 0.000977163 0.00122598 0.00199058 0.00264638 0.00243921 0.00276415 0.00471912 0.00538416 0.00400752 0.00565146 0.00916667 0.00866155 0.010247 0.0188346 0.0236078 0.0221389 0.0214585 0.0157985 0.0043841 0.00030623 0.00457217 0.0116436 0.0240552 0.0379165 0.0456658 0.0500236 0.0542241 0.0576497 0.0636196 0.072212 0.0799598 0.0873448 0.0940445 0.0977362 0.0985357 0.0948439 0.0867038 0.0784362 0.0700056 0.0580958 0.0429908 0.0263443 0.0100321 -0.00429601 -0.0167584 -0.0280834 -0.0395918 -0.0532002 -0.0695318 -0.0878224 -0.106104 -0.121467 -0.131614 -0.133799 -0.126422 -0.10896 -0.0824188 -0.0488201 -0.0102304 0.030314 0.0685857 0.0999036 0.11995 0.126643 0.120795 0.105249 0.0833394 0.0582802 0.0325552 0.00850516 -0.0117521 -0.0266518 -0.0352563 -0.037403 -0.0337222 -0.025717 -0.0158037 -0.00589613 0.00241346 0.00876689 0.0129883 0.0149738 0.0147713 0.0128284 0.00968769 0.00598793 0.00232926 -0.000734898 -0.0025091 -0.00263469 -0.00108647 0.0021268 0.00741355 0.0149224 0.0244701 0.0342594 0.0418643 0.0446789 0.0418641 0.034259 0.0244692 0.0149215 0.00741379 0.00212829 -0.00108334 -0.00263035 -0.00250367 -0.000729072 0.00233569 0.00599474 0.00969388 0.0128339 0.0147742 0.014972 0.0129797 0.00875732 0.00240776 -0.00590058 -0.0158133 -0.025756 -0.033853 -0.0377507 -0.0360274 -0.0281135 -0.0141672 0.0050193 0.028151 0.0534414 0.0787792 0.101726 0.119092 0.127701 0.124767 0.108964 0.0809445 0.0430833 -0.00102977 -0.0460029 -0.0854968 -0.11432 -0.130116 -0.134465 -0.130837 -0.1213 -0.106836 -0.0884814 -0.0695828 -0.0530859 -0.03963 -0.0280222 -0.0165631 -0.00425134 0.00987706 0.0261018 0.0426227 0.0575109 0.0692201 0.0774872 0.0856237 0.0936291 0.097189 0.0964021 0.0927144 0.0861378 0.0788872 0.0712862 0.0628 0.0570079 0.0536558 0.0495744 0.0453126 0.0376034 0.0237589 0.0113429 0.00413458 -0.000270715 0.00361012 0.014751 0.0203844 0.02126 0.0230077 0.0185463 0.0100657 0.00837546 0.00876949 0.00527602 0.00380354 0.00538011 0.00483565 0.00289757 0.00251902 0.00271069 0.00215771 0.00147231 0.000606279 0 0 
0 0 0.000322011 0.000805449 0.00124409 0.00164036 0.00161785 0.00198909 0.00341166 0.00399834 0.00321115 0.00456008 0.00745162 0.00760279 0.00935583 0.0165986 0.0206816 0.0190396 0.0176189 0.0115267 -0.000112715 -0.00518591 -0.00254418 0.00257889 0.0125611 0.0236694 0.0288738 0.0312681 0.0339228 0.0363887 0.0420938 0.0510563 0.059659 0.0688315 0.078551 0.0860245 0.0906537 0.0912614 0.0887013 0.0859815 0.0810277 0.0720992 0.0606246 0.0466334 0.0309711 0.0159911 0.00241921 -0.0104998 -0.0255086 -0.0450347 -0.0683012 -0.0920969 -0.112643 -0.126903 -0.133021 -0.128847 -0.112473 -0.0838183 -0.0453711 -0.00198524 0.0407762 0.0773569 0.103056 0.115021 0.112696 0.0982169 0.0755353 0.0493278 0.023155 -0.00051002 -0.0199959 -0.034108 -0.0418278 -0.0432063 -0.0386864 -0.0297151 -0.0178608 -0.0052529 0.00618012 0.014998 0.0208975 0.0239196 0.0239278 0.0206273 0.0138821 0.00461898 -0.00585886 -0.0156133 -0.0226361 -0.0255436 -0.0241686 -0.0198566 -0.0148689 -0.0111747 -0.00959303 -0.00983238 -0.0111752 -0.0128852 -0.0145941 -0.015799 -0.0163167 -0.0157989 -0.0145947 -0.0128862 -0.0111757 -0.00983114 -0.00958994 -0.0111705 -0.0148637 -0.019851 -0.0241626 -0.0255371 -0.0226299 -0.0156085 -0.00585664 0.00461745 0.0138761 0.0206196 0.0239211 0.0239137 0.020886 0.0149533 0.00603167 -0.00563766 -0.0186861 -0.0312549 -0.0411853 -0.0467202 -0.0461285 -0.0386916 -0.0241787 -0.00359818 0.0218188 0.0505231 0.0802049 0.106927 0.124655 0.127482 0.112128 0.0801717 0.0375611 -0.00785303 -0.0498278 -0.0850148 -0.111512 -0.127958 -0.133163 -0.127412 -0.112788 -0.0919602 -0.0682485 -0.0449952 -0.0253117 -0.0104222 0.00223153 0.0156926 0.0305559 0.0460087 0.0597927 0.0711549 0.0798927 0.0846954 0.0873295 0.0898819 0.0893205 0.0847746 0.0774522 0.0679241 0.058834 0.0504167 0.0415983 0.0360529 0.033746 0.0312391 0.0287633 0.023452 0.0122418 0.00208959 -0.00325557 -0.00610529 -0.00112571 0.0106433 0.0170886 0.0188408 0.0205378 0.0162731 0.0088359 0.00707576 0.00711381 0.00449797 0.0033132 0.00408436 0.00343664 0.00202449 0.0017398 0.00182707 0.00133357 0.000550465 0 0 
0 0 0.00029037 0.000727866 0.00104819 0.00105097 0.0013174 0.00235188 0.00293314 0.0025774 0.00360584 0.00573243 0.00595957 0.00746528 0.0133751 0.0168333 0.0151595 0.0131173 0.00679491 -0.00463922 -0.0100667 -0.0080881 -0.00388903 0.00480315 0.0144097 0.0181608 0.0192326 0.0206306 0.0220654 0.0269753 0.0352034 0.0434362 0.0531742 0.0642714 0.0736565 0.0809337 0.0856115 0.0879919 0.0895654 0.088602 0.0844303 0.0773333 0.0658199 0.0515981 0.0378682 0.0242888 0.00853874 -0.0119941 -0.038134 -0.0668183 -0.0939675 -0.115492 -0.127571 -0.127069 -0.111347 -0.0805301 -0.0388467 0.00687848 0.0486477 0.0804888 0.0990176 0.103227 0.0941102 0.0742903 0.0479717 0.0197163 -0.00635506 -0.0274816 -0.0423539 -0.0502659 -0.051038 -0.0454486 -0.0350327 -0.0220602 -0.00882051 0.00228574 0.00954193 0.0123432 0.0111339 0.00744254 0.00261469 -0.00264069 -0.00835345 -0.014547 -0.0210046 -0.0268561 -0.0309102 -0.0316605 -0.0279497 -0.0199843 -0.00932865 0.0014075 0.00980973 0.014131 0.0135018 0.00770492 -0.002592 -0.0153931 -0.0279263 -0.0370104 -0.0403507 -0.0370104 -0.0279269 -0.0153939 -0.00259173 0.00770661 0.0135052 0.0141358 0.00981459 0.00141228 -0.00932391 -0.0199786 -0.0279451 -0.0316585 -0.0309123 -0.0268613 -0.0210105 -0.0145532 -0.00836152 -0.00265598 0.00256524 0.00728029 0.0107176 0.0114602 0.0079296 -0.000278494 -0.0123469 -0.0262529 -0.0393449 -0.0492447 -0.0537273 -0.0513012 -0.0410572 -0.0229814 0.00196457 0.0312281 0.0601018 0.0832363 0.0970042 0.100136 0.0929992 0.075436 0.0466984 0.00748838 -0.037606 -0.0799514 -0.11141 -0.127206 -0.127551 -0.115453 -0.0939839 -0.0668228 -0.0381643 -0.0122722 0.00806438 0.0236921 0.0371036 0.050645 0.0647695 0.0761234 0.0830901 0.0872054 0.0881766 0.0866166 0.0843222 0.0798045 0.0726416 0.0633984 0.0524805 0.0428935 0.0347888 0.0267586 0.0219141 0.0205712 0.0190961 0.0178862 0.0139271 0.0040389 -0.00488289 -0.009142 -0.0108317 -0.00494731 0.00685188 0.0132147 0.0149293 0.016201 0.0126409 0.00699593 0.00582498 0.00578588 0.00366744 0.00256748 0.0029226 0.00243098 0.00145245 0.00112131 0.00102199 0.000561909 0 0 
0 0 0.000298102 0.000551185 0.000633574 0.00088323 0.00158727 0.00201146 0.00185126 0.0026887 0.00431811 0.00446855 0.00546608 0.00997609 0.0128629 0.0117141 0.0101028 0.00460272 -0.00567132 -0.0106376 -0.00868436 -0.00473808 0.00320301 0.0117935 0.0143174 0.0138862 0.013674 0.013389 0.0163262 0.0225817 0.029148 0.037799 0.0484225 0.058167 0.0669173 0.074314 0.0799906 0.0851069 0.088808 0.0897345 0.086832 0.0787855 0.0684694 0.0578097 0.0445176 0.0267837 0.00298448 -0.026091 -0.0568104 -0.0846631 -0.103706 -0.108605 -0.0961951 -0.0664058 -0.0243588 0.0210092 0.0597677 0.084421 0.0919597 0.0835907 0.0633823 0.0364472 0.00790466 -0.0177257 -0.0372295 -0.0492525 -0.0541435 -0.0532741 -0.0481758 -0.0400797 -0.0301917 -0.0201532 -0.011179 -0.00455067 -0.000838174 -0.000193186 -0.00170028 -0.00425779 -0.00655351 -0.00823292 -0.0099387 -0.0122173 -0.0151456 -0.0177764 -0.0187372 -0.0167091 -0.0111667 -0.00266074 0.00661339 0.0141124 0.0179009 0.01808 0.0160265 0.0133266 0.0110212 0.00942057 0.00839312 0.007869 0.00751747 0.00740248 0.0072898 0.00740204 0.00751706 0.00786885 0.00839438 0.00942376 0.0110257 0.0133314 0.0160307 0.0180847 0.0179063 0.0141167 0.00661465 -0.00266346 -0.0111727 -0.016716 -0.0187432 -0.0177836 -0.0151637 -0.0122741 -0.0101138 -0.00867855 -0.00748937 -0.0059399 -0.00431828 -0.00371127 -0.00491015 -0.00860049 -0.0145983 -0.0224649 -0.0309776 -0.0387378 -0.0438554 -0.0453348 -0.0431083 -0.0375269 -0.028463 -0.0147489 0.00503584 0.0305401 0.0580725 0.0809706 0.0918665 0.0854655 0.0607723 0.0215367 -0.024296 -0.0665954 -0.0964022 -0.108779 -0.103955 -0.0850455 -0.0573036 -0.0267549 0.00219384 0.0258435 0.0433969 0.0566252 0.0671978 0.0773578 0.0853316 0.0882704 0.0873423 0.0837448 0.0787581 0.0732368 0.0659801 0.0573554 0.0477738 0.0372564 0.0287676 0.0222785 0.0161243 0.0132271 0.0134037 0.0133797 0.013443 0.0105874 0.00194941 -0.00568301 -0.00897164 -0.0103198 -0.00519575 0.00460186 0.00947883 0.0108512 0.012215 0.00975511 0.00551047 0.0044937 0.00424943 0.00263642 0.00189464 0.00210214 0.00162769 0.00087675 0.000695031 0.000389762 0 0 
0 0 0.000200648 0.000364126 0.000494437 0.00101098 0.0013632 0.00125317 0.00179474 0.00300002 0.00324119 0.00407158 0.00755669 0.00985162 0.00899179 0.00799239 0.00400873 -0.00438214 -0.00874767 -0.00724363 -0.00426853 0.00220017 0.0093549 0.0106092 0.00890921 0.00739747 0.00558045 0.00661693 0.0108764 0.0155895 0.0225724 0.0317618 0.0407059 0.04963 0.0577548 0.0648653 0.0725701 0.0797256 0.0840862 0.0844142 0.080497 0.0742899 0.0658379 0.0530381 0.0350812 0.0108977 -0.0184868 -0.0478566 -0.0703702 -0.0786452 -0.0680018 -0.0390089 0.00332821 0.0494401 0.0876748 0.108128 0.105577 0.0817051 0.0435599 0.000882905 -0.0369125 -0.0637937 -0.0771413 -0.0783963 -0.0712077 -0.0600993 -0.0482976 -0.0375426 -0.0282805 -0.0205539 -0.0146567 -0.0107421 -0.00881348 -0.00820881 -0.00817915 -0.00784058 -0.00644144 -0.00438718 -0.00262534 -0.0027502 -0.00544365 -0.00984773 -0.0138528 -0.0151748 -0.0120008 -0.00428817 0.00579457 0.0143028 0.0172424 0.0126874 0.00159801 -0.0126656 -0.0257608 -0.0338546 -0.0342776 -0.0264844 -0.0120759 0.00568858 0.0225663 0.0346206 0.0389634 0.0346207 0.0225667 0.00568994 -0.0120728 -0.0264804 -0.0342741 -0.0338509 -0.0257566 -0.01266 0.00160324 0.0126895 0.017239 0.0142964 0.00578806 -0.00429258 -0.012006 -0.0151927 -0.0139167 -0.0100391 -0.00591902 -0.00373658 -0.00436821 -0.00704578 -0.00993464 -0.0117803 -0.0119734 -0.0112813 -0.010777 -0.0113102 -0.0133128 -0.0164475 -0.0207338 -0.0269972 -0.0370098 -0.0515819 -0.068231 -0.0810615 -0.0828201 -0.0691129 -0.0399624 5.85375e-05 0.0439649 0.0825169 0.106378 0.108517 0.0874507 0.0488704 0.00278727 -0.0395222 -0.0687143 -0.079503 -0.0712808 -0.0488688 -0.0196087 0.0097066 0.0338081 0.0517362 0.0644422 0.0728173 0.0790016 0.0829879 0.0827137 0.0785046 0.0714795 0.0639176 0.056983 0.0489937 0.0402409 0.0314087 0.022367 0.015412 0.0107808 0.00649844 0.00525921 0.00665107 0.00773755 0.00919548 0.00821521 0.00180654 -0.0038637 -0.00655887 -0.00847078 -0.00486252 0.00306475 0.00723154 0.00870662 0.00986513 0.00755433 0.00394794 0.00312915 0.00300747 0.00185758 0.00126582 0.00134437 0.00106981 0.00061823 0.000199352 0 0 
0 0 8.80441e-05 0.000331283 0.000635096 0.000822195 0.000760852 0.00117925 0.00204014 0.00219307 0.00289056 0.00583533 0.00793827 0.00725083 0.00622671 0.00286974 -0.00411557 -0.00783413 -0.00664502 -0.00446717 0.000546518 0.00637506 0.0068912 0.00468691 0.00275571 0.000226618 8.26503e-05 0.00272928 0.00567915 0.0107293 0.018129 0.0255127 0.0332052 0.0407334 0.0480499 0.0569238 0.06565 0.0717909 0.074811 0.0740898 0.0703319 0.0631517 0.0511457 0.0335798 0.00960714 -0.0177112 -0.0407441 -0.0511789 -0.0424284 -0.0135725 0.0302591 0.07944 0.120626 0.141249 0.13392 0.099374 0.0471887 -0.00889184 -0.056116 -0.086747 -0.0996245 -0.0983583 -0.0887588 -0.0763442 -0.0643356 -0.0535879 -0.0431465 -0.0324322 -0.0217783 -0.0128054 -0.00658276 -0.00365565 -0.00311905 -0.00360005 -0.0041065 -0.00397104 -0.00394869 -0.00540158 -0.00936722 -0.0154087 -0.0215204 -0.0249386 -0.023363 -0.0162887 -0.00528953 0.00596065 0.0133388 0.014024 0.0084393 -0.000991496 -0.0108274 -0.0183078 -0.0220554 -0.0219228 -0.0187544 -0.0138672 -0.00850382 -0.0036205 0.000170236 0.00259198 0.00339652 0.00259359 0.000173292 -0.00361608 -0.00849892 -0.0138634 -0.0187514 -0.0219194 -0.0220509 -0.0183043 -0.0108274 -0.000995239 0.0084322 0.014018 0.0133355 0.00595782 -0.00530739 -0.0163583 -0.0235723 -0.0254491 -0.022555 -0.0172075 -0.0120589 -0.00886319 -0.00775102 -0.00751666 -0.00686128 -0.00525868 -0.00350735 -0.00234912 -0.00274133 -0.0056776 -0.0117275 -0.0216166 -0.0349345 -0.0506758 -0.066886 -0.0818642 -0.0940113 -0.101597 -0.101022 -0.0871633 -0.0559807 -0.00833055 0.0477176 0.0992538 0.133147 0.140365 0.119852 0.078587 0.0292509 -0.0145919 -0.0433984 -0.0522167 -0.0418168 -0.0187539 0.00853549 0.032456 0.0500173 0.0620396 0.0692659 0.0731257 0.0739475 0.0711031 0.0650756 0.0565486 0.0478194 0.0406529 0.0332077 0.0255975 0.0182667 0.0109145 0.00583352 0.00272671 -0.000293987 -0.000632419 0.00154563 0.00367967 0.00656704 0.00688051 0.00147454 -0.00392566 -0.00692182 -0.00869709 -0.00493401 0.00253676 0.00625195 0.00725045 0.0077543 0.00564354 0.0028617 0.00223981 0.00202055 0.00113336 0.000801682 0.000917988 0.000631158 0.000238914 0 0 
0 0 0.000121997 0.000354027 0.000541857 0.000430656 0.000659235 0.00133757 0.0015291 0.00205279 0.00434923 0.00615978 0.0057404 0.00485819 0.00183261 -0.00453799 -0.00802634 -0.00674682 -0.00440656 0.000380716 0.00574063 0.0058315 0.00312448 0.000635546 -0.00246937 -0.00357366 -0.00224877 -0.00098346 0.00215264 0.0075993 0.0131787 0.0191844 0.0254863 0.0321378 0.040662 0.0494541 0.0563905 0.0608328 0.0615657 0.0586829 0.0522986 0.0409116 0.0238623 0.00217558 -0.0185447 -0.0290372 -0.0218144 0.00680654 0.053461 0.107363 0.153933 0.177772 0.169019 0.127769 0.0647682 -0.00254096 -0.0576532 -0.090842 -0.101726 -0.0972675 -0.0864611 -0.0767416 -0.0707414 -0.0673167 -0.0631159 -0.0555122 -0.0440892 -0.0307886 -0.0183185 -0.00848714 -0.00163583 0.00292553 0.00592136 0.00725643 0.00640667 0.00248908 -0.00482785 -0.0147561 -0.0244551 -0.0305555 -0.030441 -0.023575 -0.0118284 0.000522653 0.00858029 0.00897832 0.00195448 -0.00845654 -0.0164428 -0.0172237 -0.00904605 0.00603915 0.0233574 0.037128 0.0428104 0.0383909 0.0250661 0.00663483 -0.0117913 -0.0252182 -0.0301445 -0.025215 -0.0117857 0.00664054 0.0250707 0.038394 0.0428146 0.0371328 0.0233606 0.00603765 -0.00905087 -0.0172308 -0.016449 -0.00845881 0.00195113 0.008959 0.00850393 0.000295664 -0.0123747 -0.0246619 -0.0322927 -0.033278 -0.0278796 -0.0184202 -0.00813649 1.96307e-05 0.00499702 0.00699011 0.0071465 0.00645919 0.0050124 0.00102901 -0.00799561 -0.0229413 -0.0413298 -0.0580394 -0.0685679 -0.0725586 -0.0741042 -0.0785061 -0.0875355 -0.0979327 -0.101764 -0.0904829 -0.0576031 -0.00311288 0.063898 0.127004 0.168348 0.17707 0.153288 0.106832 0.0529767 0.00631597 -0.0222295 -0.0294457 -0.0189364 0.001808 0.0235095 0.0406071 0.0520627 0.0585481 0.0615405 0.0608937 0.056556 0.0497692 0.0410358 0.0326222 0.025968 0.0196757 0.0136896 0.00809756 0.00250461 -0.00100633 -0.00278312 -0.0044807 -0.00326853 0.000511685 0.00385137 0.00700386 0.00658436 0.000372428 -0.00511114 -0.00751912 -0.00833831 -0.00443112 0.00188934 0.00467762 0.00550404 0.00607001 0.00436597 0.00201153 0.00144301 0.00134841 0.000738611 0.000417291 0.00045945 0.000336664 0 0 
0 0 0.000202166 0.000241748 0.00018363 0.00040028 0.000867511 0.000955152 0.00139788 0.00330682 0.00473045 0.0042011 0.00342655 0.00109014 -0.00428269 -0.00754022 -0.00652061 -0.00432314 0.000291237 0.00580986 0.00630723 0.00348598 0.000569658 -0.00317099 -0.00512263 -0.00462561 -0.00427705 -0.00239331 0.00156691 0.00540227 0.00959544 0.0142581 0.0193261 0.0263872 0.0339985 0.040092 0.0438809 0.0437928 0.0400858 0.0328805 0.0207374 0.00440697 -0.0122563 -0.0220247 -0.015718 0.0125467 0.0620624 0.123082 0.178868 0.211553 0.208143 0.16676 0.0980147 0.0212235 -0.0430177 -0.0816421 -0.0930729 -0.0856519 -0.0723953 -0.0635699 -0.06341 -0.0693623 -0.0752384 -0.0753872 -0.0675479 -0.0540213 -0.0390329 -0.0264829 -0.0175103 -0.0110843 -0.00545554 5.62459e-05 0.00455648 0.00650447 0.00427015 -0.00205711 -0.010511 -0.0174926 -0.0191519 -0.0139073 -0.00286549 0.00996517 0.019277 0.0203905 0.0119898 -0.00304918 -0.0186479 -0.0288912 -0.0302388 -0.022895 -0.00986056 0.00426011 0.0153084 0.020868 0.0204073 0.0150643 0.00712154 -0.00120757 -0.00817667 -0.0126634 -0.0141735 -0.0126607 -0.00817372 -0.00120548 0.00712488 0.0150698 0.0204137 0.020872 0.0153084 0.00425612 -0.00986649 -0.0229011 -0.0302419 -0.0288964 -0.0186716 -0.00313391 0.0117424 0.0198075 0.018135 0.00805558 -0.00561798 -0.0172975 -0.0226888 -0.0205874 -0.012732 -0.00327959 0.00404708 0.00758674 0.0077452 0.0061822 0.00345817 -0.00129971 -0.0100421 -0.0239245 -0.0416087 -0.0594627 -0.0728232 -0.0788416 -0.0771659 -0.0707378 -0.0645585 -0.0641504 -0.0722648 -0.0852991 -0.0929812 -0.081785 -0.0431821 0.0211833 0.0981127 0.166974 0.208471 0.21197 0.179342 0.123584 0.0625593 0.0129717 -0.0152962 -0.0216198 -0.0118958 0.0047593 0.0211149 0.0332935 0.0405346 0.0443154 0.0444562 0.0407128 0.0345907 0.0270092 0.0198842 0.0148494 0.0101496 0.00581151 0.00165525 -0.00281187 -0.00507151 -0.00533482 -0.00519795 -0.00234773 0.00191645 0.00461649 0.00656792 0.00530663 -0.000374947 -0.00459322 -0.00637931 -0.0073672 -0.00436538 0.000868611 0.00332872 0.00420939 0.00466174 0.00317755 0.00137621 0.00102455 0.00084785 0.000319558 0.000242966 0.000169064 0 0 
0 0 8.48083e-05 8.81542e-05 0.000118453 0.000540047 0.00066281 0.000922877 0.00242849 0.00366195 0.0031545 0.00232781 0.000304051 -0.0042233 -0.00685034 -0.00567161 -0.0036649 0.000438347 0.00588942 0.0071856 0.00542234 0.00333702 -4.74178e-05 -0.0022693 -0.00227691 -0.00230007 -0.000923555 0.00243814 0.00530565 0.00814216 0.0112661 0.0146841 0.0198889 0.0256961 0.0296994 0.0311102 0.0285762 0.0219858 0.0118075 -0.00220148 -0.0169601 -0.0265561 -0.022691 0.00304275 0.0528118 0.119256 0.185574 0.230912 0.238888 0.204071 0.135311 0.0529566 -0.0193626 -0.0641039 -0.0771216 -0.0673593 -0.0507343 -0.041365 -0.0451224 -0.0589993 -0.0744934 -0.0834177 -0.0821988 -0.0725739 -0.0598553 -0.0491285 -0.0425619 -0.0385307 -0.0342673 -0.0281354 -0.020621 -0.0139361 -0.0100048 -0.00982682 -0.0123802 -0.0151815 -0.0150577 -0.0101041 -0.000712252 0.0103236 0.0187429 0.0206262 0.0144155 0.00229458 -0.0103097 -0.0172382 -0.0152505 -0.00517688 0.00809275 0.0183438 0.0207133 0.0138109 0.000150926 -0.014756 -0.0250234 -0.0266901 -0.0188653 -0.00426569 0.012084 0.0247154 0.0294233 0.0247155 0.0120846 -0.00426445 -0.0188613 -0.0266841 -0.0250184 -0.0147549 0.000147693 0.0138053 0.0207085 0.0183407 0.00808655 -0.00520619 -0.0153481 -0.0175105 -0.0109352 0.00109181 0.0124374 0.0178277 0.0153679 0.00688615 -0.00363201 -0.0121298 -0.0161527 -0.0154336 -0.0115198 -0.00703594 -0.00441253 -0.00562583 -0.0113861 -0.0210356 -0.0318706 -0.0411297 -0.047965 -0.0543666 -0.0632668 -0.0744046 -0.0834502 -0.0844548 -0.0749856 -0.058725 -0.0442931 -0.0403719 -0.0497243 -0.0663104 -0.0760799 -0.0630025 -0.0181552 0.0541785 0.136487 0.205176 0.239928 0.231807 0.186325 0.119812 0.0532468 0.00338251 -0.0224533 -0.0263772 -0.0168074 -0.0020728 0.0119719 0.0221517 0.0287494 0.0312943 0.0298626 0.0258483 0.0200599 0.0148165 0.0112877 0.00783784 0.00452858 0.0012653 -0.00199416 -0.00275312 -0.00176901 -0.00111705 0.00101373 0.00368031 0.00501218 0.0065571 0.00562599 0.000584951 -0.00345763 -0.00568834 -0.00698874 -0.0042719 0.000336909 0.00227914 0.00301517 0.00360138 0.00247501 0.000899309 0.0005595 0.000580754 0.000242222 -7.44705e-05 0 0 
0 0 -0.000128711 0.000122142 0.000390078 0.000337709 0.000542803 0.00196193 0.00300995 0.00228957 0.00153042 -8.55545e-05 -0.00434571 -0.00672364 -0.00492254 -0.00248417 0.00170028 0.00733734 0.00878124 0.0074666 0.00654229 0.00431082 0.00266201 0.00299919 0.00274264 0.00367168 0.00677428 0.00938025 0.0116338 0.0139736 0.0161207 0.0198409 0.0239121 0.0257368 0.024463 0.0184078 0.00768938 -0.00645972 -0.0224132 -0.0350687 -0.0363134 -0.0169886 0.0291757 0.0981942 0.17506 0.237119 0.262056 0.239222 0.173935 0.0868971 0.00580991 -0.0468942 -0.0629484 -0.0507881 -0.0288539 -0.0151091 -0.0186419 -0.0365626 -0.0586753 -0.0742235 -0.0779391 -0.071784 -0.0621851 -0.0558277 -0.0551152 -0.0578724 -0.0590366 -0.0552042 -0.0467563 -0.0371489 -0.0305743 -0.0286511 -0.0309136 -0.0344151 -0.035343 -0.0304685 -0.0192031 -0.00394577 0.0104096 0.0184697 0.016846 0.00605224 -0.00862286 -0.0197954 -0.0214345 -0.0122085 0.00415511 0.0210492 0.0321517 0.0339162 0.0265161 0.0133161 -0.00107455 -0.0120407 -0.0168951 -0.0149143 -0.00767995 0.00214189 0.011615 0.0182945 0.0207579 0.0182957 0.0116174 0.00214583 -0.00767346 -0.0149089 -0.0168946 -0.0120444 -0.00108048 0.013311 0.0265116 0.0339045 0.0321147 0.0209363 0.00385677 -0.012877 -0.0227019 -0.0218594 -0.0115041 0.00263396 0.0134376 0.0156593 0.00853004 -0.0049493 -0.0195231 -0.0298943 -0.0330128 -0.0293445 -0.0230645 -0.0197277 -0.0236224 -0.0347862 -0.0493374 -0.0605639 -0.06416 -0.0610021 -0.0564725 -0.0564627 -0.0625476 -0.0715957 -0.0769565 -0.0726686 -0.0568243 -0.0344953 -0.016504 -0.0130782 -0.0270356 -0.0491347 -0.061427 -0.0456306 0.00679229 0.0876332 0.174407 0.239394 0.262025 0.236861 0.174619 0.0976782 0.0286197 -0.0175943 -0.0369212 -0.035632 -0.0229609 -0.00695799 0.00717188 0.0178983 0.0239266 0.0252744 0.0234669 0.0193208 0.0153121 0.0127255 0.0099991 0.00776395 0.00580636 0.00368036 0.00349354 0.00376841 0.00281361 0.00375744 0.00581759 0.00709236 0.00883613 0.00745174 0.00163782 -0.00264261 -0.00495672 -0.006635 -0.0043439 -0.000207353 0.00146687 0.00232848 0.00297347 0.0018304 0.000552052 0.000488479 0.000364119 7.87547e-05 0 0 
0 0 -0.00030722 0.000170766 0.00063536 0.00014869 0.000519944 0.00293362 0.00333901 0.000876941 2.20685e-05 -0.00238222 -0.00835082 -0.00817812 -0.00238529 0.00104324 0.00720261 0.0136133 0.0108506 0.00708878 0.0065938 0.00371789 0.00347592 0.00562763 0.00474988 0.00650801 0.0109368 0.0125897 0.0144555 0.0165277 0.0181066 0.0222182 0.0247163 0.0219707 0.0144788 0.00029291 -0.0181665 -0.0372077 -0.0528153 -0.0542245 -0.0304187 0.0256928 0.112249 0.209705 0.287972 0.317139 0.281477 0.19041 0.0731042 -0.0313749 -0.0913542 -0.0968902 -0.0609694 -0.01306 0.0185518 0.0198957 -0.00504455 -0.0389667 -0.0641928 -0.0712167 -0.0623624 -0.0479524 -0.0389627 -0.0408761 -0.0505174 -0.0602478 -0.0625859 -0.0562456 -0.0460113 -0.0381011 -0.0366094 -0.040844 -0.0472587 -0.0507383 -0.0469626 -0.0341908 -0.014836 0.00492496 0.0181252 0.0192811 0.00817034 -0.00983234 -0.0248714 -0.0286243 -0.0183037 0.00112366 0.0205862 0.0315176 0.0302302 0.0187839 0.00334343 -0.00895677 -0.0137395 -0.0106047 -0.00280342 0.00487025 0.00851943 0.00685621 0.00144666 -0.0039901 -0.00629475 -0.0039913 0.00144769 0.00686208 0.0085272 0.00487433 -0.00280659 -0.0106131 -0.0137499 -0.0089667 0.00332912 0.0187479 0.0301367 0.0312778 0.0200219 -2.04916e-05 -0.0202862 -0.0315732 -0.0285948 -0.0137279 0.00490347 0.017215 0.0172655 0.00478952 -0.014539 -0.0328365 -0.0431295 -0.0433834 -0.0372622 -0.0315333 -0.0320719 -0.0402603 -0.0530055 -0.0636579 -0.0667985 -0.0608767 -0.0495948 -0.0400725 -0.0381664 -0.0463267 -0.0598793 -0.0685307 -0.0615629 -0.0362482 -0.00235332 0.0221533 0.0202784 -0.0116218 -0.0598832 -0.0962977 -0.0912146 -0.0315353 0.0726281 0.189575 0.280483 0.315997 0.286699 0.208438 0.11104 0.0245238 -0.0315468 -0.0552396 -0.053792 -0.0381411 -0.019121 -0.000670437 0.0135355 0.0211802 0.0239636 0.0213375 0.0167718 0.0146343 0.0122846 0.010902 0.0104046 0.00722443 0.00590966 0.00615292 0.00285598 0.00249197 0.00570906 0.00703234 0.0111984 0.0136679 0.0068635 0.000761664 -0.00232968 -0.00799176 -0.00840353 -0.00257621 3.32255e-05 0.000999929 0.00322139 0.00271461 0.000637717 0.000378064 0.000434883 0.000246069 0 0 
0 0 -0.000419073 0.000193214 0.000782608 6.87834e-05 0.000617368 0.0036026 0.00346651 -0.000198721 -0.00139878 -0.00458828 -0.0113663 -0.00907274 -0.000330737 0.00432105 0.0117394 0.0176157 0.0110486 0.00455776 0.00306933 -0.00070756 -0.000400145 0.00248074 0.00105178 0.0030925 0.0078787 0.00875231 0.0100466 0.0116904 0.0128157 0.0164556 0.0163221 0.00826278 -0.00643971 -0.0284997 -0.0518173 -0.0689436 -0.0725479 -0.0493473 0.0087885 0.100236 0.209718 0.304659 0.350848 0.326377 0.234401 0.106248 -0.016159 -0.0953684 -0.114966 -0.0847042 -0.0312228 0.014323 0.0330237 0.0230835 -0.00327723 -0.02864 -0.0415077 -0.0399811 -0.0308763 -0.0235162 -0.0240152 -0.0323491 -0.0425253 -0.0483345 -0.0467206 -0.0406551 -0.0356858 -0.0356789 -0.0408493 -0.0475897 -0.0520778 -0.0501318 -0.0397901 -0.0218532 -0.00139561 0.0142054 0.0187496 0.0103529 -0.00670727 -0.0235401 -0.0304704 -0.0227892 -0.00342911 0.0185587 0.0328211 0.032896 0.0190638 -0.00229508 -0.0219623 -0.031817 -0.0284816 -0.0146556 0.00253143 0.0149717 0.0172648 0.00905913 -0.00499613 -0.0177273 -0.0228324 -0.0177331 -0.00499981 0.00906321 0.0172715 0.0149718 0.00252057 -0.0146739 -0.0285041 -0.0318456 -0.0220066 -0.00238255 0.0188706 0.0324637 0.031912 0.0168609 -0.00616957 -0.0265803 -0.0348848 -0.0276999 -0.00966394 0.0090445 0.0187526 0.0147433 -0.000569838 -0.0196613 -0.0343256 -0.0404607 -0.0400697 -0.0379671 -0.0384466 -0.0416924 -0.0462587 -0.04948 -0.0497618 -0.0464189 -0.0392397 -0.0299533 -0.022051 -0.0207707 -0.0274776 -0.036885 -0.0389277 -0.026172 -0.00104141 0.0246174 0.0338751 0.0148111 -0.0311365 -0.085127 -0.115744 -0.0963804 -0.0174105 0.104769 0.232878 0.324861 0.349305 0.303209 0.208422 0.0990179 0.00767427 -0.050295 -0.0734585 -0.0698372 -0.0527053 -0.0294057 -0.00727639 0.00758053 0.0157086 0.0155956 0.0113912 0.00960646 0.00787702 0.00745046 0.00816832 0.00475658 0.00285741 0.00300177 -0.00144432 -0.0023343 0.00219382 0.0048624 0.0117109 0.0176813 0.0112243 0.00395345 -0.000213507 -0.00883364 -0.0114573 -0.00482802 -0.00134601 -2.82839e-05 0.00329478 0.00333271 0.000805626 0.000341405 0.000478551 0.000357418 0 0 
0 0 -0.00044924 0.000177249 0.000801037 0.000136794 0.000842441 0.00386891 0.00341631 -0.000783944 -0.00278501 -0.0068369 -0.013513 -0.010017 0.000309299 0.00660709 0.0144557 0.0185179 0.00913972 -0.000132499 -0.00396502 -0.00848465 -0.00807712 -0.00541014 -0.00676894 -0.0048325 -0.00076882 -0.000693525 -0.000317369 0.0001795 0.000126509 0.00128961 -0.00350833 -0.0184144 -0.0411223 -0.0689505 -0.0911809 -0.0959633 -0.0737454 -0.0150977 0.0782611 0.190327 0.292579 0.34968 0.338618 0.259987 0.140752 0.0234689 -0.0568317 -0.0844615 -0.0679416 -0.0308826 0.00333028 0.0201096 0.0189152 0.00779952 -0.00338878 -0.00805362 -0.006463 -0.0027092 -0.00230905 -0.00795523 -0.0179997 -0.0281911 -0.0336605 -0.0335372 -0.0303986 -0.0289167 -0.0316377 -0.0376398 -0.0439679 -0.0469349 -0.0445117 -0.0351177 -0.0197491 -0.00176446 0.0124438 0.0168708 0.00913793 -0.00723022 -0.0240689 -0.032463 -0.0275287 -0.0110654 0.0099366 0.0266412 0.0326588 0.0262797 0.0108164 -0.00723119 -0.020908 -0.0253245 -0.0195313 -0.00683435 0.0068856 0.0154048 0.0153338 0.00715416 -0.00508348 -0.0156768 -0.0198396 -0.0156835 -0.00508907 0.00715526 0.0153346 0.0153929 0.00685745 -0.00687583 -0.0195842 -0.0253946 -0.0210123 -0.00741186 0.0104667 0.0255799 0.0313183 0.0243249 0.00644444 -0.0155712 -0.0323832 -0.0366058 -0.0265448 -0.00782625 0.00977315 0.0178578 0.013776 0.00143967 -0.0124718 -0.023126 -0.0306336 -0.0369786 -0.0432262 -0.0466063 -0.0448623 -0.038647 -0.0323142 -0.0294231 -0.0283052 -0.0244281 -0.0153004 -0.00487584 0.00101626 -0.00015532 -0.0048032 -0.00675587 -0.00240567 0.00809006 0.0185729 0.0195391 0.0025333 -0.0320364 -0.0692902 -0.0858384 -0.0582959 0.0219051 0.139277 0.258609 0.337317 0.348538 0.291632 0.189495 0.0775631 -0.0156523 -0.0742861 -0.0965038 -0.0917351 -0.0694702 -0.0415269 -0.0185947 -0.00368649 0.000759564 -0.00116846 -0.00180382 -0.00226242 -0.00140277 0.000410489 -0.00221182 -0.00430197 -0.00472065 -0.00928457 -0.0102739 -0.00471927 0.000504017 0.0101043 0.0186749 0.013905 0.00622561 0.000469276 -0.00974659 -0.0136216 -0.00708957 -0.00271801 -0.0006091 0.00322536 0.00359028 0.00104489 0.000411428 0.000491169 0.000380615 0 0 
0 0 -0.000392902 0.000126234 0.000688494 0.000343855 0.00118574 0.00372005 0.00315387 -0.000932993 -0.00419686 -0.00924813 -0.0149924 -0.0112322 -0.000779397 0.00760459 0.0154569 0.016917 0.00631137 -0.00498446 -0.0116624 -0.016243 -0.0156876 -0.0135123 -0.013793 -0.0119238 -0.00931771 -0.00970509 -0.0106568 -0.012228 -0.0146267 -0.0187121 -0.0309593 -0.0540302 -0.0841758 -0.112875 -0.124768 -0.105512 -0.0470945 0.0485903 0.163771 0.268688 0.330055 0.324417 0.253778 0.145613 0.0411982 -0.0243335 -0.040287 -0.0200495 0.0100567 0.0283667 0.027827 0.014557 0.000207524 -0.0070605 -0.0052352 0.00244944 0.0101633 0.012653 0.00732639 -0.00459343 -0.0180694 -0.02809 -0.0322284 -0.0328597 -0.0340887 -0.0382203 -0.0442834 -0.0488358 -0.0493503 -0.0443323 -0.0334984 -0.0173059 0.00105989 0.0159897 0.0212875 0.0143438 -0.00170992 -0.0189895 -0.0287792 -0.0264311 -0.014279 0.000644983 0.0109624 0.0129579 0.00759105 -0.000897955 -0.0075299 -0.00891697 -0.0046267 0.0028735 0.00999553 0.0134162 0.0120959 0.00703638 0.000752197 -0.00427349 -0.00688998 -0.00765602 -0.00769684 -0.00766275 -0.00689752 -0.00428046 0.000737231 0.00700046 0.0120331 0.0133298 0.00988484 0.0027289 -0.00483068 -0.00923902 -0.00809526 -0.00193846 0.00574982 0.0100015 0.00680325 -0.00435011 -0.0192417 -0.0302413 -0.0306381 -0.0189773 -0.000705107 0.0155615 0.0231409 0.0204263 0.0103468 -0.00301053 -0.0179066 -0.0339976 -0.0497178 -0.0597902 -0.0592568 -0.0485837 -0.035409 -0.0274523 -0.0256308 -0.023609 -0.0153002 -0.00207147 0.00965922 0.0139728 0.0104652 0.0023697 -0.00553454 -0.00785421 -0.000957286 0.0133753 0.0266144 0.0270584 0.00870769 -0.0213301 -0.0415414 -0.0255968 0.0400455 0.144595 0.25288 0.323708 0.329587 0.268376 0.163559 0.0485048 -0.0472184 -0.105691 -0.124943 -0.112988 -0.0840887 -0.053732 -0.0307379 -0.0190305 -0.0158453 -0.0141499 -0.0123684 -0.00992787 -0.00741474 -0.0085986 -0.0108502 -0.0126444 -0.0169092 -0.0180148 -0.012257 -0.00410623 0.00749246 0.0172246 0.0149903 0.0072557 -0.000617943 -0.0109621 -0.0150662 -0.00946495 -0.00414722 -0.000792955 0.00298162 0.00347377 0.00134379 0.000574896 0.000469048 0.000315015 0 0 
0 0 -0.000257494 5.68151e-05 0.000469173 0.000632007 0.00161396 0.00323246 0.00261676 -0.000853752 -0.00562339 -0.01178 -0.0159217 -0.012381 -0.00288687 0.0077889 0.0157309 0.0146251 0.00448646 -0.00734528 -0.016519 -0.0203672 -0.019165 -0.0173376 -0.015511 -0.0131924 -0.0122776 -0.0129743 -0.0153493 -0.0198784 -0.0262538 -0.0381064 -0.0599148 -0.0909648 -0.124603 -0.14545 -0.135307 -0.0823734 0.0133809 0.133235 0.243522 0.308575 0.304706 0.234567 0.128243 0.0293303 -0.0253677 -0.025735 0.0104646 0.0520994 0.0728814 0.0660286 0.0408646 0.0130664 -0.00632289 -0.014592 -0.0135962 -0.00763293 -0.00113943 0.00132976 -0.00299541 -0.0131628 -0.0251559 -0.0348847 -0.0415549 -0.0474493 -0.0546743 -0.0624351 -0.0677628 -0.0680558 -0.0621637 -0.0501449 -0.0318809 -0.00950958 0.0113412 0.0233902 0.0222555 0.0102601 -0.00485015 -0.0140174 -0.0124351 -0.00190298 0.00974574 0.0139975 0.00666005 -0.00989496 -0.0280615 -0.0390723 -0.0368018 -0.0211224 0.00222546 0.0233724 0.0334728 0.0287343 0.0125948 -0.00622858 -0.0183147 -0.0190548 -0.0102647 0.000238149 0.00500791 0.00022591 -0.0102841 -0.0190827 -0.0183631 -0.00631045 0.0124723 0.0285744 0.0332735 0.0231195 0.00188842 -0.0216204 -0.0376282 -0.0404998 -0.0304223 -0.0134399 0.0020025 0.00881009 0.00503701 -0.00508871 -0.0136029 -0.0135797 -0.00376701 0.011524 0.0246766 0.0292836 0.022808 0.00703186 -0.0147346 -0.0393995 -0.0631517 -0.0801456 -0.0838364 -0.0735394 -0.0563494 -0.0421099 -0.0348694 -0.0304291 -0.0228971 -0.0117243 -0.00201882 0.00140288 -0.00186129 -0.00864577 -0.0146535 -0.0158009 -0.00766922 0.0118552 0.0397423 0.064886 0.0718057 0.051106 0.00947045 -0.0267471 -0.0262222 0.0285879 0.127646 0.234195 0.304574 0.308626 0.243698 0.133467 0.0135554 -0.0822645 -0.135232 -0.145253 -0.124168 -0.0904113 -0.0595684 -0.0384748 -0.0276548 -0.0219452 -0.0170598 -0.0130145 -0.0100975 -0.00962982 -0.0124708 -0.0164549 -0.0203914 -0.0220844 -0.0170588 -0.00644778 0.00572015 0.0150724 0.015436 0.00752154 -0.00275692 -0.0121462 -0.0159386 -0.0119175 -0.00560218 -0.000781635 0.00249184 0.00305975 0.00168668 0.000774394 0.000408228 0.000190942 0 0 
0 0 -6.54989e-05 -6.81503e-06 0.000191322 0.000909822 0.00206187 0.00256136 0.00180029 -0.000774772 -0.00688384 -0.0141378 -0.0163695 -0.01298 -0.00497665 0.00779748 0.016275 0.0133188 0.00486161 -0.00615051 -0.0171486 -0.0202846 -0.0184226 -0.0167716 -0.0127418 -0.00955047 -0.0100436 -0.011124 -0.0151319 -0.0234238 -0.0355435 -0.0568926 -0.0883856 -0.123863 -0.152307 -0.153176 -0.109794 -0.0198567 0.101891 0.219852 0.292852 0.293916 0.222651 0.111439 0.00810664 -0.0478433 -0.0428709 0.00396114 0.0588696 0.0933633 0.0967526 0.0774103 0.0489129 0.0219656 0.000480481 -0.0150175 -0.0227742 -0.0233838 -0.0196773 -0.0176717 -0.0213137 -0.0294888 -0.0388032 -0.0464247 -0.0536541 -0.062388 -0.0728839 -0.0822223 -0.0870463 -0.0859935 -0.078078 -0.0628147 -0.0405912 -0.0158785 0.00379162 0.0115978 0.00730805 -0.00221099 -0.00753028 -0.0029003 0.0103242 0.0253823 0.0332658 0.0281511 0.00980438 -0.0161205 -0.0403735 -0.0534407 -0.0496098 -0.0299759 -0.00234552 0.0215942 0.0321007 0.0254129 0.00653057 -0.0139859 -0.0253468 -0.022725 -0.00949762 0.00489836 0.0110523 0.00487359 -0.0095436 -0.0227952 -0.0254534 -0.014142 0.00632076 0.0251541 0.0317903 0.0212163 -0.00282661 -0.0306632 -0.0507129 -0.0552596 -0.0432203 -0.0201416 0.00487597 0.0230922 0.029133 0.023016 0.009816 -0.00227503 -0.00663278 -0.000994956 0.0104134 0.0191508 0.017536 0.00280376 -0.0221132 -0.051731 -0.0793929 -0.0986674 -0.103891 -0.0944714 -0.0761061 -0.0585695 -0.0479467 -0.0424649 -0.037087 -0.0289722 -0.0213654 -0.0182705 -0.020687 -0.0245474 -0.0239223 -0.0161095 -0.000589356 0.020969 0.0479657 0.0764891 0.0958692 0.0924795 0.0579942 0.00312599 -0.0435873 -0.0484225 0.00775875 0.111311 0.222735 0.294203 0.293228 0.220217 0.102146 -0.0196974 -0.109629 -0.152882 -0.151741 -0.123261 -0.0881723 -0.0575552 -0.03728 -0.025741 -0.0168824 -0.0110997 -0.00776865 -0.00603327 -0.00983539 -0.0159737 -0.0195926 -0.0218988 -0.0176883 -0.00540318 0.00596212 0.0138615 0.0161871 0.00762245 -0.00491835 -0.0128255 -0.0163158 -0.014163 -0.00689705 -0.000793678 0.00173487 0.00249482 0.00203833 0.000927224 0.000308426 5.90182e-05 0 0 
0 0 0.000144761 -4.10255e-05 -7.61378e-05 0.00108712 0.00243595 0.00189594 0.000809121 -0.000865913 -0.00772686 -0.0158083 -0.0163375 -0.0128332 -0.00648217 0.00734912 0.0165526 0.0128563 0.00644527 -0.00286753 -0.0150242 -0.0184428 -0.0167583 -0.0155518 -0.0100746 -0.00615834 -0.0078244 -0.00992837 -0.0161725 -0.0292232 -0.048622 -0.0796619 -0.117923 -0.150079 -0.160585 -0.128639 -0.0459366 0.0735169 0.198012 0.282492 0.293173 0.22671 0.111135 -0.00221245 -0.0683401 -0.0703913 -0.0233938 0.0364831 0.0794102 0.094693 0.0886028 0.073996 0.0564894 0.0367704 0.0150647 -0.00443746 -0.0156689 -0.0192115 -0.0205339 -0.0259268 -0.0360181 -0.0457522 -0.0517001 -0.0546485 -0.0594633 -0.068167 -0.0790901 -0.0883576 -0.0930998 -0.0920672 -0.0837865 -0.0680959 -0.0472054 -0.0280603 -0.0173751 -0.0172827 -0.0224434 -0.0240193 -0.015989 0.00130314 0.021539 0.0366107 0.0404393 0.0318948 0.0139932 -0.00728317 -0.0253013 -0.0344157 -0.0326611 -0.022302 -0.00869873 0.00199026 0.00590163 0.00273126 -0.0043599 -0.0107319 -0.0126888 -0.00945629 -0.0030476 0.00283874 0.00527638 0.00279452 -0.00313525 -0.00958998 -0.0128787 -0.0109874 -0.00467661 0.00236422 0.00548386 0.00150488 -0.00930144 -0.0231587 -0.0340198 -0.0365946 -0.0285664 -0.0116341 0.00903335 0.0272512 0.0371122 0.0351203 0.0215542 0.00189787 -0.0154195 -0.0228157 -0.0184754 -0.00791463 -0.00137431 -0.00748655 -0.0277671 -0.0569454 -0.0854451 -0.105134 -0.110625 -0.102162 -0.0848211 -0.0669487 -0.0553642 -0.0511272 -0.0499701 -0.0454169 -0.0363743 -0.0265194 -0.0212026 -0.0200216 -0.0165702 -0.0052737 0.0142765 0.0359324 0.0556199 0.0731669 0.0878063 0.0938361 0.0786003 0.0357638 -0.024014 -0.0708679 -0.0685835 -0.00217193 0.111361 0.227129 0.293633 0.282846 0.198224 0.0736183 -0.0458002 -0.128323 -0.160015 -0.149572 -0.117943 -0.0806532 -0.0506661 -0.031679 -0.0178709 -0.00975396 -0.00552426 -0.00279626 -0.0074035 -0.014812 -0.0177603 -0.0198214 -0.0155687 -0.00240755 0.00728657 0.0134235 0.0166966 0.00732151 -0.00648875 -0.0127892 -0.0162395 -0.0157186 -0.00776629 -0.000986857 0.000790863 0.00194834 0.00233639 0.000962257 0.000182629 -2.62718e-05 0 0 
0 0 0.000323219 -3.1781e-05 -0.000254997 0.00111291 0.00263052 0.00139307 -0.000176504 -0.0012538 -0.00804096 -0.0163657 -0.0158777 -0.0121207 -0.00730846 0.00576288 0.0150605 0.0116658 0.00702218 -0.000411877 -0.0125454 -0.0170144 -0.016392 -0.0156635 -0.00998343 -0.0059223 -0.00853952 -0.0129178 -0.0229158 -0.0421292 -0.0701786 -0.108824 -0.14734 -0.165317 -0.144496 -0.0711951 0.0463911 0.175414 0.272295 0.297017 0.239184 0.125329 0.00418835 -0.0747864 -0.0893383 -0.0514299 0.00657385 0.0518318 0.0725217 0.0754238 0.0727066 0.0701601 0.0637969 0.0505513 0.0338871 0.0211243 0.0154211 0.0103297 -0.0017296 -0.0217944 -0.0421173 -0.054049 -0.0573808 -0.0581419 -0.0631476 -0.0722583 -0.0819645 -0.0883147 -0.0895847 -0.0853163 -0.0742703 -0.0583951 -0.0430491 -0.0352667 -0.0374379 -0.0446351 -0.0477665 -0.0402912 -0.0220012 0.00142278 0.0214792 0.0320446 0.0309393 0.0209167 0.00762114 -0.00292957 -0.00714686 -0.00545467 -0.0020851 -0.00224116 -0.00834407 -0.0181186 -0.0256099 -0.0251552 -0.0155739 -0.00121962 0.0102376 0.0131682 0.00758998 -0.000695779 -0.00465069 -0.000769639 0.00744622 0.0129552 0.00995013 -0.00157976 -0.0159897 -0.0256068 -0.0260953 -0.0186604 -0.00901867 -0.00322567 -0.00366723 -0.00795799 -0.0107587 -0.0074713 0.00283417 0.0168955 0.028527 0.0313771 0.0218512 0.00185819 -0.021728 -0.0389107 -0.0427274 -0.0334072 -0.0194201 -0.0132991 -0.0232663 -0.0477196 -0.0765373 -0.0987478 -0.107685 -0.103736 -0.0905093 -0.0740056 -0.060771 -0.0546925 -0.0548978 -0.0531184 -0.0421882 -0.02201 -0.00187584 0.00992898 0.0147128 0.0204289 0.0332788 0.049786 0.0628894 0.0693187 0.071932 0.0745979 0.0717241 0.0511951 0.00604173 -0.0518026 -0.0894834 -0.0746899 0.00447265 0.125749 0.239611 0.297306 0.272419 0.175472 0.0465456 -0.0708162 -0.143888 -0.164859 -0.147524 -0.110058 -0.0723658 -0.0445639 -0.0243911 -0.0125144 -0.00617943 -0.0027707 -0.00755028 -0.0149422 -0.0170558 -0.018008 -0.0129902 -0.000220804 0.00755212 0.0122171 0.0154466 0.00590577 -0.00737299 -0.0122059 -0.015759 -0.0161634 -0.00808579 -0.00147259 -0.000182631 0.00154947 0.0025003 0.000858558 6.29947e-05 -2.62042e-05 0 0 
0 0 0.000418864 1.74538e-05 -0.000281964 0.00099808 0.00255183 0.00110402 -0.000964873 -0.00201831 -0.00802102 -0.015703 -0.0150494 -0.0112477 -0.00747392 0.0031352 0.0113518 0.00921776 0.00607768 0.000563875 -0.00987345 -0.0152719 -0.0161873 -0.0155282 -0.0102594 -0.00698145 -0.0105964 -0.0186235 -0.0345232 -0.0612862 -0.0978693 -0.139587 -0.168405 -0.160007 -0.0985879 0.0143493 0.149365 0.258542 0.299019 0.253076 0.14225 0.0168486 -0.0728392 -0.0996185 -0.071453 -0.0190965 0.0264509 0.0503923 0.058338 0.0622055 0.0681674 0.0725721 0.0696782 0.0612467 0.054626 0.0542427 0.0542635 0.0435055 0.0182112 -0.013535 -0.0387302 -0.0517482 -0.0576215 -0.0644577 -0.0751149 -0.085843 -0.0923204 -0.0931096 -0.0883215 -0.0776015 -0.0614767 -0.0445013 -0.0341925 -0.0353576 -0.0448971 -0.0538113 -0.0533619 -0.0409897 -0.0206939 0.000388416 0.0154618 0.0207254 0.0163614 0.00657292 -0.00193848 -0.00312029 0.00462513 0.0167573 0.024427 0.0200753 0.00273413 -0.0202688 -0.0369442 -0.0371934 -0.0199472 0.00569273 0.0253889 0.0291595 0.0177441 0.00194945 -0.00527812 0.00184378 0.0175427 0.0288707 0.0250195 0.00526091 -0.0204127 -0.037668 -0.0374252 -0.0207966 0.00204081 0.0189841 0.0226145 0.0139267 0.00070817 -0.00773567 -0.00638281 0.00331659 0.0148948 0.020795 0.0160882 0.000686329 -0.0205047 -0.0391424 -0.0471066 -0.0409049 -0.0254201 -0.0128175 -0.0149342 -0.0349646 -0.0646348 -0.0912422 -0.106513 -0.109613 -0.10329 -0.090348 -0.0743475 -0.0608583 -0.0539689 -0.0497704 -0.0382725 -0.0134434 0.0184031 0.0433734 0.0536455 0.053562 0.054064 0.0605429 0.0688029 0.0717542 0.0674044 0.0613904 0.0575547 0.0497503 0.0258957 -0.0195072 -0.0715786 -0.0995096 -0.0725643 0.0172199 0.142628 0.253253 0.299075 0.258595 0.149612 0.0148711 -0.0979 -0.159598 -0.168739 -0.140975 -0.10013 -0.0636167 -0.0357715 -0.0180047 -0.00830071 -0.00413142 -0.00820911 -0.0148297 -0.0164895 -0.015775 -0.0101322 0.000539331 0.00628976 0.00969843 0.0119419 0.00348839 -0.00752614 -0.0114326 -0.0149462 -0.0154279 -0.00804774 -0.00230273 -0.000995964 0.00132171 0.00244397 0.00066387 -4.55523e-06 6.39078e-05 0 0 
0 0 0.000395598 8.17494e-05 -0.000139315 0.00081248 0.00215355 0.000943256 -0.00142692 -0.00310982 -0.00801085 -0.0140534 -0.0138154 -0.0104213 -0.00686709 0.00057045 0.00667294 0.0067897 0.00542701 0.00155512 -0.00576731 -0.0113025 -0.0140583 -0.0133705 -0.00924214 -0.00766987 -0.012729 -0.0257068 -0.0493209 -0.0838575 -0.125823 -0.162225 -0.168775 -0.123326 -0.0202718 0.117848 0.241738 0.300393 0.268224 0.160952 0.0292262 -0.0716728 -0.110129 -0.0902451 -0.0417078 0.00458525 0.0330635 0.0464437 0.0558978 0.0667212 0.0761291 0.0783248 0.0736605 0.0698429 0.0726882 0.0790889 0.0767596 0.0577603 0.0265857 -0.00434033 -0.0260423 -0.0409442 -0.0562497 -0.0750158 -0.092957 -0.104538 -0.108601 -0.10628 -0.0977616 -0.0817976 -0.0607766 -0.0417944 -0.0324446 -0.034359 -0.0415805 -0.0458518 -0.0419393 -0.0309265 -0.0168371 -0.00488032 0.00199238 0.0027005 -0.0010283 -0.00538338 -0.00555779 0.00156493 0.0146944 0.0281907 0.0343305 0.0283096 0.0106837 -0.0116139 -0.0285945 -0.0318034 -0.0202948 -0.000824043 0.0151436 0.0196827 0.0128149 0.00231277 -0.00268932 0.00218925 0.0125842 0.0193641 0.014757 -0.0012497 -0.0207253 -0.0322152 -0.0289975 -0.0120823 0.00997518 0.02707 0.032225 0.0249902 0.0105031 -0.00300372 -0.00949481 -0.00775472 -0.00153859 0.00344632 0.00286958 -0.0045587 -0.0164401 -0.0283843 -0.0345429 -0.0317741 -0.0215174 -0.0122872 -0.014628 -0.0339105 -0.0648054 -0.095121 -0.115168 -0.122836 -0.121127 -0.1114 -0.0938314 -0.0715185 -0.051624 -0.0378935 -0.0249792 -0.00403714 0.0268969 0.0577726 0.0762261 0.0784177 0.0721558 0.0691789 0.0728083 0.0774855 0.0753326 0.0658442 0.0550336 0.0457263 0.0324694 0.00417993 -0.0418565 -0.0901284 -0.10987 -0.0713197 0.0295187 0.161125 0.268295 0.300525 0.242114 0.118495 -0.0195591 -0.123007 -0.169306 -0.16381 -0.128166 -0.0861023 -0.0503829 -0.0250048 -0.010634 -0.00533038 -0.00767309 -0.0128139 -0.0140008 -0.0112957 -0.00578735 0.00135507 0.00530192 0.00713058 0.00741997 0.00115049 -0.00685173 -0.0106798 -0.0137784 -0.0137543 -0.00798626 -0.00340356 -0.00151237 0.00115686 0.00210825 0.000480803 1.92876e-05 0.00020451 0 0 
0 0 0.000248532 0.000118773 0.000122745 0.000656715 0.00147976 0.00073223 -0.00154425 -0.00428926 -0.00822782 -0.0117655 -0.0119633 -0.00958036 -0.00561019 -0.00102095 0.00221346 0.00484036 0.00592155 0.00344404 -0.000339647 -0.005199 -0.0101574 -0.01026 -0.00832833 -0.0102603 -0.0182992 -0.0374271 -0.0696121 -0.109864 -0.149985 -0.169094 -0.140572 -0.0523926 0.0827084 0.220371 0.301555 0.289145 0.188566 0.0480731 -0.068506 -0.121874 -0.111187 -0.065012 -0.0169311 0.0167702 0.0365834 0.0516954 0.0674872 0.0801558 0.0849591 0.0811923 0.0760128 0.0773036 0.0841409 0.0876661 0.0776225 0.0548051 0.0290596 0.00883326 -0.0066943 -0.0256463 -0.05112 -0.0783994 -0.0998851 -0.113163 -0.120371 -0.121552 -0.114009 -0.0961337 -0.073136 -0.0536683 -0.0433127 -0.0404428 -0.0388875 -0.034106 -0.0253553 -0.0158926 -0.0092949 -0.00837599 -0.012714 -0.0195307 -0.0239723 -0.0216798 -0.0113669 0.0039645 0.0179912 0.0247342 0.0218377 0.0113128 -0.00235955 -0.0144827 -0.0220483 -0.0243117 -0.0230594 -0.0202402 -0.017333 -0.014334 -0.011184 -0.00836657 -0.00733327 -0.00847265 -0.0113777 -0.0145929 -0.0176342 -0.0205571 -0.0233632 -0.0245912 -0.0223435 -0.0149125 -0.00315285 0.00982954 0.0193527 0.0211382 0.0136 -0.00039517 -0.0146121 -0.0230409 -0.0235042 -0.0181314 -0.0115324 -0.00784979 -0.00848892 -0.0126487 -0.0171883 -0.0196254 -0.0192451 -0.019817 -0.0275989 -0.0475807 -0.077589 -0.108248 -0.129537 -0.137084 -0.133606 -0.122026 -0.102712 -0.0756849 -0.0460593 -0.0217224 -0.00499088 0.0093864 0.0294582 0.0549532 0.0772302 0.0870168 0.0835506 0.0766267 0.0751344 0.08029 0.0840615 0.0792355 0.0665529 0.050884 0.035954 0.0163653 -0.0170581 -0.0648984 -0.110921 -0.121592 -0.06834 0.0480911 0.188545 0.289264 0.301945 0.220998 0.0833107 -0.0522721 -0.141329 -0.170848 -0.152345 -0.11194 -0.0704189 -0.0365741 -0.016384 -0.00841474 -0.00727122 -0.0098826 -0.00985418 -0.00477734 -0.000148632 0.00311897 0.00547241 0.0049801 0.00299794 -0.000283906 -0.00549764 -0.00985408 -0.0120076 -0.0115073 -0.00814583 -0.00453015 -0.00168752 0.000871388 0.00150287 0.000422132 0.000141158 0.00031846 0 0 
0 0 1.39377e-05 8.4077e-05 0.000390155 0.000615319 0.000685882 0.000310975 -0.00142256 -0.00518801 -0.00863092 -0.00931532 -0.00941213 -0.00861554 -0.00439219 -0.00191972 -0.00205245 0.00203414 0.00572638 0.00448442 0.00369097 0.00028971 -0.00664832 -0.00884598 -0.010514 -0.0180053 -0.0317259 -0.0584929 -0.0985339 -0.139898 -0.167385 -0.155722 -0.0830907 0.044099 0.190314 0.296353 0.310022 0.224637 0.0807612 -0.0549202 -0.128555 -0.131192 -0.0887945 -0.0372292 0.00142679 0.0269394 0.0462977 0.0647804 0.0805846 0.0879448 0.0862836 0.0805295 0.0788269 0.0841714 0.0899674 0.0870821 0.0719803 0.051838 0.0358788 0.024853 0.011512 -0.0108269 -0.0392877 -0.0664243 -0.0880558 -0.105707 -0.120607 -0.128004 -0.123226 -0.107156 -0.0882007 -0.0740176 -0.0659364 -0.0595695 -0.0497495 -0.0353881 -0.0189045 -0.00539189 0.000535843 -0.00396004 -0.0170262 -0.0326805 -0.0424596 -0.0400732 -0.0255262 -0.00598124 0.0082403 0.0102125 0.000561252 -0.013842 -0.0242877 -0.0262483 -0.0220948 -0.0190288 -0.0236132 -0.0346888 -0.044545 -0.0442897 -0.0330003 -0.0184932 -0.0121066 -0.0185353 -0.0330756 -0.0443886 -0.0446607 -0.0348124 -0.0237347 -0.0191648 -0.022318 -0.0267146 -0.0252641 -0.0156648 -0.00235934 0.00625216 0.00378926 -0.00991611 -0.0278701 -0.0403047 -0.04099 -0.0306362 -0.0155019 -0.00315561 0.00172543 -0.0017151 -0.0105275 -0.0212946 -0.0313617 -0.0410135 -0.0525178 -0.0694121 -0.092409 -0.117236 -0.135977 -0.141644 -0.13391 -0.116373 -0.0932238 -0.0653111 -0.0344991 -0.00621891 0.0140251 0.0258238 0.0363495 0.0520275 0.071738 0.0864861 0.0892498 0.0833991 0.0779311 0.0795692 0.0853013 0.086966 0.0797024 0.0639997 0.0457092 0.0265998 0.00133919 -0.0371262 -0.0885759 -0.131006 -0.128543 -0.0550251 0.0806597 0.224721 0.310414 0.296944 0.190769 0.044027 -0.0840477 -0.157556 -0.169642 -0.141657 -0.0989293 -0.0573164 -0.0298789 -0.0165442 -0.00989353 -0.00862461 -0.00611131 0.00108737 0.0041373 0.00412414 0.00504161 0.0019257 -0.0013436 -0.00109979 -0.004136 -0.00882434 -0.00954649 -0.0091694 -0.00851948 -0.00532433 -0.0015924 0.00031875 0.00073836 0.000552387 0.000318276 0.000318434 0 0 
0 0 -0.000234374 -4.55041e-05 0.000523879 0.000709586 5.74134e-07 -0.000363255 -0.00128077 -0.00551752 -0.00897176 -0.00728851 -0.00660656 -0.00755711 -0.0040575 -0.00310722 -0.00642893 -0.00271625 0.00284179 0.00300206 0.00436238 0.00279853 -0.00498891 -0.0101823 -0.0168522 -0.0318978 -0.0543376 -0.0894923 -0.13418 -0.16894 -0.171436 -0.117658 -0.000344227 0.150082 0.277745 0.323292 0.26033 0.120622 -0.0287696 -0.125524 -0.145696 -0.111039 -0.0585346 -0.0136434 0.0176766 0.0415151 0.0612929 0.076357 0.0848671 0.0860018 0.0832958 0.0815824 0.0849881 0.0918418 0.0945527 0.0873094 0.0718179 0.0561507 0.0454984 0.036231 0.0214437 -0.000878256 -0.0257387 -0.0488461 -0.0707267 -0.0928097 -0.111856 -0.120667 -0.11703 -0.106707 -0.0981126 -0.0946914 -0.0934306 -0.0888318 -0.0775823 -0.0598951 -0.0391254 -0.0209542 -0.0105735 -0.0111412 -0.0213236 -0.036051 -0.0474954 -0.0491905 -0.0397282 -0.0243615 -0.01154 -0.00806146 -0.0145406 -0.0255175 -0.0323268 -0.0296135 -0.0203943 -0.0144216 -0.0203555 -0.0362704 -0.0510531 -0.052822 -0.0400461 -0.022707 -0.0148248 -0.0226587 -0.0399564 -0.0527075 -0.0509361 -0.0361719 -0.0202991 -0.0144512 -0.0206055 -0.0301963 -0.0335764 -0.0277485 -0.0178964 -0.0122793 -0.0158375 -0.0276082 -0.0409537 -0.0481922 -0.0450371 -0.0334249 -0.0195293 -0.0101842 -0.00927341 -0.0172981 -0.0311153 -0.0467399 -0.0608374 -0.0724633 -0.0821051 -0.0911019 -0.101509 -0.114254 -0.126611 -0.131982 -0.124695 -0.10493 -0.0783897 -0.0499669 -0.0219792 0.00402968 0.02485 0.0378341 0.0461357 0.0563472 0.0716693 0.0867854 0.0937493 0.0909508 0.084064 0.0806017 0.0822729 0.0849871 0.0839731 0.0755916 0.0606951 0.0412259 0.0175866 -0.0136124 -0.058428 -0.110999 -0.145843 -0.125743 -0.0288612 0.120768 0.260779 0.323906 0.278131 0.149911 -0.00133914 -0.119408 -0.173421 -0.170221 -0.134038 -0.0878691 -0.0524155 -0.030669 -0.0165434 -0.0100523 -0.00425934 0.0039569 0.00512944 0.00277226 0.00208999 -0.00301515 -0.00587404 -0.00228306 -0.00364705 -0.00762936 -0.00679726 -0.00730592 -0.00888089 -0.00552808 -0.00142771 -0.000506109 1.15978e-05 0.00083692 0.000464039 0.000149663 0 0 
0 0 -0.00040674 -0.000250979 0.000423634 0.000866908 -0.000374668 -0.00117777 -0.00139592 -0.00527577 -0.00892753 -0.00608202 -0.00426883 -0.00644083 -0.00475219 -0.00508448 -0.0105828 -0.00866796 -0.00236632 -0.000269707 0.00277671 0.00306471 -0.00414936 -0.0125675 -0.0257186 -0.0497992 -0.0831618 -0.126221 -0.169156 -0.186466 -0.152281 -0.0515702 0.0997894 0.246878 0.324282 0.291574 0.16259 0.00293814 -0.114999 -0.155064 -0.130066 -0.0793651 -0.0320357 0.00435063 0.0338242 0.0581023 0.074086 0.0811706 0.0827446 0.0827902 0.0840218 0.0875526 0.0940078 0.100069 0.0998611 0.0902598 0.0748427 0.0606893 0.0497656 0.0384086 0.0221376 0.00152989 -0.0199363 -0.0416208 -0.0645206 -0.0870235 -0.102897 -0.107919 -0.10523 -0.102311 -0.104203 -0.109303 -0.113637 -0.113189 -0.106346 -0.0934956 -0.0777669 -0.0635241 -0.0536186 -0.0488876 -0.0482308 -0.0502752 -0.0525694 -0.053244 -0.0509828 -0.0465003 -0.0411724 -0.0372405 -0.0358874 -0.0363577 -0.0350836 -0.0296282 -0.0223289 -0.0196206 -0.0259634 -0.0388461 -0.0501883 -0.0525414 -0.0452904 -0.0348946 -0.0301127 -0.034771 -0.045062 -0.0522453 -0.0498727 -0.0385667 -0.0257726 -0.0195847 -0.0225779 -0.0303895 -0.0366619 -0.0390087 -0.0396016 -0.0415299 -0.0450438 -0.0487729 -0.050897 -0.0509828 -0.049233 -0.0472634 -0.0464229 -0.0481177 -0.052624 -0.0603281 -0.0704618 -0.0814217 -0.0911574 -0.098738 -0.104054 -0.10639 -0.106601 -0.107331 -0.11163 -0.11666 -0.11475 -0.100046 -0.0744999 -0.0453887 -0.017923 0.0061931 0.0263208 0.0408004 0.0506656 0.0608738 0.0747583 0.089857 0.0990742 0.09909 0.0930675 0.0865752 0.0829442 0.0817488 0.081831 0.0804104 0.0734621 0.0577796 0.0337292 0.00433957 -0.0320589 -0.079467 -0.130319 -0.155306 -0.11502 0.00325967 0.163183 0.292262 0.324681 0.24666 0.09878 -0.0532185 -0.153979 -0.187291 -0.168487 -0.124228 -0.081184 -0.0488032 -0.0256672 -0.0124995 -0.00324108 0.0045766 0.00391388 -0.000206113 -0.00302097 -0.00908112 -0.0102484 -0.00436604 -0.00419304 -0.00629025 -0.0044349 -0.00626109 -0.00893263 -0.0051953 -0.00145981 -0.00143579 -0.000482189 0.00112663 0.000481174 -0.000170071 0 0 
0 0 -0.000435081 -0.000469511 8.83315e-05 0.000935004 -0.000386815 -0.00189871 -0.00194355 -0.00477114 -0.00824836 -0.00558595 -0.00285836 -0.00506584 -0.00566648 -0.00753071 -0.0136549 -0.0138311 -0.00811262 -0.0034612 0.00148393 0.00339031 -0.00218687 -0.0136248 -0.0347076 -0.0690839 -0.113832 -0.16187 -0.193996 -0.18145 -0.102307 0.0404999 0.203458 0.31498 0.317844 0.207344 0.040532 -0.100275 -0.162889 -0.14952 -0.100442 -0.0522869 -0.0148305 0.0176145 0.048113 0.070532 0.0805176 0.0827666 0.0838715 0.0867314 0.0906756 0.0955813 0.102401 0.107181 0.104357 0.0921137 0.0754056 0.0608508 0.0484646 0.0346399 0.0165738 -0.00446524 -0.0262211 -0.0487565 -0.0712598 -0.0902685 -0.100774 -0.102938 -0.102626 -0.105107 -0.111387 -0.118538 -0.123807 -0.124863 -0.120542 -0.112121 -0.103757 -0.0987817 -0.0968674 -0.0951105 -0.0904239 -0.0823639 -0.07252 -0.0651712 -0.0638103 -0.0688347 -0.0756004 -0.0786359 -0.0746554 -0.0645928 -0.0516238 -0.0411477 -0.0372049 -0.0407359 -0.0478692 -0.0542208 -0.0577609 -0.0594323 -0.0605174 -0.0613233 -0.0616142 -0.0611749 -0.060239 -0.0590602 -0.057355 -0.0538504 -0.0476037 -0.0406771 -0.037529 -0.0421161 -0.0535313 -0.0676071 -0.0785809 -0.0827471 -0.0787374 -0.0698677 -0.0623015 -0.0617403 -0.0685732 -0.0793328 -0.0890106 -0.0949441 -0.0965468 -0.096246 -0.0971031 -0.100866 -0.106545 -0.111969 -0.115693 -0.116251 -0.11299 -0.107937 -0.106103 -0.108974 -0.111049 -0.103411 -0.0830789 -0.055327 -0.0266489 -0.000812371 0.0211875 0.0379116 0.0498744 0.061117 0.0753371 0.0918322 0.103617 0.106164 0.101408 0.0946027 0.0895612 0.0856475 0.0829387 0.0819965 0.0799168 0.0701889 0.0479924 0.0175474 -0.0148999 -0.0524588 -0.100693 -0.149658 -0.16272 -0.099743 0.041314 0.208112 0.318262 0.314761 0.202473 0.0389511 -0.103742 -0.181861 -0.192896 -0.159624 -0.111874 -0.0683416 -0.0349266 -0.0137013 -0.00122775 0.00509729 0.00291122 -0.00307806 -0.00853167 -0.0142497 -0.0135327 -0.00696185 -0.00501865 -0.00468475 -0.00290789 -0.0058767 -0.00840813 -0.00466599 -0.00189051 -0.00219624 -0.000653721 0.00120473 0.000308325 -0.000538671 0 0 
0 0 -0.00031279 -0.000620674 -0.000361683 0.000754536 -0.000188363 -0.00227604 -0.00283671 -0.00443168 -0.00691215 -0.00524449 -0.0023791 -0.00330024 -0.00557263 -0.00947387 -0.0151756 -0.016747 -0.0129063 -0.00613694 0.00103722 0.00395027 9.85843e-05 -0.0140658 -0.0440168 -0.0891789 -0.143048 -0.189704 -0.199854 -0.14609 -0.0204201 0.149013 0.293287 0.339377 0.258916 0.0912261 -0.0755891 -0.167655 -0.171719 -0.125068 -0.0746668 -0.0382204 -0.00646764 0.0272693 0.0578024 0.0761577 0.0829276 0.087224 0.0922567 0.0963869 0.0988411 0.102809 0.109768 0.113277 0.106931 0.0914052 0.0739191 0.0596374 0.0459268 0.0283815 0.00593886 -0.0181645 -0.0412394 -0.0635683 -0.0839853 -0.0996459 -0.107459 -0.109501 -0.110751 -0.114494 -0.120809 -0.127729 -0.132997 -0.132951 -0.126268 -0.116161 -0.108924 -0.108076 -0.11232 -0.117871 -0.119526 -0.113424 -0.0994242 -0.0845885 -0.0779402 -0.0840745 -0.09835 -0.110526 -0.110892 -0.0972555 -0.0767488 -0.0619095 -0.0604467 -0.0688498 -0.0765011 -0.0770495 -0.0737751 -0.0743552 -0.0817984 -0.0914508 -0.0958587 -0.0913376 -0.0815744 -0.0740414 -0.0734142 -0.076698 -0.0762406 -0.0688202 -0.0608721 -0.0630862 -0.0789507 -0.100529 -0.114821 -0.114157 -0.100438 -0.0836777 -0.0750402 -0.0802554 -0.0952945 -0.110849 -0.118947 -0.118632 -0.112796 -0.106067 -0.102579 -0.105277 -0.113074 -0.121377 -0.126308 -0.12624 -0.121978 -0.115616 -0.111682 -0.112806 -0.115606 -0.112032 -0.0969157 -0.0727937 -0.0445924 -0.0163013 0.010382 0.0324375 0.0480422 0.0601834 0.0739235 0.0912188 0.106317 0.112289 0.108736 0.101831 0.0977506 0.0952716 0.0913231 0.0864463 0.0823543 0.0758283 0.057697 0.0271866 -0.0066012 -0.0384155 -0.074848 -0.125042 -0.171342 -0.166899 -0.0746671 0.0920509 0.259317 0.339132 0.292259 0.147521 -0.0216595 -0.146174 -0.198436 -0.187335 -0.141207 -0.0886991 -0.0445269 -0.0143219 0.000954983 0.00568649 0.00260676 -0.00544885 -0.0130053 -0.0170677 -0.0152204 -0.00914825 -0.00495237 -0.00271014 -0.00222157 -0.00555331 -0.00724621 -0.00439477 -0.00268502 -0.00251882 -0.000587496 0.000891989 -3.86457e-05 -0.000802113 0 0 
0 0 -0.000115405 -0.000653068 -0.000726158 0.000260123 -8.15244e-05 -0.00218749 -0.00370698 -0.0045473 -0.00524484 -0.00445179 -0.00248462 -0.00146788 -0.00390852 -0.0100867 -0.0154074 -0.0176003 -0.0166068 -0.00949585 -0.000610472 0.00232511 -0.00147842 -0.0187834 -0.0578519 -0.112836 -0.170538 -0.205796 -0.182066 -0.0799026 0.0851164 0.256579 0.351034 0.313733 0.161091 -0.0275937 -0.158229 -0.189666 -0.151518 -0.0979407 -0.0605912 -0.0338058 -0.00143856 0.0344956 0.0619671 0.0766534 0.0855349 0.095626 0.103098 0.10466 0.104675 0.109561 0.117505 0.11829 0.106995 0.0887719 0.0718138 0.0578323 0.0407724 0.0173484 -0.0101116 -0.0363548 -0.0592608 -0.0804649 -0.0996309 -0.113796 -0.120217 -0.12111 -0.121263 -0.123829 -0.129748 -0.137206 -0.142135 -0.140076 -0.130899 -0.119944 -0.112653 -0.110697 -0.113702 -0.120206 -0.126205 -0.125617 -0.115766 -0.101492 -0.0919086 -0.0935887 -0.105805 -0.120431 -0.126163 -0.117262 -0.0994818 -0.0862305 -0.0860457 -0.094698 -0.100712 -0.098383 -0.0924722 -0.0926045 -0.102584 -0.116114 -0.122411 -0.11607 -0.102485 -0.092443 -0.0922575 -0.0981481 -0.100543 -0.0947678 -0.0866203 -0.0876297 -0.101925 -0.120639 -0.129828 -0.123248 -0.106573 -0.0916936 -0.0878325 -0.0967054 -0.111994 -0.123983 -0.126772 -0.121965 -0.114788 -0.108841 -0.106182 -0.109063 -0.118283 -0.12974 -0.136905 -0.136696 -0.130881 -0.123742 -0.120087 -0.121838 -0.125861 -0.124605 -0.11276 -0.0918473 -0.0657471 -0.0370024 -0.00656259 0.0218748 0.0437482 0.0588984 0.071979 0.0886891 0.106551 0.117419 0.116506 0.108607 0.103703 0.103662 0.102243 0.0949698 0.0851101 0.0764534 0.061947 0.0344947 -0.00152503 -0.0339523 -0.0606492 -0.097697 -0.150896 -0.188717 -0.157178 -0.026754 0.161439 0.313391 0.349946 0.2551 0.0840398 -0.079716 -0.180375 -0.203343 -0.168756 -0.112553 -0.058564 -0.0192387 -0.000789865 0.00393263 0.000989278 -0.00854198 -0.0163497 -0.0177234 -0.0155825 -0.0100439 -0.0034494 -0.000765465 -0.00206905 -0.00466404 -0.00571253 -0.00466542 -0.00353592 -0.00230791 -0.000515054 0.000171508 -0.000457572 -0.00082762 0 0 
0 0 1.71128e-05 -0.000589673 -0.000828879 -0.000448742 -0.000358316 -0.00175711 -0.00409986 -0.00508849 -0.00386535 -0.00304005 -0.00264176 -0.000259312 -0.00137271 -0.00926141 -0.0151596 -0.0176125 -0.0197114 -0.0147407 -0.00589684 -0.00419634 -0.0107111 -0.0330407 -0.0808599 -0.142992 -0.196567 -0.208268 -0.140792 0.0092213 0.19633 0.340035 0.360381 0.239938 0.0447621 -0.123176 -0.193286 -0.171643 -0.117471 -0.0770578 -0.0541072 -0.0284554 0.007803 0.0411944 0.0616145 0.074379 0.0884883 0.102712 0.108519 0.106853 0.107574 0.115344 0.122367 0.117806 0.101513 0.0823058 0.0659745 0.0498224 0.0279701 0.000219997 -0.0285628 -0.0539633 -0.0763851 -0.0978509 -0.116934 -0.129314 -0.133008 -0.131814 -0.131098 -0.133731 -0.139088 -0.144156 -0.144261 -0.137626 -0.128083 -0.121323 -0.118871 -0.118249 -0.118397 -0.119485 -0.120136 -0.117789 -0.112152 -0.105693 -0.101258 -0.100968 -0.106483 -0.115797 -0.122469 -0.121159 -0.113529 -0.107127 -0.106557 -0.109844 -0.111049 -0.107856 -0.103159 -0.103656 -0.112674 -0.12551 -0.131544 -0.125531 -0.112698 -0.103658 -0.103123 -0.1078 -0.111059 -0.110111 -0.107367 -0.108775 -0.116139 -0.124442 -0.125572 -0.117504 -0.105768 -0.0976837 -0.0964098 -0.101025 -0.109277 -0.117432 -0.121896 -0.122029 -0.119703 -0.116116 -0.111948 -0.110297 -0.116005 -0.128509 -0.140477 -0.144709 -0.140465 -0.132957 -0.128377 -0.13027 -0.135991 -0.137848 -0.129261 -0.110559 -0.0857981 -0.057639 -0.0267423 0.00467845 0.0318412 0.0517617 0.0665867 0.0824388 0.101337 0.117239 0.121549 0.114492 0.106746 0.106079 0.107884 0.102289 0.0883397 0.0744292 0.0617668 0.0413119 0.0078095 -0.0284938 -0.0540099 -0.0766122 -0.11666 -0.17058 -0.192195 -0.122315 0.0451184 0.239607 0.35932 0.338701 0.195548 0.0098367 -0.138725 -0.205632 -0.194685 -0.142663 -0.081533 -0.0335089 -0.0101178 -0.00275326 -0.00434917 -0.0136122 -0.0191105 -0.0174922 -0.0153894 -0.00950969 -0.00118361 0.000436788 -0.00200877 -0.0030573 -0.00435824 -0.00539877 -0.00403025 -0.00175727 -0.000694605 -0.000752754 -0.000802488 -0.000587336 0 0 
0 0 -5.9862e-05 -0.000541019 -0.000641998 -0.00113485 -0.0011093 -0.00133771 -0.00378694 -0.00570364 -0.00336373 -0.00149324 -0.00239938 -3.97634e-05 0.000645164 -0.00754817 -0.0147868 -0.017765 -0.0221478 -0.0208943 -0.0143783 -0.0151379 -0.0268723 -0.0566865 -0.111866 -0.175822 -0.215467 -0.191776 -0.0761135 0.110861 0.293564 0.379214 0.313269 0.128753 -0.0692197 -0.18263 -0.18669 -0.132942 -0.0860956 -0.0647463 -0.0471151 -0.0147183 0.0229838 0.0473679 0.058716 0.0704723 0.0876186 0.100987 0.103334 0.101643 0.105605 0.113942 0.116014 0.105614 0.0879337 0.07021 0.0537579 0.034295 0.00948361 -0.018026 -0.0444621 -0.0679597 -0.0904679 -0.112157 -0.129403 -0.138239 -0.139564 -0.139604 -0.142326 -0.147562 -0.152251 -0.152463 -0.145317 -0.132565 -0.121117 -0.116106 -0.116815 -0.119209 -0.1207 -0.118589 -0.111256 -0.10123 -0.0948606 -0.0950129 -0.0984375 -0.100786 -0.101497 -0.1025 -0.104279 -0.106603 -0.108992 -0.110505 -0.109112 -0.104833 -0.0999448 -0.0965406 -0.0949588 -0.0963785 -0.102132 -0.11024 -0.114144 -0.110293 -0.102226 -0.0964933 -0.0950794 -0.0966801 -0.100196 -0.105387 -0.110237 -0.112428 -0.111694 -0.109592 -0.106549 -0.102877 -0.0993052 -0.0964207 -0.0933516 -0.0910285 -0.093261 -0.10221 -0.113976 -0.121509 -0.1218 -0.116494 -0.109322 -0.104969 -0.109636 -0.124633 -0.142887 -0.15405 -0.154065 -0.146577 -0.138671 -0.136289 -0.139959 -0.144 -0.139965 -0.125105 -0.102146 -0.0747851 -0.0450735 -0.0143497 0.0140031 0.0373744 0.0551803 0.070785 0.0881437 0.105493 0.115588 0.113379 0.105063 0.101217 0.103025 0.100875 0.0877846 0.0708064 0.0590589 0.0476026 0.0230776 -0.0146707 -0.0468847 -0.0641531 -0.0851442 -0.131819 -0.185548 -0.181728 -0.0687685 0.128571 0.312454 0.378252 0.293309 0.112075 -0.0735438 -0.188893 -0.213354 -0.175223 -0.112277 -0.0569587 -0.0262674 -0.0138256 -0.0129361 -0.0196388 -0.0212336 -0.0173484 -0.014944 -0.00800754 0.000499403 0.000477567 -0.00165414 -0.00125125 -0.00373241 -0.00616195 -0.00393781 -0.00131006 -0.00124912 -0.00152836 -0.000970212 -0.000206434 0 0 
0 0 -0.000416242 -0.000667296 -0.000351376 -0.00155044 -0.00212266 -0.00133336 -0.00298259 -0.00592101 -0.00387213 -0.0006274 -0.00161666 -0.000387508 0.00139179 -0.00532947 -0.0134743 -0.0174962 -0.0227081 -0.0249022 -0.0228372 -0.0274322 -0.045768 -0.084459 -0.144226 -0.201361 -0.215166 -0.146431 0.0146032 0.217278 0.363746 0.3675 0.218111 0.00142613 -0.16124 -0.204542 -0.157355 -0.0975502 -0.0701426 -0.0601393 -0.036355 0.00378162 0.0365567 0.0490477 0.0538539 0.0648315 0.0795289 0.087131 0.0867444 0.0882573 0.0950846 0.10034 0.0962303 0.0832608 0.0681901 0.0534368 0.0372113 0.0169407 -0.00704839 -0.0318101 -0.0558073 -0.0784615 -0.100381 -0.119718 -0.132402 -0.137194 -0.138482 -0.142457 -0.150021 -0.158221 -0.163597 -0.16282 -0.154118 -0.139886 -0.126344 -0.117387 -0.113612 -0.114427 -0.117386 -0.115713 -0.105003 -0.0897028 -0.0796321 -0.0795388 -0.0856646 -0.0910342 -0.0911373 -0.0861854 -0.0809967 -0.0820052 -0.0899068 -0.0977109 -0.0969681 -0.0880202 -0.0783514 -0.0745305 -0.0761568 -0.0794835 -0.081825 -0.0830197 -0.0833115 -0.0830763 -0.0819374 -0.0796466 -0.0763707 -0.0748327 -0.0788512 -0.0889053 -0.098459 -0.0999168 -0.0926195 -0.0845268 -0.0822407 -0.085176 -0.0876722 -0.0860517 -0.0809051 -0.0766585 -0.079405 -0.0917892 -0.108261 -0.118564 -0.117975 -0.111032 -0.105629 -0.106276 -0.115512 -0.133056 -0.152892 -0.16535 -0.165959 -0.157394 -0.146021 -0.137943 -0.136584 -0.139937 -0.140338 -0.131699 -0.113261 -0.0880524 -0.0592778 -0.0296646 -0.00234517 0.0212075 0.0398328 0.0546874 0.0688501 0.0836421 0.0962789 0.100135 0.0948376 0.0881377 0.0867397 0.087258 0.0798999 0.065319 0.0542369 0.0492725 0.036674 0.00388952 -0.0360238 -0.0594162 -0.0690715 -0.0963334 -0.156141 -0.203518 -0.160624 0.00145133 0.217587 0.366933 0.364018 0.218993 0.0175028 -0.143536 -0.212987 -0.200541 -0.144316 -0.0844456 -0.045042 -0.0261956 -0.0214703 -0.0235874 -0.0215188 -0.0167212 -0.0134287 -0.00586358 0.000947478 -0.000155425 -0.000922772 -0.000152872 -0.00397132 -0.00640445 -0.00341206 -0.00143091 -0.00206881 -0.00184918 -0.000985336 6.5715e-05 0 0 
0 0 -0.000988793 -0.00109669 -0.000302814 -0.00160798 -0.00295361 -0.00192365 -0.00230127 -0.00548759 -0.00484244 -0.000955604 -0.00053522 -0.000233589 0.00129729 -0.00285834 -0.0101373 -0.0154407 -0.0208499 -0.0252651 -0.0291974 -0.0401751 -0.0664249 -0.113787 -0.173421 -0.21273 -0.187808 -0.0680259 0.128507 0.319513 0.39939 0.310433 0.0970124 -0.114607 -0.215684 -0.19428 -0.123614 -0.0797307 -0.0716097 -0.0604049 -0.0251406 0.0164277 0.0385717 0.0421858 0.0464067 0.056983 0.0651489 0.0655208 0.0642871 0.0692166 0.0766883 0.0785092 0.0719096 0.060201 0.0478234 0.0344363 0.0189832 0.00077661 -0.0199771 -0.0422005 -0.0644215 -0.0852479 -0.104682 -0.120597 -0.129867 -0.13305 -0.135648 -0.142044 -0.151004 -0.159477 -0.16506 -0.165113 -0.158177 -0.147068 -0.135966 -0.126303 -0.118686 -0.115163 -0.114811 -0.111528 -0.10108 -0.0866247 -0.0751583 -0.0708345 -0.0735761 -0.0792733 -0.0806531 -0.0738743 -0.0643816 -0.0626404 -0.0714356 -0.0817298 -0.0823613 -0.072346 -0.0600192 -0.0547685 -0.0580571 -0.0640245 -0.0649846 -0.0606329 -0.0577277 -0.0606788 -0.0650833 -0.0641837 -0.0583056 -0.0551797 -0.0607303 -0.0735444 -0.084203 -0.0841721 -0.0740564 -0.0645626 -0.0645427 -0.0716168 -0.0762991 -0.0742099 -0.0696077 -0.0692307 -0.0761169 -0.0893936 -0.104415 -0.113996 -0.114796 -0.111183 -0.110391 -0.115363 -0.12581 -0.141223 -0.157952 -0.168435 -0.167972 -0.159031 -0.147089 -0.136854 -0.13188 -0.132772 -0.134483 -0.130311 -0.1174 -0.096783 -0.0708233 -0.042334 -0.0158599 0.00589226 0.0228941 0.0366331 0.0489511 0.06094 0.0723199 0.078533 0.0765583 0.0691826 0.0643574 0.0656513 0.0654142 0.0573248 0.0465963 0.0421728 0.038509 0.0164508 -0.0248022 -0.0596789 -0.0705681 -0.0785538 -0.122431 -0.193244 -0.215019 -0.114507 0.096636 0.310111 0.39998 0.321491 0.131414 -0.0654402 -0.18581 -0.211829 -0.173251 -0.113496 -0.0656117 -0.0390487 -0.0280145 -0.0240295 -0.0194943 -0.0143391 -0.00977122 -0.00328897 0.000676787 -0.000345123 -5.84987e-05 -0.000340034 -0.00459919 -0.00582772 -0.00295067 -0.00229434 -0.00284312 -0.00167553 -0.00102676 -3.22825e-05 0 0 
0 0 -0.00158702 -0.00184064 -0.000821794 -0.00148425 -0.00318327 -0.00287677 -0.00238928 -0.00464464 -0.00537044 -0.00219858 0.000264371 0.00103227 0.00129306 -0.000847229 -0.00553228 -0.0117899 -0.0182418 -0.024502 -0.0356085 -0.0565482 -0.0927609 -0.147356 -0.200453 -0.20992 -0.134945 0.0361099 0.251471 0.402181 0.393708 0.217805 -0.0267261 -0.198276 -0.228092 -0.162908 -0.097336 -0.0795739 -0.0817575 -0.0605498 -0.0176954 0.0161637 0.0269743 0.0290971 0.0377292 0.0477521 0.0497003 0.046368 0.0467448 0.0533208 0.059592 0.0601341 0.054271 0.0437713 0.0307951 0.0166504 0.00221962 -0.0137932 -0.0327617 -0.0533985 -0.0725994 -0.089103 -0.104621 -0.118054 -0.126104 -0.129502 -0.133441 -0.140922 -0.150227 -0.158867 -0.163324 -0.159975 -0.149243 -0.137627 -0.130266 -0.1257 -0.121321 -0.116644 -0.111064 -0.102925 -0.0930441 -0.083552 -0.0749929 -0.0683124 -0.0663663 -0.0690864 -0.0699115 -0.0633302 -0.0534893 -0.0501578 -0.0563313 -0.0646118 -0.0653924 -0.0567859 -0.0445857 -0.0376924 -0.0402099 -0.0471359 -0.0483419 -0.04229 -0.0381541 -0.0423231 -0.0484204 -0.0472805 -0.0404659 -0.038165 -0.0454422 -0.0582138 -0.0674778 -0.0671641 -0.0587319 -0.051412 -0.0526606 -0.0601514 -0.0651823 -0.0644518 -0.0634647 -0.0678946 -0.0767479 -0.0865322 -0.0961287 -0.104905 -0.110509 -0.112234 -0.112878 -0.115024 -0.120771 -0.132641 -0.14979 -0.163863 -0.166648 -0.158813 -0.146619 -0.135478 -0.128233 -0.126406 -0.127062 -0.124454 -0.115699 -0.101392 -0.0816416 -0.056498 -0.0303705 -0.00863986 0.00713076 0.0197644 0.0323388 0.0446096 0.0547327 0.0601523 0.0593143 0.0530373 0.0465469 0.0462357 0.0496066 0.0476575 0.0375002 0.0286714 0.0265692 0.0159757 -0.0174981 -0.0599414 -0.0808937 -0.0785956 -0.0963297 -0.162014 -0.227516 -0.198216 -0.0270726 0.217646 0.394483 0.404235 0.254185 0.0381813 -0.133315 -0.209068 -0.200085 -0.146844 -0.0918912 -0.055557 -0.0346927 -0.0234514 -0.0168774 -0.0104397 -0.00481233 -0.000989296 0.000680792 0.000616982 0.000402826 -0.00162211 -0.00482044 -0.00466798 -0.00308031 -0.00358313 -0.00324706 -0.00133757 -0.00135562 -0.000620926 0 0 
0 0 -0.00198227 -0.00276546 -0.00199186 -0.00156296 -0.00273863 -0.00365172 -0.00346413 -0.00408462 -0.00493907 -0.0034913 0.000125492 0.00274232 0.00184928 -0.000103447 -0.00201735 -0.00823667 -0.0169773 -0.0262736 -0.0453263 -0.079265 -0.127628 -0.186413 -0.224883 -0.193364 -0.0613487 0.15325 0.364117 0.448752 0.342903 0.100374 -0.137047 -0.243251 -0.208852 -0.12714 -0.0854397 -0.0895653 -0.0888436 -0.0559911 -0.0150845 0.00575726 0.0102592 0.0176208 0.0314525 0.0396786 0.0390154 0.0375902 0.041375 0.0485683 0.0540779 0.0550096 0.0491319 0.0364257 0.0204236 0.0052535 -0.00861303 -0.0247241 -0.0443583 -0.0637962 -0.0792919 -0.0917087 -0.104519 -0.11566 -0.121318 -0.123394 -0.127453 -0.13577 -0.146418 -0.156783 -0.161284 -0.154889 -0.139649 -0.125171 -0.117518 -0.115356 -0.114802 -0.112127 -0.104239 -0.0922763 -0.0818728 -0.0757925 -0.0709921 -0.0650926 -0.0606392 -0.058817 -0.05637 -0.0501412 -0.0426475 -0.0391444 -0.0411958 -0.0451699 -0.0457193 -0.0406757 -0.0321702 -0.0258861 -0.0264186 -0.0309302 -0.031759 -0.0270315 -0.0237498 -0.0270653 -0.0318333 -0.0310674 -0.0266804 -0.026395 -0.0331109 -0.0422262 -0.0478996 -0.0476569 -0.0432263 -0.0397141 -0.0410393 -0.0464841 -0.0518037 -0.0550159 -0.0588753 -0.0655875 -0.0731104 -0.0786266 -0.084553 -0.0937925 -0.103256 -0.10742 -0.106312 -0.104975 -0.10864 -0.120896 -0.140717 -0.159034 -0.16476 -0.156974 -0.14312 -0.130309 -0.121271 -0.117946 -0.118717 -0.118223 -0.112861 -0.103533 -0.0903543 -0.0703084 -0.0449774 -0.0209544 -0.00354505 0.00901204 0.0222497 0.0371035 0.0492863 0.0547154 0.0534143 0.0478105 0.0407082 0.0369757 0.0384088 0.0390083 0.0306815 0.0167688 0.00946779 0.0052888 -0.0151206 -0.0556636 -0.0883204 -0.0889552 -0.084767 -0.126549 -0.208529 -0.243358 -0.137432 0.100301 0.343808 0.450769 0.366517 0.154718 -0.0601845 -0.19261 -0.224321 -0.185618 -0.126597 -0.0783315 -0.0445952 -0.0254484 -0.0157072 -0.00678435 -0.000984733 0.000128079 0.00141571 0.00214684 -0.000125957 -0.00314165 -0.00422594 -0.00370835 -0.00394966 -0.00459999 -0.00319294 -0.00141295 -0.00216513 -0.00157103 0 0 
0 0 -0.00205457 -0.00366389 -0.00353543 -0.00221808 -0.00206877 -0.00379098 -0.00510067 -0.00453518 -0.003925 -0.0039911 -0.00109407 0.00348045 0.0027156 -0.000394122 -0.000846174 -0.00587987 -0.0170049 -0.031069 -0.0587833 -0.10685 -0.167874 -0.225971 -0.240154 -0.158634 0.0309326 0.273483 0.451979 0.449804 0.251315 -0.0280398 -0.225039 -0.256456 -0.17726 -0.103488 -0.0900703 -0.102057 -0.0871749 -0.0461476 -0.0149033 -0.00596332 -0.000926986 0.0132924 0.0284155 0.0340323 0.0346643 0.0379778 0.0446053 0.0523943 0.0595058 0.0621927 0.0551739 0.0393183 0.0215202 0.00586916 -0.009449 -0.0282202 -0.0491911 -0.0673975 -0.0810078 -0.0929628 -0.105068 -0.11319 -0.115084 -0.11534 -0.119208 -0.12627 -0.134317 -0.142228 -0.145979 -0.14138 -0.130433 -0.119126 -0.110349 -0.105005 -0.10355 -0.102824 -0.0966247 -0.0844617 -0.0726039 -0.0653539 -0.061352 -0.0579462 -0.0540764 -0.0489629 -0.0428776 -0.0371581 -0.032847 -0.0297829 -0.028046 -0.0277222 -0.0279584 -0.0267392 -0.0234271 -0.0203026 -0.0195045 -0.0199128 -0.0188217 -0.0161059 -0.014512 -0.016146 -0.0189035 -0.0200566 -0.0197812 -0.0208467 -0.0244197 -0.0283276 -0.0300836 -0.0299535 -0.0295639 -0.0296849 -0.0307093 -0.0334614 -0.0389298 -0.0462312 -0.053348 -0.0590193 -0.0634803 -0.0678428 -0.0748642 -0.0856068 -0.0953198 -0.0978956 -0.0950617 -0.0949087 -0.101957 -0.115335 -0.131745 -0.145427 -0.149232 -0.142378 -0.131195 -0.120905 -0.112519 -0.108273 -0.109621 -0.112093 -0.110126 -0.10336 -0.093354 -0.0774104 -0.0538939 -0.0273874 -0.00550462 0.00972601 0.0235714 0.0397869 0.0548872 0.0614657 0.0584582 0.0511896 0.0434465 0.0369506 0.0336439 0.0329377 0.0272056 0.0120923 -0.00196596 -0.00664691 -0.0151582 -0.0460902 -0.08698 -0.101786 -0.0897188 -0.103152 -0.177152 -0.25668 -0.225417 -0.0280105 0.252336 0.451714 0.453977 0.274328 0.0315708 -0.158029 -0.239382 -0.22481 -0.166559 -0.105813 -0.058159 -0.0304251 -0.0159124 -0.00448133 0.000388329 0.000221978 0.0026171 0.00290589 -0.00166374 -0.00402476 -0.00328959 -0.00381127 -0.00515625 -0.00473037 -0.00297975 -0.00239652 -0.00343793 -0.00252592 0 0 
0 0 -0.00192599 -0.0044181 -0.00492527 -0.00355023 -0.00200097 -0.0033806 -0.00644669 -0.00612457 -0.00338561 -0.00344983 -0.00258624 0.0024752 0.00327462 -0.000548871 -0.00121271 -0.00465779 -0.0170085 -0.0371373 -0.0745646 -0.135951 -0.207352 -0.257858 -0.237074 -0.0997422 0.14018 0.388313 0.506495 0.405136 0.130971 -0.151168 -0.285541 -0.249308 -0.150838 -0.100083 -0.106906 -0.111051 -0.0781718 -0.0354831 -0.0160441 -0.012588 -0.0033378 0.0131615 0.0242629 0.0278409 0.0318735 0.0380107 0.0446059 0.0536522 0.0646357 0.0701563 0.0635579 0.0486455 0.032861 0.0173327 -0.000460847 -0.0212111 -0.0416046 -0.0587173 -0.073453 -0.0877631 -0.100119 -0.105886 -0.106474 -0.10834 -0.113742 -0.118662 -0.120788 -0.121075 -0.118982 -0.114468 -0.110145 -0.106298 -0.0997987 -0.0921483 -0.0882002 -0.0873959 -0.0833051 -0.0730376 -0.0604327 -0.0503249 -0.0453828 -0.0445183 -0.043184 -0.0372285 -0.0290222 -0.0236543 -0.0216625 -0.0192377 -0.014938 -0.0113125 -0.0104488 -0.0112502 -0.011978 -0.012364 -0.0115301 -0.00869857 -0.00536613 -0.00394121 -0.00394359 -0.0039773 -0.00544935 -0.00885595 -0.0118376 -0.0129561 -0.0130102 -0.0128076 -0.0123837 -0.0131256 -0.0158447 -0.0185251 -0.0192288 -0.0202619 -0.025975 -0.0356224 -0.0433016 -0.0458793 -0.0473308 -0.0524512 -0.0623426 -0.0738761 -0.0817276 -0.0822705 -0.0796866 -0.0822424 -0.0917038 -0.102681 -0.111319 -0.11805 -0.121658 -0.120863 -0.117682 -0.113553 -0.107143 -0.100691 -0.0993307 -0.102049 -0.102103 -0.096096 -0.0861261 -0.0717643 -0.0508832 -0.0245831 0.00105486 0.0206103 0.0352097 0.0492891 0.0630796 0.0691898 0.0634513 0.0523607 0.0432979 0.0368094 0.03069 0.0265398 0.0228281 0.0117913 -0.00445934 -0.0133389 -0.0164252 -0.0356017 -0.0782202 -0.110994 -0.106753 -0.0998996 -0.150807 -0.249548 -0.285796 -0.150991 0.132019 0.406814 0.507915 0.388425 0.140116 -0.0994699 -0.236233 -0.25642 -0.20577 -0.134784 -0.0739772 -0.0366631 -0.0161593 -0.00341092 8.00615e-05 0.000395368 0.00359002 0.00211834 -0.00330911 -0.0039161 -0.00306828 -0.0052527 -0.00598776 -0.00398003 -0.00319131 -0.0043331 -0.00492323 -0.00308792 0 0 
0 0 -0.00198874 -0.00517273 -0.00573958 -0.00526859 -0.00325762 -0.00319556 -0.00685303 -0.0080657 -0.00417749 -0.00252845 -0.0031976 0.000321585 0.00278137 -6.29278e-05 -0.00179439 -0.00472162 -0.0173613 -0.0439206 -0.0924007 -0.165154 -0.241271 -0.275385 -0.209732 -0.0150743 0.260098 0.486381 0.520618 0.319149 -0.00378376 -0.255052 -0.316287 -0.23124 -0.137424 -0.113769 -0.126435 -0.112809 -0.0676234 -0.0313324 -0.0212152 -0.0163127 -0.00322382 0.00909962 0.0137866 0.017236 0.0240788 0.0295085 0.0343651 0.0453986 0.0596471 0.066691 0.0625573 0.0533814 0.0430621 0.0296303 0.0129703 -0.00458196 -0.0211982 -0.0370819 -0.0534875 -0.0700723 -0.083606 -0.0903707 -0.093496 -0.0985252 -0.105314 -0.109907 -0.111126 -0.108554 -0.100591 -0.0905571 -0.0846754 -0.0831519 -0.0804261 -0.0753434 -0.0710912 -0.0678915 -0.0628908 -0.0546358 -0.0438445 -0.0333542 -0.0276001 -0.02757 -0.0274414 -0.0214495 -0.0121489 -0.00592702 -0.00428638 -0.00288849 0.00176295 0.00730713 0.00944066 0.00769812 0.00438558 0.00174389 0.0022735 0.00676594 0.0110459 0.0116702 0.0107948 0.0116356 0.0109576 0.00658596 0.00192111 0.0010991 0.00333295 0.00622507 0.00777812 0.00599056 0.00148832 -0.0016651 -0.00177574 -0.00306011 -0.0100799 -0.0208494 -0.0281788 -0.0290444 -0.0293527 -0.0352063 -0.0454876 -0.0551975 -0.0610209 -0.0625376 -0.0624759 -0.0654568 -0.0723471 -0.07936 -0.0853499 -0.0933592 -0.102458 -0.107847 -0.108091 -0.10539 -0.0995635 -0.0915164 -0.0862192 -0.0851969 -0.0832139 -0.0760659 -0.0653183 -0.0518352 -0.0344452 -0.0125936 0.0110472 0.0316046 0.0457272 0.054798 0.0625295 0.0659172 0.0586739 0.0443559 0.0332791 0.0284179 0.0229772 0.0159882 0.0123715 0.00777583 -0.00424257 -0.0169433 -0.0215307 -0.0314816 -0.0676997 -0.112777 -0.126269 -0.11356 -0.137352 -0.231333 -0.316367 -0.254675 -0.00277758 0.320527 0.521434 0.485805 0.259265 -0.0152963 -0.209042 -0.273841 -0.239501 -0.163887 -0.0918029 -0.0435751 -0.0167436 -0.00370377 -0.000571678 0.00106027 0.00349194 0.000357341 -0.00384257 -0.0033275 -0.00433064 -0.00735006 -0.00600322 -0.00318524 -0.00432636 -0.00667227 -0.00630307 -0.00310613 0 0 
0 0 -0.00276275 -0.00638504 -0.006102 -0.00688477 -0.00591235 -0.00430009 -0.00653481 -0.00917007 -0.0061693 -0.00247554 -0.00265434 -0.00160869 0.000782897 6.66628e-05 -0.00232417 -0.00690729 -0.0206723 -0.0533391 -0.113312 -0.194741 -0.267208 -0.274412 -0.156667 0.0909983 0.37922 0.55328 0.487172 0.197744 -0.140065 -0.331222 -0.318731 -0.207383 -0.135335 -0.134225 -0.139968 -0.108024 -0.0618142 -0.0382826 -0.0330108 -0.0225072 -0.00782494 -0.00158741 -0.000260862 0.00559146 0.0131027 0.0161265 0.0210515 0.0342519 0.0476687 0.052004 0.0492137 0.0456796 0.040774 0.0322922 0.0227422 0.013402 0.00281374 -0.00993679 -0.0246089 -0.0409647 -0.0568898 -0.068633 -0.0762733 -0.0820811 -0.0864023 -0.0901954 -0.0952281 -0.0975845 -0.0907666 -0.0772587 -0.065635 -0.0601668 -0.0583118 -0.0570327 -0.0537707 -0.0475196 -0.0400602 -0.0335907 -0.0268384 -0.019136 -0.0138105 -0.0124672 -0.0111518 -0.00511189 0.0043169 0.0120365 0.014646 0.0148184 0.0177663 0.0234134 0.0264885 0.0242004 0.0194795 0.0162565 0.0174749 0.0223705 0.0262326 0.0260078 0.024781 0.0259632 0.0261252 0.0221602 0.0170827 0.0155796 0.018444 0.0228621 0.0251433 0.0225969 0.0180409 0.0163889 0.0170569 0.0142993 0.00550348 -0.00528369 -0.0122763 -0.0139715 -0.0154326 -0.0208304 -0.0282828 -0.0338485 -0.0378294 -0.0418368 -0.0448812 -0.0468951 -0.0499426 -0.0559138 -0.0655776 -0.0791788 -0.0918995 -0.0966313 -0.0926587 -0.0868486 -0.0823529 -0.0768825 -0.0702447 -0.0634735 -0.0549735 -0.0443943 -0.0342618 -0.0243949 -0.0126689 0.00142763 0.0169614 0.0321428 0.0434119 0.048216 0.0503301 0.0519453 0.0471923 0.0336669 0.0203277 0.0152699 0.012127 0.00444719 -0.00155858 -0.00278007 -0.00864607 -0.0229402 -0.0331776 -0.038323 -0.061805 -0.107879 -0.139684 -0.13388 -0.135109 -0.207288 -0.318607 -0.330745 -0.139161 0.198698 0.487382 0.552133 0.377653 0.0901555 -0.156256 -0.272892 -0.265357 -0.193369 -0.112665 -0.0530646 -0.0202514 -0.00616178 -0.00131284 0.00121223 0.0018185 -0.00111118 -0.00300133 -0.00337892 -0.00679311 -0.008903 -0.00560964 -0.00362393 -0.00638722 -0.00855423 -0.00749714 -0.00290452 0 0 
0 0 -0.00459885 -0.0086401 -0.00690884 -0.0082083 -0.00923393 -0.00726923 -0.00669214 -0.00893818 -0.00826019 -0.00421391 -0.00213658 -0.0023796 -0.00225233 -0.00177612 -0.00379271 -0.0116272 -0.0292614 -0.0681312 -0.138164 -0.224222 -0.283021 -0.252055 -0.0793816 0.209258 0.483396 0.57588 0.401827 0.0485851 -0.266679 -0.376583 -0.298281 -0.181392 -0.138916 -0.15171 -0.144372 -0.101617 -0.0645951 -0.053672 -0.0471468 -0.0299303 -0.0153064 -0.0111119 -0.00620471 0.0040698 0.0106148 0.0123749 0.0203159 0.0348314 0.0434165 0.0418889 0.0371999 0.033778 0.0294064 0.0249388 0.0229979 0.020975 0.0163276 0.0105664 0.00379813 -0.00771204 -0.0244993 -0.0413349 -0.0545057 -0.0624288 -0.0648443 -0.0656087 -0.0695198 -0.073659 -0.0711051 -0.0615286 -0.0497795 -0.0404538 -0.0361086 -0.0358459 -0.0337284 -0.0264208 -0.0175924 -0.0119099 -0.0080702 -0.00368913 0.000525971 0.00347052 0.00696796 0.0128874 0.0211206 0.0290518 0.0324481 0.0313507 0.0315846 0.0357611 0.0389934 0.0370226 0.032238 0.0296174 0.0315674 0.0362633 0.0390398 0.0381163 0.0369257 0.0380649 0.0389165 0.0360259 0.0311479 0.028934 0.0312563 0.0358539 0.037975 0.0353877 0.0322628 0.0330691 0.0346083 0.0307269 0.0216326 0.0122352 0.00565911 0.001971 -0.00103798 -0.0053015 -0.00932124 -0.0118102 -0.0148955 -0.020239 -0.0243453 -0.025215 -0.0272249 -0.0356055 -0.0490336 -0.0628351 -0.0719903 -0.0730723 -0.068062 -0.0640859 -0.0631157 -0.0597175 -0.0505253 -0.036986 -0.0215899 -0.0084245 -0.00242202 -0.00142518 0.000927033 0.006548 0.013515 0.0217845 0.0310006 0.0370639 0.0397349 0.0429633 0.0436228 0.0347341 0.0199768 0.0117294 0.0096973 0.00295325 -0.00739819 -0.0121593 -0.0159778 -0.0301987 -0.0471856 -0.0536271 -0.0644923 -0.101351 -0.143934 -0.151238 -0.138531 -0.181106 -0.297967 -0.376049 -0.265964 0.0491205 0.401553 0.574447 0.48129 0.207858 -0.079317 -0.250614 -0.28109 -0.222721 -0.137431 -0.0678703 -0.028991 -0.0111485 -0.00307094 -0.000766329 -0.0010669 -0.00147289 -0.00202279 -0.00492418 -0.00917654 -0.0092774 -0.00609569 -0.00616167 -0.0088068 -0.00950091 -0.00892106 -0.00326276 0 0 
0 0 -0.00734878 -0.0122317 -0.00955662 -0.00986499 -0.0122234 -0.0115874 -0.00878468 -0.00836757 -0.00929573 -0.00739519 -0.00347202 -0.00255753 -0.00510457 -0.00599912 -0.00747107 -0.01842 -0.0428336 -0.0892428 -0.166497 -0.251334 -0.286361 -0.20693 0.0189412 0.32873 0.558664 0.546776 0.268293 -0.116489 -0.373173 -0.391151 -0.262839 -0.157821 -0.144619 -0.161412 -0.140969 -0.0975255 -0.073557 -0.0677972 -0.0533808 -0.0301112 -0.0163662 -0.00942115 0.00372136 0.0181769 0.024218 0.0283752 0.0408695 0.0544457 0.0571933 0.0512589 0.043713 0.0355665 0.0271071 0.0223058 0.0215084 0.0193956 0.0165359 0.017696 0.0207487 0.0179729 0.00766933 -0.00592408 -0.0212873 -0.0357962 -0.0445402 -0.0469483 -0.0468375 -0.0455511 -0.0426725 -0.038554 -0.031541 -0.0218457 -0.0145667 -0.0129113 -0.0121872 -0.00706377 0.000660234 0.00652334 0.00998583 0.0126838 0.0157522 0.0199832 0.0256224 0.0319927 0.0389454 0.0458827 0.0492659 0.0479564 0.0465153 0.0486689 0.0514036 0.0506079 0.046767 0.0445709 0.0465944 0.050759 0.0529296 0.052341 0.0515323 0.0522845 0.0527968 0.0505115 0.0461676 0.0439068 0.0458699 0.0496323 0.0506884 0.0486361 0.0474231 0.0496275 0.0510606 0.0470322 0.0390167 0.0311332 0.0243027 0.0185421 0.0142322 0.0111638 0.00897607 0.00704509 0.00393718 -0.0002146 -0.00212419 -0.00165248 -0.0051371 -0.0165423 -0.0305158 -0.0399115 -0.0441097 -0.0461153 -0.0470955 -0.0475563 -0.0451726 -0.0354456 -0.0192816 -0.00251647 0.0113419 0.0199693 0.0186474 0.00979507 0.00343866 0.00437664 0.00901459 0.0154684 0.0262367 0.0384019 0.0472056 0.0535749 0.0582297 0.054807 0.0408394 0.0279061 0.0233379 0.017031 0.00257245 -0.0103249 -0.016894 -0.0303034 -0.053404 -0.0677485 -0.0734003 -0.0971865 -0.140448 -0.160832 -0.144114 -0.157391 -0.262446 -0.390694 -0.372745 -0.116377 0.267699 0.545376 0.556246 0.326842 0.0186135 -0.205659 -0.284418 -0.249715 -0.165655 -0.0889136 -0.0426188 -0.0181387 -0.00703981 -0.00523563 -0.00396022 -0.00138381 -0.00285076 -0.00765231 -0.0102079 -0.00924708 -0.00883136 -0.0105221 -0.0109595 -0.0101346 -0.0114477 -0.00505411 0 0 
0 0 -0.0101947 -0.0166808 -0.015105 -0.0133608 -0.0146761 -0.0158834 -0.0133059 -0.00961406 -0.00944169 -0.0105056 -0.00734715 -0.00400896 -0.00712126 -0.0111338 -0.0136493 -0.0268173 -0.059165 -0.11524 -0.196972 -0.27324 -0.275598 -0.141124 0.13208 0.438976 0.595071 0.466347 0.100245 -0.279984 -0.450423 -0.378265 -0.22143 -0.141387 -0.151613 -0.163152 -0.131833 -0.0944762 -0.0807493 -0.070872 -0.0456709 -0.0199267 -0.00776841 0.00346331 0.0224107 0.0373197 0.0439849 0.0542117 0.0714035 0.083278 0.083118 0.076867 0.0678541 0.055923 0.0453119 0.0400193 0.0358139 0.0279293 0.0210712 0.0209718 0.0244027 0.0259735 0.0264696 0.0261045 0.0187459 0.00335787 -0.0128996 -0.0236375 -0.0268972 -0.0235113 -0.0184517 -0.0160311 -0.0130334 -0.00581382 0.00224931 0.00626728 0.00734055 0.00993282 0.0153327 0.021136 0.0249155 0.0269307 0.0292124 0.0337493 0.0402849 0.0466743 0.0520269 0.0567113 0.0590566 0.0583645 0.0572721 0.0584417 0.0607751 0.0611658 0.0586334 0.0566214 0.0582186 0.0619876 0.064601 0.0653081 0.0652799 0.0652515 0.0644663 0.0617376 0.0578032 0.056007 0.0578574 0.0603948 0.0603169 0.0586285 0.0582353 0.0598372 0.0604494 0.0574345 0.0518463 0.0458063 0.0391088 0.032463 0.027826 0.0256013 0.0242486 0.0221776 0.0192815 0.0175268 0.0180972 0.0180439 0.0119412 -0.000561275 -0.0124349 -0.0182612 -0.0212346 -0.0257839 -0.0290169 -0.0260944 -0.0152505 0.00218797 0.0195084 0.0288897 0.0306779 0.030173 0.0261561 0.0176922 0.0117374 0.0141778 0.0215155 0.0294159 0.0407405 0.0567381 0.0713079 0.080207 0.0851826 0.0842308 0.07169 0.0539567 0.0431725 0.0361872 0.0213025 0.00268691 -0.00817002 -0.0200731 -0.0457128 -0.0708752 -0.080621 -0.0941173 -0.131245 -0.162496 -0.150981 -0.14086 -0.221039 -0.377997 -0.450382 -0.280308 0.0994464 0.465152 0.59254 0.436633 0.131295 -0.140106 -0.273653 -0.27147 -0.195925 -0.114758 -0.0589208 -0.026666 -0.0134718 -0.0106529 -0.00618156 -0.00278482 -0.00631474 -0.0101818 -0.0100176 -0.0107284 -0.0140711 -0.0153916 -0.0130619 -0.0123272 -0.0159156 -0.0086371 0 0 
0 0 -0.0118021 -0.0204936 -0.0231954 -0.0203217 -0.018018 -0.0192389 -0.0191786 -0.0143662 -0.010705 -0.0124752 -0.0124388 -0.00825321 -0.00924752 -0.0153894 -0.0213226 -0.0372266 -0.0769936 -0.144143 -0.228831 -0.288859 -0.250556 -0.0597575 0.250196 0.530389 0.589032 0.34287 -0.0824222 -0.42225 -0.492108 -0.34495 -0.183298 -0.134774 -0.158051 -0.157243 -0.118761 -0.0900036 -0.0807894 -0.0619452 -0.0298895 -0.00778457 0.00155623 0.0158355 0.0350542 0.046343 0.0543226 0.0706496 0.0905482 0.101876 0.104004 0.101191 0.0928186 0.0817841 0.0751141 0.0727458 0.067568 0.0568817 0.0465216 0.0391868 0.0324054 0.0275302 0.0301622 0.0385499 0.0427977 0.0377152 0.0258767 0.0110912 -0.000116752 -0.0019779 0.0024583 0.00573924 0.00699434 0.00976682 0.0150012 0.0201512 0.0232774 0.0253376 0.0293331 0.0348088 0.0390379 0.0414054 0.0439208 0.0484134 0.0541527 0.0589894 0.0618993 0.0634089 0.0636266 0.0629458 0.0627363 0.0637355 0.0656857 0.0665979 0.0650178 0.0631284 0.0641746 0.0674877 0.0703452 0.0720777 0.0726495 0.0720291 0.0702193 0.0672474 0.063785 0.0625841 0.0643711 0.066012 0.0654247 0.0640374 0.0636321 0.0641429 0.0646333 0.0638205 0.0616342 0.0582661 0.0532421 0.0474233 0.0428365 0.0404289 0.0388255 0.0364133 0.0339182 0.0335505 0.0344688 0.0320308 0.0243861 0.0142543 0.00639158 0.00197701 -0.00204608 -0.00594629 -0.00363855 0.00764943 0.0228997 0.0361085 0.0431476 0.0410116 0.0345085 0.0329086 0.0368639 0.0399358 0.0414304 0.0459214 0.0532127 0.0592319 0.0663309 0.0791547 0.0948359 0.104909 0.107181 0.103775 0.0913708 0.0707405 0.0537809 0.0453676 0.0340531 0.015164 0.00124796 -0.00792302 -0.0299815 -0.061998 -0.080664 -0.0896094 -0.118096 -0.156447 -0.157245 -0.134086 -0.182888 -0.344899 -0.492477 -0.422961 -0.0832313 0.342121 0.586658 0.527745 0.248977 -0.0590466 -0.248662 -0.28695 -0.227567 -0.143446 -0.0766374 -0.0370905 -0.0212886 -0.0151954 -0.00862866 -0.00717148 -0.0111954 -0.0116123 -0.0106817 -0.015269 -0.0204314 -0.0196551 -0.0167897 -0.0183238 -0.0223004 -0.0133116 0 0 
0 0 -0.0108157 -0.0214384 -0.0313789 -0.0310482 -0.0249732 -0.0228055 -0.0247604 -0.0222568 -0.0156595 -0.0143609 -0.0166656 -0.014756 -0.0133841 -0.0186555 -0.028936 -0.0504915 -0.0977641 -0.175457 -0.26193 -0.299333 -0.212914 0.0318303 0.363064 0.595044 0.543137 0.190751 -0.259091 -0.527794 -0.496987 -0.300469 -0.155612 -0.137077 -0.159972 -0.142574 -0.102808 -0.0847129 -0.0761383 -0.0492846 -0.0173649 -0.00266638 0.00481894 0.0210601 0.0374003 0.0452553 0.0556914 0.0748505 0.0929182 0.10383 0.110153 0.11138 0.105868 0.100382 0.100662 0.102064 0.0987638 0.09154 0.0832113 0.072725 0.0588822 0.0461977 0.0412149 0.0437488 0.048679 0.0524135 0.0509275 0.0405347 0.0264745 0.0193535 0.0211648 0.0255401 0.0275486 0.0274332 0.0286385 0.032479 0.036053 0.0376516 0.0402896 0.0451617 0.0499134 0.0532791 0.0565054 0.0607056 0.0649712 0.0678485 0.0689045 0.0684868 0.0674941 0.0669442 0.0673625 0.0684302 0.0700399 0.0711785 0.0705453 0.0693547 0.0701958 0.0724959 0.0744518 0.0756602 0.0759925 0.0756055 0.0743285 0.0722765 0.0698514 0.0688895 0.0700262 0.0707531 0.0699133 0.0687556 0.0681141 0.0678576 0.0681914 0.0687216 0.0686964 0.0673956 0.0644396 0.0601197 0.0558581 0.0527975 0.0502293 0.0472961 0.0453505 0.0461608 0.0472 0.0438322 0.0369792 0.030463 0.0252444 0.020046 0.0151557 0.0143439 0.0224929 0.0372026 0.0483886 0.0511896 0.0490951 0.0458777 0.0450989 0.0515844 0.0645605 0.0763372 0.0821625 0.0844054 0.0863046 0.0874655 0.0882948 0.0935332 0.104939 0.11423 0.113966 0.106777 0.0945338 0.0754133 0.0555444 0.0446316 0.0366692 0.0205542 0.00457502 -0.0028328 -0.01755 -0.0494073 -0.0760267 -0.0842809 -0.102073 -0.141644 -0.158997 -0.136249 -0.155206 -0.300653 -0.497725 -0.528762 -0.259777 0.190608 0.541076 0.59223 0.361443 0.0321911 -0.211123 -0.297298 -0.260387 -0.174496 -0.097229 -0.050273 -0.0289796 -0.0187109 -0.0131091 -0.013949 -0.0154526 -0.013133 -0.0149293 -0.0225262 -0.0260256 -0.0240718 -0.0247727 -0.0289938 -0.0289965 -0.0172236 0 0 
0 0 -0.00651952 -0.0173943 -0.0354976 -0.0431496 -0.0376607 -0.0302311 -0.0301784 -0.0310789 -0.0251113 -0.0191247 -0.0196821 -0.0210718 -0.0202098 -0.0230407 -0.0362419 -0.0668808 -0.124386 -0.210798 -0.295622 -0.305302 -0.165344 0.129287 0.46365 0.627867 0.463086 0.0267523 -0.412963 -0.590299 -0.470609 -0.254096 -0.141564 -0.144819 -0.1543 -0.119768 -0.0851974 -0.079166 -0.0698419 -0.0383523 -0.0103701 -1.30716e-06 0.0104589 0.0290034 0.0424618 0.0502978 0.0644728 0.0823405 0.094464 0.102724 0.109735 0.111326 0.108885 0.110654 0.116621 0.119981 0.119441 0.116969 0.111875 0.102822 0.0907525 0.0782888 0.0681793 0.0616296 0.0592857 0.0616023 0.0636586 0.0581762 0.0464622 0.0370868 0.0346351 0.0376517 0.0417188 0.0428029 0.042854 0.0449092 0.0472075 0.0476183 0.0489478 0.0529952 0.0577979 0.0613015 0.0637657 0.0661733 0.0679832 0.0686691 0.0686877 0.0683202 0.0679307 0.0682808 0.0692706 0.0704957 0.0718932 0.073353 0.0738891 0.0742602 0.075339 0.0765846 0.0770684 0.0768561 0.076266 0.076806 0.0769511 0.0763798 0.0750391 0.0738835 0.0734986 0.0730651 0.0718458 0.0707855 0.0698584 0.0689607 0.0684512 0.0685489 0.0686779 0.0685625 0.0678782 0.0660521 0.0636416 0.061396 0.0586708 0.0555743 0.0542026 0.0559328 0.0576377 0.0549833 0.0495054 0.0439778 0.0377 0.030859 0.0279252 0.0320427 0.0430374 0.0557506 0.0620489 0.0609898 0.0597738 0.0632187 0.071092 0.0828038 0.0963956 0.108002 0.114159 0.11411 0.110516 0.106476 0.102302 0.0997781 0.10388 0.111755 0.113085 0.106341 0.0969271 0.0835041 0.0647874 0.050141 0.0421614 0.0287819 0.0103391 -0.000157495 -0.0106133 -0.0385382 -0.0697486 -0.0787139 -0.08438 -0.118694 -0.153117 -0.143861 -0.141188 -0.254524 -0.471675 -0.59139 -0.41335 0.0273382 0.461524 0.625059 0.461674 0.129298 -0.163722 -0.303179 -0.293855 -0.209624 -0.123669 -0.0665755 -0.0362942 -0.0232242 -0.0201916 -0.0205856 -0.018691 -0.0177604 -0.0237625 -0.030486 -0.0309077 -0.0318591 -0.0386877 -0.0421288 -0.0327997 -0.0179437 0 0 
0 0 0.000663474 -0.00747189 -0.0312882 -0.0513626 -0.0549049 -0.045635 -0.0390619 -0.0394744 -0.0370008 -0.0290107 -0.0240812 -0.0254885 -0.0280255 -0.0310007 -0.0458672 -0.0867489 -0.158318 -0.252142 -0.328454 -0.30433 -0.109 0.22872 0.548313 0.628366 0.355953 -0.134566 -0.532439 -0.611255 -0.423911 -0.213477 -0.139495 -0.152881 -0.140757 -0.0926482 -0.0669114 -0.0694356 -0.0566122 -0.0228841 0.00138118 0.0134566 0.0313847 0.0518725 0.063436 0.0739436 0.0910782 0.104682 0.109996 0.114114 0.116706 0.114016 0.112562 0.11844 0.125893 0.130213 0.13349 0.13452 0.130142 0.121913 0.112871 0.103061 0.0929717 0.0843462 0.0781923 0.0757213 0.0752055 0.0718245 0.0639555 0.054306 0.0469319 0.0455852 0.0494358 0.0525452 0.0530655 0.0539349 0.0551308 0.0554565 0.0567338 0.0604245 0.0650336 0.0680209 0.0692199 0.0689936 0.0679253 0.0664154 0.0658388 0.065923 0.066574 0.0676432 0.0687251 0.0695427 0.0703321 0.0714017 0.0725141 0.0737158 0.0748322 0.0753247 0.0749635 0.0741491 0.0736302 0.0740951 0.0748416 0.0751365 0.0745822 0.0734305 0.0722434 0.071219 0.0703321 0.0697731 0.0691539 0.0681788 0.0670608 0.0662953 0.0661307 0.0666891 0.068231 0.069329 0.0696133 0.0686747 0.0664183 0.0632866 0.0618394 0.0630156 0.0641578 0.0621143 0.0576682 0.0519455 0.0442456 0.0383796 0.0405498 0.0501393 0.0616821 0.0705464 0.0744552 0.0754809 0.0785022 0.0852479 0.0947989 0.106385 0.1178 0.127592 0.134693 0.135532 0.12892 0.119731 0.111781 0.104819 0.103264 0.110654 0.11813 0.117562 0.1131 0.106534 0.0919042 0.0743083 0.0636736 0.0521148 0.0315465 0.0134817 0.00126184 -0.0229523 -0.0564163 -0.0688465 -0.0659383 -0.0913689 -0.139367 -0.151792 -0.139196 -0.214154 -0.425249 -0.612386 -0.532431 -0.133268 0.355041 0.625682 0.546048 0.228332 -0.107587 -0.302189 -0.326514 -0.250746 -0.157407 -0.0863004 -0.04583 -0.031177 -0.0281173 -0.0252704 -0.0233993 -0.0277303 -0.0352965 -0.0380582 -0.038829 -0.0468721 -0.0567582 -0.0520915 -0.0299407 -0.0135754 0 0 
0 0 0.00912782 0.00715934 -0.0166121 -0.049245 -0.0706115 -0.0695353 -0.0571993 -0.0502224 -0.0486764 -0.0429988 -0.0335022 -0.0299373 -0.0348494 -0.0429148 -0.0618342 -0.111978 -0.198406 -0.298523 -0.358113 -0.291819 -0.0423375 0.326588 0.614345 0.599756 0.230691 -0.282776 -0.612652 -0.596129 -0.367346 -0.182871 -0.144338 -0.155388 -0.120124 -0.0654617 -0.0480813 -0.0501615 -0.0290039 0.00496974 0.024902 0.0403134 0.0640406 0.0838753 0.0946096 0.109132 0.127221 0.136099 0.13766 0.139054 0.135783 0.127778 0.125206 0.129508 0.133317 0.136758 0.142566 0.145151 0.141736 0.13641 0.129835 0.119874 0.109139 0.100795 0.0937993 0.0880836 0.0848423 0.0820769 0.076944 0.0684954 0.0591421 0.0543519 0.0557865 0.0581315 0.057932 0.057485 0.0581935 0.0593696 0.0615428 0.0651966 0.0691365 0.0706686 0.0706855 0.0690608 0.0664249 0.0638374 0.0625609 0.0628848 0.0644073 0.0661685 0.0673128 0.0676249 0.0677107 0.0682652 0.0694574 0.0709658 0.0720363 0.0721099 0.0711881 0.0699602 0.069376 0.0698966 0.0710718 0.0719406 0.0718246 0.0707378 0.0692639 0.0681459 0.067725 0.0678271 0.0676838 0.066664 0.0649542 0.0634478 0.0631381 0.0644493 0.0670725 0.0697612 0.071526 0.0718218 0.0709147 0.0681456 0.0661539 0.0656659 0.065259 0.0634295 0.0605324 0.0562586 0.050308 0.0477325 0.0539078 0.065659 0.0758672 0.0816313 0.0844763 0.0878348 0.0937744 0.101086 0.11009 0.122114 0.133758 0.141748 0.147358 0.149 0.142202 0.130479 0.121552 0.115232 0.112576 0.120089 0.133822 0.141048 0.140833 0.138606 0.128692 0.110053 0.0954158 0.0846557 0.064626 0.0406373 0.0251002 0.0052484 -0.0284598 -0.0492346 -0.0467252 -0.0637734 -0.11837 -0.154093 -0.144053 -0.183778 -0.368865 -0.597149 -0.612148 -0.280767 0.230515 0.597346 0.611875 0.325804 -0.0411924 -0.289679 -0.35597 -0.296816 -0.197197 -0.111272 -0.0615731 -0.0429258 -0.034912 -0.029886 -0.0331057 -0.041971 -0.04696 -0.0482526 -0.0558513 -0.0696735 -0.0724276 -0.0516384 -0.0179182 -0.00387391 0 0 
0 0 0.0165891 0.0232706 0.00685 -0.0323281 -0.0750226 -0.0952614 -0.087455 -0.0704121 -0.0616058 -0.0579578 -0.0490026 -0.039522 -0.0421994 -0.0573084 -0.0857363 -0.144982 -0.242286 -0.344923 -0.381046 -0.264638 0.0366228 0.420623 0.658948 0.546278 0.0975965 -0.410395 -0.655115 -0.553188 -0.30774 -0.161346 -0.1497 -0.14822 -0.093323 -0.0401947 -0.0292888 -0.0229404 0.00863369 0.0393466 0.0520222 0.0666211 0.08927 0.105392 0.117837 0.137791 0.156025 0.162345 0.164908 0.166923 0.161203 0.152134 0.149145 0.148558 0.14572 0.145248 0.147613 0.146892 0.144671 0.145234 0.143587 0.134873 0.12375 0.114343 0.10551 0.0977568 0.0930693 0.0893276 0.0839396 0.0764519 0.0682864 0.0627966 0.0615002 0.0610745 0.0592592 0.057614 0.0581069 0.0600905 0.0632128 0.0668598 0.0698576 0.0709313 0.0699936 0.0672076 0.063396 0.0598612 0.0580775 0.05864 0.0608633 0.0633183 0.0646434 0.0646706 0.0642095 0.06433 0.0653338 0.0668391 0.0677724 0.0675583 0.066297 0.0648437 0.0641936 0.0647766 0.0661829 0.0673978 0.0675844 0.0666557 0.0651834 0.064242 0.0642456 0.0648759 0.0650112 0.0638418 0.0615285 0.0594054 0.0589154 0.060746 0.0643235 0.0682145 0.0711609 0.0724025 0.0718555 0.0696656 0.0670321 0.0647594 0.0629038 0.0613405 0.0602623 0.0587346 0.0566913 0.0575326 0.0645593 0.0748469 0.0836612 0.0892514 0.0927082 0.0973273 0.10522 0.114277 0.124136 0.136232 0.146416 0.149639 0.150222 0.152267 0.150585 0.14344 0.137968 0.13603 0.135178 0.140753 0.155054 0.165988 0.167048 0.165136 0.158212 0.139355 0.119171 0.106623 0.0902844 0.067311 0.052608 0.0400851 0.00967229 -0.0214938 -0.0273984 -0.037964 -0.0911002 -0.146659 -0.149393 -0.162362 -0.309299 -0.553923 -0.654024 -0.407661 0.0982303 0.544297 0.656435 0.419554 0.0375828 -0.262435 -0.378578 -0.342784 -0.240656 -0.143889 -0.0851334 -0.0570534 -0.0421457 -0.0395093 -0.0488017 -0.0572759 -0.0601677 -0.0682482 -0.0851578 -0.0939533 -0.0758607 -0.0354564 0.00274649 0.00926152 0 0 
0 0 0.0209356 0.0365599 0.0335324 -0.00117511 -0.059104 -0.109162 -0.123719 -0.106 -0.0837191 -0.074104 -0.068242 -0.0579864 -0.0557446 -0.0740206 -0.114864 -0.185577 -0.288206 -0.385156 -0.392187 -0.22256 0.126454 0.509629 0.681591 0.471736 -0.0344991 -0.51199 -0.664813 -0.492517 -0.249121 -0.143814 -0.149269 -0.131201 -0.0641171 -0.0189786 -0.0128334 0.00341454 0.0410828 0.0648643 0.0703714 0.0817593 0.0978236 0.108169 0.123939 0.149303 0.167512 0.17421 0.180429 0.184666 0.180991 0.176991 0.177061 0.173962 0.167196 0.162366 0.157043 0.148564 0.14391 0.146074 0.146996 0.141552 0.132905 0.123641 0.113989 0.106139 0.100857 0.0952397 0.0877358 0.0802628 0.0737803 0.0689589 0.0653207 0.0624481 0.0592143 0.056717 0.0565324 0.0588404 0.0626439 0.0664549 0.0688392 0.0690198 0.0669621 0.0630266 0.0580814 0.0536709 0.0514214 0.0521064 0.054937 0.0580473 0.0597872 0.0598421 0.0591425 0.0589369 0.0596596 0.0608803 0.0615593 0.0610863 0.0596629 0.0581394 0.05747 0.0580761 0.0595402 0.0609261 0.0613979 0.060723 0.0595296 0.0588673 0.0591948 0.0600687 0.060203 0.0586723 0.0557543 0.0530698 0.0524822 0.0547878 0.0592382 0.064253 0.0683219 0.0706288 0.0708206 0.0689323 0.0656342 0.0621099 0.0595442 0.0586539 0.0592766 0.0604457 0.0618963 0.0653318 0.0713905 0.0794167 0.087725 0.0951605 0.100433 0.10564 0.113621 0.123446 0.132979 0.142248 0.14878 0.149294 0.148657 0.15427 0.162121 0.164431 0.164127 0.165166 0.164221 0.163644 0.170881 0.17973 0.180109 0.176366 0.170178 0.151608 0.12584 0.109773 0.099097 0.0827259 0.0712377 0.0659725 0.0425647 0.00536289 -0.0104155 -0.01621 -0.0614608 -0.129415 -0.148986 -0.144915 -0.250609 -0.492866 -0.663055 -0.508562 -0.0329898 0.470393 0.679234 0.508403 0.127239 -0.220272 -0.389382 -0.382552 -0.28611 -0.184071 -0.113918 -0.0735225 -0.0555321 -0.0578869 -0.0681345 -0.0737447 -0.0826711 -0.103946 -0.120901 -0.106594 -0.0583873 -0.00365604 0.027895 0.022289 0 0 
0 0 0.0210367 0.0432517 0.0558394 0.0375571 -0.0200911 -0.0961362 -0.148982 -0.152969 -0.124451 -0.0996055 -0.0903146 -0.0841315 -0.0805507 -0.0967106 -0.145559 -0.228963 -0.334368 -0.416111 -0.387143 -0.166094 0.221888 0.590814 0.685175 0.382153 -0.159868 -0.586054 -0.647723 -0.423462 -0.194876 -0.125556 -0.138189 -0.10605 -0.0379765 -0.00525149 -0.000859976 0.0240955 0.0618706 0.0782442 0.0820618 0.0933636 0.102415 0.106532 0.12275 0.147778 0.163302 0.171389 0.180944 0.1864 0.186466 0.189963 0.194651 0.192873 0.187522 0.181766 0.171798 0.15907 0.151109 0.148382 0.145246 0.139922 0.13294 0.124616 0.116565 0.110471 0.104796 0.0972918 0.0881514 0.0802125 0.0740898 0.0696189 0.0659122 0.0619613 0.0575062 0.0538833 0.0529687 0.0553307 0.0596723 0.0637022 0.0656289 0.0648218 0.0615716 0.0564558 0.0504481 0.0451738 0.04239 0.043027 0.0462444 0.0499118 0.0521835 0.0525222 0.0518309 0.0514021 0.0517399 0.0524477 0.0526623 0.0519052 0.0504538 0.0490258 0.0484257 0.0489468 0.0503278 0.0517545 0.0525033 0.0522921 0.0516181 0.051363 0.051906 0.0527749 0.0526833 0.0506648 0.0472192 0.0441734 0.0436545 0.0464867 0.0517775 0.0578141 0.0630172 0.0664312 0.0674543 0.0657679 0.0618786 0.0574742 0.0546567 0.0546538 0.05703 0.0602714 0.0635222 0.0673162 0.0725676 0.0796309 0.088132 0.0971532 0.104431 0.1101 0.116292 0.124417 0.132822 0.140144 0.146221 0.150502 0.15478 0.164287 0.177722 0.186531 0.188742 0.188774 0.185092 0.177034 0.173799 0.17734 0.176912 0.171611 0.165749 0.150682 0.125251 0.108454 0.103794 0.0943656 0.0829857 0.0794005 0.063456 0.026191 0.00175254 -0.00229552 -0.0352632 -0.104391 -0.138207 -0.126955 -0.196406 -0.423495 -0.645401 -0.5821 -0.157598 0.381427 0.682999 0.589378 0.222397 -0.163889 -0.384186 -0.413225 -0.331947 -0.22716 -0.144372 -0.09602 -0.0801307 -0.0838706 -0.0901931 -0.0994155 -0.123692 -0.151207 -0.14622 -0.0929801 -0.0178693 0.0369252 0.0508453 0.0313633 0 0 
0 0 0.0171296 0.0415675 0.0671404 0.0730464 0.0351357 -0.0483677 -0.141222 -0.192001 -0.183104 -0.14687 -0.122271 -0.115163 -0.115519 -0.129873 -0.178628 -0.269485 -0.376799 -0.438108 -0.365739 -0.0954141 0.318488 0.659789 0.672779 0.286193 -0.273075 -0.635148 -0.611367 -0.352592 -0.147185 -0.105577 -0.116059 -0.0735943 -0.0144993 0.00334904 0.00958356 0.043835 0.0811087 0.0944103 0.102346 0.115561 0.118896 0.118186 0.131226 0.148296 0.156014 0.162697 0.171927 0.176501 0.180523 0.190153 0.197883 0.198394 0.195506 0.189377 0.178855 0.168963 0.162553 0.156152 0.148066 0.139699 0.130516 0.120811 0.114063 0.109337 0.102597 0.0947725 0.0859088 0.0777513 0.0713651 0.0668587 0.0630668 0.0585915 0.0531669 0.0484419 0.0468455 0.0492655 0.0541563 0.0585353 0.0601615 0.0585233 0.0541439 0.0479574 0.0409532 0.0348484 0.0315013 0.0319353 0.0353061 0.0394178 0.0421854 0.0429202 0.0423943 0.0417882 0.0416124 0.0416009 0.0411386 0.0400855 0.0386682 0.0375157 0.0370188 0.0374441 0.0385432 0.0399316 0.040976 0.0414511 0.0414961 0.0417606 0.0425034 0.0432413 0.0427876 0.0403053 0.036441 0.0332555 0.0329251 0.0363013 0.0423812 0.0493727 0.0555919 0.0600442 0.0617621 0.0601589 0.0556881 0.0505235 0.0475877 0.0484625 0.0523872 0.0571608 0.0613813 0.0653845 0.0704441 0.0774025 0.0858679 0.0947122 0.102434 0.109173 0.113945 0.120656 0.130321 0.139687 0.148559 0.157466 0.165136 0.173193 0.184528 0.195394 0.199869 0.198834 0.192859 0.179916 0.167526 0.164351 0.163696 0.159506 0.156897 0.151146 0.134227 0.120412 0.12031 0.11644 0.103098 0.0953357 0.0824049 0.0456613 0.0119304 0.0060165 -0.012192 -0.0725188 -0.116765 -0.107607 -0.149051 -0.352596 -0.608846 -0.63105 -0.27038 0.285853 0.670538 0.657901 0.31841 -0.0936488 -0.362985 -0.435218 -0.374269 -0.267557 -0.17734 -0.129025 -0.114896 -0.114713 -0.122 -0.146573 -0.182408 -0.190633 -0.139098 -0.0455152 0.0382287 0.074745 0.064885 0.0338785 0 0 
0 0 0.0106305 0.0323642 0.0644378 0.0945464 0.0913911 0.0278492 -0.085606 -0.193453 -0.238935 -0.218606 -0.177723 -0.155321 -0.155758 -0.172942 -0.218728 -0.307126 -0.410904 -0.450566 -0.33196 -0.0132878 0.414907 0.71498 0.646388 0.191563 -0.367946 -0.662069 -0.564381 -0.285213 -0.105533 -0.0832399 -0.0853857 -0.0345623 0.0131904 0.01862 0.0284882 0.0701276 0.107603 0.122815 0.136766 0.149331 0.146521 0.143362 0.153346 0.161184 0.160405 0.162098 0.164896 0.164778 0.170655 0.183578 0.193092 0.196831 0.195905 0.187522 0.175905 0.168987 0.165074 0.158573 0.149884 0.140057 0.128312 0.116472 0.108915 0.103051 0.0967313 0.0893625 0.0810299 0.0728933 0.066259 0.0614744 0.0574438 0.0524189 0.0460679 0.0403202 0.0381043 0.0406705 0.0461946 0.0511522 0.0528354 0.050671 0.0455075 0.0384376 0.0306592 0.0238517 0.0199623 0.0200988 0.023455 0.0278313 0.0310131 0.0321756 0.0318889 0.0311173 0.0303516 0.0294709 0.0283144 0.0269456 0.0257466 0.0249744 0.0246794 0.0249086 0.0256221 0.0267756 0.0281472 0.0293271 0.0302411 0.0311009 0.032047 0.0325781 0.0317198 0.0288534 0.0247445 0.0215705 0.0215149 0.0253927 0.0321345 0.0398451 0.0468738 0.0520367 0.0541731 0.0523598 0.0471569 0.0412518 0.0381809 0.0398464 0.0451175 0.0512088 0.0562385 0.0605612 0.0657768 0.0727914 0.0811059 0.0894522 0.0967704 0.103071 0.108908 0.116377 0.128175 0.140038 0.150152 0.159336 0.166712 0.17203 0.180617 0.193493 0.201895 0.200746 0.192727 0.177554 0.159643 0.151525 0.153095 0.154669 0.158127 0.162669 0.15626 0.145885 0.14802 0.150072 0.137233 0.123372 0.108415 0.0714215 0.0303143 0.020694 0.0147676 -0.034381 -0.0870345 -0.0861013 -0.107913 -0.285443 -0.561978 -0.658191 -0.365173 0.191321 0.643938 0.712485 0.414017 -0.0122453 -0.329686 -0.447907 -0.408481 -0.305247 -0.217408 -0.171966 -0.154952 -0.154632 -0.177091 -0.217916 -0.238126 -0.192588 -0.0845683 0.0296288 0.0944401 0.0981557 0.0659719 0.0294568 0 0 
0 0 0.0035035 0.0186673 0.0493994 0.0958402 0.131107 0.112062 0.0139302 -0.132993 -0.253849 -0.292949 -0.262144 -0.218149 -0.202959 -0.2208 -0.267501 -0.347685 -0.43689 -0.451002 -0.288996 0.0738279 0.509106 0.759297 0.610192 0.102481 -0.441538 -0.668738 -0.513126 -0.225839 -0.0688939 -0.0559889 -0.046325 0.0105493 0.0491693 0.0486163 0.0622736 0.103746 0.135362 0.150942 0.168943 0.179272 0.172731 0.170205 0.17822 0.179842 0.175467 0.173517 0.167803 0.160641 0.163897 0.173908 0.181993 0.18886 0.191001 0.183393 0.173101 0.166751 0.160542 0.151826 0.142779 0.132534 0.121861 0.111263 0.102511 0.095106 0.0881137 0.0808073 0.0729958 0.0653751 0.0590025 0.0543378 0.0502458 0.0447858 0.0374962 0.0306526 0.0277299 0.0302741 0.0363744 0.0420846 0.0442648 0.0421599 0.0367352 0.0292703 0.0210244 0.0137377 0.0093605 0.00913697 0.0123651 0.0168382 0.0203484 0.02199 0.0220259 0.0211721 0.0198293 0.018139 0.0162752 0.014726 0.0138431 0.0135662 0.0134955 0.0134967 0.0137102 0.0145596 0.0161011 0.0179783 0.0197284 0.0211833 0.0222261 0.0224682 0.0211687 0.0179834 0.0137808 0.0107382 0.011005 0.015322 0.0225001 0.0306198 0.0379832 0.0433338 0.0453186 0.0429121 0.036877 0.0303552 0.0273439 0.0298554 0.0364574 0.0437287 0.0493858 0.0538323 0.0588701 0.0655238 0.073276 0.0811011 0.0883555 0.0953045 0.102633 0.111313 0.121874 0.132599 0.142987 0.152243 0.161462 0.168669 0.176554 0.18847 0.197191 0.194756 0.185346 0.172473 0.156596 0.148592 0.15415 0.162121 0.168945 0.178374 0.179911 0.172682 0.174539 0.180196 0.169395 0.151344 0.135938 0.104677 0.0636731 0.0501611 0.0500863 0.00989185 -0.0488438 -0.0595832 -0.0717378 -0.22629 -0.5109 -0.665191 -0.438808 0.102235 0.607529 0.756144 0.50737 0.0740642 -0.287275 -0.448667 -0.43466 -0.345866 -0.266113 -0.219675 -0.201944 -0.217079 -0.260936 -0.291744 -0.252998 -0.132807 0.0136839 0.112394 0.133307 0.100282 0.0543041 0.0199383 0 0 
0 0 -0.0024846 0.00438649 0.0273483 0.0776375 0.141885 0.177479 0.131879 -0.00943204 -0.191409 -0.322978 -0.35337 -0.312252 -0.271028 -0.273994 -0.32086 -0.394901 -0.461195 -0.440077 -0.236496 0.160748 0.595911 0.795416 0.571787 0.0230121 -0.495817 -0.659329 -0.460063 -0.174622 -0.0361628 -0.0228869 0.00124116 0.0609055 0.0901185 0.086045 0.101425 0.135772 0.154505 0.164331 0.18149 0.190285 0.186263 0.188818 0.195611 0.192959 0.18836 0.185444 0.175225 0.165227 0.165805 0.169016 0.170645 0.174449 0.175317 0.17038 0.166335 0.16289 0.154645 0.142362 0.131033 0.120912 0.111746 0.102955 0.0944112 0.0860894 0.07798 0.0700443 0.0622936 0.0552894 0.0498155 0.046091 0.0427232 0.0374208 0.0296158 0.0218146 0.0179409 0.0199333 0.0260927 0.0323502 0.0352921 0.0338201 0.028832 0.0215373 0.0133084 0.00584251 0.00120674 0.000684953 0.00374281 0.00827495 0.0121789 0.0143941 0.0148922 0.0140333 0.0122259 0.00979045 0.00740231 0.0057502 0.00523786 0.00537916 0.00556315 0.00529725 0.00510624 0.00558175 0.0072168 0.00962084 0.0121315 0.0140709 0.0151426 0.0149509 0.0131022 0.00953481 0.00526886 0.00237302 0.00289937 0.00742927 0.014737 0.0227954 0.0299452 0.0347923 0.0360766 0.0328597 0.0262261 0.0196351 0.017232 0.0208121 0.028538 0.0364947 0.042122 0.0458942 0.0499885 0.0557009 0.06281 0.0705423 0.0784148 0.0864502 0.0946837 0.103129 0.111843 0.121005 0.131144 0.14256 0.155071 0.163963 0.168553 0.174158 0.180676 0.180754 0.176213 0.171409 0.16289 0.156406 0.162182 0.171739 0.177748 0.187441 0.194711 0.190467 0.188392 0.19188 0.182539 0.165139 0.155382 0.136896 0.102859 0.0874531 0.0906833 0.0597467 -0.001862 -0.0269208 -0.0392362 -0.17511 -0.457924 -0.655955 -0.493055 0.0229466 0.569075 0.791855 0.59353 0.160351 -0.235219 -0.438008 -0.459021 -0.392987 -0.319284 -0.272645 -0.269645 -0.310586 -0.351526 -0.321475 -0.190868 -0.0101031 0.130453 0.176473 0.142829 0.0816697 0.0340198 0.00845992 0 0 
0 0 -0.00629352 -0.00713065 0.00487501 0.0468135 0.121678 0.202779 0.230444 0.1477 -0.0424987 -0.258722 -0.396763 -0.41679 -0.372154 -0.346706 -0.3783 -0.445497 -0.489245 -0.425241 -0.176022 0.247227 0.671863 0.82212 0.536401 -0.0418158 -0.533537 -0.641102 -0.407881 -0.127367 -0.00327776 0.0144723 0.0521939 0.111753 0.129819 0.119379 0.131426 0.156006 0.163311 0.167063 0.179588 0.184915 0.184875 0.194079 0.201934 0.198838 0.195595 0.19077 0.17777 0.169082 0.170278 0.170374 0.168076 0.16569 0.158656 0.151294 0.150115 0.148583 0.141877 0.130201 0.117423 0.106505 0.0982044 0.0913782 0.0844748 0.0766147 0.068019 0.0592588 0.05097 0.0440829 0.0394791 0.0372085 0.0353973 0.031339 0.0240907 0.0159959 0.0111661 0.0120995 0.0176221 0.0239223 0.0274651 0.0268643 0.0225889 0.0157889 0.00782301 0.000507145 -0.00407581 -0.00464658 -0.00164815 0.00305091 0.00748799 0.0103958 0.0114068 0.0106852 0.00854721 0.00565551 0.00294951 0.00131979 0.000986879 0.00139283 0.00163168 0.00132323 0.000855674 0.00113798 0.00275021 0.00547602 0.00845475 0.0107541 0.0117149 0.0110267 0.00850299 0.00441886 -2.27245e-05 -0.0028934 -0.0023537 0.00207681 0.00917177 0.0169321 0.0235473 0.0276222 0.0280025 0.0241628 0.0174762 0.01155 0.0102583 0.0148833 0.023014 0.0305229 0.0349923 0.037254 0.0399042 0.0447508 0.0517262 0.0599748 0.0686515 0.0771405 0.0848818 0.0916619 0.0983652 0.106566 0.117433 0.130218 0.142037 0.149164 0.151408 0.153845 0.162777 0.171347 0.174347 0.175265 0.17135 0.164573 0.167708 0.177384 0.182546 0.189379 0.197386 0.193685 0.186777 0.187392 0.181799 0.168881 0.164983 0.157784 0.133316 0.120982 0.130301 0.110331 0.0487892 0.0102121 -0.00641016 -0.127825 -0.405731 -0.637847 -0.530654 -0.0415732 0.533792 0.818391 0.669063 0.246424 -0.175035 -0.423219 -0.486903 -0.443285 -0.376373 -0.34491 -0.370129 -0.414443 -0.394571 -0.257489 -0.0427393 0.146123 0.228216 0.200915 0.121419 0.0495158 0.0113012 -0.00184612 0 0 
0 0 -0.00775501 -0.014069 -0.012661 0.0131339 0.0789907 0.181446 0.276472 0.287888 0.160146 -0.0815136 -0.328891 -0.470875 -0.487358 -0.453757 -0.453478 -0.49813 -0.519197 -0.414294 -0.116358 0.332049 0.738928 0.838858 0.503045 -0.0912232 -0.555929 -0.619186 -0.360461 -0.0819681 0.0342463 0.0555027 0.0994636 0.154932 0.163462 0.147178 0.15306 0.16727 0.167043 0.168468 0.176771 0.176751 0.176575 0.188035 0.19728 0.198598 0.19967 0.193077 0.177016 0.167512 0.166247 0.164345 0.163324 0.160114 0.149291 0.139639 0.135841 0.133948 0.128442 0.117471 0.103713 0.0913912 0.0829078 0.0776097 0.0730779 0.0672517 0.059541 0.0505957 0.0416265 0.0342298 0.0298537 0.0286702 0.0286108 0.0265766 0.0209739 0.0136255 0.00846933 0.0084096 0.012958 0.0188183 0.0226253 0.0225563 0.0187263 0.0120804 0.00425198 -0.00284772 -0.00713386 -0.00755115 -0.00445314 0.000467951 0.00540487 0.00892829 0.0104429 0.009838 0.00760847 0.00457193 0.0019281 0.000387499 7.2123e-05 0.000369072 0.0005527 0.000306396 -6.00284e-05 0.000194778 0.00172045 0.00439684 0.00752156 0.00992637 0.0108023 0.00964769 0.00650304 0.00191764 -0.00276747 -0.00575934 -0.00540641 -0.00132124 0.00551968 0.0130969 0.0195076 0.023116 0.0229472 0.0188301 0.0126055 0.00767812 0.00743255 0.0124713 0.0199335 0.025865 0.0283709 0.0289258 0.030511 0.0351377 0.0426139 0.0515424 0.0603738 0.0679294 0.0736054 0.0779635 0.0830782 0.0913968 0.103584 0.117294 0.128349 0.134141 0.136618 0.141375 0.152288 0.164734 0.169256 0.170351 0.170256 0.167366 0.171487 0.182721 0.186942 0.186791 0.189066 0.18444 0.176928 0.17937 0.180034 0.171496 0.169712 0.169785 0.155424 0.148968 0.163836 0.153212 0.0957202 0.0509757 0.0309604 -0.0825214 -0.358469 -0.616155 -0.553062 -0.0908623 0.500528 0.834992 0.735795 0.330882 -0.115564 -0.412182 -0.516555 -0.495492 -0.450992 -0.451213 -0.484555 -0.468136 -0.327038 -0.0812603 0.158805 0.285599 0.273983 0.179347 0.0779162 0.0141652 -0.00807707 -0.00890632 0 0 
0 0 -0.00737154 -0.0163393 -0.0226408 -0.0146896 0.0284283 0.12369 0.256528 0.362551 0.351199 0.173047 -0.120556 -0.397719 -0.549941 -0.577424 -0.562777 -0.565921 -0.549842 -0.407417 -0.0671327 0.406888 0.7985 0.850332 0.470934 -0.130506 -0.566757 -0.594121 -0.317456 -0.0388852 0.0754336 0.0991574 0.141494 0.187908 0.189532 0.172977 0.176566 0.182097 0.173519 0.169726 0.172496 0.168525 0.168328 0.179325 0.187772 0.192343 0.196893 0.190406 0.175275 0.165853 0.158621 0.150221 0.146865 0.143122 0.134973 0.126616 0.122101 0.120089 0.115756 0.105943 0.0919894 0.078334 0.0688032 0.0639233 0.061364 0.0581864 0.0526666 0.0448465 0.0359486 0.0280838 0.0232884 0.0222971 0.0232519 0.0229342 0.0192563 0.0132998 0.00855638 0.0080456 0.0119354 0.0175122 0.0214577 0.0215708 0.0175257 0.0104449 0.00228537 -0.00476194 -0.00883104 -0.00911489 -0.0061283 -0.00126134 0.00382593 0.00766722 0.0093799 0.0088313 0.00661149 0.00380699 0.00152775 0.00021318 -0.000320561 -0.000448752 -0.000488536 -0.000518947 -0.000462306 1.14974e-05 0.00132132 0.0036342 0.00653254 0.00894649 0.00980137 0.00845183 0.00498725 0.000254187 -0.004386 -0.00730578 -0.00712146 -0.00328335 0.00345753 0.0113242 0.0181489 0.0219544 0.0215882 0.0173589 0.0114419 0.00720231 0.0074607 0.0121359 0.0182611 0.0223374 0.0231668 0.0227301 0.0241411 0.0291866 0.0371431 0.046002 0.0536799 0.0590105 0.0619821 0.0643031 0.0689403 0.0782424 0.0917047 0.105565 0.115415 0.119963 0.122446 0.127737 0.137193 0.146747 0.151929 0.156199 0.164255 0.169254 0.174696 0.184941 0.18726 0.180721 0.177087 0.172058 0.165539 0.169583 0.175687 0.173417 0.176912 0.185084 0.17914 0.174673 0.189565 0.18567 0.137215 0.0941918 0.0718195 -0.0397898 -0.315861 -0.591578 -0.564201 -0.130274 0.468286 0.846161 0.794893 0.405266 -0.066563 -0.405297 -0.546966 -0.5628 -0.559534 -0.574023 -0.546668 -0.395361 -0.119911 0.171831 0.348818 0.359972 0.254314 0.12189 0.0270337 -0.0151191 -0.0205949 -0.0121178 0 0 
0 0 -0.00594474 -0.0151038 -0.0252939 -0.0317439 -0.0156891 0.0505629 0.181789 0.347955 0.46274 0.423062 0.190378 -0.156762 -0.469875 -0.645241 -0.689012 -0.666463 -0.594512 -0.404218 -0.0298581 0.462091 0.843926 0.859677 0.444671 -0.16262 -0.573126 -0.568179 -0.275229 0.00397393 0.116509 0.140286 0.178491 0.21572 0.211762 0.196533 0.201231 0.202377 0.18598 0.172338 0.16487 0.155895 0.157094 0.169651 0.17828 0.183849 0.187496 0.179253 0.167052 0.161285 0.152747 0.140663 0.132551 0.126487 0.119542 0.112786 0.108832 0.107322 0.104414 0.0964496 0.0834845 0.0694203 0.0586778 0.0530775 0.0511286 0.0497829 0.0466649 0.0409249 0.0333286 0.0258693 0.0209063 0.0195561 0.0205586 0.0208992 0.0183032 0.0133148 0.0089693 0.00836618 0.0121287 0.0179405 0.0223218 0.0226127 0.0182168 0.0104354 0.0017913 -0.0053706 -0.00940734 -0.00992039 -0.00742277 -0.00309549 0.00167277 0.00533996 0.00686016 0.0061007 0.00388964 0.00151197 -0.000194627 -0.00128836 -0.00216104 -0.00293248 -0.00328796 -0.00301243 -0.00230487 -0.00148495 -0.000414654 0.00132822 0.00383452 0.006259 0.00731976 0.0061805 0.00289633 -0.00152364 -0.00563407 -0.00809715 -0.00772601 -0.00396032 0.0028664 0.0111893 0.0186951 0.0228535 0.0223125 0.017655 0.0115412 0.0074902 0.00788546 0.0121967 0.0173939 0.0204048 0.020598 0.0201386 0.0219111 0.0271506 0.0347016 0.042249 0.0478386 0.0507243 0.0517847 0.0534373 0.0587322 0.0691846 0.0830183 0.0958584 0.103852 0.106947 0.108842 0.113416 0.121071 0.129189 0.136553 0.145845 0.158708 0.166818 0.170606 0.179134 0.182758 0.174954 0.167209 0.159357 0.150179 0.153403 0.166048 0.175448 0.189527 0.205619 0.203808 0.197968 0.211337 0.212913 0.173653 0.134858 0.112505 0.00269044 -0.274108 -0.566173 -0.570956 -0.162606 0.441794 0.855089 0.83978 0.459983 -0.0295976 -0.402192 -0.591432 -0.662776 -0.684993 -0.641388 -0.467057 -0.155845 0.18916 0.420381 0.45978 0.34562 0.180234 0.0493617 -0.0169941 -0.0330975 -0.0255682 -0.0121097 0 0 
0 0 -0.00422823 -0.01201 -0.0227368 -0.0375424 -0.0443512 -0.0158116 0.0809497 0.254984 0.457365 0.578116 0.504383 0.212231 -0.195337 -0.554682 -0.754081 -0.782562 -0.67205 -0.418943 -0.00474737 0.496325 0.86667 0.861014 0.427069 -0.183159 -0.576787 -0.546546 -0.235713 0.0478819 0.15614 0.173558 0.205768 0.238026 0.231247 0.214673 0.217389 0.21612 0.197457 0.178941 0.162828 0.146248 0.143634 0.154367 0.163627 0.172161 0.176582 0.166691 0.15417 0.148537 0.140586 0.129566 0.119687 0.112027 0.1055 0.100134 0.097172 0.0963942 0.0947803 0.0888599 0.0778951 0.0647508 0.0536484 0.0469804 0.0442661 0.0431387 0.0412409 0.0373349 0.0315679 0.0254978 0.0212571 0.020058 0.02091 0.0211607 0.0185314 0.0133578 0.00853463 0.00733348 0.0108719 0.0170504 0.0221514 0.0230042 0.0187117 0.010736 0.0019505 -0.00516111 -0.0092715 -0.0101756 -0.00836333 -0.00469071 -0.000399243 0.00293348 0.00400075 0.00278759 0.000415916 -0.0015888 -0.0027415 -0.00360195 -0.00490842 -0.00636851 -0.00707171 -0.00644151 -0.00505547 -0.0038037 -0.00295794 -0.00176899 0.000372923 0.00297426 0.00450626 0.0038276 0.000889971 -0.00307676 -0.00655673 -0.00835585 -0.0076186 -0.00381657 0.00293307 0.0113694 0.019047 0.023111 0.0220373 0.0166936 0.0102501 0.00646674 0.00750168 0.01232 0.0177028 0.0207521 0.0210503 0.0207396 0.0224021 0.0269312 0.0330912 0.0387907 0.0425084 0.044125 0.0448999 0.0472572 0.0535604 0.0643485 0.0772591 0.0881048 0.0940385 0.0958226 0.0969226 0.100374 0.106444 0.113903 0.122714 0.133819 0.145946 0.154529 0.160167 0.170884 0.176977 0.167601 0.15452 0.142953 0.133141 0.139276 0.160231 0.179858 0.200305 0.219441 0.22015 0.216095 0.230611 0.234949 0.200684 0.167943 0.151979 0.0464424 -0.23481 -0.544813 -0.574782 -0.183219 0.424063 0.856188 0.862204 0.49388 -0.00472639 -0.416907 -0.668585 -0.778259 -0.749736 -0.551441 -0.194266 0.21084 0.50124 0.574532 0.454516 0.253336 0.0801961 -0.0163682 -0.0453403 -0.0392297 -0.0245402 -0.0101381 0 0 
0 0 -0.00272589 -0.00852089 -0.0176559 -0.0348309 -0.0555741 -0.0605548 -0.0137719 0.121219 0.344597 0.584409 0.706265 0.591223 0.231404 -0.244009 -0.64437 -0.83082 -0.764823 -0.471458 -0.00675209 0.509811 0.86705 0.847039 0.41183 -0.190151 -0.572634 -0.529916 -0.206244 0.0852267 0.190896 0.197398 0.21898 0.246472 0.238751 0.220425 0.219316 0.215341 0.197706 0.181922 0.166184 0.146236 0.137024 0.139389 0.143157 0.152058 0.160367 0.15487 0.144464 0.137276 0.129437 0.119286 0.108963 0.100462 0.0941621 0.0900302 0.0883164 0.0882469 0.0873725 0.0828792 0.07394 0.0626434 0.0524224 0.0454464 0.0417262 0.0396475 0.0373395 0.0337351 0.0289084 0.0240987 0.0211952 0.0210588 0.0226479 0.0232019 0.0204146 0.014392 0.0081632 0.00542064 0.00786424 0.0137813 0.0192884 0.0207885 0.0170625 0.00953243 0.0011217 -0.00568247 -0.00970363 -0.0108546 -0.00936491 -0.00586935 -0.00156459 0.00169982 0.00241629 0.000671288 -0.00192971 -0.00374313 -0.00444424 -0.00512786 -0.00673615 -0.00878022 -0.00975178 -0.00885215 -0.00688054 -0.00532297 -0.0046624 -0.00392259 -0.00196032 0.000897808 0.00297577 0.00263895 -0.000239929 -0.0042245 -0.00754883 -0.00904299 -0.00809192 -0.0044077 0.00201244 0.0100493 0.0172856 0.0207998 0.0191044 0.0133873 0.00724071 0.00459089 0.00720713 0.0134441 0.0196765 0.0228734 0.0228473 0.0218157 0.022443 0.0256428 0.0305499 0.0352775 0.0386562 0.0406291 0.0422837 0.0455887 0.0521578 0.0620495 0.07312 0.0819711 0.0865035 0.0875449 0.0878701 0.0899596 0.0945996 0.101612 0.111073 0.122574 0.134002 0.143004 0.15095 0.161311 0.164517 0.151987 0.137773 0.129475 0.125178 0.135686 0.15929 0.179402 0.198721 0.218261 0.22239 0.222229 0.238348 0.243538 0.214035 0.191953 0.186873 0.0838482 -0.205337 -0.528208 -0.570586 -0.190115 0.408929 0.842282 0.86256 0.507312 -0.00667456 -0.469055 -0.760801 -0.826283 -0.640805 -0.242809 0.229725 0.587414 0.70185 0.580808 0.342491 0.120465 -0.0138098 -0.0606048 -0.056201 -0.0364056 -0.0200674 -0.00746998 0 0 
0 0 -0.00165386 -0.00556021 -0.0122713 -0.0276055 -0.052928 -0.0793956 -0.0794609 -0.00831834 0.172421 0.449425 0.723878 0.838664 0.67278 0.240279 -0.290928 -0.688574 -0.784291 -0.542687 -0.0557622 0.487912 0.84679 0.82022 0.392356 -0.191716 -0.5617 -0.51598 -0.190762 0.104367 0.2097 0.208097 0.218826 0.238427 0.226396 0.206017 0.204337 0.200432 0.183589 0.170296 0.158645 0.142448 0.134069 0.132623 0.129004 0.131113 0.13761 0.137019 0.132275 0.127201 0.120862 0.111871 0.101529 0.0922842 0.085796 0.0826076 0.0822281 0.0829922 0.0824476 0.0783754 0.0705345 0.0608832 0.0521912 0.0460784 0.0423238 0.0394779 0.0360207 0.0312456 0.0256212 0.020742 0.01851 0.0197011 0.0229099 0.0249397 0.0229261 0.0167036 0.00922842 0.00464313 0.00531458 0.0101044 0.0152362 0.0169254 0.0136093 0.00654398 -0.00152075 -0.00814581 -0.0121544 -0.0132701 -0.0115449 -0.00750367 -0.00259848 0.000950139 0.00151464 -0.000608406 -0.00345843 -0.00507013 -0.00539288 -0.00581681 -0.00752964 -0.00983482 -0.0109788 -0.0099066 -0.00766397 -0.00601324 -0.00561412 -0.00523238 -0.00346318 -0.000362254 0.00210368 0.00192939 -0.0012426 -0.00584155 -0.00971858 -0.0114739 -0.0105881 -0.00694588 -0.000715466 0.00697018 0.0137446 0.0168606 0.0150199 0.00972439 0.00473656 0.00388544 0.00836044 0.0158516 0.0222877 0.0246958 0.0231849 0.0205333 0.0198129 0.0223668 0.0273528 0.0328508 0.0373351 0.0403859 0.0427516 0.0460165 0.0516963 0.0600618 0.0695459 0.0773549 0.0815114 0.0822109 0.0816507 0.0822812 0.0857885 0.0927771 0.102777 0.114182 0.124481 0.1322 0.138391 0.143535 0.143151 0.134382 0.127892 0.126337 0.123848 0.130853 0.148606 0.163945 0.181575 0.201837 0.207213 0.208308 0.226545 0.235958 0.214262 0.202979 0.205915 0.103099 -0.189851 -0.514274 -0.559617 -0.191546 0.389706 0.815707 0.842503 0.48564 -0.0552401 -0.539706 -0.780081 -0.684929 -0.289637 0.238354 0.668259 0.833256 0.719333 0.446669 0.171395 -0.00824397 -0.0790183 -0.079154 -0.0532623 -0.0288385 -0.0145727 -0.00499976 0 0 
0 0 -0.00101227 -0.0034818 -0.00787104 -0.0193963 -0.0424568 -0.076906 -0.108411 -0.100126 0.00150723 0.23313 0.562545 0.863318 0.960308 0.739887 0.25272 -0.283278 -0.600796 -0.538056 -0.128749 0.412785 0.792294 0.783605 0.372402 -0.19537 -0.556768 -0.512243 -0.190922 0.102394 0.205506 0.19949 0.205898 0.221232 0.202762 0.176435 0.173831 0.17242 0.15735 0.144993 0.135371 0.123061 0.12033 0.124247 0.122053 0.120207 0.121408 0.12147 0.120195 0.118392 0.114803 0.10769 0.0976281 0.0873927 0.0800022 0.0769678 0.0776475 0.0794917 0.0793614 0.075241 0.0674319 0.0583499 0.0507015 0.0458526 0.0431383 0.0407357 0.036888 0.0308314 0.0234651 0.0170594 0.0141408 0.0157571 0.0203878 0.0243172 0.0240423 0.0188146 0.0113637 0.00583932 0.00516604 0.00873831 0.0130979 0.0144452 0.0110415 0.00383491 -0.00452332 -0.011627 -0.016016 -0.0171506 -0.0149908 -0.0102454 -0.00479029 -0.00111265 -0.000791156 -0.00320637 -0.00606276 -0.00741294 -0.00728169 -0.00741348 -0.00902775 -0.0114029 -0.0125617 -0.0114803 -0.0091606 -0.00760208 -0.00749268 -0.00755848 -0.00605011 -0.00293948 -0.000177648 -0.000109412 -0.00340327 -0.0085661 -0.0131805 -0.015394 -0.0144998 -0.0104835 -0.00379676 0.00418675 0.0111195 0.0143448 0.0128719 0.00839809 0.00466738 0.00517224 0.0105856 0.0180558 0.023476 0.0241375 0.0207354 0.016656 0.0155031 0.0187365 0.0252276 0.0324422 0.0381586 0.0415206 0.0433734 0.0455651 0.0499734 0.0573263 0.0662933 0.0741415 0.0783966 0.0786759 0.0769647 0.0764113 0.0796058 0.0872986 0.0981045 0.109066 0.117397 0.122399 0.125525 0.127627 0.127476 0.125046 0.124378 0.122283 0.113899 0.113257 0.124436 0.135631 0.151644 0.170812 0.175119 0.178414 0.203353 0.219401 0.201888 0.194789 0.201955 0.101196 -0.190039 -0.510564 -0.554664 -0.195059 0.369965 0.779353 0.788371 0.411063 -0.127628 -0.534965 -0.597664 -0.282198 0.250518 0.734754 0.953953 0.857747 0.559014 0.231727 0.00154289 -0.0994829 -0.107759 -0.0765699 -0.0426091 -0.0202461 -0.0096786 -0.00314922 0 0 
0 0 -0.000692063 -0.00223632 -0.00485602 -0.0123892 -0.0298078 -0.0619251 -0.10623 -0.141752 -0.121513 0.0145374 0.29597 0.669251 0.984487 1.05996 0.806354 0.320819 -0.142316 -0.322396 -0.123196 0.314395 0.688951 0.723105 0.353607 -0.198137 -0.567253 -0.535731 -0.217225 0.0814553 0.186605 0.177176 0.182553 0.201018 0.182504 0.150435 0.142108 0.138563 0.124116 0.114828 0.109373 0.0997419 0.0987102 0.105703 0.108809 0.109252 0.109362 0.109405 0.109855 0.110708 0.110063 0.105406 0.0962989 0.0852878 0.0763162 0.0722554 0.0730451 0.075795 0.0765972 0.0729232 0.0650336 0.0556492 0.0479018 0.0434901 0.0418017 0.0406784 0.0377049 0.0316844 0.0233651 0.0154937 0.0112208 0.01214 0.0169429 0.021812 0.0229082 0.0190879 0.0126036 0.0074755 0.00666336 0.00983641 0.0139042 0.0150744 0.0114995 0.00387555 -0.00524624 -0.0133062 -0.0184319 -0.0198185 -0.0175345 -0.0126791 -0.00752579 -0.00448193 -0.00477008 -0.00741677 -0.0100766 -0.0109786 -0.0104971 -0.0104146 -0.011956 -0.0142738 -0.0154291 -0.014353 -0.0120888 -0.0105973 -0.0106919 -0.0111078 -0.0100534 -0.00713978 -0.00412953 -0.00345098 -0.0061232 -0.0110038 -0.0157472 -0.018099 -0.016967 -0.0122165 -0.00457608 0.00417612 0.0115435 0.0149616 0.0136976 0.00954529 0.0062479 0.0069174 0.0119209 0.0184059 0.0224179 0.0216963 0.01733 0.0130867 0.0126338 0.0171953 0.0251268 0.0332562 0.0388794 0.0412988 0.0418276 0.0429558 0.0469513 0.0544617 0.0637997 0.0717761 0.0756207 0.0749505 0.0722766 0.0715003 0.0755733 0.0846842 0.0960847 0.105909 0.111633 0.113622 0.114167 0.11487 0.115377 0.114902 0.112921 0.106997 0.0965306 0.0935599 0.0999661 0.104345 0.115224 0.133091 0.1402 0.150649 0.182749 0.199688 0.179302 0.173092 0.183404 0.0804055 -0.216256 -0.533953 -0.565034 -0.197682 0.3514 0.7193 0.685674 0.313296 -0.122075 -0.32065 -0.142116 0.317988 0.800568 1.05278 0.977994 0.664931 0.294132 0.0145072 -0.120717 -0.140864 -0.105588 -0.0616253 -0.0298754 -0.0129238 -0.00608291 -0.00196771 0 0 
0 0 -0.000562412 -0.00158651 -0.00305512 -0.00738184 -0.0186441 -0.0430603 -0.085356 -0.139931 -0.178263 -0.144363 0.0239044 0.34599 0.750361 1.07537 1.15061 0.920818 0.51261 0.171995 0.100603 0.30482 0.575041 0.626381 0.31907 -0.201048 -0.589355 -0.593015 -0.283911 0.0351926 0.162592 0.158388 0.160656 0.181059 0.167617 0.136374 0.124165 0.115086 0.0960835 0.0872733 0.0878333 0.0839751 0.0845646 0.0898061 0.0950712 0.0982864 0.0996417 0.100127 0.101122 0.103166 0.104643 0.102634 0.0955256 0.0848203 0.0745607 0.0685927 0.0680728 0.0707875 0.0726367 0.0703671 0.0634663 0.0541916 0.045809 0.0406648 0.038797 0.038322 0.0365656 0.0317823 0.0242566 0.0164905 0.0117969 0.0119837 0.0160117 0.0203127 0.0213327 0.0179224 0.01216 0.00775819 0.0074292 0.0109839 0.0154598 0.0171618 0.0140542 0.00657943 -0.00288331 -0.0115092 -0.0170981 -0.0187018 -0.0165954 -0.0123641 -0.00830678 -0.00653975 -0.0076321 -0.0103658 -0.0126212 -0.0131005 -0.0124822 -0.0124999 -0.0141034 -0.0163934 -0.017498 -0.0164738 -0.0142363 -0.0126776 -0.0126617 -0.0132096 -0.0125797 -0.0100691 -0.00698375 -0.00550435 -0.00690677 -0.0106962 -0.0148256 -0.0170169 -0.0156809 -0.0104677 -0.00226107 0.00684989 0.0140892 0.0170599 0.0152815 0.0107444 0.00710668 0.0072897 0.011571 0.0173183 0.0208798 0.0202091 0.0164174 0.0129435 0.0132222 0.0181983 0.0259939 0.0332831 0.037606 0.0387498 0.0385925 0.0399181 0.0446812 0.0528787 0.0621807 0.0692264 0.0716672 0.0699046 0.0671947 0.0676216 0.0735074 0.083781 0.0947446 0.102419 0.105325 0.10505 0.104362 0.104669 0.105178 0.104178 0.100403 0.0935 0.0856691 0.0817363 0.0816017 0.0780079 0.0859519 0.106402 0.118352 0.133362 0.166138 0.17946 0.158055 0.155128 0.160004 0.0344951 -0.28265 -0.590885 -0.586871 -0.200372 0.317285 0.623314 0.572533 0.303787 0.100251 0.170522 0.508529 0.914038 1.14256 1.06808 0.745384 0.343747 0.0237949 -0.143395 -0.177121 -0.13907 -0.0848535 -0.0428551 -0.0186883 -0.0077029 -0.00379224 -0.00130422 0 0 
0 0 -0.000518237 -0.00127194 -0.0020696 -0.00422692 -0.0104375 -0.0260693 -0.0583308 -0.111644 -0.176848 -0.218438 -0.174666 0.0160079 0.365754 0.795783 1.14935 1.27643 1.1386 0.849271 0.602232 0.525842 0.571305 0.539813 0.258823 -0.222608 -0.623772 -0.674807 -0.38946 -0.0451962 0.12675 0.147345 0.150104 0.165795 0.152268 0.122769 0.112919 0.105463 0.0836324 0.0700921 0.07048 0.0701576 0.0713272 0.0757735 0.0819712 0.0874943 0.0908272 0.0921509 0.0930347 0.0948918 0.0971751 0.0974206 0.0931785 0.0845167 0.0743671 0.0667109 0.063904 0.0651493 0.0672377 0.0667671 0.0622167 0.0546502 0.0466622 0.0406764 0.0375135 0.0360739 0.0342738 0.0303022 0.024265 0.018187 0.0147609 0.0154331 0.0189956 0.0222477 0.0221396 0.0179474 0.0118587 0.00732206 0.00690897 0.0104293 0.0151968 0.0176837 0.0156757 0.0092065 0.00042101 -0.0078459 -0.0131588 -0.0145719 -0.0126091 -0.00906592 -0.00617321 -0.00544037 -0.00696973 -0.00943017 -0.0111886 -0.0115013 -0.0111328 -0.0114679 -0.0131358 -0.0152508 -0.016242 -0.0153178 -0.0132717 -0.011639 -0.0112973 -0.0116003 -0.0111298 -0.00912529 -0.00632594 -0.0043993 -0.00477611 -0.00741987 -0.0108627 -0.012924 -0.0117813 -0.00684137 0.00102427 0.00947815 0.0157316 0.0176225 0.0150812 0.0102636 0.00665647 0.00693868 0.0113566 0.0174036 0.0217174 0.0221503 0.0193861 0.0163908 0.016189 0.0198753 0.0259601 0.0316999 0.0351602 0.0363107 0.0370873 0.0397265 0.0453803 0.0532703 0.0609163 0.0656352 0.0662667 0.0642123 0.0628883 0.0655357 0.073038 0.0831342 0.091975 0.0966455 0.0971428 0.0958705 0.0952552 0.0956941 0.0956067 0.0931541 0.0878812 0.0810392 0.0749173 0.0710583 0.067885 0.0638738 0.074746 0.0956612 0.104012 0.115932 0.147585 0.162492 0.147225 0.14465 0.124876 -0.0453292 -0.38775 -0.672145 -0.620877 -0.221479 0.257751 0.537516 0.568896 0.523318 0.598537 0.84333 1.13041 1.26733 1.14131 0.790313 0.363263 0.015877 -0.173521 -0.217012 -0.175727 -0.110976 -0.0580102 -0.0259651 -0.0104854 -0.00442205 -0.00246773 -0.000955892 0 0 
0 0 -0.000493167 -0.00109312 -0.00151153 -0.00236805 -0.00510911 -0.0133938 -0.033731 -0.0744652 -0.139846 -0.217648 -0.267603 -0.223998 -0.0229251 0.34987 0.821688 1.247 1.47993 1.46305 1.26518 1.02285 0.816004 0.59053 0.229644 -0.265022 -0.685863 -0.780251 -0.521535 -0.15501 0.0680063 0.125947 0.138464 0.152083 0.135538 0.101842 0.0916805 0.0922492 0.0776427 0.0637563 0.0587324 0.0574129 0.0584522 0.0624762 0.0690167 0.0760774 0.0813847 0.083933 0.0848333 0.0858892 0.0878577 0.0893754 0.0880812 0.0827979 0.0747982 0.0670498 0.0622632 0.0611014 0.0620088 0.0624238 0.0605407 0.0561599 0.0505726 0.0453042 0.0412045 0.0378527 0.0341191 0.0291523 0.0234348 0.0188606 0.0174004 0.0195937 0.0237722 0.0267547 0.0260173 0.0211553 0.0143861 0.00900219 0.00741684 0.00966305 0.0136415 0.0161415 0.0149595 0.00972831 0.00208364 -0.00523282 -0.00989401 -0.0109041 -0.0089283 -0.00579414 -0.00344769 -0.00299993 -0.00429696 -0.00622495 -0.00769801 -0.00819677 -0.00836456 -0.00900027 -0.0104454 -0.0120407 -0.0127467 -0.0121013 -0.0105745 -0.00916152 -0.00851674 -0.00829083 -0.00763387 -0.00590895 -0.0036455 -0.0019661 -0.00207 -0.00416394 -0.00720451 -0.00928574 -0.00854736 -0.00424787 0.00269919 0.0100319 0.0150535 0.016139 0.013585 0.009566 0.00723754 0.00869488 0.0139463 0.0206539 0.0256225 0.0266586 0.0241388 0.0205068 0.0187814 0.0205121 0.025047 0.030414 0.0348247 0.0378818 0.0405662 0.0441634 0.0491742 0.0547443 0.0592576 0.0613256 0.061017 0.0600863 0.0610826 0.0656548 0.0732165 0.0811504 0.0865583 0.0882132 0.0872899 0.0861622 0.0861853 0.0865334 0.085291 0.081179 0.0749188 0.0685189 0.063739 0.0609161 0.0595329 0.0612975 0.0718701 0.0837657 0.0817172 0.0919813 0.127057 0.145517 0.13368 0.122654 0.0663555 -0.154627 -0.519231 -0.776912 -0.682361 -0.26327 0.22912 0.588093 0.811966 1.01692 1.25702 1.45304 1.46953 1.23815 0.815833 0.347324 -0.0228969 -0.222592 -0.265883 -0.216247 -0.138972 -0.0740432 -0.0335779 -0.0133709 -0.00516549 -0.0024942 -0.00170599 -0.000753926 0 0 
0 0 -0.000453296 -0.000930239 -0.00110879 -0.00122962 -0.00187153 -0.00506701 -0.0153155 -0.040578 -0.0909791 -0.171263 -0.26756 -0.335517 -0.301796 -0.0919076 0.319495 0.867018 1.39992 1.74949 1.8242 1.65421 1.3322 0.907366 0.365873 -0.254431 -0.763512 -0.921622 -0.685446 -0.288951 -0.0117357 0.0820147 0.103969 0.123059 0.115612 0.0819652 0.0646637 0.0667932 0.060575 0.0520271 0.046617 0.0445662 0.0452928 0.0489539 0.0554383 0.0632526 0.0701534 0.074443 0.0762933 0.0771404 0.0783893 0.0800186 0.0806242 0.0787895 0.0743156 0.0686366 0.0636423 0.060539 0.0592433 0.058865 0.058379 0.0572099 0.0553176 0.0528597 0.0496441 0.0451359 0.039003 0.0315631 0.0243911 0.0196611 0.0189767 0.0222026 0.027155 0.0307058 0.0304879 0.0262842 0.0199649 0.0142798 0.0113769 0.0116408 0.0136808 0.015081 0.0138039 0.00921446 0.00244361 -0.00424639 -0.00860632 -0.0096769 -0.00799894 -0.00522841 -0.0030942 -0.00253747 -0.0034766 -0.00517398 -0.00680627 -0.00798143 -0.00878546 -0.00950303 -0.0102914 -0.0110085 -0.0113139 -0.0110665 -0.0104115 -0.00965511 -0.00893449 -0.00806645 -0.00673202 -0.0048551 -0.00283662 -0.00152919 -0.00173811 -0.00362192 -0.00629182 -0.00807478 -0.00726691 -0.0032479 0.00308647 0.0095681 0.0139616 0.0151411 0.0137032 0.0116254 0.0112728 0.0140336 0.0195729 0.0258071 0.0300858 0.0305742 0.0274734 0.0230614 0.0202871 0.0212017 0.0258673 0.0326512 0.0394838 0.0449206 0.0487908 0.0515824 0.0538654 0.0557953 0.0571194 0.0577683 0.0581855 0.0593836 0.0622702 0.0670247 0.0725226 0.0769648 0.0789237 0.0786243 0.0774746 0.0769024 0.0769526 0.0762146 0.0731795 0.0675779 0.0608747 0.0551046 0.0514595 0.0498856 0.0501645 0.053007 0.0584372 0.061313 0.0560187 0.0711586 0.104265 0.11278 0.095805 0.0764902 -0.0143536 -0.288594 -0.682574 -0.917388 -0.759253 -0.252388 0.364723 0.902881 1.32457 1.64389 1.8122 1.73759 1.39015 0.860777 0.317002 -0.0915393 -0.29995 -0.3334 -0.265862 -0.170177 -0.0904268 -0.0403781 -0.0152876 -0.00509827 -0.00193148 -0.0013152 -0.00119038 -0.000591202 0 0 
0 0 -0.000385444 -0.00072744 -0.000713941 -0.000398439 0.000136577 1.19471e-05 -0.00327408 -0.015402 -0.0467563 -0.110135 -0.211597 -0.335155 -0.427731 -0.400675 -0.16399 0.313529 0.955035 1.5855 2.01534 2.13749 1.94799 1.48368 0.783622 -0.0461889 -0.760432 -1.07152 -0.896011 -0.465606 -0.114688 0.0243664 0.0500663 0.0703614 0.0827338 0.0656235 0.0465132 0.0441828 0.0411393 0.0361571 0.0319098 0.0300117 0.030833 0.0345158 0.0408932 0.0490165 0.057151 0.063559 0.0674859 0.0694108 0.0704804 0.0714922 0.072431 0.0726949 0.0717913 0.0696332 0.0665865 0.0632224 0.0600923 0.0578454 0.0569224 0.0574156 0.0588201 0.0599025 0.0590935 0.0551755 0.047937 0.038627 0.0296735 0.0237157 0.0221802 0.0246357 0.0289205 0.0322092 0.0326936 0.0300724 0.0256188 0.0210631 0.0179748 0.0167441 0.0168053 0.0166897 0.0148364 0.0104803 0.00418875 -0.00224294 -0.00689577 -0.00869606 -0.00799716 -0.00614126 -0.00463566 -0.00445121 -0.00566984 -0.00782471 -0.0102455 -0.0123632 -0.0138272 -0.0145253 -0.0146119 -0.0144193 -0.0143714 -0.014483 -0.0147237 -0.0146658 -0.0139611 -0.0124342 -0.0101704 -0.00751659 -0.0050444 -0.00346326 -0.00330267 -0.00455319 -0.00631498 -0.00710073 -0.00554009 -0.00120199 0.00489139 0.0108932 0.0150543 0.016825 0.0169085 0.0167983 0.0179349 0.02087 0.0252442 0.0295923 0.0322667 0.0320346 0.0291779 0.0254005 0.0233717 0.0251155 0.0309674 0.0394945 0.0481645 0.0547107 0.0580634 0.058502 0.0573192 0.0560115 0.0556869 0.0567216 0.0589451 0.061915 0.0650131 0.0678095 0.0698228 0.0707363 0.0706275 0.0699733 0.0693694 0.0688402 0.0676315 0.0646275 0.0593382 0.0524487 0.0455564 0.0402148 0.0371358 0.0362668 0.0373032 0.0398501 0.0423143 0.0421795 0.0408813 0.0563539 0.0708412 0.0576046 0.0383794 0.0153346 -0.119964 -0.466641 -0.893302 -1.0666 -0.755929 -0.0452566 0.77981 1.47526 1.93601 2.12371 2.00197 1.57476 0.948339 0.311063 -0.163233 -0.398259 -0.425068 -0.333059 -0.21028 -0.109458 -0.0464928 -0.0153622 -0.00332375 -4.95616e-05 8.0671e-05 -0.000452466 -0.000730657 -0.000415048 0 0 
0 0 -0.000287331 -0.000468674 -0.000270364 0.000351076 0.00154552 0.00309729 0.00391508 0.000715321 -0.0144926 -0.0556013 -0.138439 -0.268857 -0.423096 -0.531618 -0.488622 -0.200066 0.348648 1.05563 1.73803 2.21591 2.36588 2.1146 1.44255 0.461096 -0.521549 -1.1115 -1.11223 -0.70242 -0.267792 -0.0483934 -0.00203703 0.0114599 0.0345231 0.0392019 0.0295303 0.0253779 0.0225413 0.0186926 0.0149001 0.0130623 0.0142606 0.0185251 0.0255109 0.0342615 0.0435895 0.0520881 0.0585707 0.062546 0.0643282 0.0648371 0.0651916 0.066122 0.0675666 0.0688233 0.0688325 0.0669181 0.0634312 0.059771 0.0577216 0.0583705 0.0613302 0.0646796 0.0659428 0.0633401 0.0566909 0.0475943 0.0387842 0.032605 0.0300887 0.0304928 0.0321153 0.0331323 0.0327201 0.0309133 0.0283557 0.025696 0.0233746 0.021648 0.0204966 0.0193509 0.017288 0.0136108 0.00837279 0.00264907 -0.00202604 -0.00464371 -0.00526638 -0.00486862 -0.00468041 -0.00557481 -0.0077774 -0.0108757 -0.0142496 -0.0171817 -0.0191645 -0.0199848 -0.0198708 -0.0194127 -0.0192103 -0.0194707 -0.0199841 -0.0201219 -0.0192972 -0.0172553 -0.0141808 -0.0105725 -0.00717232 -0.00461777 -0.0033755 -0.00329431 -0.00358615 -0.00303019 -0.000621721 0.00374763 0.00914076 0.0141061 0.0175918 0.0195618 0.0206594 0.0217559 0.0233724 0.0255142 0.0279906 0.0304239 0.0322551 0.0328918 0.0322756 0.0311385 0.031129 0.0338149 0.0398415 0.0481999 0.0566408 0.0626368 0.0647283 0.0631815 0.0598078 0.0569892 0.0564986 0.0586162 0.0621668 0.0654059 0.0670439 0.0668135 0.0654764 0.0641107 0.0633891 0.0633168 0.0631538 0.0617946 0.0583703 0.0526241 0.0450407 0.036803 0.0292445 0.0234174 0.0200956 0.019438 0.0212039 0.0241521 0.0263041 0.026551 0.0273516 0.0331679 0.0246079 -0.00127718 -0.0157163 -0.0608298 -0.276831 -0.706555 -1.11124 -1.10693 -0.518425 0.458836 1.43435 2.1018 2.35089 2.20146 1.7265 1.04852 0.346132 -0.199023 -0.485681 -0.528347 -0.420485 -0.267213 -0.137615 -0.0552892 -0.0144385 0.000656647 0.00382429 0.00302367 0.00150145 0.000329307 -0.000241325 -0.000208227 0 0 
0 0 -0.000161694 -0.000158171 0.000227107 0.00110466 0.00270245 0.00511961 0.00804212 0.0098779 0.00539236 -0.0169144 -0.0744463 -0.18366 -0.343687 -0.515032 -0.611851 -0.527515 -0.189946 0.388851 1.10892 1.81885 2.34385 2.49266 2.10646 1.19217 0.0365422 -0.88053 -1.19657 -0.943027 -0.484051 -0.16575 -0.0582081 -0.0375967 -0.0158159 -0.00139094 0.00324701 0.00469733 0.00395965 0.000747867 -0.00343499 -0.00587719 -0.00454814 0.000991545 0.00975012 0.0202822 0.0311843 0.0413448 0.0496788 0.0554178 0.0583737 0.0592727 0.0596024 0.0608651 0.0635239 0.0668407 0.0690993 0.0689386 0.0663841 0.0630256 0.061092 0.0620067 0.0653224 0.0688992 0.0701129 0.0675066 0.0615134 0.0541669 0.04784 0.0438746 0.0420405 0.0410149 0.0394009 0.0367484 0.0336511 0.0308984 0.028874 0.0271901 0.0253417 0.0231322 0.0209723 0.0190989 0.0173607 0.0151384 0.011996 0.00820587 0.00457117 0.00196151 0.000427894 -0.000534586 -0.00181437 -0.0039624 -0.00711875 -0.0108314 -0.0145575 -0.0176892 -0.0198853 -0.0211014 -0.0215593 -0.0216008 -0.0216162 -0.0216567 -0.021663 -0.0212328 -0.0200088 -0.0177578 -0.014494 -0.0105504 -0.00653636 -0.00302489 -0.000528343 0.00103708 0.00213248 0.00361966 0.00602671 0.00937129 0.0128468 0.0157178 0.0177505 0.0193749 0.0211799 0.0232666 0.0253488 0.0270227 0.0285084 0.0303834 0.0331292 0.0364264 0.0394419 0.0415026 0.0429024 0.0448567 0.0486291 0.0544907 0.0612017 0.066559 0.0687139 0.0673174 0.0637948 0.0606503 0.0598557 0.0617818 0.0649523 0.0672355 0.0671222 0.0647023 0.0613921 0.0588857 0.0578596 0.0578185 0.0572263 0.0545963 0.049267 0.0414777 0.0320426 0.0220314 0.0125402 0.00487937 0.000432037 -2.19054e-05 0.00292092 0.00702591 0.0093934 0.00839093 0.00429835 -0.00378562 -0.0221176 -0.0478365 -0.0713528 -0.179855 -0.496537 -0.9513 -1.19914 -0.878161 0.0360891 1.18513 2.09374 2.47718 2.3289 1.80703 1.10168 0.386335 -0.188733 -0.524224 -0.608093 -0.511907 -0.341631 -0.182591 -0.0740478 -0.0168605 0.00531508 0.00976561 0.0079347 0.005046 0.00267587 0.00111898 0.000297689 2.81085e-05 0 0 
0 0 -1.35237e-05 0.000191122 0.00076031 0.00186871 0.00374303 0.00659877 0.010453 0.0145972 0.0158035 0.0056529 -0.0306012 -0.110778 -0.244873 -0.41728 -0.574266 -0.63326 -0.514905 -0.175817 0.37962 1.09711 1.84803 2.39989 2.46658 1.88458 0.803195 -0.319569 -0.992101 -1.03866 -0.691579 -0.329985 -0.147936 -0.0926934 -0.0608127 -0.0392681 -0.0257307 -0.0178402 -0.0150813 -0.0171357 -0.0219548 -0.0256187 -0.0246116 -0.0176481 -0.0059817 0.00775244 0.021066 0.0324092 0.0411685 0.0472341 0.0509474 0.0531146 0.0549948 0.0577321 0.0615162 0.0654783 0.0680215 0.0682044 0.0665678 0.0649002 0.0652394 0.0682659 0.0725722 0.0754781 0.0746852 0.0698432 0.0628527 0.056601 0.0532575 0.0528089 0.0534433 0.0526519 0.0491675 0.0435671 0.0377349 0.0332719 0.030494 0.028362 0.0255829 0.0217611 0.0176214 0.0144099 0.0126398 0.0118928 0.0112408 0.0101125 0.00840867 0.00658048 0.00480265 0.00298705 0.000707448 -0.0022128 -0.00567252 -0.00920041 -0.0123721 -0.0149156 -0.0169424 -0.0186039 -0.0199999 -0.0209783 -0.0213584 -0.0210329 -0.020099 -0.0187394 -0.0170715 -0.0149834 -0.0123195 -0.00894306 -0.0051168 -0.00129892 0.00198538 0.00456567 0.00654285 0.00828546 0.00992909 0.0113575 0.0121762 0.0125483 0.0130927 0.0147368 0.0178578 0.0219029 0.0255812 0.0281632 0.0300793 0.0327045 0.0371456 0.0431513 0.0490874 0.0529774 0.0540914 0.0535391 0.0537553 0.0566019 0.0622402 0.0686731 0.0731633 0.0738558 0.0710436 0.0669086 0.0639678 0.0635532 0.0649818 0.0663289 0.0659224 0.0632862 0.0594132 0.055853 0.0533907 0.051799 0.0498884 0.0464346 0.0406639 0.0323013 0.0214745 0.00882916 -0.00407274 -0.0147736 -0.0206904 -0.0206789 -0.0161641 -0.0108583 -0.00888514 -0.0124897 -0.0221056 -0.0382853 -0.0632426 -0.0990069 -0.158152 -0.343148 -0.705544 -1.05044 -0.999051 -0.321235 0.797731 1.87298 2.45147 2.38504 1.83645 1.09022 0.377393 -0.174423 -0.511432 -0.629225 -0.570766 -0.414835 -0.243496 -0.110202 -0.030497 0.00555185 0.015655 0.0144608 0.0103431 0.0065328 0.0037377 0.00192218 0.000873101 0.000284978 0 0 
0 0 0.000150955 0.000563138 0.00130337 0.0026148 0.00468453 0.00774782 0.0119158 0.0167844 0.0201881 0.0160745 -0.00669416 -0.0624936 -0.162166 -0.301566 -0.453103 -0.570417 -0.602526 -0.499918 -0.208143 0.320888 1.0645 1.84546 2.33852 2.23796 1.49616 0.424627 -0.474922 -0.853961 -0.743936 -0.452976 -0.250649 -0.151078 -0.100439 -0.071086 -0.0521606 -0.0399066 -0.0339968 -0.0346235 -0.0396489 -0.0445467 -0.0442848 -0.0362338 -0.021486 -0.00372083 0.0128325 0.025475 0.0336914 0.0385277 0.0417882 0.0452121 0.0498123 0.0555985 0.0615041 0.0658228 0.0672712 0.0660771 0.0641208 0.0641254 0.0678011 0.0746081 0.0814956 0.0846735 0.0819185 0.0740153 0.064543 0.0575699 0.0553993 0.0572719 0.0600297 0.0603097 0.0566825 0.0502351 0.0435228 0.0384944 0.0352712 0.0322201 0.0275907 0.0209967 0.0137904 0.00807007 0.00518138 0.00501545 0.00617712 0.00724072 0.00727043 0.00619052 0.00423026 0.00170173 -0.0012738 -0.00452045 -0.00778676 -0.0106523 -0.0129287 -0.0146499 -0.0162495 -0.0180347 -0.0199971 -0.0215964 -0.0222414 -0.0216475 -0.0201029 -0.0181733 -0.0163787 -0.0147178 -0.0128762 -0.010414 -0.00725517 -0.00361091 5.14568e-06 0.00329645 0.00600676 0.00796439 0.00888549 0.0085739 0.00718386 0.00574286 0.00568779 0.00841963 0.0140237 0.0211146 0.0275541 0.0319695 0.0347857 0.0378431 0.0428401 0.0497078 0.0564678 0.0604632 0.0604527 0.0577286 0.0555931 0.0572592 0.0636618 0.0726579 0.0802999 0.0830232 0.0799784 0.0732552 0.0664845 0.0626612 0.0623931 0.0640721 0.0651099 0.0636617 0.0595239 0.0538932 0.0484078 0.0440757 0.0408697 0.037797 0.033154 0.025206 0.0129031 -0.00316875 -0.0203104 -0.034282 -0.0414208 -0.0406713 -0.0347822 -0.0289176 -0.0278066 -0.0337711 -0.0468378 -0.0674421 -0.0993794 -0.153353 -0.256757 -0.462927 -0.756665 -0.867023 -0.485339 0.418407 1.48623 2.22418 2.32445 1.83449 1.05832 0.319354 -0.206295 -0.496243 -0.598393 -0.566761 -0.450402 -0.299908 -0.161361 -0.0622524 -0.00675505 0.0158991 0.0200085 0.0166405 0.0118118 0.00769509 0.00470271 0.00270791 0.00145846 0.00055091 0 0 
0 0 0.000324602 0.000941021 0.00182956 0.00330383 0.00549503 0.00861416 0.0127704 0.0175583 0.0211811 0.0189544 0.0026171 -0.0377055 -0.108532 -0.2068 -0.318434 -0.426719 -0.519599 -0.575135 -0.529112 -0.272196 0.276169 1.04753 1.77511 2.10683 1.83305 1.0597 0.173367 -0.413575 -0.549737 -0.406656 -0.268929 -0.177709 -0.124085 -0.0924995 -0.072418 -0.0591283 -0.0519694 -0.0514142 -0.0560238 -0.0613861 -0.061838 -0.0534993 -0.0366199 -0.0153436 0.00477631 0.0194258 0.0274863 0.0307321 0.0325493 0.0361577 0.0429394 0.0520971 0.0609726 0.0666259 0.0675689 0.0648756 0.0618632 0.0623689 0.0683394 0.0784126 0.0882906 0.0931121 0.0902853 0.0810511 0.0697859 0.0613313 0.0582896 0.0597473 0.0623011 0.0624705 0.0589897 0.0531478 0.0475154 0.043721 0.0412938 0.0380513 0.0318766 0.0226759 0.0123322 0.00384167 -0.000715242 -0.00113847 0.000916466 0.00328971 0.0042719 0.00332334 0.000689309 -0.00291412 -0.00685109 -0.0106483 -0.013988 -0.0165879 -0.0184517 -0.0197883 -0.0210283 -0.0225318 -0.0242187 -0.0256524 -0.026233 -0.0257097 -0.0243303 -0.0226605 -0.0211576 -0.0198734 -0.0184128 -0.0163478 -0.0134533 -0.009745 -0.00556865 -0.00129943 0.00250695 0.00516872 0.00596753 0.0047043 0.00200457 -0.000353302 -0.000184135 0.00419 0.0125361 0.0227492 0.0317787 0.0377252 0.0407289 0.0429744 0.04672 0.0524814 0.0586176 0.0624358 0.0624906 0.0599431 0.0582055 0.0607471 0.0686807 0.0795538 0.0886164 0.0914819 0.0868119 0.0770478 0.0669506 0.0607888 0.0600064 0.0627829 0.0654008 0.0645591 0.0591549 0.0506031 0.0417435 0.0351941 0.0317568 0.0300649 0.0269486 0.0190524 0.00462895 -0.0151624 -0.0359897 -0.0522637 -0.0598607 -0.0585259 -0.0521909 -0.0465981 -0.0463185 -0.0529719 -0.0662812 -0.0871317 -0.120366 -0.176516 -0.271022 -0.412438 -0.559097 -0.42521 0.161896 1.05039 1.82127 2.09433 1.76514 1.04215 0.275465 -0.269607 -0.525 -0.57087 -0.515947 -0.423975 -0.316619 -0.205784 -0.108104 -0.0376403 0.00249083 0.0187578 0.0209951 0.0174164 0.0126781 0.0085797 0.00553783 0.00343438 0.00202425 0.000814209 0 0 
0 0 0.000499436 0.00130787 0.00231401 0.00389788 0.00613219 0.0091825 0.0131289 0.0174599 0.0203744 0.0177975 0.00325397 -0.0295194 -0.0817016 -0.146003 -0.211234 -0.276974 -0.362101 -0.480985 -0.592322 -0.575833 -0.292651 0.290289 1.01559 1.58191 1.71219 1.33763 0.669235 0.0720168 -0.19815 -0.247349 -0.212377 -0.16391 -0.125887 -0.100791 -0.0847684 -0.074337 -0.0685153 -0.0677666 -0.071271 -0.0757787 -0.0761283 -0.0680467 -0.0507712 -0.0277398 -0.00486198 0.0124427 0.0218435 0.0247631 0.0252464 0.0277174 0.0346007 0.0453023 0.0566769 0.0648568 0.067603 0.0657511 0.0628771 0.063257 0.0692698 0.0798075 0.0906945 0.0969554 0.0958204 0.0881499 0.0778815 0.0694456 0.0652292 0.0645202 0.06456 0.0626982 0.0583014 0.0528618 0.0485745 0.0464479 0.0452579 0.0423314 0.035456 0.0246378 0.0122638 0.00191417 -0.00375215 -0.00430745 -0.00150549 0.00197096 0.00378249 0.00287245 -0.000527568 -0.00544584 -0.0107537 -0.0155828 -0.0195427 -0.0225739 -0.0247495 -0.026344 -0.0275244 -0.0284968 -0.029312 -0.0299092 -0.0301411 -0.0299642 -0.0294203 -0.0286312 -0.0276563 -0.0264315 -0.0247129 -0.0223277 -0.0190008 -0.0146674 -0.00943928 -0.00379417 0.00133627 0.00478174 0.00554769 0.003465 -0.000349065 -0.00348197 -0.00321116 0.00223605 0.0124224 0.0246434 0.0352734 0.0419184 0.044599 0.0455889 0.0476645 0.0520718 0.0577757 0.0624736 0.0645157 0.0644442 0.0648674 0.0686261 0.0765977 0.0865438 0.0941364 0.0953687 0.08926 0.0784406 0.0678216 0.0615794 0.0609334 0.0636382 0.0654919 0.0629339 0.055056 0.0440196 0.0336052 0.0269161 0.0245789 0.0241627 0.0213065 0.0119975 -0.00515166 -0.0278036 -0.0505065 -0.0673299 -0.0748234 -0.0737522 -0.0683945 -0.0639377 -0.0637305 -0.0687117 -0.0786332 -0.0946656 -0.120527 -0.160179 -0.211119 -0.249211 -0.203352 0.0638215 0.65947 1.32802 1.70186 1.57345 1.01105 0.290186 -0.289433 -0.571142 -0.587738 -0.477303 -0.359454 -0.275189 -0.210108 -0.145388 -0.0814537 -0.0295104 0.00312549 0.0176126 0.020196 0.0173268 0.0130539 0.00917042 0.00620039 0.00406162 0.00254217 0.00106351 0 0 
0 0 0.000666855 0.00164712 0.00273467 0.0043655 0.00656155 0.00943342 0.0130286 0.0167297 0.0185919 0.0147231 -0.000400428 -0.0307565 -0.0733053 -0.115476 -0.143377 -0.161683 -0.206021 -0.318466 -0.489229 -0.619634 -0.562564 -0.227683 0.330227 0.910271 1.25868 1.21329 0.825573 0.353994 0.0550394 -0.0845361 -0.126463 -0.124687 -0.110835 -0.0982637 -0.0900663 -0.0853929 -0.0832277 -0.0834395 -0.0856876 -0.0879673 -0.086873 -0.0788083 -0.0625056 -0.0400833 -0.0163752 0.00319442 0.0152399 0.0199119 0.0203945 0.021262 0.0259689 0.0353277 0.0472163 0.0580176 0.0648995 0.0673841 0.0675906 0.0689079 0.0736901 0.0817546 0.0904264 0.0961365 0.0966211 0.0921742 0.0853654 0.0791349 0.075052 0.0725353 0.0697815 0.0653489 0.0594115 0.0535899 0.0496431 0.0479594 0.0468003 0.0434336 0.0357438 0.0239278 0.0105615 -0.000565885 -0.00657584 -0.00677137 -0.00284601 0.00224927 0.00564942 0.00571706 0.0023689 -0.00335138 -0.00985629 -0.0158024 -0.0205326 -0.0240523 -0.0266642 -0.028594 -0.0298639 -0.0304614 -0.0304602 -0.0302253 -0.0300805 -0.0302836 -0.030566 -0.0305946 -0.0299909 -0.0286673 -0.0266136 -0.0237947 -0.0199652 -0.014858 -0.00851318 -0.0016687 0.00426949 0.00767785 0.00747998 0.00380577 -0.001643 -0.00593051 -0.00604877 -0.000285219 0.0106466 0.0238264 0.0354372 0.0429023 0.0460275 0.0469924 0.0486307 0.0526738 0.0587256 0.0649247 0.0695052 0.0722035 0.0744452 0.078109 0.0839416 0.0905251 0.0949708 0.0946252 0.0890663 0.080424 0.0721979 0.0671626 0.0656123 0.0653021 0.0629169 0.0562993 0.0458286 0.0342585 0.0251422 0.0205665 0.0197752 0.0193249 0.0146974 0.00270317 -0.0167442 -0.0402746 -0.0624433 -0.0784103 -0.0860281 -0.0865845 -0.083618 -0.0805475 -0.0794095 -0.0806234 -0.084475 -0.0922012 -0.104849 -0.119505 -0.12289 -0.0832642 0.0535937 0.349862 0.819335 1.20607 1.25217 0.90678 0.330494 -0.224275 -0.557556 -0.614687 -0.485361 -0.315868 -0.204384 -0.160618 -0.142664 -0.115039 -0.0731053 -0.0307357 -0.000496478 0.014568 0.0184348 0.0166139 0.0129743 0.00944694 0.00665577 0.00455668 0.00298733 0.00128804 0 0 
0 0 0.000818097 0.00194325 0.0030736 0.00468511 0.00676451 0.00936846 0.0125084 0.0154973 0.0162361 0.0108166 -0.00582392 -0.0363805 -0.075109 -0.105215 -0.108727 -0.0894979 -0.0886496 -0.162394 -0.3249 -0.507753 -0.586172 -0.458551 -0.116316 0.336985 0.717989 0.847127 0.672841 0.406714 0.177051 0.0273574 -0.0501921 -0.0811529 -0.0893254 -0.0900696 -0.0905023 -0.0922738 -0.0947584 -0.0970013 -0.0983779 -0.0979436 -0.0941725 -0.0852735 -0.0702719 -0.0502056 -0.0280854 -0.00806118 0.00637999 0.0139766 0.0161579 0.0163301 0.0182658 0.0242909 0.03444 0.0466863 0.0582416 0.067135 0.0731654 0.0775322 0.081756 0.0865577 0.0912978 0.0945396 0.0952532 0.0933914 0.0900939 0.0866151 0.083475 0.0802586 0.0760719 0.070489 0.0641247 0.058414 0.0543739 0.051864 0.0491296 0.0438067 0.0343413 0.0211731 0.00686004 -0.00500481 -0.011519 -0.0117461 -0.00703512 -0.000314483 0.00522618 0.00726409 0.00503922 -0.000554946 -0.00763362 -0.0143057 -0.0193853 -0.0228522 -0.0251914 -0.0269144 -0.0280915 -0.0286004 -0.0283381 -0.0277837 -0.0274978 -0.0278495 -0.0284447 -0.0287273 -0.0282117 -0.0269696 -0.0251113 -0.022555 -0.0187795 -0.0133312 -0.00626316 0.00115438 0.00697071 0.00925371 0.00709535 0.00127878 -0.00580747 -0.0108897 -0.0110124 -0.00478757 0.00684987 0.0209553 0.033914 0.0431474 0.0482191 0.0507748 0.0532322 0.0573606 0.0632958 0.0698745 0.0755736 0.0796897 0.082628 0.0854076 0.0885877 0.0917626 0.0936759 0.0931298 0.0900097 0.0852449 0.0802509 0.0757621 0.071225 0.0651795 0.0564588 0.0452087 0.033285 0.0234043 0.0175462 0.0156964 0.0155505 0.0133822 0.00581678 -0.00855434 -0.0284617 -0.0503995 -0.0702483 -0.0849853 -0.0935604 -0.096941 -0.0968825 -0.0948694 -0.0918393 -0.0884674 -0.085803 -0.0846326 -0.0835149 -0.0755181 -0.0453887 0.0306847 0.178453 0.40605 0.670399 0.843587 0.715766 0.33759 -0.113089 -0.453747 -0.581159 -0.503651 -0.322157 -0.160821 -0.0877491 -0.0888658 -0.108202 -0.104819 -0.0748829 -0.0363119 -0.00587158 0.0107028 0.0161096 0.0154052 0.0124785 0.00940977 0.00688452 0.00489747 0.00334001 0.00147788 0 0 
0 0 0.000945129 0.00218275 0.00331796 0.00484768 0.00674116 0.00901292 0.0116314 0.0138666 0.0135062 0.00655316 -0.0118425 -0.043625 -0.0814158 -0.105599 -0.0949019 -0.0509458 -0.0148885 -0.0469594 -0.173068 -0.347856 -0.476073 -0.472135 -0.304649 -0.0112217 0.298698 0.472431 0.462214 0.34581 0.202745 0.0819833 0.000191104 -0.0463345 -0.0692999 -0.0803756 -0.0875136 -0.0941852 -0.100473 -0.105156 -0.10675 -0.104485 -0.098135 -0.087725 -0.0735486 -0.0563498 -0.0376329 -0.019644 -0.00486482 0.00490311 0.00948679 0.0105557 0.0111037 0.014322 0.0221024 0.0343522 0.0491339 0.0636898 0.0757537 0.0843024 0.0896402 0.0928023 0.0947491 0.0958914 0.0961864 0.0954924 0.0937826 0.0912117 0.0878601 0.0837842 0.0791185 0.0741654 0.0694998 0.0656234 0.0625556 0.0594744 0.0547877 0.0469264 0.0351016 0.0202434 0.00469104 -0.00841084 -0.0163803 -0.0180551 -0.0142111 -0.00723572 -0.000371671 0.00349112 0.00274925 -0.00225308 -0.0095228 -0.0166829 -0.0219298 -0.0250072 -0.0265497 -0.0275603 -0.0283974 -0.0289187 -0.0288814 -0.0285157 -0.0283217 -0.0285766 -0.0289821 -0.0290323 -0.0284833 -0.0275748 -0.0264292 -0.0246676 -0.0212841 -0.0156673 -0.00812516 -0.000522556 0.00469221 0.0054924 0.00150607 -0.00563512 -0.0129815 -0.017218 -0.0159154 -0.00826745 0.00458685 0.0199091 0.0345463 0.0461249 0.0537459 0.0582618 0.0612871 0.0644482 0.0685131 0.0733688 0.0784103 0.0829866 0.0868202 0.0898622 0.0922322 0.0939038 0.0947163 0.0945909 0.0935296 0.0915169 0.0881352 0.082571 0.0739155 0.061907 0.0475943 0.0331244 0.021171 0.0135919 0.0104741 0.00994447 0.00886744 0.00429957 -0.00542906 -0.0201012 -0.0379526 -0.0564554 -0.0734551 -0.0874012 -0.0975963 -0.103694 -0.105647 -0.103611 -0.0983419 -0.0913016 -0.0838012 -0.0758598 -0.0641893 -0.0409899 0.00528648 0.0863116 0.205882 0.347566 0.462746 0.472292 0.299672 -0.00832997 -0.300418 -0.467514 -0.471994 -0.344912 -0.171358 -0.046128 -0.0144342 -0.0505221 -0.0944286 -0.105171 -0.0811291 -0.0434956 -0.0118355 0.00648711 0.0134177 0.0138036 0.0116285 0.00908226 0.00688555 0.00507525 0.00358712 0.0016244 0 0 
0 0 0.00104179 0.0023556 0.00346087 0.00485665 0.00650899 0.00840844 0.0104723 0.0119332 0.0105092 0.00211703 -0.0179694 -0.0511569 -0.0889307 -0.109865 -0.0907644 -0.0319281 0.0264096 0.0247 -0.0652182 -0.2091 -0.33419 -0.378411 -0.313065 -0.142562 0.079571 0.23117 0.282209 0.251652 0.177959 0.0958549 0.0264646 -0.0225847 -0.0528291 -0.0702101 -0.0810638 -0.0898368 -0.0979226 -0.104385 -0.107391 -0.105442 -0.0984368 -0.0873875 -0.0738063 -0.0590866 -0.0442137 -0.030005 -0.0174518 -0.00772857 -0.00159734 0.00131396 0.00284532 0.00578037 0.0127794 0.024861 0.0410228 0.058516 0.0741321 0.0856609 0.092681 0.096283 0.0981873 0.0996243 0.100831 0.101094 0.0995559 0.095726 0.0900292 0.083556 0.0777461 0.0736099 0.0714396 0.0706702 0.0698549 0.0674297 0.0618604 0.0523455 0.0390432 0.0232543 0.00710433 -0.00689602 -0.0166197 -0.0208147 -0.0195162 -0.0143241 -0.00797001 -0.00355857 -0.0034257 -0.00793371 -0.0154769 -0.0233709 -0.0293347 -0.0326441 -0.0339951 -0.0345596 -0.035076 -0.0354716 -0.0355085 -0.0352817 -0.0351291 -0.0353386 -0.0355915 -0.0355593 -0.035122 -0.0345215 -0.03382 -0.0322532 -0.0286429 -0.0223219 -0.014068 -0.00621501 -0.00149771 -0.00157811 -0.00611088 -0.0127444 -0.0183125 -0.0200147 -0.0162115 -0.00684317 0.00688013 0.0227927 0.0383393 0.0514046 0.060689 0.0660828 0.0684496 0.0693459 0.0702978 0.0726455 0.0768405 0.0825549 0.0888117 0.0942805 0.0979906 0.0995785 0.0994939 0.0984483 0.0970553 0.0950322 0.0912122 0.0840027 0.0724204 0.0569499 0.03973 0.0238741 0.0120305 0.00514944 0.00223868 0.000674739 -0.0022497 -0.00836287 -0.0179888 -0.0303903 -0.0444104 -0.0590581 -0.0735604 -0.086949 -0.0978523 -0.104715 -0.106501 -0.103235 -0.0963631 -0.0877167 -0.0782645 -0.0666691 -0.0486356 -0.0179668 0.0311843 0.100296 0.181782 0.254676 0.284443 0.232946 0.0819484 -0.139107 -0.309145 -0.374727 -0.331249 -0.207164 -0.0642241 0.0250978 0.0266404 -0.0315838 -0.0902786 -0.109379 -0.0885725 -0.0509617 -0.0179074 0.00210012 0.0104628 0.0119036 0.0104971 0.00850356 0.00667512 0.00509415 0.00372285 0.00172122 0 0 
0 0 0.00110467 0.00245642 0.00350163 0.00472577 0.00609747 0.00760091 0.00910056 0.00977943 0.00732181 -0.00238678 -0.0239355 -0.0582285 -0.0958389 -0.114164 -0.0892495 -0.0215527 0.0486695 0.0636583 -0.00205453 -0.116077 -0.217915 -0.265531 -0.24315 -0.143683 -0.015608 0.0925037 0.153221 0.16317 0.135244 0.0877999 0.0370255 -0.00650439 -0.0381448 -0.0583199 -0.0705484 -0.0789946 -0.086523 -0.0935157 -0.0984597 -0.0992728 -0.0948436 -0.0858325 -0.0740493 -0.0616089 -0.0499472 -0.0395275 -0.0303733 -0.0226491 -0.0165678 -0.0120407 -0.00808144 -0.00274651 0.00604823 0.0193761 0.036413 0.0545725 0.0707516 0.0826597 0.0900477 0.0943938 0.0978031 0.101622 0.105616 0.108161 0.107375 0.102364 0.0938654 0.0841473 0.0758939 0.0710875 0.0700257 0.0713007 0.0724397 0.0710317 0.0654988 0.0555909 0.0422719 0.0271384 0.0121165 -0.00114691 -0.0112665 -0.0172809 -0.0187596 -0.0163584 -0.0118879 -0.0081307 -0.00767785 -0.011714 -0.019323 -0.0281091 -0.0355612 -0.0404756 -0.043087 -0.0443495 -0.0449234 -0.0449117 -0.0443436 -0.0435632 -0.0432018 -0.0436104 -0.0444011 -0.0449584 -0.0449195 -0.0442431 -0.0428423 -0.0400245 -0.0348208 -0.0270402 -0.0179171 -0.0100243 -0.00579725 -0.00620566 -0.0100748 -0.0148192 -0.0176023 -0.0165377 -0.010943 -0.00118926 0.0117777 0.026541 0.0414341 0.0545111 0.064195 0.0695542 0.0708985 0.0698337 0.068723 0.0699442 0.0747999 0.0829618 0.0925091 0.100862 0.105846 0.106749 0.104407 0.100571 0.0967664 0.0932165 0.0886581 0.0811219 0.0692285 0.053241 0.0353604 0.0185818 0.00541765 -0.00334559 -0.00872432 -0.0127406 -0.0172705 -0.0232912 -0.0308642 -0.039813 -0.0499879 -0.0613962 -0.0736224 -0.0852473 -0.09416 -0.098549 -0.0976782 -0.0926191 -0.0854016 -0.0774769 -0.0685109 -0.0556759 -0.0349131 -0.00279799 0.0409831 0.0917769 0.138975 0.166491 0.156081 0.0950039 -0.0129071 -0.140673 -0.240105 -0.262893 -0.215909 -0.114813 -0.00145646 0.0638517 0.0488096 -0.0212307 -0.0887405 -0.113623 -0.0954148 -0.0579719 -0.0238182 -0.00235408 0.00731979 0.00978606 0.00915282 0.00771865 0.00628132 0.00496806 0.00374848 0.00176513 0 0 
0 0 0.00113351 0.00248497 0.0034451 0.0044746 0.00554129 0.00663247 0.00756803 0.00747572 0.00403997 -0.00679472 -0.0294226 -0.0642809 -0.101203 -0.116892 -0.0874123 -0.0142823 0.061244 0.0828368 0.0292345 -0.0644722 -0.142832 -0.177996 -0.170219 -0.11942 -0.0491148 0.0193588 0.069126 0.0925681 0.0906343 0.0696641 0.0382433 0.00485274 -0.0238407 -0.044342 -0.0567449 -0.0639609 -0.0694762 -0.0755024 -0.0819322 -0.0868134 -0.0879141 -0.0843891 -0.07702 -0.0677966 -0.0586358 -0.0505841 -0.0438103 -0.0379432 -0.0326589 -0.0273726 -0.021144 -0.0126211 -0.000460813 0.0156542 0.0344879 0.0532425 0.0689488 0.079731 0.0858442 0.089483 0.0932918 0.0988107 0.105576 0.111202 0.112919 0.10906 0.100137 0.0887365 0.0782868 0.0715581 0.0692394 0.0699129 0.0707955 0.0691088 0.0631956 0.0531653 0.0404071 0.026892 0.0142611 0.00346362 -0.00506109 -0.0109854 -0.0138809 -0.0136558 -0.0110561 -0.00807466 -0.00713291 -0.0100062 -0.0166909 -0.0255903 -0.0344475 -0.0417161 -0.046881 -0.0500333 -0.0512937 -0.0507613 -0.0488857 -0.0468395 -0.0459494 -0.0468689 -0.0489073 -0.050754 -0.0512167 -0.0498546 -0.0465705 -0.0412081 -0.0336754 -0.024521 -0.0153176 -0.00837859 -0.00533371 -0.00622762 -0.009325 -0.012188 -0.0127923 -0.0103235 -0.00481371 0.00332692 0.0137969 0.0261556 0.039431 0.0519462 0.0617712 0.0675187 0.0691436 0.0683184 0.0677795 0.070241 0.0770167 0.0873925 0.0986782 0.10753 0.111453 0.109916 0.104513 0.097912 0.0923667 0.0884007 0.0845696 0.0783517 0.0676462 0.0521631 0.0336624 0.01503 -0.0010211 -0.0132224 -0.02183 -0.0281259 -0.0333825 -0.0385598 -0.0442254 -0.0507355 -0.0585093 -0.0673906 -0.076396 -0.0836212 -0.0871014 -0.0860261 -0.081185 -0.0747533 -0.0686193 -0.0628698 -0.0552906 -0.042417 -0.02144 0.00767228 0.0413524 0.0729002 0.0938297 0.095579 0.0718755 0.021831 -0.0466675 -0.117015 -0.168014 -0.176169 -0.141449 -0.0635815 0.0296557 0.0829643 0.0613599 -0.0139678 -0.0868899 -0.116314 -0.100724 -0.0639664 -0.0292534 -0.00671404 0.00408142 0.00751932 0.00764778 0.00676963 0.00573756 0.00471641 0.00367119 0.00175665 0 0 
0 0 0.0011308 0.00244579 0.00330075 0.00412388 0.00487276 0.00553956 0.00591899 0.00509867 0.000809405 -0.0108501 -0.0340607 -0.0689204 -0.10478 -0.118015 -0.0850133 -0.00855063 0.0688653 0.0917871 0.0427142 -0.0396342 -0.10142 -0.123581 -0.1179 -0.0909945 -0.0531039 -0.013973 0.0188302 0.0407616 0.0498452 0.0462162 0.0318495 0.0108368 -0.011531 -0.0302313 -0.0425821 -0.0491438 -0.0529115 -0.0572593 -0.0639254 -0.0722036 -0.0795911 -0.0837194 -0.0834223 -0.0792553 -0.0728294 -0.0656759 -0.0588608 -0.0526768 -0.0469376 -0.0409218 -0.0334244 -0.0229635 -0.00835271 0.0104341 0.0317553 0.0524664 0.069261 0.0800603 0.0851687 0.0870257 0.0889307 0.0931292 0.0997871 0.106916 0.1114 0.110908 0.104918 0.0952329 0.0848381 0.0766567 0.0720105 0.0700792 0.0685814 0.0649637 0.0576667 0.0468425 0.0341319 0.0216281 0.0109995 0.0027022 -0.00352459 -0.00811193 -0.0109859 -0.011759 -0.0103314 -0.00770234 -0.005788 -0.00656303 -0.0109298 -0.0183566 -0.0273832 -0.0364123 -0.0441773 -0.0497325 -0.0522951 -0.0515779 -0.0484769 -0.0450759 -0.0435864 -0.0450779 -0.048449 -0.0515031 -0.0521479 -0.0494815 -0.0437924 -0.0358509 -0.0266008 -0.017315 -0.00961104 -0.00501674 -0.00410027 -0.00597714 -0.00871174 -0.0103917 -0.00998702 -0.00753295 -0.00337078 0.00245568 0.0104142 0.0207691 0.0330262 0.0455089 0.0561271 0.0632621 0.0668244 0.0683685 0.0704187 0.0751891 0.083409 0.0937616 0.103386 0.10939 0.11003 0.105783 0.0989126 0.0923866 0.088121 0.0860618 0.0840274 0.0788725 0.0681844 0.0516032 0.0311121 0.00990922 -0.00889381 -0.0235924 -0.0341659 -0.0417015 -0.0476465 -0.0532144 -0.0591465 -0.0656564 -0.0725065 -0.0786494 -0.0826136 -0.0827884 -0.0786476 -0.0713311 -0.0631588 -0.0565729 -0.052241 -0.0483539 -0.0415558 -0.0288732 -0.00980421 0.0129045 0.0341815 0.0486889 0.0523434 0.0431914 0.0211063 -0.011891 -0.05114 -0.0891769 -0.11631 -0.122274 -0.100389 -0.0389186 0.0430822 0.0919116 0.0689833 -0.00823999 -0.0844874 -0.117414 -0.104262 -0.0685575 -0.033844 -0.0107256 0.000893413 0.00517938 0.0060257 0.00569287 0.00507552 0.00435963 0.00350222 0.00169995 0 0 
0 0 0.00110078 0.00234695 0.00308075 0.00369181 0.00411938 0.00435687 0.00420542 0.00276061 -0.0021623 -0.0142756 -0.0375905 -0.0720794 -0.106884 -0.118212 -0.0827574 -0.00427928 0.0737106 0.096236 0.0485434 -0.0278242 -0.0797979 -0.0940133 -0.0868303 -0.0672849 -0.0442128 -0.0233661 -0.00668376 0.00609002 0.0151377 0.0194244 0.0173574 0.00847129 -0.00531304 -0.0201242 -0.0320373 -0.0392592 -0.0429626 -0.0462725 -0.0521525 -0.061635 -0.0732544 -0.0841374 -0.0914609 -0.0937748 -0.0911127 -0.0846709 -0.0761173 -0.066982 -0.0582761 -0.0501063 -0.0415719 -0.0309483 -0.0164797 0.00259967 0.0251889 0.0482888 0.0681813 0.0818907 0.0886214 0.0900971 0.0894889 0.089917 0.0929117 0.0979784 0.10298 0.105415 0.103762 0.0981792 0.0903299 0.0824696 0.0761977 0.0716345 0.0675062 0.0618548 0.0533287 0.041839 0.0287994 0.0163245 0.00609733 -0.00135289 -0.00654672 -0.0103387 -0.0130895 -0.0144417 -0.0139117 -0.0117125 -0.00905494 -0.00778935 -0.00932735 -0.0141463 -0.0217173 -0.0308896 -0.0401608 -0.0477561 -0.0519786 -0.0519881 -0.0486977 -0.0447426 -0.0430216 -0.0447078 -0.048612 -0.0518322 -0.0517434 -0.0474322 -0.0397194 -0.0302939 -0.0209372 -0.0131572 -0.00811112 -0.00636884 -0.00750531 -0.0101331 -0.0124346 -0.013198 -0.0121931 -0.00985486 -0.00648891 -0.00170451 0.00540048 0.0153469 0.0275769 0.0403886 0.0516788 0.0600671 0.0656555 0.0698307 0.0744968 0.0808614 0.0887591 0.0965939 0.102178 0.103931 0.10172 0.097016 0.0922167 0.0893375 0.0888461 0.0892745 0.0876503 0.080897 0.0673068 0.0476135 0.0246571 0.00211006 -0.0170475 -0.031636 -0.0423536 -0.0508768 -0.0589198 -0.0673942 -0.0762286 -0.0844646 -0.0905915 -0.0929864 -0.0904795 -0.0830525 -0.0721843 -0.0606722 -0.0513473 -0.0456207 -0.0423932 -0.0386769 -0.0313135 -0.0191551 -0.00405457 0.00999653 0.0190921 0.0212661 0.0170002 0.00790116 -0.00498624 -0.0217973 -0.0427698 -0.0659791 -0.0856657 -0.0930054 -0.0789557 -0.0271849 0.0489039 0.0963776 0.0738346 -0.00397552 -0.0822383 -0.117604 -0.106338 -0.0716792 -0.0373325 -0.0141103 -0.00203977 0.0028763 0.00433817 0.00452334 0.00432287 0.00391564 0.00325463 0.00160206 0 0 
0 0 0.00104814 0.0021982 0.00279856 0.00319347 0.00330471 0.00312982 0.00251104 0.000606258 -0.00467196 -0.0168941 -0.0400067 -0.0740286 -0.108044 -0.118081 -0.0809342 -0.00102196 0.0773944 0.0995801 0.0526195 -0.0199102 -0.0662194 -0.0825554 -0.0747592 -0.0547492 -0.0344401 -0.0209241 -0.0150111 -0.0131401 -0.0112434 -0.00779882 -0.00439813 -0.00417691 -0.00897213 -0.0180074 -0.0282774 -0.0367823 -0.0423919 -0.0464772 -0.0517595 -0.0603815 -0.0724817 -0.0862553 -0.0985546 -0.106464 -0.108267 -0.103654 -0.0938812 -0.0810794 -0.0677119 -0.0555203 -0.0448402 -0.0344601 -0.0220688 -0.00566337 0.0151937 0.0387828 0.0615959 0.0799632 0.0913551 0.0957363 0.0950148 0.0924106 0.0906332 0.0911135 0.0934774 0.0960839 0.0969908 0.094986 0.0901361 0.0835688 0.076828 0.0707959 0.0653306 0.0592379 0.0512238 0.0407479 0.0285302 0.0162126 0.00548792 -0.00273403 -0.00865582 -0.0130734 -0.0165183 -0.0188585 -0.0195714 -0.0185139 -0.0163348 -0.0143789 -0.0140884 -0.0164385 -0.0217343 -0.0295345 -0.0387395 -0.0474473 -0.0534298 -0.0552471 -0.0533953 -0.0502613 -0.0487706 -0.0501898 -0.053243 -0.0550161 -0.0531204 -0.0470486 -0.0382479 -0.0289237 -0.0209754 -0.0155267 -0.0129996 -0.0131124 -0.0149449 -0.0171052 -0.0182625 -0.0177589 -0.0157497 -0.0126964 -0.00869193 -0.00317654 0.00468653 0.0151325 0.0272105 0.0392094 0.0494972 0.0573676 0.0634074 0.0689175 0.0750271 0.081849 0.088461 0.0933308 0.0953816 0.0946549 0.0923644 0.0903473 0.0901434 0.092015 0.0945335 0.0950734 0.0905649 0.0791569 0.060906 0.0382379 0.0147268 -0.00616306 -0.0226804 -0.0352044 -0.045637 -0.0562435 -0.0682478 -0.0813423 -0.093813 -0.103264 -0.107567 -0.105515 -0.0974256 -0.0850516 -0.0713084 -0.0593404 -0.0509025 -0.0458258 -0.04189 -0.0363342 -0.0277582 -0.0173071 -0.00804036 -0.0030166 -0.00307518 -0.00639461 -0.00985981 -0.0118346 -0.0138204 -0.0198465 -0.0334616 -0.053844 -0.0738945 -0.0817366 -0.0654799 -0.0193186 0.0529748 0.0997281 0.0775165 -0.000731271 -0.0804306 -0.117473 -0.107481 -0.0735984 -0.0397141 -0.0166943 -0.00451576 0.000752709 0.0026673 0.00330718 0.00350433 0.0033993 0.00294181 0.00147142 0 0 
0 0 0.000976849 0.00200921 0.00246787 0.00264452 0.00245717 0.00192206 0.000944404 -0.00122897 -0.00660754 -0.0187169 -0.0415287 -0.07514 -0.108604 -0.117729 -0.0791808 0.00227484 0.0816901 0.104094 0.0575366 -0.0120435 -0.0652134 -0.0885734 -0.0831967 -0.0605397 -0.0354241 -0.0191095 -0.0152472 -0.0202791 -0.0273257 -0.0307639 -0.029216 -0.0253569 -0.0232779 -0.0256675 -0.0323793 -0.0411078 -0.0492987 -0.0560245 -0.0620861 -0.0693273 -0.0789999 -0.0908853 -0.103228 -0.113302 -0.118395 -0.116728 -0.10797 -0.0937157 -0.0767376 -0.0601595 -0.0460647 -0.0345788 -0.0239401 -0.0113269 0.00530458 0.0262049 0.0492677 0.0709378 0.0876629 0.0974012 0.100245 0.0981863 0.0941302 0.0907055 0.0892411 0.0894989 0.089953 0.0888679 0.0852097 0.0791324 0.0719614 0.0650873 0.059263 0.0540899 0.0483669 0.0409535 0.0315507 0.0209688 0.0105934 0.0016345 -0.00555232 -0.0111926 -0.0157206 -0.0191428 -0.0212066 -0.0217253 -0.0210742 -0.0200145 -0.0195246 -0.0204999 -0.0236271 -0.0292744 -0.0371796 -0.045962 -0.0534836 -0.057808 -0.0586436 -0.0575283 -0.0567823 -0.0574255 -0.0584245 -0.057498 -0.0530967 -0.0455102 -0.0366586 -0.0286702 -0.0229318 -0.0196926 -0.0185776 -0.01893 -0.0198911 -0.0205166 -0.0200771 -0.0182058 -0.0150799 -0.0109186 -0.00569058 0.00109947 0.00971431 0.0198066 0.0301596 0.0393479 0.0465638 0.0521596 0.0572859 0.0631379 0.0700863 0.0773331 0.0834589 0.0871611 0.0883579 0.0881656 0.0882782 0.0901372 0.0938534 0.097989 0.0999386 0.0969134 0.0870422 0.0702965 0.0487142 0.0257307 0.00483331 -0.0118789 -0.0246292 -0.0353526 -0.046816 -0.0607781 -0.0771195 -0.0937967 -0.10772 -0.116163 -0.117547 -0.112239 -0.101999 -0.0895991 -0.0777475 -0.0682098 -0.0611772 -0.055344 -0.0488201 -0.0407458 -0.0320078 -0.0251655 -0.0225824 -0.0244459 -0.0281519 -0.0296246 -0.0262291 -0.0192949 -0.014414 -0.0184182 -0.0347851 -0.0598721 -0.082488 -0.0878426 -0.0645384 -0.0115092 0.0578643 0.10422 0.0817882 0.0025403 -0.0786954 -0.117127 -0.108033 -0.0746885 -0.0412061 -0.0184871 -0.00642406 -0.0010575 0.0011201 0.00210772 0.00264948 0.00282703 0.00257751 0.00131623 0 0 
0 0 0.00088977 0.00178879 0.00210298 0.00206668 0.00161652 0.000807285 -0.000395799 -0.00267558 -0.00800011 -0.019904 -0.0424033 -0.075645 -0.108649 -0.117016 -0.0771337 0.00627581 0.0877517 0.111261 0.0631617 -0.00711076 -0.0702918 -0.106649 -0.110212 -0.0884033 -0.0566285 -0.0303804 -0.0188329 -0.0221929 -0.033885 -0.0453218 -0.0507245 -0.0494089 -0.0448386 -0.0417994 -0.0433336 -0.0496734 -0.0588523 -0.0684024 -0.0768439 -0.0840314 -0.0908239 -0.0981455 -0.106032 -0.113613 -0.118855 -0.11953 -0.113923 -0.101868 -0.0850758 -0.0665785 -0.0494718 -0.0355527 -0.0244064 -0.013881 -0.00122217 0.0153079 0.0354538 0.0569962 0.0765736 0.0912206 0.0993488 0.101258 0.0988637 0.0947371 0.0910526 0.0887232 0.0871384 0.0848224 0.0804345 0.0736493 0.0653748 0.0573068 0.050804 0.0462292 0.042683 0.0386593 0.0329923 0.0255735 0.0170965 0.00872551 0.00126569 -0.00496725 -0.00997279 -0.0138523 -0.0165698 -0.018201 -0.0190029 -0.0193168 -0.0194976 -0.0198974 -0.0212352 -0.0245122 -0.0303901 -0.038405 -0.0468798 -0.0536381 -0.0574872 -0.0588439 -0.0590211 -0.0587129 -0.0572192 -0.0532675 -0.0464387 -0.0379135 -0.029865 -0.0239455 -0.0206212 -0.0192124 -0.0187157 -0.0184375 -0.0180412 -0.0172112 -0.0156394 -0.0130835 -0.00946933 -0.00481194 0.00104257 0.00812591 0.0161476 0.024354 0.0315494 0.0370085 0.0408569 0.0442739 0.0487869 0.0553142 0.0634385 0.071772 0.0786193 0.0830923 0.0855833 0.0875004 0.0902757 0.0944013 0.0988164 0.101277 0.0992415 0.0909119 0.076114 0.0564842 0.0349697 0.0148342 -0.00174205 -0.0145057 -0.0251469 -0.0363152 -0.0501554 -0.0670489 -0.0852711 -0.101752 -0.113499 -0.118821 -0.117909 -0.11247 -0.104751 -0.0968037 -0.0895134 -0.0828503 -0.0758714 -0.0676863 -0.0583962 -0.0493763 -0.0430941 -0.0414864 -0.0443435 -0.048688 -0.0498124 -0.0443119 -0.0329022 -0.0213442 -0.0181694 -0.0299058 -0.056144 -0.0878116 -0.109508 -0.105919 -0.0696193 -0.00662749 0.0634341 0.111326 0.0877985 0.00650114 -0.0766735 -0.116425 -0.108073 -0.075176 -0.0420569 -0.0196496 -0.00779504 -0.00248628 -0.000206382 0.000998146 0.00179897 0.00222228 0.0021772 0.00114369 0 0 
0 0 0.000789286 0.00154573 0.00172054 0.00149064 0.000830176 -0.000155265 -0.00146481 -0.00375571 -0.00896861 -0.0206197 -0.0427455 -0.0755806 -0.108225 -0.116146 -0.0752546 0.0102617 0.094882 0.122126 0.07912 0.00777224 -0.0675481 -0.123135 -0.145048 -0.133381 -0.100298 -0.0632291 -0.0371367 -0.0288936 -0.0362119 -0.0508183 -0.0636016 -0.0691793 -0.0674468 -0.062345 -0.0588267 -0.0601711 -0.0668183 -0.0768929 -0.0875468 -0.0963966 -0.102449 -0.105977 -0.108179 -0.11011 -0.111902 -0.112432 -0.109808 -0.102451 -0.0900419 -0.0739783 -0.0568627 -0.0410935 -0.0278234 -0.0163568 -0.00485755 0.0086929 0.0251846 0.0439518 0.0628631 0.0793637 0.091245 0.09758 0.0989358 0.096885 0.0934738 0.0900899 0.087065 0.0835366 0.078408 0.0711081 0.0622139 0.0531578 0.045592 0.0403815 0.0372011 0.034732 0.0315663 0.0268787 0.0207057 0.013833 0.00705026 0.00106687 -0.00387764 -0.0076561 -0.0104002 -0.0122981 -0.0136986 -0.0146749 -0.0151366 -0.0149351 -0.0146875 -0.0156375 -0.0192499 -0.0259586 -0.0346629 -0.0430846 -0.0493458 -0.0527361 -0.0537244 -0.0525772 -0.0490389 -0.0426719 -0.0341847 -0.0254478 -0.0187434 -0.0151319 -0.0141779 -0.0143983 -0.0145421 -0.0140129 -0.0129726 -0.0115443 -0.00968604 -0.00706672 -0.003522 0.00111419 0.00674573 0.013162 0.0197145 0.0256188 0.0300933 0.0330671 0.0353604 0.0384271 0.0435684 0.0511424 0.0602486 0.0691918 0.0765583 0.0817933 0.085574 0.0890117 0.092906 0.0967868 0.0991305 0.0978329 0.0913286 0.0792219 0.0625464 0.0435336 0.0247338 0.00818659 -0.00545387 -0.0170603 -0.0285834 -0.041813 -0.0574196 -0.0742711 -0.0900279 -0.102145 -0.109225 -0.111614 -0.11088 -0.108927 -0.106867 -0.104612 -0.101098 -0.095165 -0.0865148 -0.0761328 -0.0663417 -0.0599319 -0.0587113 -0.0622058 -0.0671578 -0.0686513 -0.0628312 -0.0498789 -0.0352314 -0.0280133 -0.0364589 -0.0627637 -0.0997658 -0.132695 -0.144253 -0.122361 -0.0669049 0.00819335 0.0792909 0.122102 0.0948618 0.0104481 -0.0748135 -0.115562 -0.107647 -0.0751013 -0.0423826 -0.0203476 -0.00874793 -0.0035544 -0.00126759 3.6535e-05 0.00100083 0.00161833 0.00175993 0.000960473 0 0 
0 0 0.000678733 0.00129044 0.00133996 0.000950941 0.000139256 -0.000943018 -0.00228479 -0.00454376 -0.00961451 -0.0209323 -0.0425474 -0.0749274 -0.107478 -0.115623 -0.0745496 0.0125136 0.100112 0.131695 0.109288 0.0443566 -0.040641 -0.118884 -0.168416 -0.179703 -0.1575 -0.117017 -0.0766374 -0.0503641 -0.0433964 -0.0519173 -0.0669708 -0.0794833 -0.0844364 -0.0819874 -0.0761222 -0.0718292 -0.0725582 -0.0789447 -0.0890774 -0.0995116 -0.107155 -0.110319 -0.109375 -0.106181 -0.10282 -0.100358 -0.0982612 -0.0948854 -0.0884843 -0.078369 -0.0652428 -0.0506534 -0.0361824 -0.0224692 -0.00922469 0.00443963 0.0193221 0.0354941 0.0520515 0.0674825 0.0800489 0.0884867 0.0924451 0.092572 0.0902549 0.0869587 0.0836007 0.0801127 0.0758436 0.070097 0.0628927 0.055016 0.047699 0.0418824 0.0377527 0.034649 0.0315407 0.0276015 0.0225376 0.0166346 0.0103762 0.00436471 -0.000950583 -0.00522135 -0.00839429 -0.0106333 -0.012237 -0.0132675 -0.0134099 -0.012433 -0.0107456 -0.00982664 -0.0115349 -0.0168905 -0.0251985 -0.0342867 -0.041775 -0.0463516 -0.0478034 -0.0461799 -0.0414479 -0.0338587 -0.0247244 -0.0164077 -0.0110816 -0.00941037 -0.0103551 -0.012049 -0.0130178 -0.0128421 -0.0117596 -0.0101243 -0.00789898 -0.00482357 -0.000733161 0.00430987 0.0099952 0.0159253 0.0215246 0.0263346 0.0300628 0.0329716 0.0359308 0.0399386 0.0456917 0.0530149 0.0609232 0.0681648 0.0739672 0.0783903 0.0821872 0.0860286 0.0899071 0.0927283 0.0928982 0.0889647 0.0803252 0.0674884 0.0518304 0.0351279 0.0188512 0.00386092 -0.00991678 -0.0232356 -0.0369554 -0.051293 -0.0656442 -0.0784617 -0.0882787 -0.0943934 -0.0975431 -0.0994413 -0.101742 -0.104966 -0.108054 -0.108931 -0.105767 -0.0982187 -0.0879628 -0.0781176 -0.0720497 -0.0716169 -0.0761083 -0.0820432 -0.0843785 -0.0791934 -0.0663786 -0.051074 -0.0423928 -0.0493704 -0.0757758 -0.116365 -0.156747 -0.178812 -0.167492 -0.118082 -0.0400755 0.0446296 0.1093 0.131573 0.100029 0.0126673 -0.0741209 -0.115045 -0.106905 -0.0744474 -0.0421779 -0.0206497 -0.00938309 -0.00433561 -0.00208542 -0.000754855 0.000296624 0.00105218 0.00134786 0.000774029 0 0 
0 0 0.000563614 0.00103567 0.000981064 0.000475231 -0.000436415 -0.00157072 -0.00291168 -0.00510568 -0.00996532 -0.020818 -0.0417782 -0.0737049 -0.106519 -0.11565 -0.0752607 0.0127776 0.103068 0.157487 0.159721 0.109434 0.0221459 -0.0761433 -0.158014 -0.20408 -0.208591 -0.179612 -0.1344 -0.0916402 -0.0646444 -0.0574836 -0.0656902 -0.0800765 -0.0917394 -0.0957324 -0.0920924 -0.0847255 -0.0787512 -0.0778899 -0.0830514 -0.0921583 -0.101367 -0.10703 -0.107336 -0.102883 -0.0961051 -0.0897572 -0.0853311 -0.0826697 -0.0801623 -0.0760148 -0.0690062 -0.0589635 -0.046461 -0.0323064 -0.0172401 -0.00168356 0.0140829 0.0297368 0.0448124 0.0585278 0.0699306 0.0780317 0.0822547 0.0827193 0.0803506 0.0765497 0.0727543 0.0696969 0.0673402 0.0650819 0.062312 0.0588264 0.0547606 0.0504988 0.0463028 0.042094 0.0376618 0.0326927 0.0271493 0.0209843 0.0144136 0.00762484 0.0010133 -0.00491168 -0.00977246 -0.0134636 -0.0160974 -0.0176568 -0.0179731 -0.0167572 -0.0145347 -0.0127515 -0.0134443 -0.0178468 -0.0254475 -0.0342011 -0.0417034 -0.046411 -0.0479276 -0.0462305 -0.0413808 -0.0337957 -0.0250062 -0.0174174 -0.0130746 -0.012448 -0.0142886 -0.0165557 -0.0177876 -0.0174608 -0.015862 -0.0132008 -0.00950906 -0.00470443 0.00108139 0.00746271 0.0139773 0.0202459 0.0261306 0.0314397 0.0362038 0.0404527 0.0445035 0.0485899 0.0528009 0.0568579 0.0603624 0.0631574 0.0654886 0.0680253 0.0714486 0.0758098 0.0802415 0.0831437 0.0829698 0.078722 0.0703686 0.0586344 0.0446279 0.0293446 0.0135372 -0.00235393 -0.0180136 -0.0331133 -0.047189 -0.0594789 -0.0692362 -0.0759129 -0.079766 -0.0820224 -0.0845047 -0.0887815 -0.0950115 -0.101677 -0.106031 -0.105652 -0.09997 -0.0908261 -0.0818784 -0.0769844 -0.0781829 -0.0845053 -0.0921591 -0.0959565 -0.0919416 -0.0800877 -0.0653841 -0.05683 -0.0636939 -0.0905404 -0.133304 -0.178644 -0.207527 -0.202989 -0.157038 -0.0754421 0.0224977 0.109445 0.159505 0.157212 0.102925 0.012899 -0.0748446 -0.115078 -0.105952 -0.0732323 -0.0414131 -0.0205332 -0.00972878 -0.00489495 -0.00271453 -0.00139019 -0.000293642 0.00055279 0.000962521 0.000593086 0 0 
0 0 0.00045132 0.00079505 0.000659482 7.47137e-05 -0.000901264 -0.00206749 -0.00338724 -0.0054619 -0.0100061 -0.0202589 -0.0404611 -0.0719562 -0.105269 -0.115826 -0.0764259 0.0138869 0.114111 0.191835 0.223476 0.198096 0.121188 0.0132277 -0.0973865 -0.183649 -0.228564 -0.229385 -0.196611 -0.148681 -0.1045 -0.076729 -0.0689461 -0.0764074 -0.0899397 -0.10064 -0.103412 -0.0980836 -0.0885455 -0.0801622 -0.0770427 -0.0803366 -0.0878624 -0.0956154 -0.0997309 -0.0984724 -0.0925344 -0.084479 -0.0770835 -0.0719814 -0.0692029 -0.0674613 -0.0650107 -0.0602808 -0.0524454 -0.0412683 -0.0272767 -0.011402 0.00524464 0.0215621 0.0366394 0.0498148 0.0604253 0.0678683 0.0715411 0.0713155 0.0678679 0.0625954 0.0573432 0.0536873 0.0524285 0.0534243 0.0557614 0.0582751 0.0598922 0.0598435 0.0578157 0.0539323 0.048553 0.0423079 0.0356298 0.0288068 0.0217129 0.0142341 0.00644961 -0.00121998 -0.0082527 -0.0141934 -0.0189014 -0.0222942 -0.0241261 -0.0242327 -0.0229999 -0.0218492 -0.0225992 -0.0265092 -0.0330706 -0.0405255 -0.0467712 -0.0505966 -0.051776 -0.0504352 -0.0464863 -0.0401789 -0.0327034 -0.026177 -0.0223474 -0.0216839 -0.0229193 -0.0242172 -0.0241643 -0.0223361 -0.0189039 -0.014172 -0.00821278 -0.00120371 0.00636914 0.0139817 0.0212251 0.0280663 0.0346317 0.04109 0.0471363 0.0523238 0.0560658 0.0579831 0.0579763 0.056369 0.0538623 0.0515378 0.0506139 0.052082 0.0561763 0.0620614 0.0680212 0.0720299 0.0725155 0.0687697 0.0610159 0.0499793 0.0364468 0.0210885 0.00460154 -0.012177 -0.0281158 -0.0420732 -0.0530944 -0.0606547 -0.0650611 -0.0671778 -0.0686624 -0.0712258 -0.0761914 -0.0834873 -0.0914414 -0.0972886 -0.0984541 -0.0942555 -0.0864635 -0.0789693 -0.0757981 -0.0791636 -0.0878769 -0.09781 -0.103493 -0.101006 -0.0903922 -0.0767693 -0.0690198 -0.0764012 -0.103752 -0.147607 -0.195349 -0.228092 -0.227239 -0.18248 -0.0965358 0.0136454 0.121165 0.197729 0.222952 0.191363 0.113865 0.0139706 -0.0760219 -0.115259 -0.104712 -0.0714994 -0.0401092 -0.0199805 -0.00977136 -0.00525278 -0.00319526 -0.00189735 -0.000774045 0.00013122 0.000619456 0.000426571 0 0 
0 0 0.000349149 0.000579806 0.000383237 -0.000254857 -0.00127218 -0.00245149 -0.00371718 -0.00560579 -0.00974335 -0.0193126 -0.0387057 -0.0697815 -0.103707 -0.115857 -0.0777374 0.0124365 0.119873 0.219244 0.283736 0.293535 0.242861 0.142514 0.0167105 -0.104735 -0.195782 -0.241492 -0.241245 -0.207229 -0.158595 -0.114089 -0.0860798 -0.0778695 -0.0847496 -0.0975814 -0.10743 -0.108922 -0.101847 -0.0901146 -0.0793342 -0.0739614 -0.0751995 -0.0810275 -0.087479 -0.090877 -0.089416 -0.0836482 -0.0757003 -0.0679692 -0.0620587 -0.0583975 -0.0562064 -0.0540647 -0.0504272 -0.0439913 -0.034235 -0.0214701 -0.00673528 0.0086126 0.0233217 0.0364376 0.0473071 0.0552724 0.0597057 0.060127 0.0568139 0.0508988 0.0443225 0.039277 0.0374152 0.0394501 0.0447492 0.0518361 0.0586803 0.0634644 0.0648854 0.0626882 0.0574887 0.0505142 0.0430493 0.0358792 0.029097 0.0222922 0.015086 0.00746067 -0.000232639 -0.00760914 -0.0143878 -0.0202631 -0.0248567 -0.0277376 -0.0290199 -0.0296677 -0.031151 -0.0344686 -0.0393412 -0.0443763 -0.0481564 -0.0501727 -0.0506925 -0.0500433 -0.0479421 -0.0441198 -0.0390939 -0.0342686 -0.0310296 -0.0296605 -0.0291192 -0.0279267 -0.0251154 -0.0205319 -0.0146292 -0.00782032 -0.000410229 0.00729574 0.0148645 0.0219466 0.0285791 0.0351578 0.0420977 0.0493467 0.0561246 0.0611436 0.0631796 0.0616548 0.0568413 0.0499892 0.0429024 0.0376168 0.0356639 0.0377826 0.0433101 0.0505833 0.0572521 0.0611331 0.0609357 0.0563624 0.0479889 0.0366114 0.0230577 0.00803199 -0.00751208 -0.0223517 -0.0351093 -0.0447496 -0.0509568 -0.054283 -0.0560823 -0.0579576 -0.0613881 -0.0671341 -0.0747778 -0.0826503 -0.0883546 -0.0897347 -0.0862532 -0.0797084 -0.073811 -0.0725716 -0.0780282 -0.089006 -0.101059 -0.108545 -0.107474 -0.0980159 -0.0854118 -0.078563 -0.0865848 -0.114221 -0.158237 -0.206393 -0.240016 -0.240038 -0.194423 -0.103753 0.0171819 0.14244 0.242332 0.292736 0.282899 0.218585 0.119543 0.0124845 -0.0773433 -0.115297 -0.103163 -0.0693448 -0.0383736 -0.0190487 -0.00951726 -0.00540268 -0.00353282 -0.00229308 -0.00116096 -0.0002179 0.000325355 0.000281291 0 0 
0 0 0.000261668 0.000395993 0.0001534 -0.000523419 -0.00156231 -0.00272286 -0.00389002 -0.00554369 -0.00923688 -0.0181073 -0.0367013 -0.0674284 -0.102247 -0.116433 -0.0787955 -5.81287e-05 0.107734 0.223622 0.320443 0.372213 0.362588 0.290442 0.170858 0.0305823 -0.100157 -0.196295 -0.244447 -0.245563 -0.212675 -0.165117 -0.121395 -0.0936879 -0.085395 -0.0918921 -0.1043 -0.113588 -0.114313 -0.106166 -0.0930244 -0.0805558 -0.0731595 -0.0722363 -0.0760634 -0.0812126 -0.0842531 -0.0833885 -0.0785548 -0.0711025 -0.0629651 -0.0557275 -0.0502546 -0.0464934 -0.0435179 -0.0399636 -0.0346171 -0.0268646 -0.0168964 -0.00555653 0.00624449 0.0176483 0.0280907 0.0369497 0.0434948 0.0468239 0.0464757 0.0428697 0.0374073 0.0322507 0.0295252 0.0307395 0.03605 0.0443598 0.0535385 0.0610853 0.0649717 0.0642392 0.0593149 0.0517978 0.0435984 0.036264 0.0303431 0.0254246 0.0207455 0.0155982 0.00968472 0.00295961 -0.00451314 -0.0122801 -0.0196953 -0.025814 -0.0300896 -0.0328077 -0.0348756 -0.0371241 -0.0394302 -0.0410608 -0.0414443 -0.041012 -0.0406698 -0.0409363 -0.0413327 -0.040936 -0.0393265 -0.0370852 -0.0349394 -0.0329917 -0.0303847 -0.0261984 -0.0201592 -0.0127742 -0.00498013 0.00252868 0.00930683 0.0152604 0.0203966 0.0250001 0.0298014 0.0355675 0.0427081 0.0507133 0.0580316 0.0627506 0.0633346 0.0593554 0.0517639 0.0425843 0.0342683 0.0289623 0.0278493 0.0308653 0.0365721 0.0428016 0.0472035 0.048117 0.0449713 0.0382115 0.0288302 0.0177895 0.00587264 -0.00627924 -0.0178029 -0.0278184 -0.0354945 -0.0406461 -0.0439104 -0.0465359 -0.0499755 -0.055162 -0.0622185 -0.0702363 -0.0776271 -0.0824096 -0.0832322 -0.0801219 -0.0748943 -0.0709602 -0.0717989 -0.0791608 -0.0916667 -0.104956 -0.113377 -0.11304 -0.104213 -0.0922721 -0.0861499 -0.0946431 -0.122331 -0.165786 -0.212889 -0.245218 -0.243552 -0.194975 -0.0990774 0.0310848 0.170715 0.289735 0.3615 0.370994 0.319349 0.222845 0.107381 -4.46619e-06 -0.0784164 -0.115883 -0.101719 -0.0670127 -0.0363912 -0.0178631 -0.00902632 -0.00535181 -0.00371555 -0.00257658 -0.00146699 -0.000505376 7.99831e-05 0.000160346 0 0 
0 0 0.000189464 0.000244138 -3.20059e-05 -0.000735465 -0.00177405 -0.00287829 -0.00390856 -0.00531293 -0.00857698 -0.016774 -0.0345875 -0.065059 -0.101353 -0.120434 -0.0937887 -0.0295104 0.0712118 0.194897 0.317771 0.411744 0.452426 0.426894 0.337882 0.20352 0.0518708 -0.0868929 -0.188455 -0.240652 -0.245178 -0.21531 -0.170105 -0.127838 -0.100739 -0.0923678 -0.098623 -0.110827 -0.1201 -0.121039 -0.11306 -0.099742 -0.0863 -0.0770011 -0.073484 -0.0747479 -0.0781345 -0.0808172 -0.0807261 -0.0770994 -0.0704698 -0.0620661 -0.0535361 -0.0460631 -0.0401697 -0.0355043 -0.0312346 -0.0265515 -0.0210584 -0.0147717 -0.00800761 -0.000850311 0.0066597 0.0145212 0.022141 0.0286395 0.0328894 0.0343364 0.0332758 0.0310316 0.0294513 0.0302833 0.0344474 0.0416878 0.0503209 0.0580093 0.0623371 0.0618507 0.0565392 0.0479632 0.0384086 0.030066 0.0241435 0.0205571 0.0183957 0.0163821 0.0134439 0.00882144 0.00217772 -0.00626116 -0.0154991 -0.0241098 -0.0307627 -0.034988 -0.0371278 -0.0378298 -0.0372401 -0.0352472 -0.0321943 -0.0292822 -0.0280793 -0.0292732 -0.0321996 -0.0352824 -0.0373206 -0.0380008 -0.0374004 -0.0353659 -0.0312587 -0.0247117 -0.0161673 -0.00695327 0.00150903 0.00819616 0.0128794 0.0158829 0.0179376 0.020072 0.0235933 0.0294047 0.0375937 0.0469671 0.0553489 0.0604568 0.0607827 0.0563517 0.0486393 0.0399918 0.032736 0.0285791 0.027852 0.0297669 0.0326211 0.0345168 0.0339101 0.0302231 0.0238406 0.0158947 0.00740566 -0.000792542 -0.00852181 -0.0156508 -0.0220818 -0.0275585 -0.0320821 -0.0360879 -0.0404145 -0.045962 -0.0531261 -0.0614158 -0.0696713 -0.0762248 -0.0798149 -0.0798774 -0.0771635 -0.0737078 -0.0723717 -0.0757851 -0.0849815 -0.0983561 -0.111663 -0.119735 -0.119014 -0.110083 -0.0983366 -0.0925986 -0.101467 -0.128941 -0.171385 -0.216515 -0.246044 -0.24101 -0.188199 -0.0860897 0.0523218 0.203276 0.336981 0.425519 0.450848 0.41023 0.316565 0.194124 0.0709207 -0.0293955 -0.0933848 -0.119885 -0.100841 -0.064664 -0.0343006 -0.0165531 -0.00838686 -0.00513691 -0.00374677 -0.00274459 -0.00169387 -0.000735341 -0.000118929 6.33098e-05 0 0 
0 0 0.000130246 0.000121583 -0.000174391 -0.000887817 -0.00190385 -0.00292589 -0.00380292 -0.00496581 -0.00782962 -0.0153705 -0.0323617 -0.0624097 -0.0996489 -0.122144 -0.115937 -0.0722753 0.0126864 0.132656 0.269918 0.398343 0.489709 0.521632 0.48411 0.382823 0.237661 0.077215 -0.0684643 -0.175868 -0.233326 -0.242735 -0.21706 -0.174888 -0.134291 -0.107622 -0.0989584 -0.104753 -0.116864 -0.126775 -0.128978 -0.12249 -0.110047 -0.096124 -0.084742 -0.0780295 -0.0760657 -0.0773219 -0.0794833 -0.0803111 -0.0783769 -0.073169 -0.0653937 -0.05632 -0.047218 -0.0389585 -0.0318239 -0.0258408 -0.0208934 -0.0170204 -0.0140944 -0.0116784 -0.00890088 -0.00489285 0.000775167 0.00774852 0.0149176 0.0211609 0.0256618 0.028503 0.0306089 0.0332241 0.037527 0.0438461 0.0513893 0.0582816 0.0623609 0.0617963 0.0561685 0.0465875 0.0353573 0.0250198 0.0173823 0.012944 0.0110126 0.0101918 0.008971 0.0060143 0.000478741 -0.00769791 -0.0175231 -0.0272623 -0.035094 -0.0400038 -0.0419655 -0.0414235 -0.0387632 -0.0343315 -0.0290116 -0.0245042 -0.022726 -0.0245636 -0.0291465 -0.0345482 -0.0390615 -0.0418193 -0.0424686 -0.0406109 -0.0358049 -0.028059 -0.0183843 -0.00857587 -0.000378135 0.00521121 0.00824318 0.00955829 0.0104449 0.0124069 0.0168429 0.0244178 0.0346354 0.0456941 0.0550801 0.0604989 0.0608993 0.0567309 0.0498028 0.0422459 0.0359067 0.0315897 0.0290807 0.0273477 0.0251917 0.0215896 0.0162168 0.00958685 0.00266867 -0.00343555 -0.00820094 -0.0117494 -0.0147803 -0.0180584 -0.0220113 -0.0268584 -0.0326004 -0.0394105 -0.0473125 -0.0560695 -0.0648784 -0.0724558 -0.077557 -0.0794462 -0.0785954 -0.0764279 -0.075143 -0.077059 -0.0836897 -0.0949741 -0.108794 -0.121147 -0.127587 -0.125407 -0.115635 -0.103798 -0.0984258 -0.107597 -0.134844 -0.175959 -0.21851 -0.244353 -0.234833 -0.177011 -0.0690501 0.0772097 0.237223 0.381695 0.482446 0.519697 0.487803 0.396724 0.268766 0.132033 0.0125529 -0.0720374 -0.11548 -0.121611 -0.0991586 -0.0620392 -0.0321001 -0.0151744 -0.00766225 -0.00480938 -0.00365706 -0.00280564 -0.00183749 -0.000903256 -0.000272323 -1.19642e-05 0 0 
0 0 8.15328e-05 2.56113e-05 -0.000274239 -0.000976533 -0.00195202 -0.00288539 -0.00361459 -0.00454922 -0.00702442 -0.0138842 -0.0299365 -0.0593113 -0.0973837 -0.128876 -0.140673 -0.120133 -0.0582736 0.0458801 0.182429 0.330773 0.463461 0.552904 0.578646 0.533031 0.423618 0.27107 0.104155 -0.0475409 -0.160932 -0.224464 -0.23967 -0.218807 -0.179949 -0.140899 -0.114228 -0.10464 -0.109378 -0.121211 -0.132084 -0.13638 -0.13228 -0.12136 -0.107184 -0.0935494 -0.083383 -0.078006 -0.0770064 -0.0786527 -0.0806762 -0.0808647 -0.0780123 -0.0719545 -0.0632719 -0.0530236 -0.0422813 -0.0320375 -0.0233203 -0.0169851 -0.0135605 -0.0127432 -0.013427 -0.0138857 -0.012617 -0.00876157 -0.00253431 0.0051116 0.0129484 0.0200995 0.0263304 0.0320916 0.0381885 0.045174 0.0528548 0.0600752 0.0649409 0.0656478 0.0612574 0.0523036 0.0405991 0.0286481 0.0185842 0.0114819 0.00722124 0.00479784 0.00279579 -0.000194075 -0.00527893 -0.0128428 -0.0221406 -0.0315665 -0.0393358 -0.0443125 -0.0463008 -0.0457403 -0.0429987 -0.038472 -0.0331184 -0.0286319 -0.0269123 -0.0287652 -0.0333906 -0.0388808 -0.0435298 -0.0463867 -0.0470536 -0.0451511 -0.0402636 -0.0325733 -0.0231877 -0.0138888 -0.00629966 -0.00115205 0.00193542 0.00403802 0.00657054 0.0109206 0.0180549 0.0280946 0.039961 0.0515224 0.0602832 0.0644548 0.0635874 0.0586309 0.0513815 0.0436829 0.0366578 0.0305465 0.0248965 0.0190603 0.0126485 0.00577556 -0.000974664 -0.00667743 -0.0105724 -0.0124107 -0.0128039 -0.0129797 -0.0144369 -0.0181679 -0.0245172 -0.0330306 -0.042951 -0.0533342 -0.063211 -0.071584 -0.0774134 -0.0801165 -0.0798599 -0.077811 -0.0761604 -0.077149 -0.0825102 -0.0926393 -0.106195 -0.120285 -0.131098 -0.135089 -0.130726 -0.119817 -0.108064 -0.103498 -0.113428 -0.14057 -0.180199 -0.219676 -0.241088 -0.226286 -0.162917 -0.04941 0.102674 0.270067 0.422202 0.531071 0.576381 0.550649 0.461488 0.329277 0.181508 0.0455114 -0.0581879 -0.119748 -0.140147 -0.128338 -0.0969258 -0.0589711 -0.0297023 -0.0137128 -0.00688058 -0.00441484 -0.00348722 -0.00277963 -0.00189807 -0.00100424 -0.00038035 -6.741e-05 0 0 
0 0 4.26259e-05 -4.50217e-05 -0.000332882 -0.00100444 -0.00192855 -0.00277978 -0.00337794 -0.00409639 -0.00617625 -0.0123077 -0.027307 -0.0559252 -0.0951333 -0.133656 -0.160682 -0.163138 -0.128774 -0.0504156 0.0700926 0.220036 0.376928 0.512953 0.601444 0.623679 0.57368 0.459791 0.302948 0.131605 -0.0251403 -0.144443 -0.214521 -0.236103 -0.220592 -0.185239 -0.147514 -0.120195 -0.10867 -0.111439 -0.122348 -0.134033 -0.140661 -0.139301 -0.130241 -0.116047 -0.10049 -0.0872184 -0.0787004 -0.0756027 -0.0767819 -0.0799345 -0.0824874 -0.0824667 -0.0787287 -0.0711021 -0.0601572 -0.0471012 -0.0337183 -0.0220287 -0.013789 -0.00982729 -0.00976609 -0.0119348 -0.0142074 -0.0146102 -0.0121407 -0.00679715 0.000552867 0.008774 0.0170089 0.0248853 0.0326868 0.0408575 0.0495064 0.0579337 0.0647644 0.0681714 0.066897 0.0607512 0.0509031 0.0393444 0.0281639 0.0187929 0.0117153 0.00657798 0.00254817 -0.00146826 -0.00642658 -0.0129049 -0.0206173 -0.0284423 -0.0350528 -0.0396079 -0.0421101 -0.0429212 -0.0422774 -0.0401813 -0.0371193 -0.0342946 -0.0332119 -0.0345115 -0.0375351 -0.0407825 -0.0430456 -0.0438254 -0.0431174 -0.0406912 -0.0362025 -0.0296296 -0.0218279 -0.0141087 -0.00759091 -0.00255178 0.00156668 0.00572061 0.0110003 0.0182051 0.0276579 0.0388538 0.0503563 0.0600676 0.0660173 0.0670863 0.0635254 0.0566139 0.0481584 0.0394861 0.031263 0.0234179 0.0156484 0.00785355 0.000435083 -0.00590721 -0.0103322 -0.012319 -0.0120601 -0.0104743 -0.00926895 -0.0102581 -0.0148372 -0.0233384 -0.0349412 -0.0480454 -0.0607152 -0.0712555 -0.0785239 -0.0819883 -0.0818217 -0.0791764 -0.075976 -0.0747915 -0.0778894 -0.0863963 -0.0996588 -0.115174 -0.129309 -0.138299 -0.139557 -0.132832 -0.121051 -0.110067 -0.107315 -0.118929 -0.146488 -0.184589 -0.220476 -0.236625 -0.215703 -0.146221 -0.0273387 0.129241 0.300699 0.457813 0.571375 0.621102 0.59886 0.510657 0.375139 0.218861 0.0695311 -0.0504567 -0.128449 -0.162607 -0.160097 -0.133118 -0.0947033 -0.0556172 -0.0271019 -0.0121615 -0.00605613 -0.0039846 -0.00327018 -0.00268918 -0.00188602 -0.00104153 -0.000444808 -0.000104118 0 0 
0 0 1.43612e-05 -9.08873e-05 -0.000354029 -0.00098224 -0.00185084 -0.00262936 -0.00311239 -0.00362412 -0.00529852 -0.0106503 -0.0245201 -0.0525503 -0.0899622 -0.131963 -0.170247 -0.192947 -0.186684 -0.140069 -0.0479144 0.0856021 0.245679 0.408911 0.547715 0.636547 0.658083 0.607126 0.492206 0.333908 0.160048 -0.000793073 -0.125885 -0.202896 -0.231587 -0.222124 -0.190702 -0.154158 -0.125372 -0.110802 -0.11033 -0.119311 -0.131167 -0.13973 -0.140995 -0.133934 -0.120268 -0.103623 -0.0881946 -0.0772478 -0.0722285 -0.07264 -0.0763583 -0.0807338 -0.0831594 -0.0816963 -0.0753534 -0.064278 -0.0498861 -0.0345244 -0.0209736 -0.011407 -0.00681513 -0.00650121 -0.00869609 -0.0109962 -0.0115685 -0.00945905 -0.00472178 0.00185028 0.00927482 0.016904 0.0246232 0.0326351 0.0412066 0.0499602 0.0579447 0.0635479 0.0653303 0.0626938 0.0560765 0.0468822 0.0368372 0.0274204 0.0194109 0.0130356 0.0080195 0.00388377 -0.000165816 -0.00464802 -0.00972964 -0.0148998 -0.0195474 -0.0233693 -0.0266252 -0.0296803 -0.0323977 -0.0342161 -0.0348154 -0.0346225 -0.0345067 -0.0349108 -0.0353656 -0.0350078 -0.0333925 -0.0308389 -0.0278899 -0.0246933 -0.020908 -0.016279 -0.0110925 -0.00597214 -0.00144288 0.00268608 0.00694318 0.0121061 0.0186478 0.0268264 0.0363567 0.0464473 0.0556176 0.0621089 0.0645523 0.062568 0.0568267 0.0487814 0.0400097 0.0314 0.0233004 0.0155195 0.00800149 0.00103483 -0.00467293 -0.00835148 -0.00953482 -0.00852543 -0.00648009 -0.0050994 -0.00647565 -0.0120377 -0.0222064 -0.0359276 -0.0511111 -0.0651333 -0.075764 -0.0816938 -0.0828202 -0.0801544 -0.0756436 -0.0718643 -0.0714355 -0.0764692 -0.0874105 -0.102834 -0.119464 -0.133098 -0.140121 -0.138794 -0.130162 -0.118213 -0.109142 -0.109519 -0.12403 -0.15283 -0.189501 -0.221203 -0.231085 -0.202987 -0.126649 -0.0022677 0.15795 0.331362 0.489474 0.604391 0.655187 0.633689 0.545163 0.406891 0.244306 0.0848874 -0.0480531 -0.139783 -0.186142 -0.192311 -0.169633 -0.131445 -0.0895709 -0.052282 -0.0243463 -0.0105308 -0.00520165 -0.00353375 -0.00302373 -0.00255411 -0.00181953 -0.0010274 -0.000470537 -0.000122868 0 0 
0 0 -2.95818e-06 -0.000113995 -0.000343342 -0.000923392 -0.00173746 -0.00244951 -0.00282721 -0.00314296 -0.00441094 -0.00889924 -0.021067 -0.0460152 -0.080231 -0.122363 -0.167157 -0.205186 -0.223843 -0.209932 -0.153236 -0.0503402 0.0927533 0.260049 0.427925 0.569502 0.660392 0.684012 0.635313 0.522489 0.365321 0.190725 0.0266546 -0.104163 -0.188775 -0.225634 -0.223327 -0.196525 -0.161173 -0.130343 -0.111626 -0.106688 -0.112532 -0.123384 -0.13292 -0.136319 -0.131347 -0.118993 -0.102547 -0.0862217 -0.0736891 -0.0669238 -0.0659623 -0.0692363 -0.0741515 -0.0779265 -0.0780177 -0.0729621 -0.0627348 -0.0487923 -0.0338846 -0.0207745 -0.0115786 -0.00690216 -0.00584369 -0.00655739 -0.00701922 -0.00590477 -0.00272708 0.00215183 0.00800138 0.0141406 0.0202875 0.0266002 0.0333601 0.0404764 0.0472847 0.0525885 0.0550904 0.0540626 0.0496746 0.0428811 0.0350547 0.0274563 0.0208766 0.0156633 0.0118837 0.0093042 0.00747185 0.00573089 0.00372306 0.00138983 -0.00120656 -0.00429736 -0.00833787 -0.0136187 -0.0196435 -0.0252873 -0.0294654 -0.0318238 -0.0326822 -0.0321755 -0.0301394 -0.026254 -0.0208558 -0.0150081 -0.00983986 -0.00585703 -0.00277832 -0.000156082 0.00222902 0.00428213 0.00609292 0.00802827 0.0107394 0.0146778 0.0200799 0.0268432 0.0345963 0.0425083 0.0492882 0.0535555 0.0543971 0.0517133 0.0462967 0.0394476 0.032335 0.0255433 0.0191112 0.0128585 0.00681039 0.00144683 -0.00253025 -0.00460019 -0.00478645 -0.00394697 -0.00359773 -0.00559098 -0.0114244 -0.021606 -0.0352681 -0.0502547 -0.063928 -0.0737095 -0.0782868 -0.0777767 -0.0736957 -0.0685792 -0.0652104 -0.0661497 -0.0729108 -0.0854577 -0.101788 -0.118232 -0.130574 -0.135519 -0.132096 -0.122523 -0.111615 -0.105696 -0.110546 -0.129178 -0.159916 -0.195221 -0.222043 -0.224505 -0.187944 -0.1038 0.026397 0.189755 0.363607 0.520117 0.63247 0.680867 0.657278 0.566733 0.42572 0.258529 0.0919382 -0.0505407 -0.152965 -0.209368 -0.223156 -0.204497 -0.166562 -0.121895 -0.0798919 -0.0457909 -0.0209293 -0.00880743 -0.00433673 -0.00307244 -0.00275611 -0.00238911 -0.00171758 -0.000976858 -0.000464591 -0.000125173 0 0 
0 0 -1.14685e-05 -0.00011941 -0.000307658 -0.000838641 -0.0016021 -0.00225335 -0.00253386 -0.00266634 -0.00355885 -0.00731482 -0.0183356 -0.0377783 -0.0669322 -0.106063 -0.152537 -0.199793 -0.237404 -0.252501 -0.232348 -0.167966 -0.0574118 0.0921093 0.264225 0.435674 0.580598 0.675381 0.703656 0.660169 0.552256 0.39861 0.224951 0.0584614 -0.0782183 -0.171339 -0.21777 -0.224031 -0.202939 -0.16927 -0.136298 -0.112794 -0.102372 -0.103735 -0.112045 -0.121169 -0.125769 -0.122942 -0.11282 -0.0980328 -0.0823668 -0.0692975 -0.0610839 -0.058317 -0.0600051 -0.0639766 -0.067547 -0.068158 -0.064318 -0.0560296 -0.0448165 -0.0330921 -0.0231008 -0.0161447 -0.0121214 -0.00993842 -0.00808856 -0.00537155 -0.00128039 0.00396675 0.00970858 0.0153483 0.0206037 0.0255081 0.0303456 0.0350977 0.0393477 0.042243 0.0428776 0.0407289 0.036089 0.0299266 0.0234041 0.0176522 0.0132485 0.0103959 0.00900569 0.00882931 0.00933877 0.00997091 0.0101399 0.0095782 0.0079796 0.00502999 9.20925e-05 -0.00689799 -0.015265 -0.0234751 -0.0300365 -0.034112 -0.0355917 -0.0345208 -0.0308223 -0.0246027 -0.0166712 -0.00849501 -0.00162181 0.00326324 0.00622592 0.00787322 0.00851707 0.00843383 0.00789451 0.00748615 0.00780656 0.00937572 0.0124275 0.0170391 0.0229624 0.0295852 0.0357553 0.0402826 0.0422486 0.0414523 0.0384758 0.0342333 0.0295094 0.0246278 0.0195675 0.0141769 0.00860841 0.003364 -0.000933107 -0.00388831 -0.00569098 -0.00723361 -0.00988844 -0.0149589 -0.0231371 -0.0341228 -0.0463352 -0.0575287 -0.0654518 -0.0687777 -0.0676716 -0.0637002 -0.0594501 -0.0576058 -0.0603056 -0.0685186 -0.0816101 -0.097298 -0.112088 -0.122212 -0.125024 -0.120409 -0.11127 -0.102931 -0.101547 -0.111927 -0.135361 -0.168251 -0.2018 -0.222814 -0.216491 -0.170099 -0.0771296 0.0592266 0.22523 0.398228 0.551131 0.658268 0.701075 0.672241 0.577679 0.433348 0.262619 0.0912372 -0.0576362 -0.167681 -0.231744 -0.251743 -0.236644 -0.199118 -0.151993 -0.105668 -0.0666636 -0.0376076 -0.0182317 -0.00725008 -0.0035068 -0.00261407 -0.00247856 -0.00220645 -0.00159333 -0.000901218 -0.000434923 -0.000114057 0 0 
0 0 -1.57453e-05 -0.000115162 -0.000255407 -0.000735745 -0.0014532 -0.00205091 -0.0022419 -0.0022022 -0.00271989 -0.00551059 -0.0139226 -0.0285567 -0.0519711 -0.0858376 -0.129752 -0.180062 -0.229251 -0.266326 -0.278514 -0.253769 -0.184198 -0.0688988 0.0844259 0.259567 0.43415 0.583176 0.683459 0.718674 0.682988 0.582629 0.434811 0.263747 0.0956139 -0.0471037 -0.149781 -0.207339 -0.223915 -0.210008 -0.179235 -0.144726 -0.116552 -0.100044 -0.0955558 -0.0995417 -0.106501 -0.111183 -0.110318 -0.103282 -0.0916966 -0.0783791 -0.0662327 -0.0574506 -0.0529681 -0.052372 -0.0541379 -0.0560241 -0.0560535 -0.0531925 -0.0476826 -0.0408177 -0.0342253 -0.0290203 -0.025292 -0.0223241 -0.0190098 -0.0145599 -0.00873427 -0.00186546 0.00532243 0.0122522 0.0185225 0.0241385 0.0290889 0.0333758 0.036484 0.0377627 0.0364342 0.03243 0.0262308 0.0191049 0.012431 0.00731031 0.00417669 0.00298305 0.00331938 0.00461197 0.00627498 0.00751609 0.00786246 0.00700347 0.0047316 0.00074633 -0.00534257 -0.0135096 -0.0229722 -0.0321496 -0.039558 -0.0442277 -0.0459275 -0.0446845 -0.0404318 -0.0334085 -0.0245378 -0.015283 -0.00724114 -0.00119763 0.00281348 0.00516813 0.00614303 0.00590169 0.00477092 0.00323978 0.00209076 0.00193724 0.00334911 0.0066967 0.0119999 0.018794 0.025913 0.0320068 0.0358535 0.0370498 0.0357446 0.0326944 0.0284551 0.0234506 0.0176502 0.0111959 0.00431241 -0.00237994 -0.00827295 -0.0129296 -0.0164762 -0.0195631 -0.0231085 -0.0279868 -0.0344777 -0.0420201 -0.0492982 -0.0546871 -0.057102 -0.0565148 -0.0541304 -0.0519941 -0.0523403 -0.0567076 -0.0654539 -0.0776156 -0.0909717 -0.102573 -0.109609 -0.110479 -0.105783 -0.098824 -0.0948285 -0.0993065 -0.115809 -0.143963 -0.178429 -0.209141 -0.222942 -0.206262 -0.14859 -0.0458599 0.0968405 0.264807 0.435541 0.58285 0.682536 0.71745 0.681444 0.580438 0.431776 0.257936 0.0835533 -0.0690961 -0.183871 -0.253102 -0.277683 -0.265486 -0.228497 -0.179454 -0.129303 -0.0855291 -0.0517766 -0.0284405 -0.0138563 -0.00547348 -0.00268884 -0.00216711 -0.00220046 -0.00201533 -0.00145402 -0.000807344 -0.000390134 -9.43862e-05 0 0 
0 0 -2.09192e-05 -0.000110203 -0.000197467 -0.000623591 -0.00129645 -0.00184738 -0.00196065 -0.0017724 -0.00199921 -0.00417009 -0.00947456 -0.0196838 -0.0373 -0.064685 -0.10301 -0.151105 -0.204508 -0.255069 -0.291629 -0.301728 -0.274124 -0.201764 -0.0842635 0.0706944 0.247616 0.425049 0.578646 0.685695 0.729751 0.704212 0.613957 0.474277 0.307638 0.138836 -0.00993381 -0.122993 -0.193227 -0.221937 -0.217283 -0.19132 -0.156901 -0.124917 -0.102161 -0.0907094 -0.0885704 -0.0914949 -0.0949119 -0.0956159 -0.0922322 -0.0851918 -0.0759947 -0.0666082 -0.0587788 -0.0534704 -0.0507473 -0.0496255 -0.0488629 -0.0473893 -0.0449665 -0.0421288 -0.0397174 -0.0382788 -0.0375551 -0.0367488 -0.0347908 -0.0310085 -0.0253047 -0.0181096 -0.0101269 -0.00190015 0.00616957 0.0139826 0.0214024 0.028109 0.0333673 0.0362339 0.0359356 0.0323077 0.0260265 0.0185654 0.0116003 0.00638757 0.00350847 0.00272148 0.00338059 0.00463962 0.00567651 0.00575474 0.00443771 0.00158608 -0.00270906 -0.00852269 -0.0159014 -0.0247382 -0.0341996 -0.0430476 -0.0499808 -0.054332 -0.0559319 -0.0548234 -0.0509198 -0.0443971 -0.0358847 -0.0266416 -0.0179446 -0.0106115 -0.00475446 -0.000358886 0.00262517 0.00407885 0.00413619 0.00323774 0.0021372 0.00167278 0.00268236 0.00578032 0.0111732 0.0182417 0.0256999 0.0318792 0.0353661 0.0355852 0.0327546 0.0276216 0.0210035 0.013518 0.0054686 -0.00284648 -0.0110595 -0.018535 -0.0247303 -0.0292516 -0.0321548 -0.0339506 -0.0354355 -0.0374062 -0.0401573 -0.0435038 -0.0466587 -0.0488548 -0.0498104 -0.0499827 -0.0506219 -0.0529994 -0.0581008 -0.0658499 -0.0752166 -0.0844419 -0.0915179 -0.0949259 -0.0942335 -0.090816 -0.0878856 -0.090027 -0.101469 -0.124244 -0.156233 -0.190664 -0.216599 -0.221208 -0.192417 -0.122081 -0.00888715 0.140008 0.308884 0.475506 0.615021 0.704939 0.729959 0.685222 0.577394 0.423019 0.246024 0.0698669 -0.0844022 -0.201365 -0.27338 -0.30081 -0.290704 -0.254233 -0.203832 -0.150599 -0.102666 -0.0644695 -0.0371783 -0.0196216 -0.00944519 -0.0041569 -0.0019879 -0.00175322 -0.00193133 -0.00182039 -0.00130391 -0.000702415 -0.000339951 -7.22484e-05 0 0 
0 0 -3.04099e-05 -0.000111541 -0.000145844 -0.000514327 -0.00114092 -0.00165057 -0.00169963 -0.00137991 -0.00128863 -0.00248053 -0.00554742 -0.0121037 -0.0244214 -0.0450504 -0.0761136 -0.118282 -0.169718 -0.2254 -0.27687 -0.313106 -0.322109 -0.29337 -0.220377 -0.102881 0.0519553 0.229522 0.409195 0.567473 0.68217 0.736682 0.723563 0.645934 0.51692 0.356779 0.188645 0.0343447 -0.0895393 -0.173607 -0.216409 -0.223455 -0.204963 -0.173108 -0.139005 -0.110535 -0.0914208 -0.0816347 -0.0787168 -0.079428 -0.0808896 -0.0811756 -0.0794985 -0.0759172 -0.0712273 -0.0662819 -0.0617716 -0.0577905 -0.0541174 -0.050471 -0.046954 -0.0441324 -0.0426642 -0.0428661 -0.0442915 -0.0459028 -0.0465204 -0.0453249 -0.0421158 -0.0371629 -0.0309223 -0.0237064 -0.0156367 -0.00662473 0.00316688 0.0132593 0.0226253 0.0299036 0.0338391 0.0338954 0.0304636 0.024958 0.0191369 0.0145314 0.011866 0.011048 0.0113613 0.0118489 0.0116265 0.0100061 0.00666236 0.00166954 -0.00462952 -0.0120133 -0.0201982 -0.0289982 -0.0376428 -0.0452622 -0.0509712 -0.0544807 -0.0557891 -0.054988 -0.0519515 -0.0466726 -0.0393993 -0.0309938 -0.0223423 -0.0141999 -0.00677156 -0.000359501 0.00478463 0.00827942 0.0100551 0.0104361 0.010119 0.0100064 0.0110512 0.0139264 0.0187002 0.0246118 0.0300812 0.0334036 0.0332507 0.0292958 0.0221365 0.0129792 0.00301871 -0.00685427 -0.0161405 -0.0245205 -0.0317772 -0.0375202 -0.0414691 -0.0434787 -0.0438063 -0.043108 -0.0422682 -0.0421584 -0.0432946 -0.0456306 -0.0486777 -0.0518735 -0.0549428 -0.0580118 -0.061524 -0.0657388 -0.0705169 -0.0751547 -0.0787297 -0.0804478 -0.0801963 -0.0787667 -0.0780655 -0.0809835 -0.0907641 -0.109892 -0.138353 -0.17248 -0.204354 -0.222866 -0.215834 -0.173007 -0.0888898 0.0350988 0.189529 0.357815 0.518097 0.647195 0.724812 0.73777 0.682923 0.567717 0.40876 0.228367 0.0512421 -0.102913 -0.21988 -0.292516 -0.321097 -0.312083 -0.275956 -0.224655 -0.169161 -0.117901 -0.0758778 -0.0449205 -0.0243624 -0.0120873 -0.00555149 -0.00249072 -0.0012953 -0.00137545 -0.00168099 -0.00162969 -0.00115144 -0.000596691 -0.000294061 -5.35376e-05 0 0 
0 0 -4.47811e-05 -0.000121828 -0.000109379 -0.000420477 -0.00099815 -0.00146785 -0.0014635 -0.00104767 -0.000755715 -0.00104874 -0.00249649 -0.00622923 -0.0141016 -0.0284953 -0.0518693 -0.0860583 -0.131254 -0.185144 -0.242316 -0.29438 -0.330604 -0.339554 -0.3113 -0.239621 -0.124041 0.0289776 0.205723 0.386686 0.549438 0.672338 0.73875 0.740155 0.677743 0.562108 0.410892 0.245398 0.0867143 -0.0476401 -0.146201 -0.204795 -0.226171 -0.218403 -0.192262 -0.158506 -0.125665 -0.0990144 -0.0807281 -0.0705656 -0.0670155 -0.0678487 -0.0709441 -0.0744758 -0.0772197 -0.0785902 -0.0783802 -0.0764817 -0.0729141 -0.0679096 -0.0620688 -0.0564543 -0.0521556 -0.0498519 -0.0494571 -0.0501608 -0.0509533 -0.05098 -0.0499464 -0.0478825 -0.0449443 -0.0409454 -0.0355694 -0.0282504 -0.0188118 -0.00753224 0.00447244 0.0155958 0.0241348 0.0289065 0.0297739 0.0276645 0.024241 0.0210583 0.0191256 0.0185011 0.0186917 0.0187754 0.0179386 0.0155215 0.0113574 0.00558126 -0.00135626 -0.00903288 -0.0170417 -0.0249922 -0.0322765 -0.0382989 -0.0426185 -0.0451696 -0.0461611 -0.0456747 -0.0436049 -0.0397245 -0.034056 -0.0270249 -0.0192335 -0.0112728 -0.00355345 0.00349752 0.00943148 0.0137635 0.0163472 0.0173611 0.0174619 0.0174832 0.0183289 0.0204596 0.0237811 0.0272607 0.0293041 0.0283246 0.0234813 0.0150044 0.00410281 -0.0076075 -0.0186955 -0.0282183 -0.0358781 -0.0416418 -0.0457287 -0.0481919 -0.0492436 -0.0490641 -0.0482133 -0.0473983 -0.0475408 -0.0493146 -0.0529398 -0.058056 -0.0638048 -0.0692356 -0.0736067 -0.0765697 -0.0780368 -0.0779984 -0.0765053 -0.0737228 -0.0702057 -0.0671478 -0.0663439 -0.0699222 -0.0800908 -0.09839 -0.125039 -0.157895 -0.191651 -0.21783 -0.225614 -0.204267 -0.145699 -0.0471479 0.087231 0.245989 0.411597 0.562971 0.678774 0.741347 0.740031 0.673614 0.550565 0.387495 0.206035 0.0286989 -0.123931 -0.238997 -0.310338 -0.338436 -0.32949 -0.293387 -0.241509 -0.184533 -0.130839 -0.0857983 -0.0517317 -0.0284388 -0.0140958 -0.00625055 -0.00252695 -0.00107847 -0.000777691 -0.00105648 -0.00145449 -0.00145135 -0.00100832 -0.000501809 -0.000259398 -4.18721e-05 0 0 
0 0 -6.20629e-05 -0.000138716 -8.91381e-05 -0.000346524 -0.000873895 -0.00130397 -0.00125386 -0.000750814 -0.000238941 2.15922e-05 -0.000357048 -0.00210145 -0.00654075 -0.015684 -0.0319463 -0.057617 -0.0942123 -0.141555 -0.196974 -0.255019 -0.307479 -0.344083 -0.354012 -0.327765 -0.259163 -0.147371 0.00192982 0.176188 0.357233 0.523879 0.655303 0.734778 0.752684 0.708051 0.608653 0.469273 0.309021 0.14811 0.00457209 -0.108396 -0.184038 -0.222299 -0.228646 -0.211852 -0.181653 -0.14672 -0.113783 -0.0871289 -0.0689803 -0.0596239 -0.0579819 -0.0620073 -0.0693691 -0.0778145 -0.0854997 -0.0909616 -0.0932061 -0.0919072 -0.0874128 -0.080841 -0.0736337 -0.0670732 -0.0617687 -0.0576763 -0.0543806 -0.0514858 -0.0489597 -0.046881 -0.045288 -0.0438099 -0.0416296 -0.0377272 -0.0312979 -0.0221845 -0.0111087 0.000429069 0.0105446 0.017661 0.0210644 0.0211618 0.0192441 0.0168506 0.0151487 0.0144726 0.0145515 0.0146064 0.0139525 0.0119688 0.00842174 0.00345057 -0.00265312 -0.00943231 -0.0164262 -0.0231357 -0.0290318 -0.0336608 -0.0368633 -0.0387201 -0.0394725 -0.0392135 -0.0378226 -0.035054 -0.0307781 -0.0251466 -0.0186059 -0.0116859 -0.00487391 0.00133784 0.00646559 0.0101895 0.0123501 0.0131984 0.0133423 0.0134842 0.0143826 0.0162572 0.0187533 0.0206766 0.0204751 0.0169463 0.00979626 -0.000166115 -0.011368 -0.02204 -0.0309145 -0.0374345 -0.041728 -0.0443839 -0.0460139 -0.0471552 -0.048224 -0.0495398 -0.0516207 -0.0549552 -0.0599694 -0.0666839 -0.0745728 -0.0825171 -0.0891323 -0.093142 -0.0937619 -0.0909292 -0.0850618 -0.0771786 -0.0686492 -0.0612742 -0.0572751 -0.0589484 -0.0683327 -0.0865069 -0.113167 -0.146127 -0.181054 -0.211269 -0.228069 -0.221754 -0.183531 -0.107928 0.00499186 0.148507 0.309424 0.469724 0.609189 0.708728 0.753525 0.735812 0.656499 0.525188 0.358548 0.177373 0.00282282 -0.14687 -0.258386 -0.326682 -0.352791 -0.342876 -0.30641 -0.254143 -0.196324 -0.141104 -0.0939353 -0.0574688 -0.0318889 -0.015684 -0.00657342 -0.00214994 -0.000408172 -2.51964e-05 -0.000274621 -0.000771524 -0.00125372 -0.00129085 -0.000881445 -0.000422779 -0.000236608 -3.71906e-05 0 0 
0 0 -7.90223e-05 -0.00015598 -7.72548e-05 -0.000285901 -0.000766168 -0.00116307 -0.00108295 -0.000524356 0.000131383 0.000695025 0.000962015 0.000511563 -0.00153077 -0.00665243 -0.0169379 -0.0347501 -0.0621749 -0.100407 -0.148981 -0.205128 -0.263513 -0.316264 -0.353683 -0.365569 -0.342717 -0.278936 -0.172872 -0.0292721 0.140666 0.320389 0.490142 0.630066 0.723452 0.759514 0.735024 0.654766 0.530482 0.378847 0.21882 0.0684304 -0.0577953 -0.150902 -0.208028 -0.231674 -0.228054 -0.205239 -0.171639 -0.134947 -0.101436 -0.0754344 -0.0591867 -0.0529184 -0.0552414 -0.0638058 -0.0758104 -0.0884296 -0.0991673 -0.106148 -0.108517 -0.10645 -0.100926 -0.0932756 -0.084562 -0.075445 -0.0662851 -0.05744 -0.0494305 -0.0428722 -0.0381778 -0.035171 -0.033119 -0.0307796 -0.0269993 -0.0210421 -0.0131316 -0.0042574 0.00390081 0.00972607 0.0122813 0.0115431 0.00859033 0.00481897 0.00158356 -0.000513456 -0.00151205 -0.00199137 -0.0026293 -0.0040208 -0.00652303 -0.0102554 -0.0151106 -0.020832 -0.0269425 -0.032876 -0.0380235 -0.0420256 -0.0448044 -0.0464233 -0.0471035 -0.0468919 -0.0457111 -0.0433448 -0.0396943 -0.0348115 -0.0290611 -0.0230422 -0.0173086 -0.0123654 -0.00848487 -0.00581417 -0.00424174 -0.0033908 -0.00269593 -0.00146532 0.000839582 0.00422146 0.00805197 0.0109499 0.0115415 0.00885711 0.00304023 -0.00487222 -0.0132782 -0.0206804 -0.0263316 -0.0302143 -0.0330184 -0.0356249 -0.0388532 -0.0431403 -0.0486875 -0.0554831 -0.0635417 -0.0727838 -0.0828705 -0.0930311 -0.101974 -0.10818 -0.110197 -0.107276 -0.0995901 -0.0882706 -0.0752977 -0.0631384 -0.0545344 -0.0522191 -0.0585181 -0.0747914 -0.100812 -0.134345 -0.171045 -0.204661 -0.227477 -0.231125 -0.207493 -0.150394 -0.0573216 0.0688551 0.219197 0.379179 0.530789 0.655097 0.735415 0.76002 0.724105 0.630901 0.49117 0.321593 0.141989 -0.0279182 -0.17162 -0.277874 -0.341501 -0.364252 -0.352398 -0.315126 -0.262588 -0.204437 -0.148507 -0.100112 -0.0620208 -0.0346908 -0.0169426 -0.0066929 -0.00159154 0.000443302 0.000894822 0.000634351 8.35639e-05 -0.000554064 -0.00109091 -0.00115322 -0.000770008 -0.000354266 -0.000218848 -3.56447e-05 0 0 
0 0 -9.2687e-05 -0.000166844 -6.28032e-05 -0.000227389 -0.000668486 -0.00104363 -0.00095097 -0.000392824 0.000320079 0.00101984 0.0015967 0.00187673 0.00136107 -0.000962437 -0.00669741 -0.017937 -0.0369113 -0.0654781 -0.10455 -0.153523 -0.209679 -0.267964 -0.321003 -0.35972 -0.374438 -0.356293 -0.298952 -0.200494 -0.0645823 0.0991732 0.27596 0.447711 0.595695 0.703321 0.758695 0.756339 0.698034 0.592357 0.453396 0.29831 0.144598 0.00741643 -0.102467 -0.179466 -0.222919 -0.236072 -0.224953 -0.197127 -0.160747 -0.123335 -0.0909722 -0.0676467 -0.0550072 -0.0527791 -0.0591058 -0.0711668 -0.0857512 -0.0996865 -0.110534 -0.116914 -0.118482 -0.115667 -0.109224 -0.0998295 -0.0881887 -0.0750962 -0.0616024 -0.048907 -0.0380668 -0.0295891 -0.0232415 -0.0182156 -0.0134089 -0.00800197 -0.00174599 0.0047315 0.0102877 0.0135108 0.0134597 0.0100713 0.00424415 -0.00257328 -0.00888918 -0.013788 -0.017085 -0.0191427 -0.020608 -0.022153 -0.0243035 -0.0274442 -0.0318007 -0.0373121 -0.0435156 -0.0497177 -0.0552153 -0.0595454 -0.0626504 -0.0645416 -0.0653203 -0.0649658 -0.0634772 -0.0607561 -0.0567645 -0.0515259 -0.0455225 -0.0394338 -0.0339331 -0.029512 -0.026248 -0.0239485 -0.0222131 -0.0205295 -0.0182463 -0.0147145 -0.00961296 -0.00318659 0.00363973 0.00935069 0.0125425 0.0124537 0.00929632 0.004103 -0.00177378 -0.00741004 -0.0124591 -0.0173911 -0.0229522 -0.0299517 -0.0387278 -0.0491838 -0.0608828 -0.0731587 -0.085471 -0.0972303 -0.107631 -0.115532 -0.119626 -0.11867 -0.112165 -0.100707 -0.0860406 -0.0708961 -0.0585137 -0.0520722 -0.0543027 -0.0669746 -0.0903362 -0.122731 -0.16016 -0.196556 -0.224382 -0.235524 -0.222376 -0.178937 -0.101965 0.00788303 0.145027 0.298684 0.453716 0.59263 0.698277 0.756581 0.758967 0.703677 0.596169 0.448347 0.276781 0.100193 -0.0633759 -0.199149 -0.297552 -0.354909 -0.37302 -0.358368 -0.319812 -0.266991 -0.208957 -0.153023 -0.104251 -0.0653177 -0.0368575 -0.0179437 -0.00674419 -0.0010283 0.00128386 0.00179506 0.00151782 0.000947701 0.000261661 -0.000431758 -0.00096631 -0.00103699 -0.000668293 -0.000286227 -0.000196197 -3.18578e-05 0 0 
0 0 -0.00010181 -0.000167879 -3.86449e-05 -0.000163033 -0.000577201 -0.000948658 -0.000840767 -0.000376144 0.000310099 0.0010499 0.00174012 0.00233354 0.0026285 0.00204956 -0.000538298 -0.00681833 -0.0187796 -0.0384693 -0.0675328 -0.106701 -0.155332 -0.210877 -0.2687 -0.322078 -0.362532 -0.380932 -0.368609 -0.319127 -0.229972 -0.103597 0.0520403 0.2241 0.396382 0.551426 0.672933 0.748036 0.769241 0.735404 0.651956 0.530112 0.384797 0.232324 0.0877778 -0.0367102 -0.133166 -0.197768 -0.230718 -0.235661 -0.218818 -0.188026 -0.151326 -0.115802 -0.0867182 -0.0671705 -0.0581268 -0.0587226 -0.0666931 -0.0790521 -0.0926612 -0.104907 -0.114104 -0.119288 -0.12018 -0.116739 -0.109189 -0.0980417 -0.084203 -0.0690641 -0.0539704 -0.0401322 -0.0279916 -0.0174915 -0.00808918 0.000710521 0.00909401 0.0166167 0.0223849 0.0252491 0.0243815 0.0196931 0.0120665 0.00302746 -0.00580614 -0.0131622 -0.0186237 -0.0223305 -0.0248889 -0.026982 -0.029331 -0.0325975 -0.0372769 -0.0434055 -0.0505796 -0.0578596 -0.0644289 -0.0697335 -0.073605 -0.0760169 -0.0769536 -0.0763836 -0.0743266 -0.0708031 -0.0658126 -0.0595013 -0.0524313 -0.0453864 -0.0393066 -0.0345951 -0.0312396 -0.0287576 -0.0264805 -0.0237026 -0.0197591 -0.0140656 -0.00653464 0.00238052 0.0113732 0.0188063 0.0232478 0.0239922 0.0212612 0.0159687 0.00918952 0.00153434 -0.00686037 -0.0164061 -0.0275312 -0.0404181 -0.0546334 -0.0693903 -0.0835349 -0.0961366 -0.106515 -0.114198 -0.118663 -0.119235 -0.115297 -0.106666 -0.0942317 -0.0799618 -0.066861 -0.0583398 -0.0574731 -0.0664421 -0.086017 -0.115164 -0.150731 -0.187464 -0.218269 -0.235113 -0.230182 -0.197234 -0.132649 -0.0362168 0.0882541 0.232759 0.385199 0.530455 0.652243 0.735629 0.769428 0.748211 0.673114 0.551652 0.396697 0.224539 0.0526409 -0.102806 -0.228976 -0.317929 -0.367256 -0.37945 -0.361119 -0.320844 -0.267704 -0.210132 -0.154826 -0.106395 -0.0673803 -0.0384207 -0.0187961 -0.00686966 -0.000612957 0.00196686 0.00253865 0.00224327 0.00165183 0.000968692 0.000243325 -0.000422827 -0.000861463 -0.000944633 -0.000572722 -0.000211302 -0.000162325 -2.24953e-05 0 0 
0 0 -0.000107176 -0.000160377 -4.18343e-06 -9.03861e-05 -0.000493787 -0.000905117 -0.000864517 -0.000491623 0.000132065 0.000850858 0.00154757 0.00222087 0.00283548 0.00313788 0.00248378 -0.000382535 -0.00711523 -0.0195293 -0.039473 -0.0684111 -0.106986 -0.154654 -0.2091 -0.266252 -0.31997 -0.362494 -0.385137 -0.379478 -0.339063 -0.260682 -0.145624 -4.52877e-05 0.165312 0.336253 0.496749 0.630963 0.725378 0.770737 0.763272 0.705451 0.605298 0.475133 0.329351 0.182383 0.0470432 -0.0666731 -0.152194 -0.206841 -0.231729 -0.231283 -0.212217 -0.182153 -0.148365 -0.116806 -0.0916501 -0.0750907 -0.0674658 -0.0675988 -0.0733467 -0.0822918 -0.0922585 -0.101554 -0.108857 -0.113266 -0.113967 -0.110601 -0.1032 -0.0924949 -0.0794961 -0.0654123 -0.0511201 -0.0370539 -0.0233281 -0.00994392 0.00284035 0.0144531 0.0238823 0.0300414 0.0320289 0.0296542 0.023662 0.0155061 0.00695288 -0.000498703 -0.00613819 -0.00991876 -0.0123349 -0.0140839 -0.0160176 -0.0189812 -0.0236814 -0.0302672 -0.0382208 -0.0464698 -0.0539577 -0.0600601 -0.0645488 -0.0673522 -0.0684138 -0.0676558 -0.0651557 -0.0609717 -0.0551501 -0.0479124 -0.0398741 -0.0320719 -0.0255712 -0.0208795 -0.0178649 -0.0158153 -0.0139038 -0.0112726 -0.007255 -0.00138838 0.00621704 0.0147986 0.0228336 0.0285772 0.0306719 0.0285676 0.0226336 0.0138147 0.00308081 -0.00886936 -0.0218173 -0.0357333 -0.0505145 -0.0656565 -0.0801924 -0.0928895 -0.102611 -0.108772 -0.111335 -0.110761 -0.107386 -0.101541 -0.0934698 -0.0840235 -0.0748506 -0.0683989 -0.0675205 -0.0746107 -0.0909283 -0.116049 -0.147665 -0.181537 -0.211658 -0.230767 -0.231226 -0.206336 -0.151686 -0.0661718 0.0475401 0.182852 0.329804 0.475543 0.605662 0.705754 0.763523 0.770932 0.72552 0.631073 0.496859 0.336385 0.165499 0.000236071 -0.145218 -0.260115 -0.338306 -0.37851 -0.383959 -0.361109 -0.318717 -0.265241 -0.208345 -0.154138 -0.106682 -0.0682585 -0.0394392 -0.0195544 -0.00718226 -0.000461547 0.00239644 0.00304764 0.00274033 0.00212416 0.00145314 0.000762261 5.78003e-05 -0.000544726 -0.000890013 -0.000902718 -0.000484369 -0.000127461 -0.000117883 -7.95757e-06 0 0 
0 0 -0.000110864 -0.000148768 3.58131e-05 -9.49568e-06 -0.000403849 -0.000874095 -0.000954411 -0.000707852 -0.000163167 0.000528722 0.00120089 0.00183078 0.00248516 0.00310907 0.00340808 0.00262099 -0.00052845 -0.00756285 -0.0201336 -0.0398897 -0.0681241 -0.105527 -0.151659 -0.204674 -0.260965 -0.315041 -0.359743 -0.386886 -0.388484 -0.357983 -0.291634 -0.189495 -0.0558886 0.10059 0.267863 0.431491 0.57637 0.68873 0.757885 0.777933 0.748418 0.674263 0.564684 0.431666 0.288402 0.147673 0.0208644 -0.0833957 -0.159946 -0.207468 -0.228223 -0.227061 -0.210343 -0.184579 -0.155735 -0.12844 -0.105847 -0.0895117 -0.0795925 -0.0753838 -0.0757091 -0.0793987 -0.0851914 -0.0918363 -0.0979946 -0.10235 -0.103851 -0.102069 -0.0970115 -0.0891935 -0.0791192 -0.0672143 -0.053788 -0.0391769 -0.0239293 -0.00894641 0.0045709 0.0153347 0.0222183 0.0246999 0.02314 0.0188318 0.0134321 0.00854617 0.00512123 0.00342178 0.00305105 0.0032923 0.00325972 0.0019017 -0.00158949 -0.00747846 -0.0151239 -0.0232864 -0.0307656 -0.0368687 -0.0413315 -0.0441138 -0.0451345 -0.0443476 -0.0418083 -0.0376008 -0.0317473 -0.0245014 -0.0165425 -0.0090699 -0.00330097 0.000134343 0.00150537 0.00160737 0.00151262 0.00209183 0.00402504 0.00766058 0.0126642 0.0180411 0.0221584 0.0233915 0.0206038 0.0136542 0.00321393 -0.00955319 -0.0235198 -0.0378446 -0.0520049 -0.0656652 -0.0783839 -0.0894193 -0.0977746 -0.102566 -0.10336 -0.100599 -0.095423 -0.0893714 -0.0837384 -0.0793954 -0.0769065 -0.0770709 -0.0810148 -0.0902171 -0.105804 -0.127869 -0.154953 -0.183794 -0.209642 -0.226476 -0.227701 -0.20699 -0.159493 -0.0829422 0.0213204 0.148133 0.288854 0.432107 0.565105 0.674643 0.748762 0.778208 0.7581 0.688891 0.57648 0.431555 0.267913 0.100647 -0.0557991 -0.189345 -0.2914 -0.357625 -0.387968 -0.386172 -0.358812 -0.313863 -0.259955 -0.203914 -0.151143 -0.105218 -0.067981 -0.0398639 -0.0201785 -0.00764194 -0.000621898 0.00252736 0.00331322 0.00301504 0.00238613 0.00173044 0.00110155 0.000435373 -0.000243285 -0.000765823 -0.00098222 -0.000871093 -0.000387433 -3.38107e-05 -6.70857e-05 8.7712e-06 0 0 
0 0 -0.00011541 -0.00013913 7.16862e-05 7.23791e-05 -0.000296066 -0.000785208 -0.00104412 -0.000948456 -0.000497987 0.000169335 0.000851526 0.0014416 0.00199714 0.00261302 0.00323935 0.00347738 0.00248776 -0.000889943 -0.00804061 -0.020461 -0.039592 -0.066684 -0.102432 -0.146661 -0.197934 -0.253126 -0.307371 -0.354106 -0.385802 -0.394926 -0.374955 -0.321641 -0.233791 -0.11399 0.0313401 0.19226 0.35607 0.508735 0.636561 0.728092 0.775626 0.77616 0.731488 0.647562 0.533643 0.401034 0.261928 0.12812 0.00947649 -0.0869727 -0.157821 -0.202955 -0.224915 -0.227978 -0.217153 -0.197506 -0.173535 -0.148838 -0.125919 -0.106405 -0.0911723 -0.0806995 -0.0750502 -0.0739129 -0.0763827 -0.081105 -0.0865149 -0.0912076 -0.0941772 -0.0948156 -0.092814 -0.0879101 -0.080119 -0.069542 -0.0567119 -0.0424956 -0.0282372 -0.0153774 -0.00532637 0.00106347 0.00365535 0.00331058 0.00150115 -0.000257403 -0.000823217 0.000182149 0.00257092 0.00560065 0.00828055 0.00941373 0.00804274 0.00385035 -0.00247735 -0.00958011 -0.016165 -0.0214669 -0.0252986 -0.0276496 -0.0284858 -0.0278166 -0.0256438 -0.0220082 -0.0169174 -0.0105434 -0.00364263 0.00249226 0.00653129 0.00779789 0.00663936 0.0040016 0.00109215 -0.00111378 -0.00190657 -0.00114868 0.000691328 0.00240486 0.00247262 -0.000497448 -0.00720585 -0.0172722 -0.0296916 -0.0430451 -0.056099 -0.0679326 -0.0780647 -0.0861648 -0.0919796 -0.0950452 -0.0950351 -0.0918468 -0.0861574 -0.0794539 -0.0738603 -0.071461 -0.0735909 -0.0806662 -0.0923248 -0.108031 -0.127264 -0.149444 -0.173403 -0.196866 -0.216312 -0.22716 -0.2242 -0.202368 -0.157333 -0.0865405 0.0098885 0.128522 0.262332 0.40145 0.534057 0.647962 0.731874 0.7765 0.775927 0.728343 0.636745 0.508857 0.356146 0.192298 0.031355 -0.113978 -0.233769 -0.321584 -0.374853 -0.394737 -0.385497 -0.353637 -0.306703 -0.252223 -0.197193 -0.146153 -0.102131 -0.0665415 -0.0395748 -0.0205145 -0.00814008 -0.000993912 0.00238171 0.00338129 0.0031469 0.0025182 0.00189761 0.00133788 0.000747963 7.13142e-05 -0.000581582 -0.00100888 -0.00107276 -0.000779792 -0.00027005 6.41138e-05 -1.64794e-05 2.34388e-05 0 0 
0 0 -0.000123207 -0.00013735 9.44317e-05 0.000141542 -0.000199839 -0.000722526 -0.00110724 -0.00115429 -0.000795433 -0.000141836 0.000580514 0.00119701 0.00168874 0.00216594 0.00274756 0.00334664 0.00345683 0.00226527 -0.00125079 -0.00834223 -0.0202874 -0.0384452 -0.0640278 -0.097802 -0.139866 -0.189113 -0.242888 -0.296926 -0.345381 -0.381445 -0.398102 -0.388962 -0.349317 -0.276874 -0.172501 -0.0405784 0.111065 0.271599 0.428299 0.56816 0.679412 0.753113 0.784085 0.771157 0.717118 0.628293 0.513708 0.384239 0.251141 0.124618 0.0126988 -0.0794966 -0.149613 -0.19767 -0.225385 -0.235698 -0.23204 -0.218106 -0.197299 -0.172788 -0.147251 -0.123124 -0.102468 -0.0867112 -0.0765662 -0.0717575 -0.0713701 -0.0739203 -0.0780155 -0.0822882 -0.0856795 -0.0871474 -0.0860147 -0.0818555 -0.0747238 -0.0652251 -0.0543538 -0.043541 -0.0341658 -0.0274324 -0.023766 -0.0228458 -0.0234632 -0.0242321 -0.0238729 -0.0218433 -0.018182 -0.0135899 -0.00913803 -0.0061992 -0.00589074 -0.00857867 -0.0135852 -0.0195665 -0.0251232 -0.0295346 -0.0326193 -0.0344691 -0.0351209 -0.0345671 -0.0328267 -0.0298801 -0.0256341 -0.0202677 -0.0144906 -0.00968777 -0.00718648 -0.00763271 -0.010642 -0.0150944 -0.0195919 -0.02309 -0.0249365 -0.0251504 -0.024361 -0.0239065 -0.0251761 -0.0292838 -0.0363136 -0.045632 -0.0558649 -0.0656749 -0.0739079 -0.0799771 -0.0837055 -0.0852224 -0.0847666 -0.0825549 -0.0789961 -0.0747155 -0.0711704 -0.0702258 -0.0741043 -0.084255 -0.100965 -0.123024 -0.14832 -0.174334 -0.198566 -0.218647 -0.231833 -0.234985 -0.224491 -0.196806 -0.148888 -0.0789158 0.0131752 0.125028 0.251516 0.384607 0.514064 0.628658 0.717487 0.771519 0.784429 0.753423 0.679675 0.568377 0.428461 0.271704 0.111123 -0.0405614 -0.172509 -0.276891 -0.349335 -0.38897 -0.398076 -0.381375 -0.345224 -0.29665 -0.242446 -0.188471 -0.139372 -0.0975009 -0.0638884 -0.0384259 -0.020349 -0.0084493 -0.00137144 0.00214786 0.0033495 0.00325034 0.00265313 0.0020703 0.00158731 0.00109176 0.000475175 -0.000241323 -0.000881154 -0.00121534 -0.00113447 -0.00071306 -0.000163954 0.000151745 2.47118e-05 3.1654e-05 0 0 
0 0 -0.000134727 -0.000144375 0.000106492 0.000204351 -0.00011222 -0.000617127 -0.00108038 -0.00125998 -0.00101082 -0.000373846 0.000426453 0.00113852 0.00165065 0.00203751 0.00246169 0.00303033 0.00357033 0.00353525 0.0022119 -0.00134937 -0.00818395 -0.0194264 -0.0363553 -0.0601819 -0.091772 -0.131424 -0.17831 -0.230265 -0.283625 -0.333339 -0.373397 -0.397316 -0.398973 -0.373246 -0.316926 -0.229337 -0.112938 0.0264615 0.179941 0.336433 0.483988 0.611087 0.708172 0.768273 0.787744 0.766423 0.707726 0.618228 0.506733 0.383142 0.257006 0.136502 0.0278935 -0.0645837 -0.138448 -0.192927 -0.228401 -0.246384 -0.249139 -0.239415 -0.22037 -0.195322 -0.167782 -0.140911 -0.117361 -0.0986729 -0.0854817 -0.0773473 -0.07346 -0.0725793 -0.0734446 -0.0747236 -0.0752354 -0.0741053 -0.0708812 -0.0656123 -0.058889 -0.0516884 -0.0452215 -0.0406896 -0.0387428 -0.0393542 -0.041616 -0.0441786 -0.045703 -0.0453378 -0.0429468 -0.0391305 -0.0350327 -0.0321097 -0.0316688 -0.0341062 -0.0388172 -0.0444444 -0.0496718 -0.0537258 -0.0564693 -0.0580297 -0.0585594 -0.0580584 -0.0565436 -0.0538851 -0.0499518 -0.0448874 -0.0394578 -0.0349563 -0.0327285 -0.0333458 -0.0363704 -0.0405002 -0.0442568 -0.046528 -0.0467508 -0.0451308 -0.0426208 -0.0406092 -0.0404287 -0.0428422 -0.0476415 -0.0539406 -0.0604207 -0.0659297 -0.0698171 -0.0719546 -0.0726928 -0.072651 -0.0724966 -0.0729004 -0.0745752 -0.0783285 -0.0854444 -0.0972646 -0.114954 -0.138441 -0.166206 -0.195121 -0.221343 -0.240875 -0.250335 -0.24687 -0.228147 -0.192174 -0.137511 -0.0636882 0.0286514 0.137091 0.25749 0.383543 0.507078 0.618553 0.708048 0.766751 0.788068 0.768592 0.708472 0.611365 0.484226 0.33662 0.18008 0.0265434 -0.112893 -0.229329 -0.316944 -0.373276 -0.399011 -0.397354 -0.373428 -0.33334 -0.283585 -0.230139 -0.178071 -0.131022 -0.0914939 -0.0600443 -0.0363363 -0.0194822 -0.00829614 -0.00147853 0.00207501 0.00341573 0.00346365 0.00293565 0.00237252 0.00194224 0.00154933 0.00103199 0.000319535 -0.000473986 -0.00109634 -0.00132072 -0.00110634 -0.000604671 -7.33201e-05 0.000231817 5.17037e-05 3.22285e-05 0 0 
0 0 -0.000147666 -0.000153034 0.000118527 0.000290044 4.84774e-05 -0.000414219 -0.000924458 -0.00122634 -0.00110614 -0.00052194 0.000342311 0.0012089 0.00185599 0.00225083 0.00256657 0.00298812 0.00356205 0.00402589 0.00386887 0.00245542 -0.00103242 -0.00745173 -0.0178369 -0.0333921 -0.0553241 -0.0845751 -0.121546 -0.165728 -0.215419 -0.267566 -0.317992 -0.361416 -0.392071 -0.404046 -0.392042 -0.35207 -0.282147 -0.183085 -0.0588053 0.0837699 0.235428 0.385634 0.523716 0.639898 0.726077 0.776658 0.78902 0.763948 0.705342 0.619559 0.514452 0.397986 0.277823 0.160598 0.0519414 -0.0437058 -0.123181 -0.184575 -0.227307 -0.251888 -0.260012 -0.254187 -0.237811 -0.21466 -0.188561 -0.162688 -0.139287 -0.119642 -0.104079 -0.0923426 -0.0837208 -0.0772693 -0.0719401 -0.0668472 -0.0613254 -0.0551689 -0.0484872 -0.0419218 -0.0363004 -0.0326624 -0.0317528 -0.0336672 -0.037698 -0.0425796 -0.0467678 -0.0491336 -0.0492481 -0.0475076 -0.0450389 -0.0433978 -0.0438809 -0.0469973 -0.0521753 -0.0581528 -0.0636263 -0.0678474 -0.0706414 -0.0721937 -0.0726663 -0.0721561 -0.0705915 -0.067833 -0.0636847 -0.058348 -0.0525572 -0.047593 -0.0446926 -0.0444101 -0.0461913 -0.0487248 -0.0504439 -0.0502526 -0.0477973 -0.0435877 -0.0388451 -0.0351531 -0.0337487 -0.0351476 -0.0389755 -0.0442959 -0.0499721 -0.0552944 -0.0600046 -0.0644243 -0.069179 -0.075075 -0.0827629 -0.0927625 -0.105354 -0.120827 -0.139453 -0.161421 -0.186221 -0.212164 -0.236135 -0.253863 -0.260854 -0.253255 -0.228442 -0.185018 -0.122885 -0.0429094 0.0529194 0.161522 0.278596 0.398598 0.514929 0.619957 0.705677 0.764244 0.7893 0.776935 0.726352 0.640168 0.523974 0.385866 0.23563 0.0839257 -0.0586945 -0.183024 -0.282126 -0.352077 -0.39207 -0.404091 -0.392119 -0.36147 -0.318044 -0.267613 -0.215441 -0.165706 -0.121444 -0.0843611 -0.0551983 -0.0333712 -0.0178921 -0.00755975 -0.0011679 0.0023113 0.00373615 0.00390787 0.00346036 0.00289713 0.00247528 0.0021556 0.00175402 0.00110256 0.000237757 -0.000620366 -0.00119129 -0.00128688 -0.000950109 -0.000399566 9.50444e-05 0.000337495 8.83132e-05 3.16596e-05 0 0 
0 0 -0.000161482 -0.00016495 0.000120139 0.000373332 0.000256803 -0.000116002 -0.000635162 -0.00105156 -0.0010935 -0.000613256 0.00027705 0.00128542 0.00213749 0.00267744 0.00299056 0.00330231 0.00377474 0.00437408 0.00476926 0.00451145 0.00303466 -0.000289326 -0.00620006 -0.0156514 -0.0297702 -0.04973 -0.0764854 -0.110545 -0.151693 -0.19862 -0.249035 -0.299452 -0.345486 -0.382014 -0.403467 -0.404493 -0.380536 -0.328625 -0.248253 -0.141537 -0.0134895 0.128655 0.276118 0.419406 0.549062 0.656491 0.734836 0.779659 0.78948 0.765604 0.711742 0.633079 0.535682 0.425862 0.310054 0.194505 0.0849402 -0.0137459 -0.0978008 -0.164681 -0.213242 -0.243669 -0.257556 -0.257633 -0.247433 -0.230592 -0.210307 -0.189069 -0.168428 -0.149253 -0.13181 -0.115972 -0.101378 -0.0877014 -0.0745158 -0.0617851 -0.0495541 -0.0382524 -0.0285286 -0.02126 -0.0172455 -0.0167121 -0.0191886 -0.0234303 -0.0277917 -0.0308444 -0.031811 -0.0308079 -0.0289437 -0.0276661 -0.0283167 -0.0313784 -0.0364047 -0.0421773 -0.0475401 -0.0516552 -0.0544077 -0.0558631 -0.0562979 -0.0557738 -0.0542513 -0.0514835 -0.0473989 -0.0421464 -0.0365459 -0.0317204 -0.0288895 -0.0284539 -0.0298911 -0.0318453 -0.0328736 -0.0318745 -0.0288006 -0.024506 -0.0205124 -0.0184861 -0.0195849 -0.0240755 -0.0314407 -0.0407016 -0.0509482 -0.0616872 -0.072892 -0.0850139 -0.0984342 -0.113699 -0.130876 -0.149783 -0.169887 -0.190465 -0.210687 -0.229493 -0.245168 -0.255106 -0.255756 -0.243186 -0.213942 -0.165928 -0.0988709 -0.014157 0.0852572 0.195322 0.311058 0.42681 0.536484 0.633721 0.712248 0.765998 0.789805 0.779943 0.735093 0.656738 0.549295 0.419639 0.276334 0.128855 -0.0133231 -0.141412 -0.248169 -0.328588 -0.380534 -0.404527 -0.40351 -0.382073 -0.345554 -0.299525 -0.249114 -0.198699 -0.15177 -0.110592 -0.0764889 -0.0496534 -0.0297545 -0.0156993 -0.00629701 -0.000414778 0.0028916 0.00436885 0.00463501 0.00425714 0.0036761 0.00320845 0.00290228 0.00258029 0.00203649 0.00118221 0.000173896 -0.00070962 -0.00117782 -0.00111349 -0.000663334 -0.00010227 0.000307854 0.000436412 0.000121571 2.71158e-05 0 0 
0 0 -0.000178377 -0.00018918 8.94868e-05 0.000389399 0.000465489 0.000232708 -0.000251196 -0.00076054 -0.000989458 -0.000694294 0.000133001 0.00124642 0.00231441 0.00307756 0.00351865 0.00381697 0.00418065 0.00474415 0.00535143 0.00568039 0.00532194 0.00382055 0.000709208 -0.00467029 -0.0131564 -0.0258143 -0.0437542 -0.0678825 -0.0988613 -0.136614 -0.180347 -0.228401 -0.278043 -0.325758 -0.367009 -0.39671 -0.4096 -0.400744 -0.366638 -0.305591 -0.218323 -0.107948 0.0202995 0.159555 0.301745 0.438241 0.560606 0.661427 0.735167 0.77853 0.790578 0.77228 0.726216 0.656026 0.566457 0.463091 0.351939 0.239235 0.130675 0.0313134 -0.0549059 -0.125282 -0.178609 -0.215307 -0.237171 -0.246866 -0.247291 -0.241133 -0.230405 -0.216581 -0.20064 -0.183194 -0.164667 -0.145395 -0.125751 -0.106032 -0.0866624 -0.0680995 -0.0511352 -0.036615 -0.0255656 -0.0184321 -0.0150992 -0.0144623 -0.0149294 -0.0148079 -0.0131079 -0.00970925 -0.00553474 -0.00199873 -0.000380892 -0.00114103 -0.00391479 -0.00772382 -0.0114761 -0.0144258 -0.0163497 -0.0173114 -0.0175676 -0.0171665 -0.0160976 -0.0141207 -0.011164 -0.00748411 -0.00382918 -0.00124256 -0.000701725 -0.00254475 -0.00626273 -0.0105477 -0.014009 -0.0157353 -0.0159147 -0.0156337 -0.016646 -0.0205331 -0.0282719 -0.0397508 -0.0542411 -0.0705661 -0.0878962 -0.105664 -0.123844 -0.142461 -0.161565 -0.180862 -0.199737 -0.217229 -0.232052 -0.242768 -0.247911 -0.245956 -0.234987 -0.212748 -0.176677 -0.124607 -0.0554367 0.0301808 0.129673 0.238853 0.352272 0.463917 0.567479 0.657011 0.727043 0.772937 0.791097 0.778943 0.735499 0.661709 0.560843 0.438466 0.301942 0.159747 0.0204814 -0.107792 -0.218189 -0.305502 -0.366583 -0.400734 -0.409617 -0.396758 -0.367072 -0.325825 -0.278119 -0.228482 -0.180433 -0.136708 -0.0989563 -0.0679685 -0.0438106 -0.0258265 -0.013206 -0.00476073 0.000589493 0.00368067 0.00517534 0.00553473 0.00522036 0.00462831 0.00407831 0.00372288 0.00342533 0.00298146 0.002217 0.00114563 3.53401e-05 -0.000787703 -0.00107375 -0.000825485 -0.000285364 0.000238935 0.000509417 0.000446019 0.000118279 8.26893e-06 0 0 
0 0 -0.000199393 -0.000226897 4.74523e-05 0.00042964 0.0006616 0.000580065 0.000164507 -0.000410433 -0.000833291 -0.000784111 -0.000127853 0.000975038 0.00221777 0.00324804 0.00389534 0.00429366 0.00462308 0.00509566 0.00571843 0.00629801 0.00652385 0.0060458 0.00455665 0.0016599 -0.00319366 -0.0107115 -0.021917 -0.0377538 -0.0591843 -0.0868774 -0.120963 -0.161109 -0.206185 -0.254275 -0.30255 -0.347165 -0.383533 -0.406595 -0.411485 -0.39431 -0.352596 -0.285857 -0.195549 -0.0849383 0.0409582 0.175697 0.311906 0.441798 0.558238 0.6551 0.728001 0.774072 0.791947 0.781703 0.744662 0.683818 0.603247 0.50822 0.404419 0.297684 0.193604 0.0969642 0.0115652 -0.0604327 -0.11838 -0.163026 -0.195927 -0.218838 -0.233312 -0.240505 -0.241318 -0.236502 -0.226878 -0.2132 -0.196413 -0.177278 -0.156617 -0.135218 -0.114006 -0.0941101 -0.0768004 -0.0629741 -0.0528816 -0.0458858 -0.0405219 -0.0351786 -0.0286312 -0.0206815 -0.0120535 -0.0041305 0.00193201 0.00555717 0.00702005 0.0070105 0.00640271 0.00581537 0.00556841 0.00558764 0.00572299 0.0057662 0.00588706 0.00622751 0.00685475 0.00741982 0.00731186 0.00568047 0.001851 -0.00443424 -0.0125336 -0.0212988 -0.0293551 -0.0360011 -0.0415066 -0.0471804 -0.0546893 -0.0654438 -0.0798958 -0.0975508 -0.117256 -0.137629 -0.157635 -0.176598 -0.194204 -0.210046 -0.223659 -0.234146 -0.240478 -0.24127 -0.235144 -0.220707 -0.196802 -0.162328 -0.116302 -0.0578529 0.0136265 0.0978284 0.193255 0.296683 0.403478 0.507854 0.603574 0.684643 0.745696 0.782698 0.792799 0.774752 0.728538 0.655526 0.55858 0.442084 0.312141 0.17591 0.041147 -0.0847668 -0.195386 -0.285718 -0.352483 -0.394234 -0.41145 -0.4066 -0.383573 -0.347225 -0.302627 -0.254359 -0.206273 -0.161201 -0.121064 -0.0869844 -0.0592997 -0.037867 -0.0220181 -0.010785 -0.00328843 0.00154245 0.00442373 0.00590017 0.00637445 0.00615051 0.00558359 0.00497306 0.00451956 0.00419478 0.00380479 0.003153 0.00212241 0.000880347 -0.000221934 -0.000874142 -0.000917207 -0.000480615 0.000120019 0.000572082 0.000690571 0.000477705 8.99824e-05 -3.10525e-05 0 0 
0 0 -0.000218451 -0.000266136 2.41818e-06 0.000445188 0.000801287 0.000870228 0.000553625 -5.01524e-05 -0.000657066 -0.000902306 -0.000522153 0.000453755 0.00175763 0.00302824 0.00394964 0.00452202 0.00490265 0.00531941 0.00588321 0.00651074 0.00701128 0.00708072 0.00647729 0.00499619 0.00230676 -0.00199647 -0.00860619 -0.0183416 -0.0320869 -0.0507316 -0.0749735 -0.105178 -0.141357 -0.182942 -0.228677 -0.276359 -0.32284 -0.364013 -0.395288 -0.412068 -0.410347 -0.387234 -0.341248 -0.272425 -0.182317 -0.0742041 0.0472528 0.176086 0.305779 0.429865 0.542404 0.638396 0.713617 0.764945 0.790359 0.789262 0.762638 0.712998 0.644152 0.560776 0.468219 0.371852 0.276743 0.186919 0.10501 0.0322792 -0.0311274 -0.0855203 -0.131243 -0.1685 -0.197354 -0.217914 -0.230623 -0.236162 -0.23547 -0.229499 -0.219214 -0.205579 -0.189652 -0.172749 -0.156381 -0.141887 -0.130011 -0.120642 -0.112654 -0.104643 -0.0953711 -0.0845427 -0.0728091 -0.0613866 -0.0514525 -0.0436158 -0.0379135 -0.0339704 -0.0312252 -0.0292009 -0.0276497 -0.0265678 -0.0261121 -0.0263701 -0.027286 -0.028717 -0.0306672 -0.0334138 -0.037445 -0.0432853 -0.0512994 -0.0614425 -0.0730405 -0.0849198 -0.0959003 -0.105361 -0.113657 -0.1221 -0.132129 -0.144748 -0.159857 -0.176457 -0.192967 -0.207858 -0.219951 -0.228493 -0.232975 -0.23281 -0.227317 -0.215563 -0.196584 -0.169394 -0.133254 -0.0876265 -0.0322518 0.0327426 0.10695 0.189504 0.278921 0.3729 0.468056 0.559902 0.643279 0.712644 0.762956 0.790084 0.791394 0.765954 0.714472 0.639086 0.542952 0.430306 0.306132 0.176384 0.0474984 -0.0739941 -0.182133 -0.272265 -0.34111 -0.387112 -0.410256 -0.412012 -0.395268 -0.364035 -0.322888 -0.276437 -0.228761 -0.183042 -0.141456 -0.105285 -0.0750823 -0.0508518 -0.0322132 -0.0184724 -0.00873237 -0.00210858 0.00217953 0.00486067 0.00632857 0.00692792 0.00685432 0.0063596 0.00574272 0.00519366 0.00479099 0.00442094 0.00385424 0.00293513 0.00166869 0.000364537 -0.000607949 -0.000987964 -0.000741187 -0.000126189 0.000495712 0.000841575 0.000805414 0.000469232 1.64194e-05 -8.93597e-05 0 0 
0 0 -0.000227898 -0.000275358 -2.52448e-05 0.000408301 0.000846796 0.00105917 0.000870655 0.00028788 -0.000467145 -0.00102133 -0.0010077 -0.00030152 0.000936227 0.00235584 0.0035552 0.00437023 0.0048793 0.00528332 0.00578883 0.00639129 0.00697015 0.00731955 0.00720539 0.00646162 0.00494773 0.00249508 -0.00128 -0.00697874 -0.0152559 -0.0269294 -0.0427462 -0.0634704 -0.0896393 -0.121583 -0.159242 -0.201835 -0.247815 -0.294569 -0.338646 -0.37599 -0.402454 -0.414263 -0.408279 -0.382345 -0.335339 -0.267456 -0.180341 -0.0770105 0.0381508 0.160185 0.28372 0.403476 0.514342 0.611435 0.690464 0.747929 0.781642 0.790876 0.776443 0.740588 0.686756 0.619314 0.542983 0.462218 0.380556 0.300394 0.223183 0.149776 0.080969 0.0177986 -0.0387149 -0.0875443 -0.128226 -0.160725 -0.185485 -0.203101 -0.214268 -0.219733 -0.220415 -0.21761 -0.212828 -0.207685 -0.2033 -0.200013 -0.197155 -0.193594 -0.188133 -0.180431 -0.170971 -0.160841 -0.151103 -0.142501 -0.135337 -0.129695 -0.12536 -0.122115 -0.119727 -0.118217 -0.117601 -0.118012 -0.119337 -0.121575 -0.124721 -0.129032 -0.13472 -0.14198 -0.150727 -0.160642 -0.170936 -0.180565 -0.188469 -0.194206 -0.198207 -0.201681 -0.20576 -0.210962 -0.216667 -0.22151 -0.223722 -0.221803 -0.214678 -0.201751 -0.182721 -0.157239 -0.124886 -0.0852247 -0.0380156 0.0167944 0.0787978 0.147453 0.221795 0.30061 0.382317 0.464769 0.545263 0.620541 0.686781 0.739853 0.775629 0.790526 0.781939 0.748728 0.691485 0.612444 0.515213 0.404172 0.284281 0.160635 0.0385215 -0.0767027 -0.180073 -0.267229 -0.335145 -0.382176 -0.408135 -0.414144 -0.402358 -0.375936 -0.338622 -0.294592 -0.247866 -0.201918 -0.159338 -0.121689 -0.0897521 -0.0635858 -0.0428746 -0.0270595 -0.0154041 -0.00712764 -0.00143776 0.00234707 0.00479327 0.00630571 0.0070457 0.00715709 0.00680717 0.00623219 0.00564038 0.00514963 0.00476496 0.00426666 0.00346435 0.00226964 0.000854166 -0.000380261 -0.00108737 -0.00110258 -0.000550672 0.000205961 0.000799318 0.00100808 0.000821492 0.000408398 8.236e-06 -0.000143736 0 0 
0 0 -0.00024399 -0.000326275 -0.000122709 0.000285061 0.000778056 0.00112887 0.00109913 0.000591889 -0.000252161 -0.00109273 -0.0015012 -0.00118897 -0.000177661 0.00125698 0.00268026 0.00377343 0.00447277 0.0049298 0.0053659 0.00590705 0.00649402 0.00696098 0.00711799 0.00680895 0.00591116 0.00438008 0.00215269 -0.00112899 -0.00588387 -0.0127291 -0.0223046 -0.0353262 -0.0525451 -0.0746413 -0.102232 -0.135588 -0.174419 -0.217639 -0.263208 -0.308327 -0.349581 -0.383408 -0.40638 -0.415369 -0.407805 -0.381797 -0.336459 -0.272094 -0.190273 -0.0936696 0.0142999 0.129644 0.248034 0.364731 0.474761 0.573256 0.655934 0.719418 0.761696 0.782139 0.781718 0.762637 0.728099 0.681616 0.626345 0.564775 0.498536 0.42896 0.35733 0.285374 0.215016 0.14822 0.0865619 0.0309689 -0.0181154 -0.0606101 -0.0965171 -0.126072 -0.149668 -0.168232 -0.183031 -0.19559 -0.207178 -0.218389 -0.228901 -0.237781 -0.24398 -0.246989 -0.247013 -0.244798 -0.241281 -0.237186 -0.233179 -0.229665 -0.226873 -0.224826 -0.223394 -0.222507 -0.222123 -0.222295 -0.222999 -0.224274 -0.226191 -0.228914 -0.232431 -0.236497 -0.240694 -0.244351 -0.246714 -0.24687 -0.244127 -0.238313 -0.230013 -0.220308 -0.210027 -0.199282 -0.187191 -0.172265 -0.152877 -0.127858 -0.0965583 -0.0589305 -0.0151291 0.0345525 0.0898958 0.150485 0.215654 0.284298 0.355043 0.426445 0.496894 0.564723 0.627901 0.684088 0.730444 0.764033 0.781935 0.781548 0.76095 0.719069 0.656197 0.574027 0.475764 0.365731 0.248903 0.130343 0.0148593 -0.093213 -0.189897 -0.271775 -0.33619 -0.381562 -0.407611 -0.415201 -0.406231 -0.383287 -0.349485 -0.308264 -0.263181 -0.217655 -0.174471 -0.135669 -0.102335 -0.0747568 -0.0526674 -0.0354503 -0.0224359 -0.0128692 -0.00603357 -0.0012883 0.00198932 0.00421709 0.00574555 0.00664355 0.00695093 0.006794 0.00633018 0.00574686 0.00521978 0.00479629 0.00435781 0.0036724 0.00259279 0.00117754 -0.000250246 -0.00126067 -0.00157227 -0.00116793 -0.000332887 0.000508238 0.00101775 0.00105773 0.000722389 0.000242813 -0.000156319 -0.000234576 0 0 
0 0 -0.000262455 -0.000393404 -0.000266768 9.00798e-05 0.000607698 0.00108014 0.00123509 0.000871993 1.41888e-05 -0.00105303 -0.00188599 -0.0020714 -0.00144632 -0.00016269 0.00136266 0.00270718 0.00366617 0.00424789 0.00466644 0.00511982 0.00564794 0.00616147 0.00646383 0.00640133 0.00588868 0.00486251 0.00337023 0.0013449 -0.00143338 -0.00530627 -0.010746 -0.0182964 -0.0286124 -0.0424579 -0.0606396 -0.0839513 -0.11292 -0.147593 -0.187245 -0.230395 -0.274831 -0.31785 -0.35654 -0.387898 -0.409019 -0.417143 -0.409983 -0.385889 -0.344204 -0.285232 -0.210133 -0.12085 -0.0199082 0.0893624 0.202963 0.316255 0.424348 0.522649 0.607261 0.675458 0.725833 0.758437 0.774415 0.775714 0.764213 0.7415 0.708625 0.666338 0.615666 0.558114 0.495835 0.431173 0.366313 0.302938 0.242289 0.185219 0.132416 0.0844067 0.0414278 0.00321259 -0.0310354 -0.0624161 -0.0921101 -0.120701 -0.14808 -0.173407 -0.195699 -0.214144 -0.228542 -0.239102 -0.246431 -0.251158 -0.254172 -0.25613 -0.257691 -0.25902 -0.260141 -0.260825 -0.26103 -0.260628 -0.25976 -0.258465 -0.256996 -0.255337 -0.253334 -0.250328 -0.245649 -0.238418 -0.227984 -0.213778 -0.195662 -0.173887 -0.149312 -0.122901 -0.095348 -0.066509 -0.03547 -0.000865367 0.0384095 0.0829723 0.132764 0.187207 0.245442 0.306548 0.36959 0.433362 0.496413 0.556989 0.613309 0.663681 0.706746 0.741185 0.765542 0.77807 0.776792 0.759974 0.726219 0.675007 0.606588 0.522306 0.424583 0.31698 0.203943 0.0903507 -0.0190435 -0.120156 -0.20958 -0.284777 -0.343822 -0.38556 -0.409703 -0.416905 -0.408814 -0.387727 -0.356382 -0.317715 -0.274717 -0.230316 -0.187201 -0.147594 -0.112957 -0.084025 -0.0607366 -0.0425737 -0.0287382 -0.0184278 -0.0108864 -0.00545357 -0.00159737 0.00117503 0.00318997 0.00468412 0.00570948 0.00623066 0.00629518 0.00599968 0.00548584 0.00496466 0.00451936 0.0041156 0.00355379 0.00261002 0.00128296 -0.0002337 -0.00150978 -0.00213192 -0.00194869 -0.00112113 -6.12972e-05 0.000789578 0.00115028 0.000998626 0.00053339 2.14379e-05 -0.000332131 -0.000322806 0 0 
0 0 -0.000279684 -0.000455039 -0.00043136 -0.000149559 0.000363299 0.000935538 0.00128346 0.00112903 0.000364689 -0.000833588 -0.0020485 -0.00277522 -0.00268006 -0.00174995 -0.000282416 0.00122256 0.0024157 0.00321 0.00367151 0.00406267 0.00450909 0.00499778 0.00540835 0.00551289 0.00524946 0.00454387 0.00345088 0.00202607 0.000252242 -0.00202364 -0.00503658 -0.00914034 -0.0147821 -0.022567 -0.0332573 -0.0477627 -0.0669681 -0.0915946 -0.121857 -0.157371 -0.197063 -0.239312 -0.282113 -0.323167 -0.360042 -0.390086 -0.410671 -0.419366 -0.414119 -0.393658 -0.357229 -0.304823 -0.236957 -0.154982 -0.0610998 0.0414858 0.148688 0.256079 0.359228 0.454405 0.538807 0.610894 0.670229 0.717074 0.75201 0.775297 0.786903 0.786506 0.774178 0.750515 0.717057 0.675786 0.628844 0.578142 0.525265 0.47156 0.418247 0.366418 0.316926 0.2701 0.225808 0.183383 0.142033 0.101258 0.0611713 0.0224621 -0.0137453 -0.04642 -0.0746666 -0.0981012 -0.116735 -0.131062 -0.141892 -0.150233 -0.156861 -0.162203 -0.166287 -0.168893 -0.169728 -0.168701 -0.165923 -0.161668 -0.156165 -0.14941 -0.140985 -0.130106 -0.115777 -0.097189 -0.073859 -0.0458227 -0.0135593 0.0219938 0.0597717 0.098715 0.13838 0.178943 0.221211 0.26609 0.314182 0.36538 0.418983 0.473812 0.528522 0.581722 0.632019 0.677881 0.717594 0.749399 0.77181 0.783763 0.784841 0.774708 0.753087 0.719268 0.67258 0.612545 0.539362 0.454089 0.358627 0.255739 0.148886 0.0421732 -0.0601513 -0.154012 -0.236104 -0.304128 -0.356679 -0.393215 -0.413746 -0.419043 -0.410396 -0.389849 -0.359835 -0.322991 -0.281957 -0.239175 -0.196945 -0.157282 -0.1218 -0.0915827 -0.0669964 -0.0478284 -0.0333493 -0.0226755 -0.0149023 -0.00926657 -0.0051708 -0.00216221 0.000100577 0.00186952 0.00328094 0.00437648 0.0050778 0.00535334 0.00524923 0.00484748 0.00435909 0.00391892 0.00353659 0.00308744 0.0023096 0.00113423 -0.000355749 -0.00181015 -0.00273304 -0.00282699 -0.00210203 -0.0008938 0.000296619 0.0010535 0.00120266 0.000854032 0.000286577 -0.00021926 -0.000492183 -0.00038231 0 0 
0 0 -0.000302656 -0.000564698 -0.00059833 -0.00039886 7.47356e-05 0.000713113 0.00125125 0.00135637 0.000792688 -0.000395065 -0.00187539 -0.00313337 -0.00365964 -0.00325358 -0.00207075 -0.000533266 0.000851486 0.00184732 0.00244849 0.00280947 0.0031753 0.00358893 0.00404338 0.00431427 0.00426238 0.00383321 0.00300792 0.00188679 0.00057337 -0.000924572 -0.00268731 -0.00486618 -0.00772654 -0.0116368 -0.0171349 -0.0250167 -0.0361856 -0.0516235 -0.0720686 -0.0978566 -0.128846 -0.164291 -0.203138 -0.243948 -0.285065 -0.324597 -0.360278 -0.389799 -0.41077 -0.421139 -0.419137 -0.403381 -0.372893 -0.327155 -0.266534 -0.192294 -0.10694 -0.0137768 0.0834188 0.180972 0.275837 0.365782 0.44957 0.526458 0.596034 0.657579 0.710035 0.752075 0.78252 0.80086 0.807394 0.803199 0.789746 0.768595 0.741176 0.708837 0.672976 0.63491 0.595818 0.556444 0.517106 0.477558 0.437395 0.396241 0.354165 0.311768 0.270167 0.230755 0.195 0.164047 0.138502 0.118272 0.102565 0.090313 0.0805466 0.0727131 0.0667225 0.0629043 0.0616233 0.0630827 0.0670649 0.0732312 0.081236 0.0911474 0.103521 0.11933 0.139624 0.165174 0.196041 0.231558 0.270464 0.311246 0.352528 0.393338 0.433357 0.472847 0.512447 0.55263 0.593459 0.634313 0.67408 0.7113 0.744459 0.772072 0.792779 0.80519 0.807904 0.79979 0.780212 0.749314 0.707831 0.656744 0.596821 0.528454 0.451862 0.3675 0.276547 0.180804 0.0828905 -0.0141224 -0.106792 -0.191673 -0.265629 -0.326202 -0.372047 -0.402693 -0.418583 -0.420692 -0.410395 -0.38947 -0.359998 -0.324359 -0.284859 -0.243765 -0.202971 -0.164145 -0.128715 -0.0977513 -0.0719894 -0.051584 -0.0361855 -0.025058 -0.0172085 -0.0117319 -0.00783732 -0.00498418 -0.0028151 -0.00105675 0.000427794 0.00173517 0.00284777 0.00367179 0.00410408 0.00416653 0.00390263 0.00345643 0.00304256 0.0026831 0.00232348 0.00173395 0.00075478 -0.000614287 -0.00213322 -0.00330474 -0.00370297 -0.00317506 -0.00192142 -0.000447184 0.000733229 0.00128953 0.00117974 0.000641026 8.26212e-06 -0.000451513 -0.000620102 -0.000384345 0 0 
0 0 -0.000290913 -0.000586946 -0.000710668 -0.000618467 -0.000224954 0.000429813 0.00112647 0.00151998 0.0012663 0.000241222 -0.00133417 -0.00299426 -0.00415852 -0.00440615 -0.00370012 -0.00234554 -0.00086082 0.000341106 0.00110358 0.00151858 0.00182126 0.00215675 0.002578 0.00297001 0.00312678 0.00295285 0.00241115 0.00152442 0.000425891 -0.000764738 -0.00199006 -0.00327563 -0.00468382 -0.00644276 -0.0088233 -0.012372 -0.0178482 -0.0261565 -0.0382477 -0.0548118 -0.0762463 -0.102515 -0.133184 -0.167663 -0.20503 -0.244233 -0.283803 -0.32199 -0.356845 -0.386295 -0.408375 -0.421121 -0.422778 -0.411699 -0.386772 -0.347672 -0.295086 -0.230863 -0.157547 -0.0779338 0.00541703 0.0905223 0.176057 0.261146 0.34497 0.426474 0.504129 0.575974 0.64003 0.69471 0.739122 0.773166 0.797315 0.812342 0.819151 0.818799 0.812378 0.801091 0.786061 0.768178 0.747878 0.725239 0.699998 0.671848 0.640655 0.606854 0.571403 0.535927 0.502338 0.472518 0.447631 0.427992 0.412977 0.401513 0.392512 0.385286 0.379703 0.37606 0.374857 0.376231 0.380027 0.385776 0.393181 0.402355 0.413973 0.429136 0.448899 0.473842 0.503587 0.536879 0.571729 0.606198 0.638719 0.668554 0.695622 0.72038 0.743312 0.76468 0.784156 0.800953 0.813818 0.8214 0.822387 0.815648 0.800158 0.77504 0.739634 0.693736 0.637834 0.573251 0.501816 0.425396 0.345462 0.262885 0.178244 0.0922845 0.00626071 -0.0779567 -0.157986 -0.231204 -0.295002 -0.347118 -0.385925 -0.410778 -0.421933 -0.420428 -0.407823 -0.385841 -0.356471 -0.321665 -0.283519 -0.243991 -0.204822 -0.167486 -0.13302 -0.102369 -0.0761085 -0.0546976 -0.0381523 -0.0260966 -0.0178218 -0.0123834 -0.00886513 -0.00651151 -0.00476715 -0.00337063 -0.00209023 -0.000872857 0.000310066 0.00140032 0.00227768 0.00281632 0.00299198 0.00284453 0.00245933 0.00204196 0.00171034 0.00140584 0.000995423 0.000241137 -0.000948389 -0.00241609 -0.00375517 -0.00444703 -0.00419382 -0.00302967 -0.00137265 0.00019644 0.00121582 0.00146428 0.00106701 0.00036998 -0.000277725 -0.000652629 -0.000705968 -0.000399303 0 0 
0 0 -0.000251854 -0.000559537 -0.000759758 -0.000784921 -0.000510358 0.000100393 0.00090022 0.00156525 0.00169563 0.001006 -0.000460707 -0.00233096 -0.00401733 -0.00494881 -0.00487867 -0.00390531 -0.00248934 -0.00114066 -0.000159075 0.000357704 0.000645354 0.000895029 0.00124333 0.00167263 0.00200469 0.00208112 0.00180231 0.0011812 0.000273691 -0.000772501 -0.00182593 -0.00281142 -0.00366478 -0.00443867 -0.00527004 -0.00640888 -0.0083847 -0.0119164 -0.0178562 -0.0270574 -0.0401209 -0.0574429 -0.0790094 -0.104698 -0.134225 -0.167129 -0.202796 -0.240218 -0.27815 -0.31502 -0.349167 -0.378792 -0.401984 -0.416769 -0.421285 -0.414141 -0.394793 -0.363621 -0.321902 -0.271356 -0.21361 -0.150044 -0.0813909 -0.00826168 0.0688619 0.149114 0.231141 0.31305 0.392601 0.467699 0.536582 0.598164 0.651887 0.697718 0.735872 0.766873 0.791392 0.810247 0.824249 0.834094 0.840178 0.842559 0.840964 0.834935 0.824127 0.808539 0.788857 0.766645 0.744134 0.723561 0.706666 0.694036 0.685349 0.67948 0.675328 0.671994 0.669292 0.667397 0.666774 0.667547 0.669596 0.67246 0.675975 0.680319 0.686377 0.695261 0.708073 0.725054 0.745542 0.767679 0.789127 0.807662 0.821848 0.831281 0.836332 0.837668 0.835854 0.831045 0.822876 0.81056 0.793104 0.769529 0.738975 0.700796 0.654502 0.599908 0.537102 0.466853 0.390585 0.310431 0.228781 0.147821 0.0690398 -0.00680988 -0.07937 -0.148277 -0.212646 -0.271235 -0.322256 -0.363959 -0.394764 -0.413675 -0.420504 -0.415881 -0.401154 -0.378089 -0.3486 -0.314554 -0.277752 -0.239877 -0.202495 -0.166872 -0.134002 -0.104512 -0.0788412 -0.0572911 -0.0399747 -0.0269277 -0.0177412 -0.0118306 -0.00832878 -0.0063888 -0.00527953 -0.00447562 -0.00372059 -0.00287873 -0.00190166 -0.000855129 0.000183413 0.001083 0.00169551 0.00196948 0.00189417 0.00157119 0.00114419 0.000804237 0.000551284 0.000266259 -0.000251552 -0.00122732 -0.00256355 -0.00396578 -0.00492155 -0.00498304 -0.00404616 -0.00235906 -0.000494215 0.000967723 0.00165315 0.00151904 0.000852234 5.29824e-05 -0.00055154 -0.000808152 -0.000744756 -0.000398939 0 0 
0 0 -0.000196212 -0.000491035 -0.00074585 -0.000885156 -0.000757758 -0.000256284 0.000565426 0.00144478 0.00197051 0.0017406 0.000608078 -0.00121374 -0.00321812 -0.00474283 -0.00534612 -0.004939 -0.00376814 -0.00239564 -0.00121884 -0.000487248 -0.000156224 4.18524e-05 0.000272205 0.000643718 0.00105427 0.0013383 0.00132606 0.000948888 0.000245807 -0.00068866 -0.00168555 -0.00263038 -0.00340154 -0.00391368 -0.00417923 -0.00428056 -0.00447828 -0.00527029 -0.00730423 -0.0113642 -0.0181269 -0.028133 -0.0416635 -0.0587873 -0.0795621 -0.103934 -0.131814 -0.162874 -0.196549 -0.23195 -0.267999 -0.303332 -0.336458 -0.36558 -0.3888 -0.404366 -0.410974 -0.408192 -0.396187 -0.375779 -0.347755 -0.312716 -0.270897 -0.222199 -0.166657 -0.104451 -0.0363732 0.0363195 0.111763 0.187939 0.262792 0.334621 0.40217 0.4647 0.521904 0.573799 0.620662 0.66288 0.700897 0.735035 0.765507 0.792157 0.814638 0.832182 0.844098 0.849876 0.849828 0.845204 0.838214 0.831259 0.826324 0.824301 0.82507 0.827587 0.83068 0.833335 0.835096 0.836017 0.836318 0.836156 0.835389 0.833783 0.831309 0.828431 0.826137 0.825601 0.827842 0.832888 0.839722 0.846235 0.849945 0.848695 0.841435 0.828198 0.809874 0.787403 0.761575 0.732526 0.700067 0.663609 0.622568 0.576421 0.524804 0.467494 0.404525 0.336227 0.263344 0.187257 0.10996 0.0338688 -0.038727 -0.105926 -0.166795 -0.221081 -0.269093 -0.310994 -0.346688 -0.375506 -0.396432 -0.408512 -0.411011 -0.403992 -0.388111 -0.364751 -0.33565 -0.302635 -0.267423 -0.231474 -0.196139 -0.162514 -0.131499 -0.103657 -0.0793214 -0.0585813 -0.0414788 -0.027972 -0.0179708 -0.011221 -0.00717112 -0.00515711 -0.00438957 -0.00422252 -0.0041522 -0.00391267 -0.00342184 -0.00266399 -0.00172885 -0.000739095 0.000188513 0.000884341 0.00125218 0.00125792 0.000973682 0.000564617 0.000197978 -3.11356e-05 -0.000228365 -0.000562337 -0.00129426 -0.00246545 -0.00383038 -0.00498591 -0.00538366 -0.00477053 -0.00324192 -0.00123916 0.000579232 0.00170779 0.00193537 0.00140788 0.000527179 -0.000294631 -0.000791945 -0.000905041 -0.000733246 -0.00037417 0 0 
0 0 -0.000136343 -0.000391618 -0.000675011 -0.00091123 -0.000942466 -0.000607485 0.00013889 0.00112851 0.00199467 0.00227504 0.00164343 0.00012907 -0.00190548 -0.00383426 -0.00504098 -0.0052563 -0.00452289 -0.00325555 -0.00198054 -0.0010176 -0.00051438 -0.000313998 -0.000176434 5.98443e-05 0.000416149 0.000785884 0.000981158 0.000859053 0.000374459 -0.000423501 -0.00139786 -0.00237629 -0.00324422 -0.00384318 -0.00409353 -0.0039601 -0.00350654 -0.00304482 -0.00297865 -0.00394455 -0.0065498 -0.0113624 -0.0187641 -0.0289494 -0.0420753 -0.0582612 -0.0776929 -0.100405 -0.126367 -0.155247 -0.186547 -0.219502 -0.253088 -0.286121 -0.316992 -0.344172 -0.366214 -0.38221 -0.391846 -0.395208 -0.392602 -0.384074 -0.369457 -0.348229 -0.319868 -0.283934 -0.240406 -0.18975 -0.132968 -0.0715879 -0.00741463 0.057703 0.122197 0.184915 0.24523 0.302859 0.357867 0.410313 0.460383 0.508086 0.5534 0.595971 0.635218 0.670173 0.699714 0.722963 0.739697 0.750818 0.758154 0.764034 0.770437 0.778511 0.788235 0.798822 0.809001 0.817664 0.824054 0.827924 0.829239 0.82806 0.824333 0.818097 0.809619 0.79967 0.789336 0.779888 0.772056 0.765748 0.759674 0.751742 0.739555 0.721414 0.696683 0.665953 0.630467 0.591517 0.549993 0.506188 0.460089 0.411387 0.359879 0.305361 0.247857 0.187386 0.124278 0.0591609 -0.00683583 -0.0720789 -0.134501 -0.191976 -0.242689 -0.285552 -0.320309 -0.347457 -0.367918 -0.382454 -0.391482 -0.394799 -0.391982 -0.382495 -0.366301 -0.343904 -0.316398 -0.285363 -0.252323 -0.218819 -0.185972 -0.154763 -0.125945 -0.100026 -0.0773515 -0.0579659 -0.0418115 -0.0287265 -0.0185609 -0.0111836 -0.00638226 -0.00378712 -0.00283276 -0.00291208 -0.00339519 -0.00387079 -0.00403347 -0.00380733 -0.00322881 -0.00237914 -0.00140976 -0.000446218 0.000346715 0.000819758 0.000934733 0.000730181 0.000357695 2.05176e-06 -0.00023304 -0.000369094 -0.000570408 -0.00107531 -0.00203544 -0.00330939 -0.00456561 -0.00529303 -0.00506747 -0.00385586 -0.00192547 0.000108668 0.00161844 0.00224751 0.00196522 0.00109771 0.00010734 -0.000639656 -0.000973073 -0.000932699 -0.000672131 -0.000325694 0 0 
0 0 -9.14508e-05 -0.000272373 -0.000557317 -0.000862884 -0.00104166 -0.00090829 -0.000330718 0.000637858 0.0017147 0.00245812 0.00241723 0.00140828 -0.000374204 -0.00243464 -0.00410076 -0.00489884 -0.00470358 -0.00372286 -0.00243606 -0.00130568 -0.000580716 -0.000263971 -0.000173244 -7.64555e-05 0.000138967 0.000448601 0.000726647 0.000785465 0.000526886 -7.71581e-05 -0.000965883 -0.00197028 -0.00294137 -0.00372743 -0.00418984 -0.00423361 -0.00378807 -0.0029656 -0.00204518 -0.00142524 -0.00164121 -0.00319798 -0.00650726 -0.0117941 -0.0192372 -0.0289476 -0.0411412 -0.0560429 -0.0738312 -0.0946193 -0.118248 -0.144495 -0.172808 -0.202512 -0.23264 -0.261969 -0.289405 -0.313912 -0.335034 -0.352521 -0.366402 -0.37658 -0.382708 -0.384167 -0.380157 -0.369859 -0.352553 -0.327904 -0.296031 -0.257706 -0.214171 -0.167062 -0.117907 -0.0680056 -0.0180706 0.0315257 0.0807676 0.129682 0.178303 0.226546 0.274184 0.320774 0.365553 0.407422 0.444967 0.477058 0.503074 0.523458 0.539598 0.553468 0.566902 0.581109 0.596323 0.61193 0.626761 0.639578 0.649362 0.655491 0.657585 0.655619 0.649629 0.639997 0.627371 0.612786 0.597464 0.582548 0.568586 0.55521 0.541046 0.524161 0.502579 0.475101 0.441609 0.403102 0.361001 0.316788 0.2714 0.225277 0.178494 0.131009 0.0827821 0.033828 -0.0157683 -0.0658834 -0.116107 -0.165753 -0.213564 -0.258007 -0.297276 -0.329859 -0.354698 -0.371548 -0.380869 -0.383753 -0.381473 -0.375104 -0.365262 -0.351997 -0.335047 -0.314157 -0.289536 -0.261805 -0.232175 -0.201852 -0.172101 -0.143845 -0.117687 -0.0941426 -0.0734104 -0.0556635 -0.0407869 -0.0286267 -0.0189508 -0.01154 -0.00628567 -0.00299582 -0.00145993 -0.00124931 -0.00188412 -0.00281111 -0.00365499 -0.00411975 -0.00410134 -0.00366385 -0.00289986 -0.00194646 -0.000955417 -7.44085e-05 0.000521306 0.000774494 0.00070522 0.000420936 0.000104733 -0.000111047 -0.000210523 -0.000299003 -0.000616848 -0.00133897 -0.0024699 -0.00375158 -0.0047299 -0.00491997 -0.00411925 -0.00245199 -0.000390418 0.00138883 0.00239569 0.00243435 0.00168977 0.000612629 -0.000357484 -0.000937197 -0.00107147 -0.000888206 -0.000566717 -0.000257445 0 0 
0 0 -3.41459e-05 -0.000147133 -0.000406402 -0.000745953 -0.00104226 -0.00111208 -0.000771923 4.42283e-05 0.00116765 0.00222312 0.00273977 0.00235018 0.0010373 -0.000862705 -0.0027637 -0.00405491 -0.0044065 -0.00385548 -0.00273446 -0.00149591 -0.00056356 -6.10172e-05 8.93223e-05 8.64955e-05 0.000133765 0.000306444 0.000540264 0.000697201 0.000605018 0.000203778 -0.000523361 -0.00147732 -0.00249847 -0.00342736 -0.0041122 -0.00442939 -0.00427407 -0.0036005 -0.00254233 -0.00136338 -0.000440734 -0.000217692 -0.00108872 -0.0033078 -0.00700638 -0.0122948 -0.0192478 -0.0281262 -0.039121 -0.0525131 -0.0684073 -0.0868249 -0.107647 -0.130556 -0.155114 -0.18058 -0.206181 -0.231166 -0.255005 -0.277418 -0.298328 -0.317695 -0.335307 -0.350697 -0.363125 -0.371673 -0.375278 -0.373066 -0.364403 -0.349326 -0.328448 -0.302934 -0.27414 -0.243226 -0.210941 -0.177571 -0.143095 -0.107365 -0.0703143 -0.0319805 0.00738837 0.047347 0.087078 0.12543 0.161003 0.192492 0.219128 0.240946 0.258872 0.274379 0.289081 0.304156 0.320065 0.336476 0.352387 0.366557 0.377708 0.384861 0.387348 0.384984 0.377959 0.366968 0.353002 0.33735 0.32125 0.305654 0.290794 0.276066 0.260136 0.24132 0.218223 0.190149 0.157424 0.121167 0.0828905 0.0439628 0.00529218 -0.0326437 -0.0697268 -0.105903 -0.141178 -0.175536 -0.208994 -0.241463 -0.272622 -0.301777 -0.32783 -0.349442 -0.365349 -0.374711 -0.377226 -0.373361 -0.364042 -0.350621 -0.334405 -0.316426 -0.297217 -0.2768 -0.254898 -0.231341 -0.206338 -0.180508 -0.154767 -0.130014 -0.10703 -0.0862282 -0.0678772 -0.0520531 -0.0387141 -0.0277533 -0.0189042 -0.011972 -0.00671393 -0.00304063 -0.000851979 -2.23831e-06 -0.000247689 -0.0011815 -0.00237167 -0.00343877 -0.0041248 -0.00429752 -0.00400157 -0.00333847 -0.00243295 -0.00142979 -0.000491694 0.000225282 0.000617831 0.00070204 0.000537883 0.000296308 0.000118841 6.78866e-05 6.96201e-05 -7.95814e-05 -0.000580423 -0.00151051 -0.00274497 -0.00386549 -0.00441423 -0.00406484 -0.00277505 -0.000875194 0.00102238 0.00233387 0.00272136 0.00220363 0.00114769 2.25372e-05 -0.00079612 -0.00113932 -0.00107199 -0.000774993 -0.000427351 -0.000176784 0 0 
0 0 1.99653e-05 -3.03138e-05 -0.000241373 -0.000574406 -0.000943494 -0.00118566 -0.00110367 -0.000546838 0.000456408 0.00163375 0.00255218 0.00276796 0.00204977 0.000534924 -0.00132548 -0.00294036 -0.00381008 -0.0037483 -0.00295174 -0.00178839 -0.000685694 2.77516e-05 0.000329958 0.000336683 0.000252868 0.000251481 0.000365508 0.000513066 0.000548054 0.000338532 -0.000173914 -0.000973075 -0.00195208 -0.00295227 -0.00379808 -0.00436136 -0.00450765 -0.00417199 -0.00334563 -0.00217691 -0.000924835 7.03875e-05 0.000462581 -2.8747e-05 -0.00151427 -0.00408191 -0.00773074 -0.0125863 -0.0188032 -0.0266196 -0.0362623 -0.047851 -0.0614822 -0.0770852 -0.0945413 -0.113549 -0.133664 -0.154393 -0.175302 -0.196144 -0.216833 -0.237451 -0.258029 -0.278441 -0.298231 -0.316654 -0.332658 -0.345076 -0.352926 -0.355623 -0.35326 -0.346492 -0.336353 -0.323849 -0.309647 -0.293964 -0.276726 -0.25761 -0.236409 -0.213011 -0.18756 -0.16044 -0.132382 -0.104439 -0.077868 -0.0538619 -0.0332068 -0.0161189 -0.00210145 0.00987009 0.0210548 0.0325871 0.0450872 0.0585609 0.0722874 0.0850915 0.0955841 0.102502 0.10495 0.102617 0.0958243 0.0854966 0.0729148 0.059472 0.0463219 0.0341173 0.0227394 0.0114147 -0.00112483 -0.0161538 -0.0345497 -0.0565291 -0.0815189 -0.108459 -0.136045 -0.16314 -0.188972 -0.213146 -0.235535 -0.256116 -0.274985 -0.29224 -0.308056 -0.322428 -0.335111 -0.345488 -0.352644 -0.35558 -0.353578 -0.346389 -0.334358 -0.318274 -0.299291 -0.278657 -0.257451 -0.236421 -0.21581 -0.195477 -0.175086 -0.154493 -0.133819 -0.113553 -0.0943142 -0.0766583 -0.0609602 -0.0473252 -0.035783 -0.0261963 -0.0184254 -0.0122356 -0.00740003 -0.00376657 -0.00122015 0.000242104 0.000707895 0.000292412 -0.000721739 -0.00198972 -0.00316939 -0.00400537 -0.00435296 -0.00421986 -0.00367461 -0.00284916 -0.00186963 -0.00091032 -0.000125722 0.000374031 0.000575666 0.000533352 0.000380404 0.0002603 0.000256945 0.000337713 0.000329284 2.97207e-05 -0.000682102 -0.00177805 -0.00294103 -0.00373613 -0.00380344 -0.00293939 -0.00133044 0.000523963 0.00203608 0.00275197 0.00253645 0.00161872 0.000440684 -0.000564473 -0.00112493 -0.00121182 -0.000973709 -0.00060597 -0.000270695 -9.35994e-05 0 0 
0 0 6.16752e-05 6.52951e-05 -8.28816e-05 -0.000372011 -0.000760631 -0.00112256 -0.00126937 -0.00101309 -0.000269644 0.000833171 0.00195097 0.00263335 0.00252087 0.00153055 -7.05315e-05 -0.00177061 -0.00303849 -0.0035039 -0.00313061 -0.00219854 -0.00109071 -0.000181718 0.000322483 0.000457131 0.000359691 0.000233936 0.00020373 0.000275128 0.000341794 0.000281294 -9.82483e-06 -0.000579432 -0.00138254 -0.00233215 -0.00325374 -0.00399766 -0.00442672 -0.00442312 -0.00395651 -0.00306237 -0.00189659 -0.000721949 0.000187363 0.00055736 0.000250017 -0.000794456 -0.00256523 -0.00505453 -0.00835468 -0.0125607 -0.0178996 -0.0245197 -0.0325456 -0.0420685 -0.0531059 -0.0656355 -0.0794569 -0.094322 -0.109883 -0.125934 -0.142403 -0.159435 -0.177277 -0.196146 -0.215983 -0.236376 -0.256501 -0.275236 -0.291461 -0.304294 -0.313427 -0.319093 -0.32199 -0.322908 -0.322452 -0.320824 -0.317904 -0.313319 -0.306703 -0.297795 -0.286569 -0.273293 -0.25855 -0.24319 -0.228206 -0.214523 -0.202804 -0.193342 -0.185965 -0.180074 -0.174741 -0.168998 -0.162037 -0.153613 -0.14409 -0.134471 -0.126093 -0.120351 -0.118276 -0.120251 -0.125861 -0.134058 -0.143446 -0.152673 -0.160767 -0.16747 -0.17316 -0.178773 -0.185365 -0.193822 -0.204542 -0.21739 -0.231759 -0.246796 -0.261567 -0.275272 -0.28735 -0.297508 -0.305667 -0.311893 -0.316393 -0.319417 -0.321205 -0.321802 -0.321001 -0.318245 -0.31283 -0.304116 -0.291851 -0.276219 -0.25791 -0.237857 -0.21711 -0.196604 -0.177012 -0.158665 -0.141505 -0.125256 -0.109576 -0.094329 -0.0795886 -0.0656891 -0.0529809 -0.0417646 -0.0321267 -0.0240688 -0.0174744 -0.0121809 -0.00801722 -0.00474168 -0.00226971 -0.000508072 0.000525812 0.000816886 0.000428895 -0.00050241 -0.00169448 -0.00287591 -0.00378058 -0.00425678 -0.00426875 -0.00385143 -0.00311956 -0.00221593 -0.00128338 -0.000499268 5.59502e-05 0.000333034 0.000386049 0.000310339 0.000235168 0.000258053 0.00038103 0.000473501 0.000339297 -0.000165162 -0.00106905 -0.00217476 -0.00310508 -0.00348234 -0.00302417 -0.00176504 -7.5199e-05 0.00151991 0.0025061 0.00261918 0.00193927 0.000823239 -0.00027976 -0.00102628 -0.0012876 -0.00114695 -0.000790594 -0.00040498 -0.00011728 -1.77579e-05 0 0 
0 0 8.66175e-05 0.000130458 4.96015e-05 -0.00016964 -0.000524796 -0.000939129 -0.00125565 -0.00127755 -0.000852461 1.5861e-05 0.00111831 0.00207246 0.00246037 0.00204178 0.00086625 -0.000711125 -0.0021767 -0.00308848 -0.00322692 -0.00265929 -0.00169979 -0.000719543 -1.04551e-05 0.000320004 0.000332929 0.000192965 6.50347e-05 4.47315e-05 0.000102608 0.000119381 1.09906e-06 -0.000349436 -0.000932405 -0.00170752 -0.00257833 -0.00339044 -0.00401483 -0.00431599 -0.00420708 -0.00369112 -0.00281972 -0.00176594 -0.000759107 -2.11353e-05 0.000248311 4.65984e-06 -0.000776318 -0.00200329 -0.00370555 -0.00589789 -0.00867372 -0.012172 -0.0164924 -0.0217611 -0.028037 -0.0354146 -0.0438623 -0.0532751 -0.0634327 -0.0741176 -0.0852409 -0.0969482 -0.10959 -0.123589 -0.139242 -0.156484 -0.174849 -0.193445 -0.211259 -0.227332 -0.241128 -0.252562 -0.262019 -0.270074 -0.277244 -0.28379 -0.289635 -0.294454 -0.297803 -0.299348 -0.298911 -0.296641 -0.292942 -0.288434 -0.28376 -0.279548 -0.27624 -0.274131 -0.273223 -0.273248 -0.2736 -0.273478 -0.272088 -0.268947 -0.26413 -0.258347 -0.252778 -0.248735 -0.247226 -0.248634 -0.252547 -0.257931 -0.26346 -0.267974 -0.270818 -0.272021 -0.272203 -0.272275 -0.273057 -0.275047 -0.278278 -0.282451 -0.287031 -0.291483 -0.295253 -0.297926 -0.299161 -0.298769 -0.296715 -0.293174 -0.288391 -0.282698 -0.276307 -0.269244 -0.261254 -0.251863 -0.240572 -0.227065 -0.211432 -0.194128 -0.175957 -0.157766 -0.14035 -0.12421 -0.109596 -0.0964463 -0.0845113 -0.0734746 -0.0630658 -0.0531942 -0.0439414 -0.0354861 -0.0279861 -0.0215571 -0.0161767 -0.0118056 -0.00831022 -0.00556474 -0.00340651 -0.00173002 -0.000513861 0.000256649 0.000497299 0.0002177 -0.000530996 -0.00155479 -0.00262372 -0.00350929 -0.00403678 -0.00415361 -0.00386065 -0.00324211 -0.00244167 -0.00158151 -0.000822071 -0.000252631 8.21801e-05 0.000188801 0.000160503 9.56033e-05 0.000108809 0.000231682 0.000366847 0.000350332 1.77441e-05 -0.000690165 -0.00166819 -0.00262576 -0.00319432 -0.00306146 -0.00215805 -0.000704627 0.000863099 0.0020307 0.00244663 0.00206049 0.00110998 1.081e-05 -0.000857491 -0.00128569 -0.00126955 -0.000960477 -0.000553164 -0.000202633 1.28885e-05 4.19628e-05 0 0 
0 0 9.4324e-05 0.00016201 0.000142687 2.94695e-06 -0.000280946 -0.000678555 -0.0010821 -0.00131911 -0.0012033 -0.000641845 0.000276605 0.00128779 0.00200713 0.00209553 0.00143628 0.000179453 -0.00128191 -0.00247267 -0.0030638 -0.00296442 -0.00230681 -0.00140894 -0.000588048 -5.19479e-05 0.000147776 9.96778e-05 -3.93519e-05 -0.000145731 -0.000137844 -8.83867e-05 -8.5378e-05 -0.000238382 -0.000614086 -0.00119084 -0.00192497 -0.00270397 -0.00340813 -0.00391602 -0.00410944 -0.00394513 -0.00342928 -0.00264558 -0.00176102 -0.000956017 -0.000426246 -0.00026598 -0.00051229 -0.0011141 -0.00200374 -0.00317119 -0.00461528 -0.00639904 -0.00859161 -0.011273 -0.0145426 -0.0184719 -0.0231336 -0.0284763 -0.0343703 -0.0406073 -0.0470759 -0.053834 -0.0612525 -0.0697885 -0.0799461 -0.0919448 -0.105647 -0.120499 -0.135703 -0.150417 -0.163998 -0.176192 -0.187062 -0.197002 -0.206426 -0.215644 -0.224702 -0.233393 -0.241358 -0.248227 -0.253809 -0.258106 -0.261364 -0.263938 -0.26621 -0.268479 -0.271014 -0.273992 -0.277539 -0.281567 -0.285783 -0.289577 -0.292279 -0.293289 -0.292474 -0.290226 -0.287434 -0.285158 -0.284263 -0.285058 -0.287196 -0.289792 -0.291783 -0.292306 -0.291052 -0.288264 -0.284662 -0.280986 -0.277811 -0.275271 -0.273209 -0.271245 -0.269047 -0.266344 -0.262976 -0.258786 -0.253657 -0.247489 -0.240323 -0.232313 -0.22373 -0.214838 -0.205763 -0.196409 -0.186488 -0.175631 -0.1635 -0.150097 -0.135705 -0.120923 -0.10647 -0.0930022 -0.080969 -0.0704939 -0.0614689 -0.0535792 -0.0465364 -0.0400416 -0.0339787 -0.0283223 -0.0231556 -0.0185345 -0.0145387 -0.011151 -0.00836127 -0.00611144 -0.00431322 -0.00288914 -0.00174575 -0.000881251 -0.000290558 -5.04568e-05 -0.000212697 -0.000745632 -0.00155717 -0.00245067 -0.00324677 -0.00377289 -0.00394882 -0.00376212 -0.0032616 -0.00256173 -0.00179104 -0.00106423 -0.000498628 -0.000133759 5.86848e-06 -7.94722e-06 -6.88414e-05 -8.40486e-05 1.4172e-05 0.000148764 0.000190769 -1.19092e-05 -0.000550802 -0.00137107 -0.00226951 -0.00292705 -0.00303061 -0.00244566 -0.00126559 0.000184673 0.00143091 0.00208379 0.00199408 0.00127777 0.000271727 -0.000642872 -0.00120344 -0.00132199 -0.00109118 -0.000695591 -0.00030591 -2.83163e-05 0.000105914 8.05016e-05 0 0 
0 0 8.73195e-05 0.000162785 0.000191535 0.000126674 -6.9658e-05 -0.000401528 -0.000809404 -0.00116574 -0.00129783 -0.00105209 -0.000404212 0.000493912 0.00134943 0.00181341 0.00164899 0.000841225 -0.000394813 -0.00167053 -0.00258372 -0.00291334 -0.00265569 -0.00198901 -0.00120231 -0.000541901 -0.000149961 -3.97444e-05 -0.000101975 -0.000225688 -0.000294303 -0.000280203 -0.000243882 -0.000258209 -0.000438255 -0.00081202 -0.00137156 -0.00204971 -0.0027439 -0.00335779 -0.00376445 -0.00388817 -0.00369535 -0.00321132 -0.00253636 -0.00181862 -0.00121027 -0.000861704 -0.00081124 -0.00107674 -0.00157579 -0.00225576 -0.00306982 -0.0040144 -0.00512268 -0.00643337 -0.00803261 -0.0099733 -0.0123401 -0.0151107 -0.0181885 -0.0214052 -0.0246171 -0.0278184 -0.0312505 -0.0353592 -0.0406493 -0.0475279 -0.0560789 -0.0660939 -0.0770179 -0.0882362 -0.0991246 -0.109307 -0.118659 -0.127327 -0.135642 -0.143903 -0.15228 -0.160741 -0.169091 -0.177043 -0.184424 -0.191169 -0.197382 -0.203192 -0.208749 -0.21413 -0.219435 -0.224749 -0.23022 -0.235899 -0.241684 -0.247221 -0.25199 -0.25547 -0.257372 -0.257823 -0.257338 -0.25663 -0.256279 -0.25652 -0.257083 -0.257366 -0.256664 -0.254512 -0.250868 -0.246126 -0.240903 -0.235733 -0.230887 -0.226273 -0.22162 -0.216597 -0.211048 -0.204938 -0.198362 -0.191373 -0.184013 -0.176261 -0.168182 -0.159884 -0.151566 -0.143342 -0.135195 -0.126928 -0.118248 -0.10887 -0.0986982 -0.0879065 -0.0769026 -0.0663 -0.0566378 -0.0483485 -0.0415386 -0.0360779 -0.0316131 -0.0277774 -0.0242726 -0.02095 -0.017811 -0.0149054 -0.0122996 -0.0100132 -0.00804891 -0.00637318 -0.00496841 -0.00379754 -0.0028252 -0.00201614 -0.00135694 -0.000876221 -0.000626596 -0.000681709 -0.00103389 -0.00164147 -0.00236331 -0.00304027 -0.00353345 -0.00373182 -0.00361854 -0.00321617 -0.00260954 -0.0019181 -0.00124576 -0.00069017 -0.000324757 -0.000152575 -0.000149127 -0.000195474 -0.000219898 -0.000160112 -4.40992e-05 1.15618e-05 -0.000103699 -0.00049938 -0.00116221 -0.0019509 -0.00261936 -0.00287983 -0.00255506 -0.00164922 -0.000383057 0.000842652 0.00164243 0.00180265 0.0013386 0.00048657 -0.000406784 -0.00105055 -0.00129477 -0.0011646 -0.000813564 -0.000413187 -8.9622e-05 9.90262e-05 0.000156895 9.71224e-05 0 0 
0 0 7.03999e-05 0.00014059 0.000199503 0.000194457 8.36948e-05 -0.000158021 -0.000512104 -0.000896909 -0.00117697 -0.00119479 -0.000846011 -0.000165859 0.000656413 0.0013271 0.00156437 0.00122568 0.00036902 -0.000758895 -0.00181065 -0.00247351 -0.00260892 -0.00226986 -0.00164998 -0.000993915 -0.000482165 -0.00021734 -0.000163946 -0.0002372 -0.0003367 -0.000378089 -0.000373783 -0.000354788 -0.000405852 -0.000606154 -0.000973615 -0.00150332 -0.00211229 -0.00272569 -0.00324565 -0.00356835 -0.00364313 -0.00344515 -0.0030141 -0.00245388 -0.00188359 -0.00144862 -0.00123666 -0.00127897 -0.00154958 -0.00198098 -0.0025063 -0.00308147 -0.00370099 -0.00437988 -0.00516533 -0.00610959 -0.00725152 -0.0085956 -0.0100664 -0.011538 -0.0128588 -0.0139787 -0.0150015 -0.0162592 -0.0181738 -0.0211694 -0.0254932 -0.0311552 -0.0379009 -0.0453069 -0.0528866 -0.0602008 -0.0670189 -0.0732841 -0.0791652 -0.0849268 -0.0908184 -0.0969644 -0.103349 -0.109862 -0.116373 -0.122817 -0.12916 -0.135389 -0.141466 -0.147345 -0.152993 -0.158459 -0.163854 -0.169304 -0.174825 -0.1803 -0.18541 -0.189781 -0.193106 -0.195288 -0.196479 -0.196978 -0.197068 -0.19685 -0.196196 -0.194807 -0.192401 -0.188889 -0.184451 -0.179487 -0.174418 -0.169529 -0.164817 -0.160082 -0.155013 -0.149395 -0.143185 -0.136519 -0.12962 -0.122686 -0.115835 -0.109128 -0.102602 -0.0963236 -0.0903254 -0.0845652 -0.0788849 -0.0730294 -0.0667404 -0.0598754 -0.0525359 -0.0449954 -0.0377234 -0.0312048 -0.0258272 -0.0217584 -0.0188927 -0.0169264 -0.0154402 -0.0141016 -0.0126966 -0.0112161 -0.00974034 -0.00837561 -0.00716201 -0.00611406 -0.00518556 -0.00435595 -0.00360888 -0.00292607 -0.00231959 -0.00178348 -0.00136504 -0.00110931 -0.00108176 -0.00130042 -0.00173876 -0.00230887 -0.00287021 -0.00330257 -0.00350502 -0.00343525 -0.00311832 -0.00260432 -0.00199475 -0.00139108 -0.000863389 -0.000500864 -0.000303776 -0.000259518 -0.000285024 -0.00029799 -0.000265023 -0.000173603 -0.000108121 -0.000167376 -0.000437489 -0.000952287 -0.00161192 -0.00223424 -0.0025772 -0.00244584 -0.00178936 -0.000744797 0.000374501 0.00122394 0.00155745 0.00131781 0.000647875 -0.000171377 -0.000847272 -0.00119226 -0.00117252 -0.000893252 -0.000512265 -0.000164378 6.96454e-05 0.00017219 0.000169355 9.51166e-05 0 0 
0 0 4.88869e-05 0.00010556 0.000177084 0.000211938 0.000170916 2.10487e-05 -0.000247307 -0.000596187 -0.000931974 -0.0011216 -0.00103599 -0.000622943 4.14614e-05 0.000751456 0.0012418 0.00130722 0.00087672 5.68786e-05 -0.000907436 -0.00173001 -0.00218405 -0.00219403 -0.00184042 -0.00130696 -0.00078284 -0.000411084 -0.000247555 -0.000242362 -0.000332008 -0.000414627 -0.000453715 -0.000459464 -0.000462725 -0.000547155 -0.000753718 -0.00110835 -0.0015894 -0.00212355 -0.0026516 -0.00307485 -0.0033258 -0.0033605 -0.00317149 -0.00280755 -0.00235847 -0.00192919 -0.00163336 -0.00152348 -0.00161578 -0.00186554 -0.00221767 -0.00261424 -0.00302031 -0.00344039 -0.00388616 -0.0043916 -0.00497051 -0.0056213 -0.00629168 -0.00688624 -0.00729138 -0.00743181 -0.00733053 -0.00715801 -0.00720614 -0.00781506 -0.00929513 -0.011789 -0.0152819 -0.019537 -0.0242274 -0.028957 -0.0334068 -0.037401 -0.040942 -0.0442027 -0.0474331 -0.0508657 -0.0546485 -0.058838 -0.0633996 -0.0682728 -0.0733482 -0.0785069 -0.0836045 -0.0885199 -0.0931753 -0.0975783 -0.101812 -0.106013 -0.110296 -0.114685 -0.119082 -0.123281 -0.127024 -0.130072 -0.132278 -0.13358 -0.13397 -0.133435 -0.131967 -0.129576 -0.126352 -0.122503 -0.118342 -0.114187 -0.110251 -0.106558 -0.102946 -0.0991484 -0.0949037 -0.0900929 -0.0847664 -0.0791226 -0.0734292 -0.0679445 -0.0628374 -0.0582099 -0.0540768 -0.050416 -0.0471143 -0.0439869 -0.0407846 -0.0372529 -0.0332296 -0.0287291 -0.0239559 -0.0192634 -0.0150784 -0.0117377 -0.00945683 -0.00820033 -0.00774581 -0.00772432 -0.00777878 -0.00765758 -0.00727674 -0.00669677 -0.00604125 -0.00541536 -0.00485865 -0.00436415 -0.00389845 -0.00343635 -0.00297189 -0.00251213 -0.00207993 -0.00171166 -0.00146319 -0.00138194 -0.00150325 -0.00180862 -0.00224191 -0.00269257 -0.0030562 -0.00324625 -0.00321274 -0.00296671 -0.00254645 -0.00202399 -0.00149291 -0.00101582 -0.00066345 -0.000459733 -0.000378209 -0.000379175 -0.000378894 -0.000346235 -0.000270698 -0.000188523 -0.000200316 -0.000370446 -0.000746149 -0.00127369 -0.00180968 -0.00216704 -0.00216125 -0.0017125 -0.000895979 6.22697e-05 0.000876586 0.00130339 0.00123564 0.000744837 3.5949e-05 -0.000626164 -0.00103644 -0.00111945 -0.000928118 -0.000592161 -0.000245119 1.92137e-05 0.000162895 0.000196122 0.000153289 8.0384e-05 0 0 
0 0 2.75721e-05 6.71787e-05 0.000136883 0.000192817 0.000201016 0.00012806 -4.88458e-05 -0.000324129 -0.000647043 -0.000920771 -0.00102381 -0.000862587 -0.000427238 0.000181862 0.000762393 0.00109769 0.00104759 0.000594291 -0.000134427 -0.000918545 -0.00153529 -0.00183067 -0.00177445 -0.00145527 -0.0010272 -0.000631043 -0.000381017 -0.000288836 -0.00032356 -0.000417236 -0.000493769 -0.000537085 -0.000547862 -0.000570284 -0.000666271 -0.000863265 -0.00118797 -0.00160555 -0.002067 -0.00250702 -0.00284841 -0.00303984 -0.00304912 -0.00288311 -0.00258896 -0.00224338 -0.00193559 -0.00173959 -0.00169288 -0.00179141 -0.00199708 -0.00226574 -0.00255758 -0.0028591 -0.00316684 -0.00349486 -0.00383823 -0.00418808 -0.00450391 -0.00472323 -0.00477055 -0.00458361 -0.00413919 -0.0034874 -0.00278616 -0.00225597 -0.00216475 -0.00272384 -0.00405027 -0.00610034 -0.00868014 -0.0114923 -0.0142064 -0.016569 -0.0184657 -0.0199544 -0.0212237 -0.0225391 -0.0241449 -0.0262198 -0.0288303 -0.0319403 -0.0354158 -0.03908 -0.0427378 -0.0462401 -0.0494943 -0.0524924 -0.0552979 -0.0580384 -0.0608636 -0.0639005 -0.0672024 -0.0707191 -0.0742505 -0.0775134 -0.0801535 -0.081862 -0.0824018 -0.0817009 -0.079826 -0.0770279 -0.0736498 -0.0700994 -0.0667146 -0.0637165 -0.0611225 -0.0587897 -0.0564639 -0.0538823 -0.0508571 -0.0473391 -0.0434209 -0.0393099 -0.0352603 -0.0315321 -0.028316 -0.0257204 -0.0237342 -0.0222437 -0.0210345 -0.0198402 -0.018389 -0.0164933 -0.0141027 -0.0113429 -0.00848409 -0.00588133 -0.00385516 -0.00261714 -0.00220609 -0.00247461 -0.00315823 -0.00393143 -0.00454621 -0.00485454 -0.00485853 -0.00464824 -0.00433758 -0.00401669 -0.00372141 -0.0034466 -0.00316541 -0.00286412 -0.00253783 -0.00220751 -0.00190289 -0.00167752 -0.00157188 -0.00162359 -0.00182704 -0.0021438 -0.00249472 -0.00279243 -0.00295887 -0.00295078 -0.00275993 -0.00242126 -0.00198456 -0.00152735 -0.00111359 -0.000792345 -0.000597889 -0.000504633 -0.000484218 -0.000476717 -0.000436171 -0.000364673 -0.000275369 -0.000247239 -0.000344393 -0.000600975 -0.00099944 -0.00143085 -0.00175174 -0.00181248 -0.00152052 -0.000909348 -0.000129462 0.000594889 0.0010457 0.00109439 0.000758711 0.00017849 -0.000429802 -0.00086425 -0.00102441 -0.000920167 -0.000645078 -0.000321174 -4.589e-05 0.000129255 0.000198159 0.000183676 0.000120599 5.90869e-05 0 0 
0 0 9.96288e-06 3.28973e-05 9.09382e-05 0.000152187 0.000190304 0.000174328 7.67704e-05 -0.000114488 -0.000381513 -0.000667228 -0.000878399 -0.000913016 -0.000712088 -0.000294861 0.00022762 0.000676324 0.000885461 0.00076743 0.000338367 -0.000275495 -0.000889962 -0.00133926 -0.00152448 -0.00144228 -0.00118016 -0.000851901 -0.000570201 -0.000408055 -0.000364172 -0.000415833 -0.000497996 -0.000565692 -0.000603588 -0.000614703 -0.000647281 -0.00073745 -0.000917408 -0.00119652 -0.00155002 -0.00193755 -0.00229821 -0.00257587 -0.00272596 -0.00272987 -0.0025978 -0.00237175 -0.002116 -0.0018976 -0.00176585 -0.00174348 -0.0018217 -0.00197236 -0.0021683 -0.00238729 -0.00261918 -0.00286272 -0.0031009 -0.0033174 -0.00348158 -0.00355809 -0.00350909 -0.00328813 -0.0028625 -0.00221902 -0.00140614 -0.000540241 0.000199317 0.00060178 0.000499986 -0.000187697 -0.00139277 -0.00292681 -0.00451665 -0.00589374 -0.00687039 -0.00740722 -0.00760719 -0.00769902 -0.00794781 -0.00859135 -0.0097636 -0.0114609 -0.0135674 -0.0158973 -0.0182531 -0.0204824 -0.0224939 -0.0242755 -0.0258796 -0.0274215 -0.0290544 -0.0309491 -0.0332383 -0.0359545 -0.0389725 -0.041997 -0.0446092 -0.0463658 -0.0469367 -0.0461999 -0.0442892 -0.0415569 -0.038482 -0.0355237 -0.0330025 -0.0310338 -0.0295264 -0.028256 -0.0269546 -0.0254018 -0.0234734 -0.0211641 -0.0185702 -0.0158746 -0.0132966 -0.0110593 -0.00933891 -0.00822162 -0.00767012 -0.00751665 -0.00750389 -0.00735662 -0.00684404 -0.00586478 -0.00446382 -0.00283648 -0.00126026 -2.44357e-05 0.000664675 0.000723769 0.000229235 -0.000637638 -0.00163406 -0.00253731 -0.00319712 -0.00355707 -0.00365436 -0.00357008 -0.00339522 -0.00319371 -0.00299613 -0.0028037 -0.00260351 -0.00239107 -0.00216419 -0.00194434 -0.00176476 -0.00166571 -0.00167631 -0.00180657 -0.00202877 -0.00229027 -0.00252196 -0.00265763 -0.00265618 -0.00250686 -0.00223051 -0.00187098 -0.00148586 -0.00113567 -0.0008597 -0.000683403 -0.000595787 -0.000566005 -0.000556775 -0.000520956 -0.000455383 -0.000375895 -0.00032786 -0.000375563 -0.000542539 -0.000828198 -0.00115934 -0.00142317 -0.00150825 -0.00132623 -0.00088084 -0.000270613 0.000339905 0.000766283 0.000883491 0.000674147 0.000226079 -0.000295737 -0.000712686 -0.000913757 -0.000879462 -0.000668193 -0.000381665 -0.000113313 7.92149e-05 0.00017694 0.000191115 0.00014879 8.20813e-05 3.68733e-05 0 0 
0 0 -2.34246e-06 7.02104e-06 4.90259e-05 0.000104162 0.000155143 0.000176479 0.000140375 2.61919e-05 -0.000168121 -0.000416365 -0.000660604 -0.000817481 -0.000808685 -0.000602953 -0.000237634 0.000180226 0.000503733 0.000613281 0.000462033 8.24252e-05 -0.000412549 -0.00087901 -0.00119858 -0.00130816 -0.00122139 -0.00101242 -0.000765336 -0.000568486 -0.000461078 -0.000444116 -0.000490781 -0.000553042 -0.000604063 -0.000627267 -0.00063668 -0.000668253 -0.00075069 -0.000910547 -0.00114776 -0.00144679 -0.00176959 -0.00206746 -0.00229696 -0.00242114 -0.00243081 -0.00233445 -0.00216826 -0.00198206 -0.00182313 -0.0017257 -0.00170322 -0.001749 -0.00184888 -0.00198588 -0.00214783 -0.00231869 -0.00248758 -0.0026272 -0.0027193 -0.00274367 -0.00268571 -0.00252083 -0.00221888 -0.00174832 -0.00109211 -0.000292319 0.000554161 0.00128505 0.00173689 0.00178287 0.00139758 0.000666497 -0.000221142 -0.00103985 -0.00158975 -0.00176438 -0.00159157 -0.00122179 -0.000883848 -0.000802998 -0.00113444 -0.00190785 -0.00305079 -0.00440432 -0.00580139 -0.00710398 -0.00823348 -0.00917814 -0.00998533 -0.0107516 -0.0116234 -0.0127604 -0.0143114 -0.016328 -0.0187314 -0.0212509 -0.0234995 -0.0250384 -0.0255431 -0.0248852 -0.023218 -0.0208936 -0.0183829 -0.0160948 -0.014298 -0.0130387 -0.0121999 -0.0115547 -0.0108817 -0.0100095 -0.00886405 -0.00745758 -0.00587286 -0.00424788 -0.00275467 -0.00156375 -0.000812912 -0.00054712 -0.000707987 -0.00111733 -0.00154127 -0.00174803 -0.00158822 -0.00103691 -0.000201311 0.000714351 0.00147908 0.00189539 0.00186453 0.00139852 0.000616806 -0.000313146 -0.00121194 -0.00195418 -0.00246831 -0.00275465 -0.00284971 -0.00281109 -0.0026995 -0.00255467 -0.00240701 -0.00226072 -0.00212138 -0.00198242 -0.00184866 -0.00173762 -0.0016721 -0.00167622 -0.00176122 -0.00191425 -0.00210083 -0.00226931 -0.00236977 -0.00236306 -0.00224149 -0.00201359 -0.0017169 -0.00139539 -0.0010979 -0.000862781 -0.000705838 -0.000625809 -0.000597435 -0.000589592 -0.000568911 -0.000518745 -0.000458711 -0.000413061 -0.000432744 -0.000542211 -0.000742627 -0.00099229 -0.00120387 -0.00129227 -0.0011858 -0.000868911 -0.000406382 8.56278e-05 0.000462471 0.000612571 0.000502774 0.000179809 -0.000237098 -0.000602028 -0.000808025 -0.000817863 -0.000662141 -0.000418525 -0.00016999 2.56324e-05 0.000141627 0.000179203 0.000157961 0.000104853 4.61775e-05 1.77467e-05 0 0 
0 0 -9.17722e-06 -9.26838e-06 1.65646e-05 5.94236e-05 0.00011004 0.000150382 0.000156476 0.000105231 -1.64873e-05 -0.000202883 -0.000424202 -0.000626543 -0.000741413 -0.000712957 -0.000529745 -0.000236331 7.47774e-05 0.000288983 0.000326948 0.000167694 -0.000149868 -0.000531471 -0.00087189 -0.00108965 -0.00114584 -0.00106285 -0.000895689 -0.000710812 -0.000568941 -0.000493366 -0.000485021 -0.000516843 -0.000559366 -0.000592487 -0.00060524 -0.000616078 -0.000647683 -0.000728184 -0.000872203 -0.00107919 -0.0013355 -0.00160622 -0.00185605 -0.00204684 -0.00215362 -0.0021681 -0.00209935 -0.00197657 -0.00183431 -0.00170983 -0.00162571 -0.00159385 -0.00161154 -0.00166823 -0.00175384 -0.00184945 -0.00194373 -0.0020175 -0.00205808 -0.00205674 -0.00200554 -0.00189841 -0.00171093 -0.00141239 -0.000968909 -0.000375318 0.00032783 0.0010434 0.00164299 0.00200512 0.00205996 0.00182202 0.00138668 0.000911536 0.000557832 0.000447955 0.000607303 0.000968154 0.00137826 0.00167001 0.00170828 0.00143934 0.000898015 0.000184353 -0.000580133 -0.00128871 -0.00188152 -0.00234804 -0.00272932 -0.00310773 -0.00359875 -0.00433295 -0.00541825 -0.00689459 -0.00868715 -0.0105902 -0.0122927 -0.0134616 -0.0138386 -0.013339 -0.0120798 -0.0103473 -0.00849616 -0.00684269 -0.00557287 -0.00471738 -0.00417839 -0.00379423 -0.00340461 -0.00289922 -0.00223225 -0.001416 -0.000512404 0.000385561 0.00116228 0.00170473 0.00193301 0.00183573 0.00148348 0.00102341 0.00062767 0.000447125 0.000548724 0.000903797 0.00138874 0.00184253 0.00210482 0.00207564 0.00173273 0.00113619 0.000398267 -0.000353963 -0.00101587 -0.00153007 -0.00187924 -0.00208021 -0.00215919 -0.00215094 -0.00208549 -0.00199286 -0.00189412 -0.00180288 -0.00172402 -0.00165671 -0.00160875 -0.00158814 -0.00160941 -0.00167932 -0.00179297 -0.00192785 -0.00204832 -0.00211751 -0.00210468 -0.00200026 -0.00181096 -0.00156281 -0.00129293 -0.00103777 -0.000831933 -0.000689497 -0.000611057 -0.000581682 -0.000573139 -0.000562429 -0.000530896 -0.000489886 -0.000458964 -0.000468548 -0.00054502 -0.000688504 -0.000874918 -0.00104425 -0.00112903 -0.00107524 -0.00086004 -0.000522611 -0.000144026 0.000171079 0.000328483 0.000289838 7.54457e-05 -0.000235036 -0.000528098 -0.000711345 -0.000740597 -0.000627088 -0.000426068 -0.000205663 -1.92609e-05 0.000103462 0.000156488 0.000152392 0.000113361 6.24067e-05 1.7773e-05 3.60888e-06 0 0 
0 0 -1.13352e-05 -1.68228e-05 -4.70788e-06 2.3817e-05 6.55709e-05 0.000109799 0.000139104 0.000133095 7.44395e-05 -4.36594e-05 -0.000211183 -0.000399059 -0.000561411 -0.000645712 -0.000614799 -0.00046987 -0.000252246 -3.67733e-05 9.35288e-05 8.95282e-05 -5.5704e-05 -0.000303105 -0.000580889 -0.000816747 -0.000955919 -0.000978182 -0.000904578 -0.000774884 -0.000639092 -0.000535647 -0.000481571 -0.000474599 -0.00049476 -0.000525057 -0.00054896 -0.000564488 -0.000583813 -0.000624479 -0.000707844 -0.000841114 -0.00102502 -0.00124433 -0.00147187 -0.00167951 -0.00183669 -0.00192533 -0.00193799 -0.00188368 -0.00178375 -0.0016658 -0.00155743 -0.00147695 -0.00143253 -0.00142141 -0.00143403 -0.0014589 -0.0014811 -0.00149288 -0.00148617 -0.00145928 -0.00141044 -0.00133665 -0.00122378 -0.0010468 -0.000776663 -0.000391803 9.87763e-05 0.000653257 0.00119138 0.00162554 0.00188062 0.00192983 0.00179802 0.00156559 0.00133689 0.00120741 0.00122949 0.00139455 0.00163683 0.00186015 0.00197658 0.00193184 0.00172856 0.00140786 0.0010374 0.000681801 0.000379845 0.000137531 -7.64575e-05 -0.000326258 -0.000690275 -0.00125116 -0.002061 -0.00312603 -0.00437292 -0.00566064 -0.00678548 -0.00754552 -0.00778684 -0.0074684 -0.00666217 -0.0055465 -0.00433371 -0.00321984 -0.00231844 -0.00166084 -0.00119857 -0.000851442 -0.000531679 -0.000180844 0.000228243 0.000687955 0.00116254 0.00159878 0.0019353 0.0021183 0.00212218 0.00195979 0.00169579 0.00142179 0.00123545 0.00120084 0.00132469 0.00155416 0.00179239 0.0019352 0.00190205 0.00166591 0.00124904 0.000720822 0.000161896 -0.000352736 -0.000779377 -0.00110089 -0.00132433 -0.00146385 -0.00153638 -0.00155745 -0.00154077 -0.0015052 -0.0014638 -0.00143046 -0.00140927 -0.00140607 -0.00142566 -0.00147148 -0.00154777 -0.00164756 -0.00175668 -0.00184979 -0.00189979 -0.00188602 -0.00179745 -0.00164139 -0.00143484 -0.00120818 -0.000989631 -0.000806408 -0.00067398 -0.000591648 -0.000552287 -0.000534667 -0.000520792 -0.000498825 -0.000469967 -0.000451282 -0.000459106 -0.000514126 -0.000618143 -0.000754783 -0.000885355 -0.000960227 -0.000939828 -0.000803194 -0.000569876 -0.000294871 -4.98201e-05 9.33718e-05 9.61262e-05 -3.4907e-05 -0.000250475 -0.000467993 -0.000613051 -0.00064439 -0.000561092 -0.000399889 -0.000213188 -4.6472e-05 7.14896e-05 0.000130818 0.000138284 0.000110854 6.83451e-05 2.7397e-05 -1.41973e-06 -5.00091e-06 0 0 
0 0 -1.02878e-05 -1.77574e-05 -1.54245e-05 -5.41007e-07 2.79408e-05 6.547e-05 0.00010173 0.000122123 0.000110636 5.48293e-05 -4.83456e-05 -0.000188108 -0.000338844 -0.000464618 -0.000527287 -0.000503557 -0.000400038 -0.000249502 -0.000108175 -3.14452e-05 -4.97108e-05 -0.000164067 -0.000342089 -0.000533703 -0.00069137 -0.000779148 -0.000787396 -0.000730938 -0.000638793 -0.000545157 -0.000474184 -0.000438884 -0.000435605 -0.000453228 -0.000481096 -0.000507885 -0.000535289 -0.000569244 -0.000623117 -0.000710142 -0.000833879 -0.000994331 -0.0011768 -0.00136182 -0.00152589 -0.00164754 -0.00171209 -0.00171475 -0.00166438 -0.00157525 -0.00147045 -0.00136914 -0.00128404 -0.00122083 -0.00117444 -0.00113884 -0.00110415 -0.00106556 -0.00102129 -0.000971611 -0.000918777 -0.000859055 -0.00078551 -0.000681201 -0.000526199 -0.000301099 1.04836e-06 0.000370477 0.000772509 0.00115748 0.00146967 0.00166498 0.00172967 0.00167938 0.00156042 0.00142822 0.00133333 0.00130098 0.00133025 0.00139285 0.00145175 0.00147106 0.00143165 0.00133459 0.00119691 0.00104114 0.000883306 0.000721297 0.000533198 0.000282034 -7.48233e-05 -0.000567184 -0.00120053 -0.00194653 -0.00274524 -0.00350799 -0.0041378 -0.00454624 -0.00467831 -0.0045203 -0.00410904 -0.00351624 -0.00283233 -0.00213946 -0.00149985 -0.000943104 -0.000473637 -7.76827e-05 0.000264855 0.000573186 0.000855757 0.00111091 0.00132783 0.00148855 0.0015779 0.00159134 0.00153928 0.00144876 0.00136064 0.00131293 0.00133297 0.00142098 0.00154986 0.00166844 0.0017218 0.00166336 0.00147759 0.00117812 0.000807029 0.000415947 5.05461e-05 -0.000259383 -0.000506265 -0.000694094 -0.000835065 -0.00093841 -0.00101194 -0.00105943 -0.00108713 -0.0011016 -0.00111328 -0.00113 -0.00115926 -0.00120697 -0.00127453 -0.0013625 -0.00146302 -0.0015642 -0.00164735 -0.00169221 -0.00168493 -0.00161756 -0.00149478 -0.0013306 -0.00114615 -0.000964273 -0.000804504 -0.000681239 -0.000594898 -0.000541642 -0.000508648 -0.000482295 -0.000456901 -0.00043044 -0.000414334 -0.000418797 -0.000455208 -0.000526838 -0.00062114 -0.000713715 -0.000770793 -0.000762927 -0.000677237 -0.000521958 -0.000332764 -0.000156925 -4.44421e-05 -2.7631e-05 -0.000105304 -0.000247217 -0.000397978 -0.000501895 -0.000526052 -0.000464134 -0.000339172 -0.00018926 -5.02822e-05 5.24022e-05 0.000108077 0.000119982 0.000100558 6.57026e-05 2.97138e-05 2.43988e-06 -1.17903e-05 -8.65099e-06 0 0 
0 0 -7.53905e-06 -1.45981e-05 -1.77767e-05 -1.36806e-05 7.77819e-07 2.58426e-05 5.74758e-05 8.72701e-05 0.000103568 9.40287e-05 4.96164e-05 -3.11256e-05 -0.000138883 -0.000253467 -0.000347387 -0.000393615 -0.00037827 -0.000306896 -0.000205041 -0.000112081 -6.3793e-05 -8.10445e-05 -0.000162658 -0.000285917 -0.000417927 -0.000525901 -0.00058683 -0.000595016 -0.000559885 -0.000501756 -0.000442744 -0.000400128 -0.000382542 -0.00038828 -0.000411761 -0.000444371 -0.000480478 -0.000519869 -0.000566242 -0.000628164 -0.00071155 -0.000819735 -0.000949679 -0.00109098 -0.00122913 -0.00134675 -0.00142893 -0.00146519 -0.00145374 -0.00140042 -0.00131738 -0.00122014 -0.00112164 -0.00103025 -0.000948045 -0.000872876 -0.000801691 -0.000732161 -0.00066532 -0.00060292 -0.000546378 -0.000493752 -0.000440187 -0.000376577 -0.000291053 -0.000170478 -3.13936e-06 0.000215816 0.000481184 0.000772761 0.00105908 0.00130173 0.00146821 0.00153867 0.00151356 0.00141226 0.0012683 0.00111916 0.000997376 0.000921411 0.000892615 0.0008979 0.000915148 0.000923127 0.000905671 0.000853141 0.000759307 0.000615671 0.000409595 0.000127971 -0.000237134 -0.000677786 -0.0011687 -0.001668 -0.00213015 -0.00251376 -0.00279432 -0.00296247 -0.00302221 -0.0029801 -0.00284299 -0.00261382 -0.00229807 -0.00190581 -0.00145873 -0.00098532 -0.000519558 -9.09963e-05 0.000277555 0.000574325 0.000794671 0.000940064 0.00101628 0.0010338 0.00101004 0.000969686 0.000941032 0.000950146 0.00101142 0.00112321 0.00126588 0.00140602 0.00150544 0.00153006 0.00146076 0.00129747 0.00106034 0.000782019 0.000500427 0.000244999 3.30165e-05 -0.0001337 -0.000263049 -0.000367162 -0.000456375 -0.000536531 -0.000609177 -0.000673519 -0.000729859 -0.000779604 -0.00082781 -0.000880007 -0.000942957 -0.00102042 -0.00111206 -0.00121268 -0.00131088 -0.00139287 -0.00144307 -0.00145046 -0.00141031 -0.00132502 -0.00120556 -0.0010666 -0.00092529 -0.000795696 -0.000688051 -0.000605155 -0.000543743 -0.000497874 -0.000459083 -0.000423718 -0.000392038 -0.000369626 -0.000365043 -0.000383746 -0.000427378 -0.000487227 -0.000546044 -0.000581723 -0.000573986 -0.000512668 -0.000407042 -0.000277124 -0.000155694 -7.56321e-05 -5.96441e-05 -0.00010885 -0.000202483 -0.000304831 -0.000376697 -0.000392609 -0.00034698 -0.000253707 -0.000139668 -3.23977e-05 4.79866e-05 9.21841e-05 0.000101691 8.56165e-05 5.63461e-05 2.55599e-05 1.57096e-06 -1.17903e-05 -1.49292e-05 -8.62854e-06 0 0 
0 0 -3.65344e-06 -7.21468e-06 -9.60576e-06 -8.68884e-06 -2.60145e-06 9.40339e-06 2.59024e-05 4.30915e-05 5.53708e-05 5.62797e-05 4.02822e-05 4.9374e-06 -4.7188e-05 -0.000107323 -0.000162329 -0.000197693 -0.000202594 -0.000176215 -0.000127746 -7.54192e-05 -3.94818e-05 -3.37734e-05 -6.24309e-05 -0.000117686 -0.000183664 -0.000243379 -0.00028264 -0.000295147 -0.000282919 -0.000254917 -0.000223285 -0.000197955 -0.000185487 -0.000186522 -0.000197958 -0.000215935 -0.000235883 -0.000256681 -0.000279129 -0.000306373 -0.000342892 -0.000390794 -0.000450579 -0.000518317 -0.000587357 -0.000649091 -0.000695318 -0.000719747 -0.000719489 -0.000696852 -0.000656462 -0.000605944 -0.000552777 -0.000501492 -0.000454392 -0.000410717 -0.000369621 -0.00033028 -0.000293338 -0.000260297 -0.000231343 -0.000205831 -0.000181198 -0.000154105 -0.000119717 -7.23352e-05 -5.42736e-06 8.5683e-05 0.000202768 0.000339946 0.000484301 0.000616937 0.000717322 0.000770135 0.000768703 0.000718149 0.000634 0.000538369 0.000453375 0.000395745 0.000371209 0.00037571 0.000396714 0.000419317 0.000430373 0.000420764 0.00038435 0.000316118 0.000210781 6.39028e-05 -0.00012396 -0.000343977 -0.000578155 -0.000802292 -0.000992989 -0.00113576 -0.0012281 -0.00127804 -0.00129671 -0.00129185 -0.00126173 -0.00119757 -0.00108843 -0.000929383 -0.000725511 -0.000492792 -0.000253458 -2.96243e-05 0.000161356 0.00030928 0.000411004 0.000467693 0.00048429 0.000470117 0.000438393 0.000405972 0.000390718 0.000406775 0.000458406 0.000539483 0.000632682 0.000715253 0.000764957 0.000766129 0.000713544 0.000614281 0.000483963 0.000343107 0.000210466 9.83292e-05 1.11155e-05 -5.45284e-05 -0.000104699 -0.00014663 -0.000185171 -0.000222778 -0.000259272 -0.000293923 -0.000326003 -0.000356034 -0.000385188 -0.000416419 -0.000453017 -0.00049683 -0.000547738 -0.000601881 -0.000653175 -0.000693329 -0.000714828 -0.000713274 -0.000687016 -0.000639238 -0.000576468 -0.000506872 -0.000439003 -0.000379314 -0.000331625 -0.000295359 -0.000268314 -0.000246098 -0.000225528 -0.000205914 -0.000188336 -0.000177393 -0.000176891 -0.000189915 -0.000215753 -0.000247848 -0.000276202 -0.000288707 -0.000276328 -0.000237092 -0.000178359 -0.000113445 -5.90728e-05 -3.11495e-05 -3.74151e-05 -7.37401e-05 -0.000126359 -0.00017508 -0.000201787 -0.000197212 -0.00016221 -0.000107518 -4.76512e-05 4.25954e-06 3.94704e-05 5.53836e-05 5.44731e-05 4.2281e-05 2.53078e-05 9.18382e-06 -2.29913e-06 -7.77667e-06 -8.04875e-06 -4.54985e-06 0 0 
0 0 0 0 0 0 0 0 0 0 0 0 0 0 0 0 0 0 0 0 0 0 0 0 0 0 0 0 0 0 0 0 0 0 0 0 0 0 0 0 0 0 0 0 0 0 0 0 0 0 0 0 0 0 0 0 0 0 0 0 0 0 0 0 0 0 0 0 0 0 0 0 0 0 0 0 0 0 0 0 0 0 0 0 0 0 0 0 0 0 0 0 0 0 0 0 0 0 0 0 0 0 0 0 0 0 0 0 0 0 0 0 0 0 0 0 0 0 0 0 0 0 0 0 0 0 0 0 0 0 0 0 0 0 0 0 0 0 0 0 0 0 0 0 0 0 0 0 0 0 0 0 0 0 0 0 0 0 0 0 0 0 0 0 0 0 0 0 0 0 0 0 0 0 0 0 0 0 0 0 0 0 0 0 0 0 0 0 0 0 0 0 0 0 0 0 0 0 0 0 
0 0 0 0 0 0 0 0 0 0 0 0 0 0 0 0 0 0 0 0 0 0 0 0 0 0 0 0 0 0 0 0 0 0 0 0 0 0 0 0 0 0 0 0 0 0 0 0 0 0 0 0 0 0 0 0 0 0 0 0 0 0 0 0 0 0 0 0 0 0 0 0 0 0 0 0 0 0 0 0 0 0 0 0 0 0 0 0 0 0 0 0 0 0 0 0 0 0 0 0 0 0 0 0 0 0 0 0 0 0 0 0 0 0 0 0 0 0 0 0 0 0 0 0 0 0 0 0 0 0 0 0 0 0 0 0 0 0 0 0 0 0 0 0 0 0 0 0 0 0 0 0 0 0 0 0 0 0 0 0 0 0 0 0 0 0 0 0 0 0 0 0 0 0 0 0 0 0 0 0 0 0 0 0 0 0 0 0 0 0 0 0 0 0 0 0 0 0 0 0 
</DataArray>
</PointData>
</Piece>
</ImageData>
</VTKFile>
