<?xml version="1.0"?>
<VTKFile type="ImageData" version="0.1" byte_order="LittleEndian">
<ImageData WholeExtent="0 199 0 199 0 0" Origin="0 0 0" Spacing="15 15 0">
<Piece Extent="0 199 0 199 0 0">
<PointData Scalars="Amplitude">
<DataArray type="Float32" Name="Amplitude" format="ascii">
0 0 0 0 0 0 0 0 0 0 0 0 0 0 0 0 0 0 0 0 0 0 0 0 0 0 0 0 0 0 0 0 0 0 0 0 0 0 0 0 0 0 0 0 0 0 0 0 0 0 0 0 0 0 0 0 0 0 0 0 0 0 0 0 0 0 0 0 0 0 0 0 0 0 0 0 0 0 0 0 0 0 0 0 0 0 0 0 0 0 0 0 0 0 0 0 0 0 0 0 0 0 0 0 0 0 0 0 0 0 0 0 0 0 0 0 0 0 0 0 0 0 0 0 0 0 0 0 0 0 0 0 0 0 0 0 0 0 0 0 0 0 0 0 0 0 0 0 0 0 0 0 0 0 0 0 0 0 0 0 0 0 0 0 0 0 0 0 0 0 0 0 0 0 0 0 0 0 0 0 0 0 0 0 0 0 0 0 0 0 0 0 0 0 0 0 0 0 0 0 
0 0 0 0 0 0 0 0 0 0 0 0 0 0 0 0 0 0 0 0 0 0 0 0 0 0 0 0 0 0 0 0 0 0 0 0 0 0 0 0 0 0 0 0 0 0 0 0 0 0 0 0 0 0 0 0 0 0 0 0 0 0 0 0 0 0 0 0 0 0 0 0 0 0 0 0 0 0 0 0 0 0 0 0 0 0 0 0 0 0 0 0 0 0 0 0 0 0 0 0 0 0 0 0 0 0 0 0 0 0 0 0 0 0 0 0 0 0 0 0 0 0 0 0 0 0 0 0 0 0 0 0 0 0 0 0 0 0 0 0 0 0 0 0 0 0 0 0 0 0 0 0 0 0 0 0 0 0 0 0 0 0 0 0 0 0 0 0 0 0 0 0 0 0 0 0 0 0 0 0 0 0 0 0 0 0 0 0 0 0 0 0 0 0 0 0 0 0 0 0 
0 0 -4.82421e-08 7.36263e-08 4.53931e-07 5.43193e-07 -7.75709e-07 -3.37312e-06 -3.91526e-06 1.09736e-06 7.77968e-06 4.63576e-06 -1.27185e-05 -2.89308e-05 -2.30895e-05 1.09841e-06 1.2178e-05 -1.22316e-05 -5.42828e-05 -7.43616e-05 -5.76626e-05 -3.02936e-05 -2.72466e-05 -5.363e-05 -8.24995e-05 -8.54639e-05 -5.92116e-05 -2.35514e-05 4.14416e-07 8.97373e-06 1.63596e-05 4.02217e-05 8.65524e-05 0.000145957 0.000201948 0.000242859 0.000267989 0.00028489 0.000301453 0.000319207 0.000332091 0.000330598 0.000307762 0.000263159 0.000202994 0.000136912 7.37539e-05 1.84803e-05 -2.8459e-05 -6.95488e-05 -0.000107462 -0.000142701 -0.000172762 -0.000193061 -0.00019906 -0.000188563 -0.000163012 -0.000127277 -8.81682e-05 -5.2395e-05 -2.4896e-05 -7.95878e-06 -1.261e-06 -2.62174e-06 -8.97481e-06 -1.72463e-05 -2.49429e-05 -3.04576e-05 -3.30794e-05 -3.28476e-05 -3.03025e-05 -2.62622e-05 -2.15923e-05 -1.70292e-05 -1.3101e-05 -1.0092e-05 -8.02434e-06 -6.73512e-06 -5.92542e-06 -5.23323e-06 -4.28752e-06 -2.76368e-06 -4.21986e-07 2.8892e-06 7.24092e-06 1.26266e-05 1.89656e-05 2.60981e-05 3.38384e-05 4.19873e-05 5.03114e-05 5.85778e-05 6.65752e-05 7.41059e-05 8.09944e-05 8.71014e-05 9.22939e-05 9.64463e-05 9.9462e-05 0.000101285 0.000101896 0.000101286 9.94638e-05 9.6448e-05 9.22946e-05 8.7101e-05 8.09941e-05 7.41051e-05 6.65729e-05 5.85737e-05 5.03088e-05 4.19899e-05 3.38468e-05 2.61089e-05 1.89739e-05 1.26295e-05 7.2379e-06 2.88161e-06 -4.3341e-07 -2.77803e-06 -4.30236e-06 -5.24779e-06 -5.94321e-06 -6.75272e-06 -8.01891e-06 -1.00317e-05 -1.29898e-05 -1.70023e-05 -2.20877e-05 -2.82454e-05 -3.54253e-05 -4.32661e-05 -5.06476e-05 -5.52474e-05 -5.35465e-05 -4.19143e-05 -1.88485e-05 1.24032e-05 4.26356e-05 5.85837e-05 4.81975e-05 7.1072e-06 -5.75222e-05 -0.000128915 -0.000187968 -0.000221677 -0.000227678 -0.000212464 -0.000185386 -0.000153102 -0.000117788 -7.87651e-05 -3.47428e-05 1.52844e-05 7.19215e-05 0.000134527 0.000199436 0.000259059 0.000303861 0.000326914 0.000328113 0.000314636 0.00029662 0.000280459 0.000264385 0.000240022 0.000199571 0.000143879 8.49042e-05 3.925e-05 1.61603e-05 9.39567e-06 1.19774e-06 -2.2562e-05 -5.80232e-05 -8.42491e-05 -8.15667e-05 -5.32088e-05 -2.72336e-05 -3.03089e-05 -5.74217e-05 -7.39824e-05 -5.41575e-05 -1.25651e-05 1.16241e-05 7.45722e-07 -2.30849e-05 -2.87764e-05 -1.26798e-05 4.51272e-06 7.62408e-06 1.01471e-06 -3.91802e-06 -3.32408e-06 -6.99404e-07 5.80858e-07 3.39893e-07 1.12331e-07 0 0 
0 0 7.4602e-08 2.25039e-07 3.00463e-07 -9.03817e-07 -2.99714e-06 -2.79059e-06 1.96949e-06 5.3779e-06 -3.66715e-06 -2.3422e-05 -3.16986e-05 -1.31176e-05 9.05142e-06 -7.34095e-06 -6.46015e-05 -0.000110992 -0.000102717 -6.25856e-05 -5.4011e-05 -0.000103397 -0.000169851 -0.000194276 -0.000162583 -0.000112773 -8.89427e-05 -9.76212e-05 -0.00010635 -7.71919e-05 3.70356e-07 0.00010467 0.000203734 0.00028123 0.00034535 0.000416823 0.000508704 0.000614381 0.000710857 0.000772725 0.000786076 0.000753737 0.000690156 0.000611179 0.000525532 0.000432611 0.000326451 0.000202449 6.25797e-05 -8.34881e-05 -0.000221133 -0.000335413 -0.000415109 -0.000454975 -0.00045615 -0.00042518 -0.000372265 -0.00030906 -0.000246372 -0.000192189 -0.000150521 -0.000121307 -0.000101675 -8.76349e-05 -7.57171e-05 -6.39616e-05 -5.20945e-05 -4.10205e-05 -3.20026e-05 -2.59627e-05 -2.30743e-05 -2.27051e-05 -2.35034e-05 -2.37037e-05 -2.14759e-05 -1.52036e-05 -3.67343e-06 1.3853e-05 3.76351e-05 6.74935e-05 0.000102906 0.000143083 0.000187046 0.000233781 0.000282264 0.000331576 0.000380851 0.00042931 0.000476263 0.000521133 0.000563441 0.000602765 0.000638728 0.000671039 0.000699493 0.00072391 0.000744109 0.000759944 0.000771327 0.000778198 0.000780495 0.0007782 0.000771329 0.000759945 0.00074411 0.00072391 0.000699493 0.000671035 0.00063872 0.000602757 0.000563442 0.000521146 0.00047628 0.000429324 0.000380853 0.000331565 0.000282246 0.000233755 0.000187013 0.000143045 0.000102867 6.74501e-05 3.75936e-05 1.38616e-05 -3.54381e-06 -1.49463e-05 -2.13533e-05 -2.46273e-05 -2.75506e-05 -3.35106e-05 -4.55138e-05 -6.44336e-05 -8.71577e-05 -0.000105903 -0.000109987 -9.0825e-05 -4.85452e-05 3.62605e-06 4.15282e-05 3.98059e-05 -1.50529e-05 -0.000116233 -0.000238999 -0.000353116 -0.000437178 -0.000484819 -0.000499734 -0.000485489 -0.000439736 -0.000357467 -0.000239205 -9.57736e-05 5.47956e-05 0.000195509 0.000317548 0.000421576 0.000513747 0.00059948 0.000678125 0.00074074 0.000772435 0.000759688 0.000699586 0.000605137 0.00050108 0.000410491 0.000340517 0.000278369 0.00020302 0.000105739 2.6074e-06 -7.42092e-05 -0.000102605 -9.28061e-05 -8.43864e-05 -0.000108315 -0.00015794 -0.000189795 -0.000166279 -0.000101228 -5.29989e-05 -6.19926e-05 -0.000102073 -0.000110512 -6.47351e-05 -8.06471e-06 8.28085e-06 -1.34798e-05 -3.17133e-05 -2.34295e-05 -3.82661e-06 5.18616e-06 1.90631e-06 -2.71627e-06 -2.92519e-06 -1.006e-06 2.4707e-08 2.23339e-07 0 0 
0 0 3.19641e-07 3.00463e-07 -6.50766e-07 -3.78688e-06 -4.83066e-06 2.35989e-06 1.18026e-05 2.10154e-06 -3.31422e-05 -5.56812e-05 -2.15135e-05 3.85129e-05 2.83972e-05 -8.3427e-05 -0.000191241 -0.000172664 -5.76035e-05 -4.76397e-06 -0.000105392 -0.000271377 -0.000343899 -0.000273606 -0.000159268 -0.000125979 -0.000197569 -0.000288261 -0.000294815 -0.000188649 -2.84202e-05 0.000102833 0.000169896 0.000206989 0.000280762 0.000432717 0.000647987 0.000868439 0.00103287 0.00111279 0.00112156 0.00109598 0.00106736 0.00104169 0.000998928 0.000908496 0.000749514 0.000524269 0.000258551 -9.05112e-06 -0.000242608 -0.000420717 -0.000539569 -0.000608302 -0.000640671 -0.000647718 -0.000634951 -0.00060371 -0.000554477 -0.00048969 -0.000414109 -0.000333802 -0.000255029 -0.000183043 -0.00012181 -7.40314e-05 -4.11925e-05 -2.31212e-05 -1.7764e-05 -2.11913e-05 -2.82112e-05 -3.29647e-05 -2.97364e-05 -1.3816e-05 1.80871e-05 6.76611e-05 0.00013488 0.000218515 0.000316366 0.000425686 0.000543487 0.000666816 0.000792933 0.000919481 0.00104442 0.00116615 0.00128336 0.00139512 0.00150063 0.00159925 0.00169057 0.00177424 0.00184988 0.0019172 0.00197603 0.00202615 0.00206735 0.00209957 0.00212272 0.00213672 0.00214141 0.00213672 0.00212272 0.00209956 0.00206735 0.00202615 0.00197603 0.00191719 0.00184987 0.00177424 0.00169059 0.00159927 0.00150065 0.00139512 0.00128334 0.00116611 0.00104437 0.000919424 0.000792868 0.000666748 0.000543414 0.000425605 0.000316332 0.000218666 0.00013531 6.81632e-05 1.75938e-05 -1.81128e-05 -4.32616e-05 -6.37943e-05 -8.48919e-05 -0.000107559 -0.000125853 -0.000127722 -0.000101553 -4.66144e-05 1.81246e-05 5.53628e-05 2.48062e-05 -9.31266e-05 -0.000280356 -0.000484923 -0.000647294 -0.000732334 -0.000744743 -0.000716969 -0.000679329 -0.000636558 -0.000567609 -0.000445188 -0.000257208 -1.47793e-05 0.000253703 0.000513227 0.000731853 0.000888357 0.000979351 0.00102199 0.00104555 0.00107223 0.00109861 0.00109354 0.00101795 0.000856545 0.000637969 0.000424923 0.00027647 0.000206832 0.00017309 0.000107871 -2.25364e-05 -0.000181777 -0.000286145 -0.000277412 -0.000187596 -0.000117211 -0.000150519 -0.000264217 -0.000334771 -0.00026441 -0.000101682 -3.44278e-06 -5.67045e-05 -0.0001712 -0.000189983 -8.35023e-05 2.71284e-05 3.7256e-05 -2.19665e-05 -5.56098e-05 -3.31478e-05 1.9117e-06 1.16946e-05 2.40894e-06 -4.89468e-06 -4.17976e-06 -1.00605e-06 2.05074e-07 0 0 
0 0 -4.09859e-08 -1.00816e-06 -2.93255e-06 -2.0633e-06 3.99599e-06 6.18461e-06 -1.16128e-05 -4.01851e-05 -3.44306e-05 2.07699e-05 4.72151e-05 -4.33462e-05 -0.000189652 -0.000212867 -6.63316e-05 5.20109e-05 -6.10123e-05 -0.000330681 -0.000480752 -0.000374653 -0.000173542 -0.000131521 -0.000307798 -0.000526001 -0.000580399 -0.000434848 -0.00023023 -0.000131468 -0.00017591 -0.000254657 -0.000219639 -7.34593e-06 0.000321409 0.000641652 0.000862815 0.000985036 0.0010815 0.00123173 0.00145946 0.00171482 0.00190664 0.00195614 0.00183759 0.00158487 0.00126681 0.000950117 0.00067092 0.000427823 0.000193681 -6.25528e-05 -0.000356006 -0.000675782 -0.000986298 -0.0012385 -0.00138629 -0.00140252 -0.00128877 -0.00107538 -0.000811317 -0.000549498 -0.000331461 -0.000178086 -8.81858e-05 -4.3432e-05 -1.6796e-05 1.94399e-05 8.75268e-05 0.000201415 0.000366278 0.000580457 0.000837095 0.00112645 0.00143802 0.00176202 0.00209017 0.00241618 0.0027356 0.0030457 0.00334502 0.00363295 0.00390965 0.00417527 0.00443007 0.00467378 0.00490593 0.00512611 0.00533366 0.00552779 0.00570767 0.00587257 0.00602185 0.0061548 0.00627071 0.00636917 0.00644986 0.0065129 0.00655813 0.00658535 0.00659446 0.00658535 0.00655812 0.00651288 0.00644987 0.00636921 0.00627074 0.00615481 0.00602185 0.00587258 0.00570771 0.00552779 0.00533363 0.00512603 0.00490585 0.00467367 0.00442997 0.00417515 0.00390952 0.0036328 0.00334487 0.00304569 0.00273593 0.00241695 0.00209086 0.00176049 0.00142898 0.00110007 0.000779555 0.00047832 0.000216113 2.17524e-05 -7.36185e-05 -5.20042e-05 7.02392e-05 0.000230476 0.000330604 0.000275193 2.01903e-05 -0.000396542 -0.000866986 -0.00126426 -0.00150157 -0.00156019 -0.00147194 -0.00128102 -0.00101927 -0.000709895 -0.000383142 -7.66315e-05 0.00018533 0.000412034 0.000642219 0.000914061 0.00123137 0.00155191 0.00180376 0.00191962 0.00187079 0.00168484 0.00143743 0.00121552 0.00106828 0.000974829 0.000857787 0.000643297 0.000328456 2.26855e-06 -0.000209302 -0.000243145 -0.000161684 -0.000113724 -0.000209959 -0.000413743 -0.000558364 -0.000505673 -0.000291014 -0.000117693 -0.000160277 -0.000360526 -0.000467276 -0.000320958 -5.63236e-05 5.3764e-05 -6.45281e-05 -0.000210325 -0.000187956 -4.36337e-05 4.57822e-05 1.97168e-05 -3.46054e-05 -3.99907e-05 -1.15827e-05 5.92064e-06 3.59842e-06 -2.1499e-06 -2.19381e-06 -1.08918e-06 0 0 
0 0 -9.72206e-07 -1.69708e-06 -8.76341e-07 4.29849e-06 3.3173e-06 -1.77604e-05 -4.12332e-05 -1.85164e-05 4.40348e-05 3.59502e-05 -0.000111919 -0.000253466 -0.000174647 5.31508e-05 8.24895e-05 -0.000236399 -0.000588366 -0.000578113 -0.00025653 -6.10226e-05 -0.000267887 -0.000678869 -0.000885295 -0.0007263 -0.000417827 -0.000286176 -0.000442607 -0.00070543 -0.000796359 -0.000592333 -0.000206496 0.000138794 0.00030689 0.000346194 0.000430688 0.000712335 0.0012083 0.00179562 0.0022977 0.00259265 0.00267033 0.00261246 0.00252414 0.00246395 0.00241405 0.00229859 0.00203331 0.00157402 0.000942519 0.000219651 -0.000488613 -0.00108927 -0.00152793 -0.00179374 -0.00190621 -0.00189581 -0.00179016 -0.0016071 -0.00135839 -0.00105268 -0.000695504 -0.000289333 0.000167519 0.000679279 0.0012496 0.00187696 0.00255298 0.00326317 0.00399119 0.00472137 0.00544126 0.00614345 0.00682477 0.00748517 0.00812672 0.00875103 0.00935892 0.00994976 0.0105217 0.0110715 0.0115955 0.0120893 0.0125493 0.0129721 0.0133554 0.0136977 0.0139989 0.0142601 0.0144831 0.0146706 0.0148256 0.0149517 0.0150521 0.0151303 0.0151895 0.0152322 0.015261 0.0152774 0.0152828 0.0152774 0.015261 0.0152323 0.0151895 0.0151304 0.0150521 0.0149517 0.0148256 0.0146706 0.0144831 0.01426 0.0139988 0.0136975 0.0133553 0.012972 0.0125491 0.012089 0.0115952 0.0110713 0.0105217 0.0099504 0.00936028 0.00875195 0.00812308 0.00746711 0.00677475 0.00603783 0.00525905 0.00446167 0.00369349 0.0030174 0.0024831 0.00209107 0.0017731 0.00141052 0.000896487 0.000208056 -0.000562998 -0.00125392 -0.00172683 -0.00194986 -0.00199829 -0.00197805 -0.00193595 -0.00182913 -0.00157527 -0.00112653 -0.000507346 0.000202076 0.000905055 0.00151529 0.00196916 0.00224239 0.00236454 0.00241329 0.00247104 0.00256442 0.00263437 0.00256807 0.00227867 0.00177868 0.00119593 0.000708497 0.00043551 0.000355479 0.000316548 0.00014855 -0.000193886 -0.000574886 -0.000775131 -0.000683574 -0.000422261 -0.000266612 -0.000397497 -0.000702603 -0.00086037 -0.00065734 -0.000252196 -4.87257e-05 -0.000243135 -0.000562328 -0.000573978 -0.000227725 8.57607e-05 5.49591e-05 -0.000171782 -0.000250735 -0.000111279 3.4856e-05 4.29742e-05 -1.88004e-05 -4.13103e-05 -1.8075e-05 3.20787e-06 4.97744e-06 -7.47631e-08 -1.4404e-06 0 0 
0 0 -7.94566e-07 3.04796e-07 3.32681e-06 -1.02274e-06 -1.95048e-05 -2.96747e-05 4.85035e-06 4.7564e-05 -1.74993e-05 -0.000190883 -0.000243803 -2.67582e-05 0.000175506 -5.40735e-05 -0.000588956 -0.000796896 -0.000402819 5.90771e-05 -8.1097e-05 -0.000751603 -0.00124125 -0.00107878 -0.000543268 -0.000276053 -0.000568391 -0.00111826 -0.00139556 -0.00116131 -0.000646023 -0.000282568 -0.000300776 -0.00055248 -0.000670043 -0.000375786 0.00031537 0.00114255 0.00181085 0.00219307 0.00238303 0.00259352 0.00298607 0.00355764 0.00414164 0.00450627 0.00447968 0.00402858 0.00325971 0.00235372 0.00148265 0.000748324 0.000164337 -0.000319463 -0.000771764 -0.00123302 -0.00168473 -0.00204452 -0.0021867 -0.00198228 -0.00134603 -0.000265558 0.0011928 0.00290684 0.00473688 0.00656101 0.00829824 0.00991167 0.0113999 0.012782 0.0140852 0.0153317 0.0165367 0.0177047 0.0188309 0.0199028 0.020903 0.0218116 0.0226095 0.0232805 0.023813 0.0242012 0.0244435 0.0245451 0.0245142 0.0243649 0.0241136 0.0237781 0.0233773 0.0229302 0.0224556 0.0219711 0.0214928 0.0210354 0.0206132 0.020237 0.0199165 0.0196588 0.0194703 0.0193549 0.0193159 0.0193548 0.0194702 0.0196589 0.0199165 0.020237 0.0206131 0.0210353 0.0214928 0.0219712 0.0224555 0.0229301 0.0233772 0.0237781 0.0241134 0.0243647 0.0245139 0.0245448 0.0244433 0.0242014 0.0238145 0.0232828 0.0226106 0.021804 0.0208698 0.0198141 0.0186482 0.0173967 0.0161088 0.0148594 0.0137251 0.0127379 0.0118331 0.0108307 0.00949858 0.00767727 0.00540842 0.00296673 0.000754607 -0.000891828 -0.00185426 -0.00223987 -0.00225504 -0.00206158 -0.00173355 -0.00130531 -0.000826818 -0.000351016 0.000124704 0.000675753 0.00138803 0.00226509 0.00318875 0.00396358 0.00440762 0.00443148 0.00407803 0.00351105 0.00294892 0.00255706 0.002348 0.00216753 0.00179937 0.00114031 0.000314894 -0.000377028 -0.000667589 -0.000541674 -0.000282349 -0.000262127 -0.000627884 -0.00114497 -0.00137627 -0.00109284 -0.000547294 -0.000258084 -0.000521883 -0.00105165 -0.00121348 -0.000731003 -6.93696e-05 6.82721e-05 -0.000389067 -0.000779805 -0.000575806 -4.89231e-05 0.000176041 -2.54519e-05 -0.00024091 -0.000189011 -1.78508e-05 4.6233e-05 3.98907e-06 -2.9638e-05 -1.88766e-05 -8.6974e-07 1.54538e-06 8.19563e-07 0 0 
0 0 7.40153e-07 6.61866e-07 -2.99308e-06 -1.65675e-05 -1.78839e-05 1.59675e-05 3.22083e-05 -6.58776e-05 -0.000212774 -0.00015929 0.00010959 0.00014471 -0.000351101 -0.000868518 -0.000672189 2.90301e-05 0.000200391 -0.000591566 -0.0015072 -0.00151775 -0.000718742 -0.000151716 -0.000518466 -0.00143921 -0.00198482 -0.001686 -0.000929842 -0.0004859 -0.000745736 -0.00140385 -0.00179912 -0.00151088 -0.000667679 0.000224629 0.000727537 0.000800579 0.000787777 0.00112369 0.00201461 0.003307 0.00460155 0.00550505 0.00583478 0.00567645 0.00528672 0.00492142 0.00469995 0.00457036 0.00436933 0.00393243 0.0031997 0.00226047 0.00132813 0.000666649 0.000507083 0.000991132 0.00216515 0.00398755 0.00636428 0.00916598 0.0122393 0.0154242 0.0185723 0.021569 0.0243448 0.0268746 0.0291598 0.0312092 0.0330171 0.0345579 0.0357927 0.0366723 0.0371536 0.0372071 0.0368196 0.0359987 0.0347698 0.0331737 0.03126 0.0290848 0.0267066 0.0241852 0.0215736 0.0189243 0.0162837 0.0136928 0.0111877 0.00879823 0.00655054 0.00446568 0.0025616 0.000851676 -0.00065014 -0.0019349 -0.0029952 -0.0038251 -0.00442135 -0.00478008 -0.00489989 -0.00478015 -0.0044216 -0.00382538 -0.00299551 -0.00193527 -0.000650584 0.000851329 0.00256131 0.00446557 0.00655037 0.0087981 0.0111879 0.0136931 0.0162836 0.0189241 0.0215732 0.0241851 0.0267075 0.0290874 0.0312642 0.0331749 0.0347559 0.0359413 0.0366716 0.0369089 0.0366605 0.0360022 0.0350776 0.034055 0.033043 0.0319905 0.0306621 0.0287291 0.0259616 0.0224188 0.0184749 0.0146401 0.0112856 0.00848219 0.00607846 0.00394264 0.00214012 0.000893531 0.000384255 0.000585372 0.00128181 0.0021934 0.00308606 0.00380273 0.00426326 0.00448794 0.00461282 0.00481439 0.00517633 0.00558415 0.00576107 0.0054351 0.00452923 0.00324289 0.0019717 0.00110206 0.000775377 0.0007897 0.000722049 0.000233048 -0.000644028 -0.00148024 -0.00177019 -0.00137733 -0.000714802 -0.000444668 -0.00087909 -0.00163244 -0.00192806 -0.00139102 -0.00048345 -0.000123104 -0.000685388 -0.00147736 -0.00146918 -0.000566723 0.00021331 4.10444e-05 -0.000655197 -0.000851763 -0.000342374 0.000145895 0.000109649 -0.000157395 -0.000211077 -6.60011e-05 3.14071e-05 1.5822e-05 -1.80702e-05 -1.82641e-05 -5.09159e-06 7.67066e-07 0 0 
0 0 1.10214e-07 -4.16427e-06 -1.22369e-05 -7.70521e-06 1.64071e-05 6.48953e-06 -9.54305e-05 -0.000177906 -4.03767e-05 0.000170903 -3.71651e-05 -0.000667682 -0.000888691 -0.000224875 0.000407188 -0.000164258 -0.00151614 -0.00201923 -0.00107973 9.14164e-06 -0.000226003 -0.00160522 -0.00263504 -0.0023191 -0.00116909 -0.000487028 -0.000973303 -0.00212102 -0.00282359 -0.00244783 -0.0013443 -0.000421348 -0.000309477 -0.000869949 -0.00136871 -0.00110027 0.000104394 0.00181202 0.00335171 0.0042755 0.00461095 0.00476697 0.00521752 0.0061972 0.00757267 0.00894772 0.00990026 0.0102126 0.00997278 0.0095221 0.00930563 0.00970288 0.0109137 0.0129286 0.0155724 0.0185975 0.0217809 0.0249957 0.0282401 0.0315952 0.0351481 0.0389037 0.042734 0.04639 0.0495579 0.0519332 0.0532809 0.0534644 0.0524371 0.0502335 0.0469388 0.0426732 0.0375822 0.0318192 0.0255415 0.0189014 0.0120397 0.00508093 -0.00186581 -0.00871095 -0.0153793 -0.0218119 -0.0279609 -0.0337917 -0.0392777 -0.0443992 -0.0491413 -0.0534965 -0.0574599 -0.0610285 -0.0642039 -0.0669882 -0.0693885 -0.0714072 -0.0730492 -0.0743213 -0.0752259 -0.0757667 -0.0759458 -0.0757667 -0.0752261 -0.0743219 -0.0730502 -0.0714082 -0.0693895 -0.0669892 -0.0642047 -0.0610292 -0.0574602 -0.0534964 -0.0491413 -0.0443994 -0.0392782 -0.0337922 -0.0279609 -0.0218104 -0.015375 -0.00870521 -0.00186519 0.00505672 0.0119469 0.0186682 0.0250793 0.0310676 0.0365811 0.0416377 0.0462674 0.0503931 0.0537295 0.0557754 0.0559994 0.0541645 0.0505699 0.0460261 0.0414838 0.0375599 0.0342929 0.0313072 0.0282182 0.0249263 0.0215904 0.0184006 0.0154629 0.0128705 0.0108179 0.00954828 0.00914645 0.00940107 0.0098662 0.010076 0.00973041 0.00878207 0.00743769 0.00608092 0.00510038 0.00465382 0.00452531 0.00422839 0.00333016 0.00179757 9.48282e-05 -0.00109165 -0.00133619 -0.000822477 -0.000262838 -0.000380401 -0.00130002 -0.00238963 -0.002752 -0.00204631 -0.000905849 -0.000426794 -0.00110549 -0.00224407 -0.00255987 -0.0015458 -0.000185437 4.5403e-05 -0.00103261 -0.0019636 -0.00147058 -0.000139184 0.000420228 -0.000209654 -0.000869567 -0.000654164 -3.35957e-05 0.000169963 -4.0145e-05 -0.000176319 -9.46052e-05 5.65974e-06 1.44355e-05 -8.85111e-06 -9.82063e-06 -4.44942e-06 0 0 
0 0 -2.86181e-06 -5.2634e-06 -2.12436e-06 1.05895e-05 -1.12682e-05 -9.232e-05 -0.000114966 3.67427e-05 0.000116325 -0.000262278 -0.000784347 -0.000577859 0.000255479 0.000295083 -0.00106901 -0.00226944 -0.00164246 -2.3216e-05 0.000239457 -0.00148157 -0.00325595 -0.0031387 -0.00149854 -0.000373459 -0.00105037 -0.00280656 -0.00387438 -0.00329458 -0.00173317 -0.000696931 -0.00107297 -0.00240429 -0.00341786 -0.00314661 -0.0016564 0.000131993 0.00124226 0.00137781 0.00107694 0.00127668 0.00266849 0.00528553 0.00856623 0.0117544 0.0143392 0.0163219 0.0181477 0.0204266 0.0236156 0.0278206 0.0327837 0.0380261 0.0430552 0.0475428 0.0513973 0.0547218 0.057676 0.0603909 0.0628782 0.0650336 0.0666519 0.0674488 0.0670789 0.0651795 0.0614316 0.0556349 0.0477726 0.0380154 0.0266874 0.0142 0.000969233 -0.0126179 -0.026247 -0.0396783 -0.0527313 -0.0652752 -0.0772173 -0.0884889 -0.0990408 -0.108834 -0.11785 -0.126084 -0.133528 -0.140199 -0.146116 -0.151311 -0.155824 -0.159703 -0.162997 -0.165761 -0.168049 -0.169916 -0.171415 -0.172595 -0.173497 -0.17416 -0.17461 -0.174871 -0.174958 -0.174871 -0.17461 -0.174161 -0.173499 -0.172597 -0.171417 -0.169918 -0.168051 -0.165762 -0.162998 -0.159703 -0.155825 -0.151312 -0.146117 -0.140198 -0.133526 -0.126078 -0.117843 -0.108835 -0.0990802 -0.0886296 -0.0775646 -0.0659547 -0.053823 -0.0411086 -0.0276862 -0.0134802 0.00134154 0.0161892 0.0300529 0.0418178 0.0507281 0.0567817 0.0606859 0.0633511 0.0652972 0.066431 0.0663731 0.0650081 0.0627112 0.0600682 0.0574023 0.0546014 0.0513368 0.0474129 0.0428515 0.0378324 0.0326345 0.0276608 0.0233932 0.020169 0.0179174 0.0161406 0.0141764 0.0115905 0.0084248 0.00519607 0.00262722 0.00125396 0.00105601 0.00137014 0.00126528 0.000179948 -0.00160674 -0.00310732 -0.00338058 -0.00235094 -0.0010009 -0.000619538 -0.00166648 -0.00323828 -0.00381647 -0.0027359 -0.000998883 -0.00033285 -0.00144564 -0.00306634 -0.00318187 -0.00142758 0.000273079 1.27021e-05 -0.00158963 -0.00221249 -0.00102953 0.00031347 0.000268273 -0.000560849 -0.000769301 -0.000256093 0.000116539 3.66423e-05 -0.000114586 -9.30305e-05 -1.20722e-05 1.19991e-05 -7.37285e-07 -4.88964e-06 0 0 
0 0 -2.03623e-06 7.21346e-07 6.03606e-06 -1.7473e-05 -6.88626e-05 -5.44929e-05 5.75532e-05 6.27088e-06 -0.000405072 -0.000665759 -0.00015612 0.000423797 -0.000319169 -0.00193909 -0.0021824 -0.000481631 0.000648945 -0.000876224 -0.00349781 -0.00404871 -0.00204835 -0.000206213 -0.000883108 -0.00337128 -0.00500427 -0.0042259 -0.00206414 -0.000825733 -0.0017266 -0.00387201 -0.00526853 -0.00472602 -0.00278683 -0.0010789 -0.000856197 -0.00199036 -0.00317083 -0.0029004 -0.000501708 0.00359172 0.0083178 0.0128058 0.016961 0.0214439 0.0272184 0.0349466 0.0445932 0.0554283 0.0663414 0.0762786 0.0845693 0.0910109 0.0957522 0.0990416 0.101011 0.101532 0.100228 0.0965624 0.0900176 0.0802826 0.067372 0.0516432 0.0336986 0.0142119 -0.00622905 -0.0271868 -0.0483522 -0.0694821 -0.0903241 -0.11061 -0.130049 -0.148351 -0.165285 -0.180663 -0.194358 -0.206283 -0.21639 -0.224673 -0.231168 -0.235938 -0.239088 -0.240751 -0.241082 -0.240255 -0.238456 -0.235871 -0.232693 -0.229098 -0.225255 -0.221327 -0.217452 -0.213754 -0.210338 -0.207303 -0.204722 -0.202647 -0.201135 -0.200216 -0.199909 -0.200217 -0.201137 -0.202649 -0.204724 -0.207305 -0.21034 -0.213756 -0.217453 -0.221328 -0.225257 -0.2291 -0.232695 -0.235873 -0.238455 -0.240252 -0.241074 -0.240741 -0.23909 -0.235996 -0.23137 -0.225167 -0.217344 -0.207798 -0.196318 -0.182591 -0.16636 -0.147685 -0.127175 -0.105944 -0.0852247 -0.0657004 -0.0470977 -0.0284146 -0.00872188 0.0119664 0.0325274 0.0513622 0.067289 0.0799556 0.0895376 0.0962305 0.100126 0.101475 0.100829 0.0987683 0.0955058 0.090807 0.0843217 0.0759461 0.0659951 0.0551466 0.0443721 0.0347354 0.0270071 0.021278 0.0168638 0.0127484 0.00826246 0.00353912 -0.000523092 -0.00288116 -0.00313408 -0.00196468 -0.000835808 -0.00103964 -0.00271787 -0.00464136 -0.00519343 -0.00380896 -0.00165936 -0.000737099 -0.0019582 -0.00412043 -0.0048949 -0.00328721 -0.000832436 -0.000163465 -0.00198307 -0.00395923 -0.00341574 -0.000827493 0.000677255 -0.000443242 -0.00212711 -0.00188977 -0.000293686 0.00043464 -0.000143952 -0.000651768 -0.000397047 7.06833e-06 5.60445e-05 -5.45739e-05 -6.75148e-05 -1.81516e-05 -6.70601e-07 1.69547e-06 0 0 
0 0 1.3208e-06 -1.70059e-06 -1.54533e-05 -4.08299e-05 -1.75097e-05 3.82717e-05 -8.02343e-05 -0.000401184 -0.000412817 0.000114776 0.000178402 -0.00105068 -0.00216086 -0.00122296 0.000563002 1.65603e-06 -0.00300163 -0.00470699 -0.00287871 -0.000141342 -0.000378346 -0.00357859 -0.0061113 -0.00532724 -0.00246327 -0.000883011 -0.00234191 -0.00537752 -0.00709833 -0.00608126 -0.00354407 -0.00198125 -0.00279812 -0.00516143 -0.00678953 -0.00578679 -0.0019031 0.00365041 0.00939715 0.0148232 0.0207731 0.0288587 0.040384 0.0555018 0.0731233 0.0913764 0.108411 0.122977 0.134569 0.143196 0.148923 0.151523 0.150358 0.144499 0.133031 0.115391 0.0916304 0.062411 0.0288999 -0.00746484 -0.0451536 -0.0827154 -0.118856 -0.152577 -0.18323 -0.210533 -0.234506 -0.255297 -0.273026 -0.287703 -0.29918 -0.307283 -0.31184 -0.312794 -0.310224 -0.304362 -0.295523 -0.284141 -0.270669 -0.255598 -0.239384 -0.222469 -0.205259 -0.188099 -0.171294 -0.155101 -0.139713 -0.125289 -0.111947 -0.0997771 -0.088836 -0.0791549 -0.0707621 -0.0636681 -0.0578732 -0.0533745 -0.0501671 -0.0482426 -0.0476037 -0.0482444 -0.0501693 -0.0533772 -0.0578744 -0.0636688 -0.0707623 -0.0791539 -0.0888355 -0.0997788 -0.111952 -0.125293 -0.139715 -0.1551 -0.171291 -0.18809 -0.205245 -0.222473 -0.239465 -0.255875 -0.271337 -0.285422 -0.297545 -0.306946 -0.31272 -0.314105 -0.310811 -0.303359 -0.293002 -0.281122 -0.268331 -0.25395 -0.236278 -0.213736 -0.185941 -0.153895 -0.119169 -0.0829209 -0.0456942 -0.00810453 0.0285411 0.0623459 0.0915606 0.115123 0.132662 0.144186 0.150081 0.151171 0.148483 0.14278 0.134251 0.12271 0.108129 0.0910974 0.0729109 0.0553637 0.0402676 0.0287385 0.0206798 0.0147917 0.00941294 0.00367229 -0.00188686 -0.00575157 -0.00670732 -0.00504944 -0.00268591 -0.00188419 -0.0034407 -0.00594734 -0.00693646 -0.0052163 -0.00220664 -0.00077135 -0.00234599 -0.00517762 -0.00595468 -0.00345532 -0.000297354 -6.91474e-05 -0.00277914 -0.00459143 -0.0029122 4.89191e-05 0.000595527 -0.00117726 -0.00211002 -0.00101777 0.000191766 0.000123315 -0.000403102 -0.000394692 -7.84032e-05 3.84602e-05 -1.87992e-05 -4.56453e-05 -1.93887e-05 -1.57297e-06 0 0 
0 0 -1.20633e-06 -1.06493e-05 -2.1962e-05 -2.32596e-06 1.11197e-05 -0.000111466 -0.000301966 -0.000181925 0.000154001 -0.000228101 -0.00142153 -0.0016595 -0.000151952 0.000559696 -0.00174128 -0.00454686 -0.0038407 -0.000566703 0.000276148 -0.00315384 -0.00686561 -0.00654251 -0.00303563 -0.000897209 -0.00282109 -0.00685903 -0.00898867 -0.00745064 -0.0042942 -0.00294685 -0.00481793 -0.0080341 -0.0092711 -0.00648528 -0.000242411 0.00726746 0.0144268 0.0216056 0.0308992 0.0445934 0.0635864 0.0867604 0.111545 0.135174 0.15572 0.172384 0.185099 0.193735 0.197534 0.19502 0.184358 0.164054 0.133494 0.0932773 0.0451021 -0.00857599 -0.0650313 -0.121648 -0.17624 -0.227166 -0.273274 -0.313723 -0.347795 -0.374795 -0.394068 -0.405185 -0.408084 -0.403144 -0.391095 -0.372859 -0.349412 -0.321735 -0.290753 -0.257357 -0.22243 -0.186824 -0.151328 -0.116635 -0.0833034 -0.0517791 -0.0223491 0.00480273 0.0295852 0.0519899 0.0720819 0.0899367 0.105687 0.119467 0.13143 0.141734 0.150516 0.157919 0.164061 0.169068 0.173029 0.176009 0.1781 0.179341 0.179745 0.179339 0.178098 0.176008 0.173029 0.16907 0.164062 0.157919 0.150514 0.141732 0.131427 0.119465 0.105684 0.0899386 0.0720918 0.0520068 0.0295789 0.00469597 -0.0227107 -0.0526424 -0.0849558 -0.119225 -0.154615 -0.189957 -0.224002 -0.255917 -0.285661 -0.31389 -0.341226 -0.367186 -0.389649 -0.405472 -0.411983 -0.408336 -0.395531 -0.375181 -0.348187 -0.31451 -0.274058 -0.227522 -0.176275 -0.121776 -0.0654296 -0.00906009 0.0447218 0.0929314 0.133041 0.16352 0.183884 0.19465 0.197176 0.193336 0.184723 0.172102 0.155512 0.134979 0.111368 0.0866571 0.0635709 0.0446184 0.0309217 0.021641 0.0145121 0.00740328 -9.76952e-05 -0.00636185 -0.00914684 -0.00787951 -0.00462176 -0.00274926 -0.00412496 -0.00731432 -0.00884732 -0.00669142 -0.00269008 -0.000793425 -0.00290376 -0.00637043 -0.00668982 -0.00302672 0.000356658 -0.000481744 -0.00372325 -0.00442847 -0.00166454 0.000599111 -0.000114681 -0.00161329 -0.00138508 -0.000211935 0.000160328 -0.000175276 -0.000296291 -0.000110796 7.68458e-06 -4.01498e-06 -1.76968e-05 -1.13025e-05 0 0 
0 0 -4.44442e-06 -5.32955e-06 2.99296e-06 -5.39019e-06 -9.60574e-05 -0.000183383 -5.57883e-05 4.42799e-05 -0.000511873 -0.00129727 -0.000869655 0.000316981 -0.000441058 -0.00331334 -0.00431386 -0.00158129 0.000599654 -0.00201833 -0.00677024 -0.00764462 -0.00386255 -0.000863626 -0.00291086 -0.00801124 -0.0108247 -0.00895357 -0.00520351 -0.00406186 -0.0068416 -0.0104323 -0.0103855 -0.0047668 0.00473992 0.0151041 0.0249874 0.0360292 0.0514667 0.0734696 0.101411 0.132115 0.161558 0.186695 0.206246 0.220201 0.228571 0.230398 0.223534 0.205353 0.173869 0.128615 0.0710491 0.00421554 -0.0679782 -0.141543 -0.213021 -0.279746 -0.339804 -0.391762 -0.434423 -0.466642 -0.487407 -0.495947 -0.491867 -0.475239 -0.446615 -0.407112 -0.358459 -0.302947 -0.24326 -0.182125 -0.121988 -0.0647486 -0.0117057 0.0364236 0.0793512 0.117083 0.149738 0.177613 0.201014 0.220304 0.235871 0.248129 0.257485 0.264302 0.268976 0.271854 0.273244 0.273468 0.272799 0.271477 0.269725 0.267736 0.265681 0.263702 0.261922 0.260446 0.259333 0.258646 0.258418 0.258643 0.259329 0.260445 0.261922 0.263703 0.265682 0.267733 0.269722 0.271476 0.2728 0.273468 0.273249 0.271863 0.268994 0.264295 0.257353 0.247679 0.234797 0.218259 0.197823 0.173582 0.145928 0.115221 0.0812022 0.0427212 -0.00212809 -0.0548858 -0.115292 -0.180545 -0.246091 -0.307477 -0.361992 -0.408706 -0.447116 -0.475858 -0.49291 -0.496851 -0.487753 -0.466686 -0.434671 -0.392324 -0.340392 -0.280174 -0.213432 -0.142103 -0.0686056 0.00366937 0.0705802 0.128113 0.173319 0.204873 0.223187 0.230123 0.228315 0.220001 0.206157 0.186696 0.161571 0.132125 0.101458 0.0735845 0.0516079 0.0361529 0.0250951 0.0152466 0.00493461 -0.00455227 -0.0101974 -0.0102793 -0.00668433 -0.00387146 -0.00498326 -0.00873771 -0.0105887 -0.00781395 -0.00278085 -0.000762462 -0.00372927 -0.00746461 -0.00660217 -0.00191086 0.000669329 -0.00149373 -0.00420102 -0.00321899 -0.000388295 0.000350005 -0.000833572 -0.00126431 -0.000493727 5.1179e-05 -5.26049e-05 -0.000182052 -9.52683e-05 -4.11576e-06 -2.05313e-06 -5.508e-06 0 0 
0 0 1.84032e-07 1.96388e-06 -5.21751e-06 -5.94857e-05 -9.11824e-05 -1.42911e-05 -7.0919e-05 -0.000565091 -0.000908131 -0.000301963 9.37637e-05 -0.00155623 -0.00363658 -0.00266817 7.52352e-05 -0.00069537 -0.00546545 -0.00806262 -0.00497782 -0.0010085 -0.00248675 -0.00847512 -0.01235 -0.0104921 -0.00616054 -0.00500805 -0.0083481 -0.0117855 -0.00970013 -0.000378563 0.01334 0.0277174 0.0421663 0.059753 0.0842685 0.11671 0.153966 0.190468 0.221125 0.243289 0.256586 0.261304 0.256644 0.240257 0.209081 0.16103 0.0963412 0.0180379 -0.06882 -0.158385 -0.245241 -0.325267 -0.395639 -0.454534 -0.50059 -0.532512 -0.549055 -0.549174 -0.532416 -0.499186 -0.450901 -0.39003 -0.319809 -0.243902 -0.165826 -0.0886715 -0.0149123 0.0535955 0.115331 0.169169 0.2143 0.250352 0.277517 0.296399 0.307948 0.313207 0.31321 0.308895 0.301089 0.290524 0.277803 0.263529 0.248183 0.23225 0.216128 0.200179 0.184696 0.169936 0.156099 0.143328 0.131746 0.121422 0.112436 0.104803 0.0985668 0.0937183 0.0902506 0.0881649 0.0874812 0.0881621 0.090248 0.0937181 0.0985651 0.104801 0.112436 0.121421 0.131744 0.143324 0.1561 0.169941 0.184713 0.2002 0.216116 0.232088 0.247639 0.262241 0.275361 0.28672 0.296304 0.304397 0.311034 0.315431 0.315406 0.307658 0.28903 0.258096 0.216091 0.16595 0.110291 0.0497634 -0.0166167 -0.089299 -0.166683 -0.245168 -0.32081 -0.390375 -0.451005 -0.499602 -0.533156 -0.549847 -0.549515 -0.533004 -0.501275 -0.455282 -0.396288 -0.325874 -0.245909 -0.15907 -0.0693747 0.0176375 0.0959974 0.160712 0.208859 0.240156 0.256604 0.261256 0.256559 0.243337 0.221234 0.190586 0.154065 0.116842 0.0844707 0.0600047 0.042407 0.0279298 0.0135556 -0.000118869 -0.00940913 -0.0115003 -0.00810162 -0.00477438 -0.00593159 -0.01021 -0.0120545 -0.00823242 -0.00232826 -0.00087804 -0.0048094 -0.00786563 -0.00530786 -0.000605337 0.000145523 -0.0025772 -0.00354321 -0.0014951 0.000126393 -0.000274158 -0.000881858 -0.00054958 -6.5686e-05 -1.1644e-05 -8.91966e-05 -6.40326e-05 -1.77291e-05 1.42432e-06 0 0 
0 0 3.10389e-06 -5.40108e-06 -2.76865e-05 -3.27671e-05 -5.41522e-06 -0.000114596 -0.000447603 -0.000521177 -0.000106675 -0.000398743 -0.00206062 -0.00282105 -0.00102878 -3.40197e-05 -0.00328685 -0.00723717 -0.00607812 -0.00174455 -0.00178077 -0.00785036 -0.0131304 -0.0119173 -0.0070677 -0.00541995 -0.00873026 -0.0114379 -0.00667664 0.00714519 0.0260761 0.0459494 0.0670059 0.0935123 0.129088 0.172509 0.217593 0.256607 0.28408 0.298138 0.298988 0.286284 0.257784 0.210144 0.141191 0.0520746 -0.0521257 -0.163495 -0.273268 -0.373854 -0.459959 -0.528355 -0.577381 -0.605954 -0.613195 -0.598505 -0.561963 -0.504895 -0.430186 -0.342173 -0.246161 -0.147886 -0.0526766 0.0351619 0.112474 0.177441 0.229375 0.268575 0.296154 0.313562 0.322267 0.323455 0.317805 0.305797 0.287946 0.264985 0.237935 0.207984 0.176455 0.144507 0.113131 0.0831365 0.0550621 0.0293091 0.00608561 -0.0144826 -0.0324198 -0.0478135 -0.0607788 -0.0715841 -0.0804288 -0.0875355 -0.0931766 -0.097584 -0.100949 -0.103451 -0.105252 -0.106527 -0.107358 -0.107834 -0.107984 -0.107834 -0.107353 -0.106527 -0.105252 -0.103451 -0.100947 -0.0975841 -0.0931793 -0.0875379 -0.0804246 -0.0715676 -0.0607582 -0.0478252 -0.0326014 -0.0151172 0.00458838 0.0264834 0.0506769 0.0776333 0.107958 0.14199 0.178954 0.216455 0.250712 0.278025 0.296712 0.307897 0.314378 0.318094 0.318263 0.311802 0.295416 0.267505 0.227917 0.176377 0.112107 0.0349545 -0.0532821 -0.148777 -0.246893 -0.342671 -0.430791 -0.505749 -0.562852 -0.599277 -0.613949 -0.606784 -0.578171 -0.528977 -0.460434 -0.37431 -0.273683 -0.163787 -0.0522915 0.0519464 0.141069 0.210088 0.257845 0.286393 0.299104 0.298273 0.284293 0.256901 0.217899 0.172791 0.129369 0.0938391 0.0673748 0.0463059 0.0263889 0.0074308 -0.00637595 -0.0111215 -0.00843698 -0.00517099 -0.00680541 -0.0115992 -0.0128031 -0.00759513 -0.00161342 -0.00159636 -0.00588994 -0.00704902 -0.00315634 4.28346e-05 -0.00095621 -0.00273958 -0.00199831 -0.000364746 -8.56437e-05 -0.000503107 -0.000434789 -0.000109473 -7.30954e-06 -3.83745e-05 -2.84776e-05 -8.05659e-06 0 0 
0 0 5.38962e-07 -3.16846e-06 -3.26054e-06 -2.90217e-07 -9.29445e-05 -0.000276583 -0.000259277 -0.000122188 -0.000711611 -0.00186709 -0.00170983 -0.000386263 -0.0013545 -0.00503903 -0.00628503 -0.00303662 -0.00136057 -0.00618003 -0.0126013 -0.0128876 -0.00785149 -0.0050351 -0.00743224 -0.00885011 -0.000978449 0.0180669 0.0434319 0.070415 0.0999622 0.136989 0.184083 0.237148 0.286794 0.323573 0.342253 0.341834 0.322511 0.282781 0.219346 0.129715 0.015341 -0.116939 -0.256057 -0.38965 -0.507071 -0.600984 -0.667268 -0.704045 -0.710409 -0.686024 -0.631547 -0.549171 -0.443484 -0.321337 -0.191233 -0.0622305 0.0574242 0.161251 0.245151 0.307317 0.347977 0.368865 0.372484 0.361715 0.339353 0.307975 0.270069 0.227953 0.183975 0.140094 0.0978288 0.0581234 0.0214705 -0.0117582 -0.0412178 -0.0665172 -0.0872042 -0.103079 -0.114123 -0.120572 -0.122868 -0.121674 -0.117607 -0.111357 -0.103569 -0.0947597 -0.0854156 -0.0759563 -0.0667034 -0.0578681 -0.0497241 -0.0423151 -0.0358019 -0.0302015 -0.0256107 -0.021997 -0.0194231 -0.017875 -0.0173545 -0.0178694 -0.0194117 -0.0219917 -0.0256006 -0.030189 -0.0357953 -0.0423134 -0.0497261 -0.057865 -0.0666869 -0.0759375 -0.0854367 -0.0949721 -0.104277 -0.113032 -0.120767 -0.126571 -0.129016 -0.126363 -0.116988 -0.100412 -0.0779561 -0.0524971 -0.0268798 -0.00205374 0.0239508 0.0546774 0.0923498 0.136066 0.18224 0.227141 0.268831 0.306375 0.338232 0.361303 0.372139 0.368064 0.34696 0.306529 0.244577 0.160503 0.0563885 -0.0632609 -0.192118 -0.322219 -0.444451 -0.550077 -0.632262 -0.686631 -0.711016 -0.704592 -0.66765 -0.601245 -0.507287 -0.389806 -0.256085 -0.116852 0.0154566 0.129836 0.219536 0.283056 0.322833 0.342136 0.342553 0.323923 0.287193 0.23755 0.184427 0.137292 0.100258 0.0706948 0.0436014 0.0180124 -0.000854447 -0.00860127 -0.0071846 -0.00481473 -0.00759743 -0.0125811 -0.0122975 -0.00596724 -0.00121414 -0.00288733 -0.0061109 -0.00489048 -0.00126506 -0.000320904 -0.00164408 -0.00181237 -0.000679399 -0.000104425 -0.000246631 -0.000270132 -9.22323e-05 3.88436e-07 -5.41265e-06 -7.78346e-06 0 0 
0 0 4.76137e-06 1.23945e-05 1.23058e-05 -4.55258e-05 -0.000131926 -0.000113872 -0.000157922 -0.00071436 -0.00132427 -0.000922579 -0.000585464 -0.00254267 -0.00502553 -0.0040707 -0.00168443 -0.0040236 -0.0103695 -0.0128075 -0.00851232 -0.00411313 -0.00446454 -0.00388642 0.00746255 0.0324087 0.0654888 0.101208 0.140578 0.188558 0.246148 0.305984 0.355636 0.384426 0.387686 0.365166 0.31684 0.240496 0.133489 -0.00317006 -0.1618 -0.328645 -0.487436 -0.623686 -0.727329 -0.792959 -0.818493 -0.803347 -0.748113 -0.654977 -0.528759 -0.377813 -0.213344 -0.0482004 0.105113 0.236488 0.339228 0.410357 0.450247 0.461602 0.448441 0.415328 0.366874 0.307312 0.240693 0.170829 0.101318 0.0354471 -0.0240148 -0.0745722 -0.114357 -0.142118 -0.157536 -0.161358 -0.155248 -0.141473 -0.122437 -0.100239 -0.0765305 -0.0525221 -0.0290013 -0.0065157 0.0144625 0.0336631 0.0508535 0.0659829 0.0790274 0.0900942 0.0993256 0.106888 0.113019 0.117881 0.121696 0.124615 0.126812 0.128465 0.129629 0.13047 0.130994 0.131305 0.131396 0.131315 0.131007 0.130484 0.129644 0.128482 0.12682 0.124614 0.121697 0.117897 0.11304 0.106857 0.0990841 0.0893112 0.077201 0.0625567 0.0455426 0.0269891 0.00814076 -0.00972318 -0.026303 -0.0427817 -0.0616353 -0.0849034 -0.111932 -0.138539 -0.15853 -0.166744 -0.161437 -0.143742 -0.115163 -0.0759023 -0.0256815 0.0343114 0.100855 0.170344 0.239723 0.306175 0.366021 0.414638 0.447499 0.460396 0.449094 0.409371 0.338219 0.235393 0.104093 -0.0490501 -0.214134 -0.378599 -0.529418 -0.655437 -0.748457 -0.803642 -0.818674 -0.792985 -0.727263 -0.623613 -0.487335 -0.328448 -0.161518 -0.00287102 0.133786 0.240847 0.317274 0.365625 0.388093 0.384777 0.355947 0.306253 0.24625 0.188332 0.139874 0.0999699 0.0645937 0.0320257 0.00747727 -0.00369253 -0.00423764 -0.00389834 -0.00824851 -0.0125072 -0.0101082 -0.00384931 -0.00155806 -0.00392685 -0.0048877 -0.00244732 -0.000525234 -0.000872197 -0.00128026 -0.000687015 -0.000144975 -0.000106402 -0.000126561 -4.6802e-05 -2.33244e-06 5.88771e-06 0 0 
0 0 1.31255e-05 1.75e-05 -1.35704e-06 -3.26204e-05 -3.20612e-05 -0.00013479 -0.000522547 -0.000787536 -0.00054877 -0.000950145 -0.00282538 -0.00384942 -0.00245118 -0.00250261 -0.00704965 -0.0110967 -0.00881951 -0.00334466 -0.000730138 0.00242193 0.0170662 0.0483286 0.0906717 0.136975 0.187182 0.245607 0.311467 0.374245 0.418671 0.433274 0.414022 0.361541 0.275974 0.155818 0.00151895 -0.17976 -0.37276 -0.557329 -0.71419 -0.82948 -0.895972 -0.911497 -0.876589 -0.793491 -0.666631 -0.503923 -0.317556 -0.122936 0.063418 0.226751 0.356495 0.44714 0.498187 0.512821 0.496366 0.454869 0.394459 0.32081 0.239314 0.155186 0.0734169 -0.00139567 -0.0653331 -0.115386 -0.149793 -0.168122 -0.171197 -0.160942 -0.139834 -0.110666 -0.0761032 -0.0386984 -0.000936549 0.0348327 0.0665146 0.0927954 0.112999 0.127253 0.136217 0.140789 0.141951 0.140563 0.137316 0.132773 0.127411 0.121537 0.115453 0.10936 0.10345 0.0978134 0.0926285 0.0878873 0.083702 0.0800986 0.0771333 0.0747992 0.0731367 0.0721332 0.0718065 0.0721447 0.0731552 0.0748204 0.0771561 0.0801156 0.0837114 0.0878925 0.092647 0.0978358 0.103417 0.109096 0.114617 0.119591 0.123774 0.127155 0.130249 0.133831 0.138431 0.143399 0.14616 0.142621 0.128958 0.103901 0.0699145 0.0318969 -0.0060338 -0.04233 -0.0775228 -0.111377 -0.141135 -0.162587 -0.172297 -0.168604 -0.150383 -0.116477 -0.0665365 -0.0023182 0.0725892 0.154062 0.237951 0.319564 0.393364 0.453724 0.495123 0.511666 0.497178 0.446177 0.35555 0.225984 0.0628735 -0.123382 -0.317938 -0.504168 -0.666725 -0.79353 -0.876606 -0.911429 -0.895766 -0.829201 -0.713873 -0.556961 -0.372298 -0.179242 0.00200384 0.156228 0.276308 0.361778 0.41404 0.432887 0.417688 0.372542 0.308923 0.242134 0.18431 0.134952 0.0894262 0.0477386 0.0169607 0.00254626 -0.000541829 -0.00312672 -0.00855692 -0.010817 -0.00684258 -0.00236428 -0.00233335 -0.00373371 -0.00273467 -0.000894969 -0.000510263 -0.00075668 -0.000502019 -0.000123577 -2.84243e-05 -3.71073e-05 -8.115e-06 7.18623e-06 0 0 
0 0 1.70478e-05 2.59364e-05 2.26158e-05 2.20355e-05 -6.24634e-05 -0.000285348 -0.000399699 -0.000388602 -0.00104998 -0.00235241 -0.00254907 -0.00195242 -0.00391231 -0.00795001 -0.00829697 -0.00337575 0.00192672 0.00782481 0.0245732 0.0604912 0.112204 0.170964 0.233771 0.302697 0.374786 0.436888 0.471332 0.465854 0.417542 0.328293 0.199658 0.0328977 -0.166194 -0.382698 -0.593805 -0.774902 -0.906639 -0.978289 -0.987126 -0.935222 -0.827481 -0.671399 -0.478388 -0.264677 -0.0497891 0.146377 0.307556 0.423699 0.491915 0.51536 0.501069 0.457541 0.393353 0.3161 0.232516 0.148716 0.0703411 0.00236465 -0.0512198 -0.0878381 -0.10672 -0.108809 -0.0967284 -0.0741081 -0.0450558 -0.0135499 0.0170832 0.0443002 0.0664979 0.0830302 0.0941906 0.100827 0.103945 0.104256 0.102088 0.0975453 0.0905295 0.0812949 0.0702984 0.0581823 0.0456874 0.0333673 0.0215735 0.0106491 0.00067374 -0.00827036 -0.0162922 -0.0233427 -0.0295025 -0.0348456 -0.0394033 -0.0431912 -0.0463646 -0.0489643 -0.0510024 -0.0525142 -0.0535436 -0.0541838 -0.0543789 -0.0541682 -0.0535182 -0.0524942 -0.050984 -0.0489448 -0.046347 -0.0431743 -0.0393789 -0.0348795 -0.0297808 -0.0242207 -0.01832 -0.0120473 -0.00513642 0.00334412 0.0145783 0.0295912 0.0481061 0.068048 0.0857211 0.0974636 0.101988 0.101377 0.0996129 0.0996052 0.100708 0.0997027 0.0936728 0.0818691 0.0649829 0.0433078 0.0166478 -0.0141642 -0.0461873 -0.0753342 -0.0976959 -0.10978 -0.108014 -0.0893254 -0.0525456 0.00115163 0.0690098 0.147291 0.231203 0.314943 0.392236 0.456479 0.500197 0.514687 0.491312 0.423181 0.307198 0.146177 -0.04994 -0.264751 -0.47832 -0.671181 -0.827182 -0.934876 -0.986682 -0.977765 -0.906116 -0.774474 -0.593494 -0.38255 -0.166334 0.0322679 0.198311 0.326099 0.414353 0.46154 0.465824 0.430305 0.368824 0.297956 0.230199 0.168449 0.110623 0.0597157 0.0243307 0.00786163 0.00204827 -0.00318407 -0.00806295 -0.00773724 -0.00376483 -0.00185084 -0.00245547 -0.00227657 -0.00100267 -0.000358842 -0.000377645 -0.000271691 -5.76088e-05 2.3689e-05 2.16132e-05 1.02598e-05 0 0 
0 0 2.4522e-05 5.0452e-05 5.89541e-05 1.58073e-05 -8.83284e-05 -0.000145923 -0.000257605 -0.00085105 -0.0016139 -0.00164518 -0.00198915 -0.00439352 -0.00637834 -0.00379948 0.00226754 0.0100796 0.0266935 0.0630097 0.120167 0.189568 0.264936 0.344888 0.423472 0.484037 0.506315 0.477523 0.395964 0.266121 0.092744 -0.118247 -0.353872 -0.591207 -0.801229 -0.957393 -1.04303 -1.05289 -0.990195 -0.862854 -0.682197 -0.463446 -0.226763 0.00429359 0.206474 0.361603 0.460219 0.502187 0.494875 0.449791 0.379464 0.295375 0.207187 0.123019 0.0495541 -0.00778424 -0.0453037 -0.061456 -0.0571942 -0.036002 -0.00316738 0.0350306 0.072535 0.104163 0.126498 0.137807 0.138162 0.128853 0.112082 0.0904353 0.0662693 0.0416839 0.0182914 -0.00258571 -0.0199488 -0.0334709 -0.0432566 -0.050068 -0.0549804 -0.0588768 -0.0623354 -0.0655027 -0.0682638 -0.0703207 -0.0714748 -0.0715553 -0.0706278 -0.0687518 -0.0661663 -0.0630075 -0.0595025 -0.0558353 -0.0521374 -0.048584 -0.0452636 -0.0423358 -0.0398147 -0.0377941 -0.0363277 -0.0354084 -0.0351252 -0.0353935 -0.0363107 -0.0377736 -0.0397894 -0.0423098 -0.0452346 -0.0485565 -0.052171 -0.0561206 -0.0604016 -0.0650754 -0.0700071 -0.0746607 -0.0780326 -0.0786636 -0.0754081 -0.0681467 -0.0587129 -0.0503856 -0.0463395 -0.0473409 -0.0508039 -0.0520402 -0.0473841 -0.0362609 -0.0207356 -0.00283017 0.0173713 0.0403996 0.0654641 0.0901215 0.111529 0.127765 0.136986 0.136829 0.125436 0.10274 0.0709691 0.0336061 -0.00452865 -0.0375352 -0.0588077 -0.0629146 -0.0466044 -0.00906038 0.0483582 0.122022 0.206351 0.294588 0.378786 0.449302 0.49454 0.501941 0.460078 0.361661 0.206647 0.00453527 -0.226431 -0.463005 -0.681696 -0.862437 -0.989931 -1.05284 -1.04333 -0.95826 -0.802898 -0.593861 -0.357629 -0.1232 0.0865779 0.258933 0.388199 0.469718 0.498297 0.476496 0.416955 0.339669 0.261013 0.186854 0.11852 0.0622106 0.0264343 0.0100672 0.00236426 -0.00364045 -0.00619824 -0.00425662 -0.00189826 -0.00157372 -0.00155656 -0.000812952 -0.000235372 -0.000131715 -7.81722e-05 2.01592e-05 4.92059e-05 2.9107e-05 0 0 
0 0 3.7813e-05 7.24094e-05 7.25336e-05 4.28229e-05 1.78903e-05 -0.000101505 -0.000507817 -0.000931263 -0.00107617 -0.0018713 -0.00362082 -0.00347859 0.000894752 0.0087084 0.0231235 0.0543775 0.108937 0.181883 0.264439 0.351506 0.434725 0.494338 0.506006 0.455047 0.341284 0.172621 -0.0412319 -0.287885 -0.546736 -0.787412 -0.97668 -1.08888 -1.11241 -1.04931 -0.910384 -0.711162 -0.470917 -0.213564 0.0335606 0.243672 0.396129 0.481093 0.500619 0.465977 0.393395 0.299551 0.199164 0.104047 0.0233508 -0.0359691 -0.0693698 -0.0751913 -0.0552494 -0.0147062 0.0384873 0.0952762 0.146771 0.18605 0.208772 0.213658 0.201897 0.176595 0.141767 0.101507 0.0596437 0.0190522 -0.0180131 -0.0502169 -0.0766984 -0.0971746 -0.111623 -0.120152 -0.122859 -0.119943 -0.111824 -0.099336 -0.0836767 -0.066398 -0.048773 -0.0318385 -0.0160332 -0.00167252 0.0114298 0.0233106 0.0340519 0.0436731 0.052179 0.059558 0.0658612 0.0711708 0.0755686 0.0790877 0.0819378 0.0841247 0.0857509 0.0869339 0.0877562 0.088224 0.0883696 0.0882353 0.0877696 0.0869535 0.0857783 0.0841589 0.081969 0.0790518 0.0752841 0.0702606 0.0637751 0.0556999 0.0462798 0.0362941 0.0269631 0.0193161 0.0133523 0.00740346 -0.00149837 -0.0163374 -0.0374181 -0.0620045 -0.0851546 -0.102911 -0.114155 -0.120393 -0.122817 -0.120768 -0.1126 -0.0976993 -0.0768038 -0.0506133 -0.0189473 0.017994 0.0587464 0.100459 0.140305 0.174981 0.200399 0.21213 0.207054 0.18428 0.14518 0.0938202 0.0370347 -0.0160919 -0.0564421 -0.0762432 -0.0703413 -0.0367875 0.0227523 0.10357 0.198807 0.299325 0.393341 0.466058 0.500789 0.481395 0.396529 0.244057 0.0338028 -0.213592 -0.471354 -0.712232 -0.912338 -1.05237 -1.11666 -1.09436 -0.983328 -0.79495 -0.554547 -0.295165 -0.0470267 0.168894 0.336056 0.448135 0.498362 0.486916 0.428265 0.346351 0.260652 0.179362 0.107496 0.0537228 0.0229184 0.00870024 0.000981027 -0.00335389 -0.00350927 -0.00179398 -0.00102271 -0.000890948 -0.000480233 -8.37324e-05 2.91874e-05 4.59396e-05 6.79299e-05 4.42224e-05 0 0 
0 0 4.94221e-05 9.51592e-05 0.000109289 0.0001173 5.02281e-05 -0.00017235 -0.000402525 -0.000623649 -0.00136005 -0.00210022 -0.000411947 0.00525255 0.0161505 0.0389136 0.0827338 0.14855 0.228558 0.314374 0.395516 0.450963 0.452506 0.381248 0.237578 0.0350439 -0.209916 -0.478153 -0.742138 -0.966052 -1.115 -1.16669 -1.117 -0.976863 -0.765949 -0.508362 -0.231722 0.0333086 0.256355 0.413534 0.493242 0.498337 0.443508 0.349624 0.237897 0.126226 0.0282278 -0.0464645 -0.0916141 -0.104411 -0.0858977 -0.0414077 0.0200987 0.0875903 0.149999 0.198406 0.227301 0.235188 0.223872 0.197456 0.161002 0.119465 0.0769462 0.0364231 -0.000117486 -0.0315477 -0.0572491 -0.0768298 -0.0901912 -0.0973602 -0.0985205 -0.0939812 -0.0844368 -0.0707267 -0.0537619 -0.03459 -0.0139479 0.00717399 0.0276889 0.0463567 0.0619877 0.0737074 0.0812823 0.0848717 0.0850656 0.0826979 0.0784526 0.0730478 0.0669513 0.0606327 0.0543093 0.0482216 0.0425353 0.0373761 0.0328364 0.0288899 0.0256312 0.0231086 0.0212787 0.0201974 0.0198238 0.0202144 0.0213 0.023131 0.0256673 0.0289275 0.0327959 0.0370837 0.0416267 0.0461405 0.0504867 0.0548095 0.0596964 0.0660951 0.074499 0.0844205 0.0935992 0.0986148 0.0960249 0.08463 0.0664323 0.0453072 0.0246421 0.00525101 -0.014097 -0.0342774 -0.0540562 -0.0713473 -0.0846485 -0.0938264 -0.0986725 -0.098057 -0.0910208 -0.0775772 -0.0582025 -0.0329591 -0.00171003 0.0348895 0.075319 0.117611 0.159114 0.195734 0.222237 0.233527 0.225722 0.197025 0.148763 0.0864499 0.0191185 -0.0421772 -0.0865299 -0.104938 -0.0919503 -0.0466338 0.0282042 0.126327 0.238125 0.349917 0.443659 0.498199 0.492667 0.41227 0.254143 0.0299103 -0.236382 -0.514236 -0.772918 -0.984502 -1.12459 -1.17327 -1.1195 -0.967469 -0.739656 -0.471606 -0.205806 0.0352173 0.234475 0.375859 0.445998 0.444464 0.389848 0.30992 0.225401 0.146561 0.0816854 0.0384754 0.0160263 0.00526506 -0.000342116 -0.00202083 -0.00130192 -0.000584961 -0.000373615 -0.00015175 6.29281e-05 0.000126132 0.000113883 5.83968e-05 0 0 
0 0 6.20864e-05 0.00012966 0.000162839 0.000155554 7.41548e-05 -2.71952e-05 -0.000198978 -0.000608283 -0.000462317 0.00219317 0.00901543 0.023224 0.0523392 0.102199 0.16945 0.244731 0.316167 0.363038 0.354783 0.266719 0.0959056 -0.139924 -0.413784 -0.695454 -0.950286 -1.13993 -1.23129 -1.20866 -1.07781 -0.860657 -0.586846 -0.289057 -0.00144051 0.242278 0.414433 0.500026 0.501016 0.434184 0.324965 0.199671 0.0801291 -0.0182368 -0.0859105 -0.118156 -0.114646 -0.0795988 -0.0218095 0.0468648 0.113344 0.166496 0.199168 0.209277 0.199246 0.174521 0.141606 0.106561 0.0737558 0.045777 0.0234989 0.00696266 -0.00442396 -0.0112701 -0.014175 -0.0136645 -0.0103028 -0.00470625 0.00236027 0.00980873 0.0168095 0.0224423 0.026084 0.0273668 0.0261818 0.0227669 0.0176693 0.0116828 0.00551644 -0.000458223 -0.00623179 -0.0120572 -0.0181537 -0.0245881 -0.0311074 -0.0374117 -0.043129 -0.0479696 -0.0517858 -0.054573 -0.0564421 -0.0575568 -0.0580566 -0.0581281 -0.0578669 -0.0574821 -0.0570138 -0.0565828 -0.0562265 -0.0559719 -0.0559182 -0.0559467 -0.0561939 -0.0565438 -0.0569784 -0.0575184 -0.058164 -0.0590366 -0.0601161 -0.0613239 -0.0621449 -0.0616283 -0.0585101 -0.0517854 -0.0415282 -0.0294019 -0.0182503 -0.010791 -0.00785086 -0.00771825 -0.00694491 -0.00304108 0.00393001 0.0117384 0.018208 0.0227581 0.0258886 0.0274768 0.0265264 0.0225905 0.0164176 0.00925803 0.00185795 -0.00546791 -0.0115344 -0.0151403 -0.0156651 -0.0129156 -0.00632519 0.0050028 0.0216564 0.0439631 0.0719196 0.104823 0.140062 0.173116 0.197923 0.208133 0.198198 0.165648 0.112629 0.0463613 -0.0220786 -0.0797491 -0.114639 -0.11805 -0.0858936 -0.0185023 0.0793629 0.198198 0.322516 0.43051 0.496056 0.493891 0.407353 0.234771 -0.0085621 -0.2947 -0.589841 -0.859983 -1.07267 -1.19868 -1.2166 -1.12141 -0.933487 -0.682982 -0.406067 -0.136739 0.0952664 0.263336 0.349998 0.358042 0.311817 0.241402 0.167198 0.100888 0.0517111 0.0229879 0.00896062 0.00221678 -0.00041596 -0.000568646 -0.000170943 -6.28804e-06 9.15562e-05 0.000169825 0.00016514 8.39428e-05 0 0 
0 0 7.83668e-05 0.000163549 0.00020149 0.000210388 0.000207838 0.000161137 0.00011674 0.000873362 0.00405778 0.0116916 0.0278644 0.0589127 0.106921 0.165397 0.222343 0.258908 0.245359 0.151257 -0.0341907 -0.294398 -0.595053 -0.893995 -1.14466 -1.30206 -1.33536 -1.23775 -1.02752 -0.739589 -0.414897 -0.0943076 0.18385 0.38713 0.495608 0.507433 0.439519 0.321248 0.185002 0.0578924 -0.0417483 -0.104205 -0.126443 -0.111038 -0.0653802 -0.00119911 0.0670387 0.125377 0.16339 0.176418 0.166186 0.139119 0.103962 0.0690295 0.0404557 0.0214309 0.0126296 0.0128874 0.0201361 0.0321774 0.0469075 0.0624009 0.0768909 0.0887324 0.0962999 0.0984452 0.0942751 0.0837136 0.0671154 0.0456766 0.020987 -0.00522778 -0.0309488 -0.0545571 -0.0745689 -0.090103 -0.100539 -0.105684 -0.105554 -0.100608 -0.0917459 -0.0803274 -0.0676267 -0.05498 -0.0431733 -0.0326707 -0.0235462 -0.015625 -0.0087609 -0.00274843 0.00249412 0.00704299 0.0109768 0.0143018 0.0170863 0.0193512 0.0211178 0.0224921 0.0234093 0.023955 0.0241525 0.0239798 0.0234505 0.0225271 0.0210834 0.0190614 0.0161841 0.0122752 0.00728844 0.0014878 -0.00434262 -0.00921327 -0.0123798 -0.0140637 -0.0159715 -0.0206606 -0.0303983 -0.0454574 -0.0635155 -0.0808048 -0.093937 -0.101937 -0.105405 -0.105051 -0.10033 -0.0901193 -0.0741699 -0.0538238 -0.0304976 -0.00526232 0.0207648 0.0454941 0.0666482 0.0827428 0.0930464 0.0971086 0.0947643 0.0868826 0.0749528 0.0605129 0.0449788 0.030215 0.018281 0.0112031 0.0110417 0.0199301 0.0391215 0.0678873 0.102921 0.13823 0.165534 0.175977 0.163082 0.125179 0.0668641 -0.00160152 -0.0663077 -0.112703 -0.129112 -0.108122 -0.0469495 0.0515366 0.177912 0.313983 0.433003 0.502816 0.494123 0.389795 0.19134 -0.0818101 -0.397813 -0.718993 -1.00499 -1.21489 -1.3117 -1.27947 -1.125 -0.878672 -0.584705 -0.288954 -0.0328719 0.149639 0.242243 0.255496 0.2194 0.163239 0.105558 0.0581949 0.0275542 0.0115888 0.0040463 0.000894199 0.000141829 0.000183225 0.000227644 0.000226165 0.000208885 0.000109051 0 0 
0 0 9.31984e-05 0.000195158 0.000251732 0.000317518 0.000395579 0.000626728 0.00171624 0.00505844 0.0128005 0.0287904 0.0571859 0.0967745 0.138364 0.166027 0.154364 0.0711425 -0.104236 -0.363787 -0.672657 -0.980942 -1.23231 -1.37314 -1.36916 -1.21951 -0.954482 -0.621576 -0.272076 0.0469149 0.295854 0.447169 0.491435 0.441016 0.326202 0.184855 0.0511826 -0.0514812 -0.111722 -0.127761 -0.104629 -0.0525237 0.014404 0.0798634 0.129336 0.153169 0.14919 0.122567 0.0830853 0.0419079 0.00830154 -0.0123464 -0.0183929 -0.0112933 0.00597217 0.029923 0.0572895 0.0849878 0.110255 0.130505 0.143421 0.147248 0.141111 0.125212 0.100811 0.0702421 0.0362861 0.00200886 -0.0298521 -0.0570333 -0.0780067 -0.0921127 -0.0993981 -0.100425 -0.096084 -0.0875811 -0.0761021 -0.0627371 -0.0482974 -0.0333561 -0.0183888 -0.00403262 0.00899884 0.0201582 0.0288148 0.0349514 0.0386512 0.0404671 0.0407936 0.0402196 0.0391424 0.0377963 0.0363987 0.0350105 0.0337649 0.032655 0.0317032 0.0309712 0.0304527 0.0300904 0.0300067 0.0301235 0.0304861 0.0309375 0.0314226 0.0317777 0.0317786 0.031399 0.030991 0.0311887 0.0329606 0.0368405 0.0423908 0.0477193 0.0499255 0.0467402 0.0374885 0.0238976 0.00864993 -0.00590356 -0.019521 -0.0332018 -0.0476896 -0.0624179 -0.0759013 -0.0869739 -0.0951332 -0.0997051 -0.0991217 -0.0919905 -0.0778814 -0.0571611 -0.0304705 0.00109317 0.0352451 0.068916 0.099151 0.123395 0.139281 0.145296 0.141373 0.128553 0.108448 0.0832336 0.0556158 0.0284194 0.004623 -0.0125167 -0.0194495 -0.0131918 0.00764988 0.041355 0.0825982 0.12195 0.148155 0.151386 0.126518 0.0758198 0.00900966 -0.0590196 -0.111748 -0.134831 -0.117756 -0.0552538 0.0508985 0.189069 0.335436 0.455242 0.509884 0.468474 0.31815 0.0681261 -0.253775 -0.606972 -0.937136 -1.19853 -1.34625 -1.35057 -1.21228 -0.965103 -0.66174 -0.357716 -0.102164 0.0705414 0.152467 0.163908 0.136593 0.0955548 0.0564889 0.0284611 0.0126747 0.00502677 0.00172288 0.00064526 0.0004158 0.000338863 0.000271074 0.000131757 0 0 
0 0 0.000107219 0.000235636 0.000329795 0.000482984 0.000861597 0.00204559 0.00520408 0.012265 0.0261575 0.0487676 0.0763038 0.0972994 0.0924677 0.033917 -0.105192 -0.329925 -0.613832 -0.90697 -1.14776 -1.27563 -1.25058 -1.07226 -0.781009 -0.438188 -0.103489 0.175133 0.362962 0.442326 0.417282 0.313895 0.17239 0.0336557 -0.0722964 -0.130857 -0.140844 -0.110007 -0.0514218 0.018653 0.0829256 0.126545 0.140686 0.125092 0.0877092 0.041151 -0.00159482 -0.0310261 -0.0429054 -0.0377561 -0.0193086 0.00767818 0.0386742 0.0698264 0.0980318 0.12057 0.1353 0.140649 0.136159 0.122486 0.101567 0.0762206 0.0497025 0.0248991 0.00419137 -0.0110693 -0.0206315 -0.0249718 -0.0253274 -0.0231283 -0.0196368 -0.0161178 -0.0133511 -0.0117493 -0.0113691 -0.0119895 -0.0133211 -0.0149415 -0.0164394 -0.0173571 -0.0173836 -0.0163305 -0.0143006 -0.0118038 -0.00941916 -0.00764558 -0.00682843 -0.00702534 -0.00805231 -0.00954131 -0.0112605 -0.0129822 -0.0145296 -0.0158719 -0.0169799 -0.0179183 -0.0186437 -0.0191785 -0.0195839 -0.0198011 -0.0198527 -0.0197834 -0.0196166 -0.0194523 -0.0194934 -0.0198459 -0.0204979 -0.0211457 -0.0209377 -0.0189038 -0.0143942 -0.00784722 -0.00101147 0.00365501 0.00409588 0.000187706 -0.00612863 -0.0121271 -0.0159053 -0.0172994 -0.0172962 -0.016886 -0.0161329 -0.0146449 -0.0125994 -0.0109312 -0.0104649 -0.011208 -0.0129331 -0.0156856 -0.0194462 -0.023369 -0.0258634 -0.0256629 -0.0216144 -0.0124665 0.00260769 0.0232248 0.0478357 0.0742022 0.0995804 0.120616 0.134303 0.138829 0.13366 0.119086 0.0966322 0.0686086 0.0376372 0.00676026 -0.0201773 -0.0386703 -0.0440895 -0.0329115 -0.00447557 0.0369982 0.0821972 0.118403 0.133375 0.119476 0.077139 0.0153836 -0.0509303 -0.104815 -0.130569 -0.115764 -0.0534423 0.0546222 0.19337 0.332711 0.432177 0.452161 0.367499 0.175165 -0.101285 -0.430896 -0.768455 -1.05533 -1.23111 -1.25596 -1.1302 -0.893167 -0.60449 -0.324835 -0.103415 0.0336561 0.091337 0.0960755 0.0753531 0.0481759 0.0258576 0.0121414 0.00516813 0.00204862 0.000881252 0.000512257 0.000361608 0.000164138 0 0 
0 0 0.000125802 0.000294214 0.000458557 0.000860846 0.00195621 0.00466196 0.0104717 0.0212122 0.0369253 0.0521696 0.0542356 0.0229614 -0.0667035 -0.230707 -0.457684 -0.706613 -0.918085 -1.02835 -0.990364 -0.798239 -0.495073 -0.154042 0.152117 0.371062 0.476146 0.464739 0.357998 0.196857 0.0299702 -0.102002 -0.17666 -0.191169 -0.156148 -0.0893228 -0.010699 0.0600479 0.106682 0.120191 0.101313 0.0599156 0.0112613 -0.0298092 -0.0533128 -0.0563249 -0.041606 -0.015134 0.0165053 0.0478958 0.0751245 0.0956253 0.107663 0.110379 0.104117 0.090433 0.0721432 0.0529216 0.0363952 0.0254336 0.0214281 0.0243147 0.0324132 0.0432449 0.0539309 0.0619776 0.0655816 0.0637762 0.0565896 0.044809 0.0296312 0.0125791 -0.00497764 -0.0217387 -0.0367473 -0.0494202 -0.0593091 -0.0663819 -0.0707537 -0.0725158 -0.0719344 -0.069232 -0.0646442 -0.0587255 -0.0521287 -0.0455406 -0.0396235 -0.0348098 -0.0311239 -0.0284573 -0.0265549 -0.025125 -0.0239903 -0.0229925 -0.0220942 -0.0212964 -0.0205981 -0.0200177 -0.0195939 -0.0193679 -0.0192802 -0.0194266 -0.0198759 -0.0208558 -0.0224854 -0.0247229 -0.0272257 -0.0292196 -0.0296881 -0.0280325 -0.0247325 -0.021522 -0.0209027 -0.0246175 -0.032561 -0.042759 -0.052489 -0.0600787 -0.0654259 -0.069198 -0.0716584 -0.0723466 -0.070455 -0.0656421 -0.0582383 -0.0484345 -0.0360288 -0.0210984 -0.00430547 0.0130698 0.0297354 0.044647 0.0562723 0.063169 0.0645636 0.0607114 0.0525235 0.0415961 0.0305514 0.0224262 0.0195721 0.0235548 0.0345356 0.0511916 0.0705586 0.0889198 0.102722 0.109152 0.106459 0.0943668 0.0736584 0.0459049 0.0135582 -0.0193447 -0.0472082 -0.0632027 -0.0608981 -0.037121 0.00540792 0.0567915 0.102113 0.125822 0.117349 0.0752606 0.00779739 -0.0694537 -0.137169 -0.175236 -0.165473 -0.0963155 0.0302227 0.192589 0.350634 0.455873 0.466925 0.363816 0.148547 -0.152642 -0.488305 -0.786799 -0.976002 -1.01342 -0.904793 -0.696423 -0.45111 -0.227378 -0.0656872 0.0227203 0.0535612 0.0515236 0.0364819 0.0209727 0.0103696 0.00463584 0.00196984 0.000900635 0.000525792 0.000215377 0 0 
0 0 0.00015622 0.000403652 0.000728049 0.00161145 0.00371716 0.00805759 0.0155229 0.0249785 0.0303785 0.0193287 -0.0262081 -0.124447 -0.278917 -0.465094 -0.633765 -0.724856 -0.686151 -0.500232 -0.202548 0.130837 0.416817 0.594972 0.63931 0.557826 0.38678 0.179674 -0.00890146 -0.140129 -0.199534 -0.194304 -0.144085 -0.072543 -0.00237246 0.0478695 0.066957 0.053822 0.0178395 -0.0250794 -0.059023 -0.0735146 -0.0662955 -0.042067 -0.00882078 0.0253507 0.054543 0.075313 0.0860864 0.0866462 0.0779705 0.0622398 0.0430495 0.0247268 0.0116447 0.00695082 0.0119654 0.0258009 0.0455815 0.0673673 0.0871147 0.101448 0.108282 0.106964 0.0980756 0.0831724 0.0640692 0.0428409 0.0211327 0.000365327 -0.0185716 -0.0350785 -0.0488711 -0.0598604 -0.0680975 -0.0736703 -0.0766986 -0.07737 -0.0757664 -0.0721719 -0.0667981 -0.0597972 -0.0513852 -0.0418016 -0.0315314 -0.0210708 -0.0111805 -0.00245418 0.00472887 0.0103224 0.0144553 0.0174087 0.0195414 0.0211427 0.0223071 0.0232469 0.0239195 0.024433 0.0247952 0.024968 0.0249965 0.0246781 0.0239494 0.0225725 0.0205695 0.0182468 0.0162478 0.0156291 0.0168196 0.0193505 0.0213238 0.0202163 0.0143071 0.00390381 -0.00891034 -0.0215464 -0.0326523 -0.0423241 -0.0513434 -0.0597298 -0.0668432 -0.0719871 -0.0750843 -0.0763775 -0.0757572 -0.0728851 -0.0673301 -0.059035 -0.0481766 -0.0346984 -0.0184281 0.000385948 0.0209034 0.0422217 0.0631921 0.0821131 0.0967492 0.105375 0.106597 0.0997243 0.0852916 0.0655538 0.0438585 0.0241451 0.0103556 0.00541493 0.0101559 0.0232023 0.041307 0.0600641 0.0749987 0.0824608 0.0804873 0.0683589 0.0467334 0.0176642 -0.0150437 -0.0454162 -0.0656203 -0.0679833 -0.0485202 -0.010291 0.0354384 0.0721988 0.0837728 0.0610166 0.00559919 -0.0702368 -0.146947 -0.201072 -0.208486 -0.149542 -0.0174246 0.172576 0.37795 0.546913 0.627579 0.58434 0.409248 0.127837 -0.200389 -0.493574 -0.676685 -0.714787 -0.624979 -0.45869 -0.275114 -0.122764 -0.0258512 0.0190868 0.0300033 0.0246828 0.015356 0.00799336 0.00372115 0.00167522 0.000865039 0.000313958 0 0 
0 0 0.00021548 0.000613692 0.00120503 0.00267553 0.00563263 0.0103321 0.01514 0.0143792 -0.00257246 -0.0495374 -0.136633 -0.257095 -0.37917 -0.453576 -0.4298 -0.278671 -0.0174615 0.287744 0.551972 0.707949 0.726662 0.619723 0.431443 0.222437 0.0475393 -0.06159 -0.101238 -0.0882786 -0.0479782 -0.00437915 0.0241144 0.0267379 0.00229548 -0.0403619 -0.0853802 -0.116139 -0.122256 -0.102815 -0.065418 -0.0212789 0.0191656 0.049237 0.0662696 0.0704013 0.0634492 0.0483481 0.0289571 0.010005 -0.00365679 -0.0081676 -0.00197083 0.0140069 0.0364012 0.0605679 0.081804 0.0966058 0.103275 0.101911 0.0940921 0.0819849 0.0679407 0.0537349 0.0405047 0.0287494 0.0184638 0.00934156 0.00103095 -0.0066405 -0.0138081 -0.0202902 -0.026017 -0.030646 -0.0340841 -0.0362312 -0.0370625 -0.036683 -0.0352283 -0.0328346 -0.0297425 -0.0260964 -0.0220385 -0.0176641 -0.0130381 -0.00831174 -0.00382473 -4.39428e-05 0.00265947 0.00401014 0.00412748 0.00323076 0.00167547 -0.00015689 -0.00201562 -0.00370679 -0.00515873 -0.00625616 -0.00706447 -0.00762088 -0.0080112 -0.00838699 -0.00889659 -0.00955634 -0.0100523 -0.00961616 -0.00736564 -0.00273511 0.00370381 0.0100774 0.0137976 0.0131329 0.00838683 0.00168346 -0.00449495 -0.00924049 -0.0132212 -0.0174787 -0.0220962 -0.0263749 -0.0297323 -0.0322814 -0.0343824 -0.0358804 -0.0363318 -0.0354165 -0.0332004 -0.0298526 -0.0254446 -0.0198945 -0.0135282 -0.00656638 0.00078352 0.00883816 0.0177841 0.0278048 0.0392784 0.0523534 0.0664487 0.0803447 0.0923925 0.100273 0.101633 0.09493 0.0801504 0.0588606 0.0344578 0.0116423 -0.00503065 -0.0122938 -0.00913996 0.00312951 0.0210583 0.0402916 0.0566369 0.066401 0.0664127 0.0542814 0.0291614 -0.00715736 -0.048838 -0.0858838 -0.10729 -0.105214 -0.0797552 -0.0402445 -0.00223605 0.0191383 0.0153122 -0.0126868 -0.0546156 -0.0928345 -0.104036 -0.0635326 0.0450247 0.217776 0.424027 0.609803 0.715373 0.697107 0.543546 0.283235 -0.017537 -0.274987 -0.423989 -0.44744 -0.374089 -0.253702 -0.134864 -0.0489143 -0.0025485 0.0142026 0.0149722 0.0102447 0.00563545 0.00278009 0.00143105 0.000501056 0 0 
0 0 0.000319923 0.000929582 0.00180387 0.00361352 0.00629293 0.00822054 0.00474844 -0.0121539 -0.0515407 -0.116642 -0.194696 -0.253467 -0.251337 -0.15498 0.0384917 0.285604 0.511253 0.646752 0.65841 0.555917 0.385073 0.208585 0.0799664 0.0225536 0.0267682 0.0640984 0.103689 0.122729 0.109507 0.0635026 -0.00510951 -0.0780484 -0.134855 -0.160957 -0.152916 -0.118546 -0.0719554 -0.0269417 0.0072084 0.0268819 0.03246 0.0268848 0.0142012 -0.00070439 -0.0126574 -0.01717 -0.0116669 0.00361258 0.0255472 0.0490604 0.0689389 0.0812334 0.084483 0.0794883 0.0690151 0.0565392 0.045217 0.0370799 0.0329641 0.0325009 0.0346634 0.0380278 0.0413359 0.0436663 0.0444159 0.0432942 0.0402897 0.0355747 0.0292723 0.0216451 0.0129138 0.00336943 -0.00676521 -0.0170767 -0.027218 -0.036893 -0.04573 -0.0532922 -0.0594477 -0.0639258 -0.066676 -0.0676353 -0.0668622 -0.0643822 -0.0604915 -0.0556394 -0.0504736 -0.0456092 -0.0414513 -0.0381711 -0.0357687 -0.0340135 -0.0327231 -0.0317233 -0.0309067 -0.0302516 -0.0298027 -0.0297352 -0.0302115 -0.0312555 -0.032982 -0.0350616 -0.0367091 -0.0369634 -0.0352135 -0.0319246 -0.0289293 -0.0286355 -0.0326609 -0.0403929 -0.0492953 -0.0566466 -0.0613584 -0.0642213 -0.0663794 -0.0676818 -0.0671342 -0.0640879 -0.0590236 -0.0526127 -0.0451202 -0.0363023 -0.0264611 -0.0161966 -0.00596919 0.00400518 0.0134416 0.0220983 0.0295593 0.035605 0.0401236 0.0429526 0.0438235 0.0428177 0.0403073 0.0368644 0.0333152 0.0310442 0.0314929 0.0355616 0.0435642 0.0547639 0.0670199 0.0770531 0.0813507 0.0772052 0.0636914 0.0424164 0.0177731 -0.00459036 -0.0190455 -0.0220491 -0.0134844 0.00348637 0.0234529 0.0402729 0.048172 0.0426108 0.0207028 -0.0176087 -0.067827 -0.119606 -0.158039 -0.168357 -0.142562 -0.0844617 -0.00932277 0.0615838 0.109242 0.123071 0.103635 0.063057 0.0263648 0.0226385 0.0795371 0.206501 0.380504 0.548854 0.649771 0.638137 0.50444 0.281849 0.0380773 -0.152801 -0.247925 -0.250097 -0.192161 -0.11516 -0.0509062 -0.0120103 0.00470371 0.00816756 0.00631822 0.00376592 0.00210163 0.000771459 0 0 
0 0 0.000454334 0.00124591 0.00220516 0.00354887 0.00398791 0.000147999 -0.0133605 -0.041525 -0.0831944 -0.124193 -0.13725 -0.0931062 0.0227017 0.192717 0.363922 0.473519 0.484098 0.398835 0.257811 0.12111 0.0402642 0.0338607 0.0835479 0.151273 0.202141 0.215833 0.187322 0.124289 0.0437248 -0.0326395 -0.0857626 -0.106703 -0.0993162 -0.0762026 -0.0515613 -0.0348809 -0.0291728 -0.0322295 -0.0400238 -0.0483542 -0.0533962 -0.0519538 -0.0417305 -0.022512 0.00332373 0.0309042 0.0544489 0.0690741 0.0725034 0.0658068 0.0524694 0.0372537 0.0244797 0.0169341 0.0156039 0.0198869 0.028054 0.03818 0.0485897 0.0579629 0.065529 0.0706983 0.0731838 0.0726529 0.0689966 0.0620609 0.0519508 0.0390465 0.0239114 0.0073948 -0.00962659 -0.0261156 -0.0412243 -0.0541548 -0.0644543 -0.0717313 -0.0759722 -0.0772269 -0.0758102 -0.0720395 -0.0663101 -0.0590422 -0.0507685 -0.0417213 -0.0321295 -0.0223094 -0.0127894 -0.00401389 0.00347523 0.00940286 0.0137005 0.016604 0.0184349 0.0195617 0.0201659 0.0205528 0.0205877 0.0202022 0.0192406 0.0178025 0.0161157 0.0148999 0.0150104 0.0171117 0.0205193 0.0234141 0.0231675 0.0179945 0.00831512 -0.00333803 -0.0142142 -0.0232811 -0.0317212 -0.0408713 -0.0506413 -0.059576 -0.0666181 -0.071709 -0.0752421 -0.0768163 -0.0755841 -0.0711106 -0.0636729 -0.0534449 -0.0406386 -0.0255537 -0.00908852 0.00780544 0.0241354 0.0391135 0.0518938 0.0617833 0.0684949 0.0720221 0.0723839 0.0697058 0.0643954 0.0567398 0.0472124 0.0365784 0.0261418 0.0175404 0.0125679 0.0129886 0.0194279 0.0309802 0.0450421 0.0577664 0.0649517 0.0634614 0.0524961 0.0339068 0.0115575 -0.00991128 -0.0267149 -0.0369825 -0.0408984 -0.0400354 -0.0367896 -0.0338197 -0.0343265 -0.0417039 -0.0580838 -0.0809658 -0.101651 -0.106838 -0.0845416 -0.0312178 0.044383 0.12368 0.185475 0.213175 0.199654 0.149835 0.0834346 0.0347627 0.0412841 0.121069 0.255793 0.394663 0.47853 0.467859 0.359565 0.190525 0.0226637 -0.091717 -0.13538 -0.122563 -0.0821349 -0.0410064 -0.0131769 0.000206812 0.00406799 0.0037329 0.00248473 0.00101823 0 0 
0 0 0.000548609 0.00132467 0.00191901 0.00174086 -0.00135542 -0.0105895 -0.0281697 -0.0510817 -0.0670487 -0.0564841 -0.00289372 0.0935576 0.206299 0.288724 0.302409 0.241818 0.135702 0.0343173 -0.0145939 0.00667298 0.0776701 0.157424 0.210154 0.220144 0.190177 0.134254 0.0721826 0.0234205 -6.96899e-05 0.00109784 0.01517 0.0263326 0.0234945 0.00424351 -0.0260757 -0.0590003 -0.0866403 -0.103182 -0.105422 -0.0925188 -0.0665989 -0.0328365 0.00136539 0.0286181 0.0438988 0.0462015 0.0384756 0.0259747 0.014272 0.00743715 0.0070298 0.0124453 0.0217503 0.0324968 0.042861 0.0516502 0.0584031 0.063071 0.0657582 0.0664342 0.065014 0.0613739 0.0555522 0.0477538 0.0385045 0.0284285 0.0182348 0.0086413 0.000125194 -0.00700031 -0.012598 -0.0167446 -0.0198016 -0.0219213 -0.0234035 -0.0244991 -0.025405 -0.0261591 -0.0269002 -0.0274995 -0.0278614 -0.0279102 -0.0276911 -0.0270657 -0.0259686 -0.024174 -0.0218136 -0.0190173 -0.0162623 -0.0140148 -0.0125669 -0.0119598 -0.0120684 -0.0126307 -0.0134352 -0.0143293 -0.0153724 -0.0166878 -0.0181629 -0.0196389 -0.0202587 -0.019202 -0.0158341 -0.0105847 -0.00531702 -0.00254973 -0.00406173 -0.00940503 -0.0159959 -0.0209079 -0.0230541 -0.0236659 -0.0247697 -0.0266434 -0.0281834 -0.0283292 -0.0276042 -0.0269657 -0.026597 -0.0259531 -0.0249433 -0.0238715 -0.0228519 -0.0214607 -0.0192995 -0.0162252 -0.0121758 -0.00670349 0.000330868 0.00875483 0.0182025 0.0282134 0.038161 0.0472887 0.0549055 0.060565 0.0640568 0.0652277 0.0641715 0.0609933 0.055602 0.0478969 0.0380238 0.0265371 0.0147759 0.00487018 -0.000341139 0.00155433 0.0114362 0.0276287 0.0453717 0.0577265 0.0582483 0.0431301 0.0134077 -0.0250962 -0.0638725 -0.0943826 -0.110491 -0.109532 -0.0923387 -0.0627918 -0.0274421 0.00481953 0.0249885 0.0276174 0.0153504 -6.69974e-05 -0.00239267 0.0205508 0.0693744 0.131967 0.187366 0.216941 0.207192 0.155451 0.0771212 0.00742334 -0.0133224 0.0350359 0.13503 0.239595 0.299188 0.285524 0.204051 0.0926684 -0.00263274 -0.055625 -0.0661275 -0.050403 -0.0277787 -0.0103839 -0.00120721 0.00190309 0.00203422 0.00102906 0 0 
0 0 0.000493308 0.000916583 0.000684563 -0.00139005 -0.00696997 -0.0167038 -0.0274605 -0.0303237 -0.0132775 0.0303947 0.0929941 0.149397 0.16832 0.135867 0.0675648 -0.0008101 -0.0305488 -0.00312012 0.0645023 0.133568 0.171154 0.166993 0.131931 0.0863206 0.0500863 0.0372934 0.0507254 0.0803694 0.108259 0.118137 0.103422 0.0682983 0.0232008 -0.0208886 -0.0559702 -0.0775557 -0.0841633 -0.0770106 -0.0602973 -0.0404154 -0.0238384 -0.01487 -0.0140083 -0.0181322 -0.0223723 -0.0222086 -0.0155419 -0.0031075 0.0123766 0.0275462 0.0397526 0.0477117 0.0514529 0.0518209 0.0498586 0.0465756 0.0424621 0.038105 0.0339085 0.030456 0.0282568 0.0277951 0.0291589 0.0322643 0.0364537 0.0409348 0.0446084 0.0465348 0.0458903 0.0422646 0.0356078 0.0261676 0.0145072 0.00148989 -0.0121872 -0.0255651 -0.0380126 -0.0488743 -0.0578069 -0.0645673 -0.0690222 -0.0712543 -0.0714353 -0.069862 -0.0668211 -0.0624834 -0.0570063 -0.0506123 -0.043742 -0.0370319 -0.0310424 -0.0262018 -0.0225396 -0.0200594 -0.018595 -0.0180054 -0.018294 -0.019333 -0.0207837 -0.0218858 -0.0217677 -0.0198084 -0.0164297 -0.0133605 -0.0131688 -0.0177115 -0.0265237 -0.0370576 -0.0460958 -0.0522602 -0.0565872 -0.0610088 -0.0660333 -0.0701879 -0.0719198 -0.071077 -0.0684755 -0.0642629 -0.0577063 -0.0485771 -0.0375047 -0.025152 -0.0118845 0.00185178 0.0149397 0.0265242 0.0358786 0.0425036 0.0460824 0.0466118 0.0445701 0.0408001 0.0362319 0.0319195 0.0286422 0.0270676 0.0271874 0.0288195 0.0315262 0.0347696 0.0379527 0.0409296 0.0433032 0.0447254 0.0445355 0.0420571 0.0365997 0.028223 0.0178365 0.00703696 -0.00212198 -0.00804363 -0.0102989 -0.0104081 -0.0114383 -0.0168722 -0.0288762 -0.0464661 -0.0656062 -0.0803718 -0.0853136 -0.0770758 -0.0548727 -0.0203132 0.0225845 0.0663625 0.100608 0.115033 0.105472 0.0782429 0.0492892 0.0363092 0.0490213 0.0846161 0.129489 0.163988 0.168174 0.131278 0.0634613 -0.00294764 -0.0297265 -0.000236708 0.0672786 0.134641 0.166598 0.147845 0.0920946 0.0302271 -0.0129589 -0.0298434 -0.0270396 -0.0164138 -0.00679209 -0.00132331 0.000537832 0.000610487 0 0 
0 0 0.000221252 2.85032e-05 -0.00105586 -0.00404516 -0.00888412 -0.0131225 -0.0111386 0.00338532 0.0316065 0.0645635 0.0844668 0.0759632 0.041515 0.00288291 -0.0130812 0.00971602 0.0621923 0.11186 0.129185 0.108219 0.0647106 0.0232908 0.00407969 0.0157108 0.05338 0.100548 0.136734 0.148395 0.134322 0.103692 0.0688885 0.0391199 0.0185699 0.0074721 0.00351844 0.00284847 0.000523182 -0.00769339 -0.0233643 -0.0439593 -0.0635056 -0.0753953 -0.0751779 -0.0625944 -0.0412978 -0.016805 0.00550613 0.0223318 0.032459 0.0366073 0.0361091 0.0326708 0.027627 0.0222032 0.0174517 0.0144803 0.0141188 0.0170046 0.0231988 0.0321508 0.0426456 0.0531403 0.0619919 0.0677756 0.0695586 0.0669709 0.0601973 0.0498429 0.0369884 0.0227117 0.00809102 -0.00590197 -0.0185502 -0.0294258 -0.0381927 -0.0448721 -0.0495085 -0.0522213 -0.0533264 -0.0530281 -0.0515504 -0.0490588 -0.0457504 -0.0417996 -0.0375178 -0.0329554 -0.0280593 -0.0227604 -0.0170801 -0.0112908 -0.00590141 -0.00134346 0.00211224 0.00424834 0.00516075 0.00497429 0.00391097 0.00246345 0.00147507 0.00180802 0.00421641 0.00830316 0.0123329 0.0137711 0.0106871 0.00321308 -0.00606837 -0.0140412 -0.0192243 -0.0226236 -0.0264616 -0.0317824 -0.0375593 -0.0422701 -0.0456804 -0.0485256 -0.0511848 -0.0529478 -0.0531177 -0.0517954 -0.0491638 -0.0447055 -0.0379927 -0.0291198 -0.0183186 -0.00575281 0.00827048 0.0228708 0.0370749 0.0498807 0.0601875 0.0669114 0.0694055 0.0674544 0.0613934 0.0520507 0.0407984 0.0293279 0.0191955 0.0117802 0.00786265 0.0077527 0.0110272 0.0169874 0.0247153 0.0330728 0.0405558 0.0453181 0.0445902 0.0358632 0.0176963 -0.00855701 -0.0382946 -0.064495 -0.0802444 -0.0814215 -0.0686814 -0.0472409 -0.0246594 -0.00759823 0.00102225 0.0027473 0.00228704 0.00513402 0.0156545 0.0362671 0.0665381 0.102009 0.133137 0.14745 0.135665 0.0992417 0.0524635 0.0152168 0.00365689 0.0224803 0.0632345 0.106082 0.126785 0.109828 0.0610383 0.0094863 -0.0127956 0.00307985 0.0412509 0.075259 0.0836359 0.0639617 0.0313889 0.00348466 -0.010893 -0.0128875 -0.00876014 -0.0041152 -0.00141555 -0.000178537 0 0 
0 0 -0.000189461 -0.000930922 -0.00227721 -0.00440648 -0.005732 -0.00309257 0.00639571 0.0218127 0.0364184 0.0405421 0.0299451 0.0132966 0.00743107 0.0237584 0.0587965 0.0913898 0.0959818 0.0669961 0.0219569 -0.0147306 -0.0249018 -0.00385982 0.0383043 0.0830248 0.112125 0.117709 0.105264 0.0874636 0.0753922 0.0733713 0.0793847 0.0883432 0.0945583 0.0928584 0.0795458 0.0539406 0.0196782 -0.0160526 -0.0450661 -0.0617718 -0.0650167 -0.0579628 -0.0456743 -0.0331544 -0.0232543 -0.0167202 -0.0127483 -0.0100673 -0.00772256 -0.00517096 -0.00230911 0.00119451 0.00559874 0.0114178 0.0188116 0.0274235 0.036304 0.0442237 0.0500408 0.0529852 0.0527275 0.0498375 0.0450634 0.0394652 0.0340562 0.0294828 0.0260592 0.0236265 0.0219473 0.0204255 0.0185791 0.0159297 0.0122727 0.00750587 0.00180202 -0.00464833 -0.0115438 -0.0183977 -0.0249527 -0.0308302 -0.0357954 -0.0397253 -0.0424298 -0.0438726 -0.0442289 -0.043685 -0.0422906 -0.0399793 -0.0366737 -0.0325715 -0.027927 -0.0234296 -0.0195783 -0.0169552 -0.0157008 -0.0157542 -0.016596 -0.0173825 -0.0170102 -0.0147185 -0.0107321 -0.0066818 -0.00502373 -0.00773357 -0.0146926 -0.0235453 -0.0309504 -0.0352297 -0.0369899 -0.0384676 -0.040824 -0.0433526 -0.0445561 -0.0438809 -0.0419651 -0.0393136 -0.035677 -0.0306739 -0.024575 -0.0180741 -0.0114217 -0.00455082 0.00199335 0.00762903 0.0122652 0.0159529 0.0186639 0.0204466 0.0219492 0.023657 0.026037 0.0293716 0.0337598 0.0388038 0.0437413 0.0475594 0.0492902 0.0482282 0.0441635 0.0377577 0.0300973 0.0225514 0.0163107 0.0120691 0.00985951 0.00904528 0.00857078 0.00732294 0.00416268 -0.00121792 -0.00874125 -0.0178476 -0.0280594 -0.0392729 -0.0509814 -0.0613318 -0.0664858 -0.0620185 -0.0450802 -0.0166115 0.0181458 0.0515518 0.0768236 0.0903864 0.092681 0.0870285 0.0783675 0.0723135 0.0740373 0.0858182 0.103507 0.116177 0.110493 0.0816301 0.0374501 -0.00418391 -0.0249502 -0.0149651 0.0212244 0.0656519 0.0943077 0.0898702 0.0578484 0.0234032 0.00739385 0.0132478 0.0297073 0.0401786 0.0361031 0.0216658 0.00641004 -0.00302029 -0.00572931 -0.00458322 -0.00267062 -0.000936992 0 0 
0 0 -0.000522141 -0.00140678 -0.00223915 -0.0024871 -0.000586719 0.00464212 0.0121392 0.0181541 0.0189005 0.0153556 0.0152371 0.0265299 0.0482219 0.0684791 0.0701372 0.0452858 0.00765108 -0.0196883 -0.0226932 -0.000333253 0.0354184 0.0658106 0.0771345 0.0683408 0.0510309 0.0405457 0.0457084 0.0655724 0.0928643 0.118626 0.135729 0.139362 0.128018 0.104375 0.0747572 0.0471588 0.0272359 0.0161194 0.0105328 0.00522954 -0.00368681 -0.0169314 -0.0321496 -0.0457902 -0.0547772 -0.0577247 -0.0548904 -0.0472738 -0.0360822 -0.0224329 -0.00754257 0.00699961 0.0195131 0.0284214 0.032783 0.0326662 0.029065 0.0237516 0.0186899 0.0156364 0.0156626 0.0191781 0.0256415 0.0339683 0.042653 0.0503384 0.0557003 0.0579562 0.0567619 0.0521586 0.0445738 0.0346876 0.023294 0.0111026 -0.00102955 -0.0127001 -0.0233798 -0.0326803 -0.0404497 -0.0466639 -0.0512477 -0.0543433 -0.0559488 -0.0561948 -0.0552432 -0.0534475 -0.0509208 -0.0478038 -0.0439913 -0.0394461 -0.0342855 -0.0289704 -0.0240893 -0.0203409 -0.0180818 -0.0171087 -0.0166738 -0.0157006 -0.0131941 -0.00931853 -0.00540576 -0.00392867 -0.00680766 -0.0140692 -0.0234931 -0.0319062 -0.0373242 -0.0403045 -0.0427896 -0.0462143 -0.0502095 -0.0534998 -0.0552502 -0.0558356 -0.0555486 -0.0541521 -0.0510955 -0.0463446 -0.0401235 -0.0325435 -0.0233263 -0.012587 -0.000993129 0.0109993 0.0231638 0.0346334 0.0445081 0.0520291 0.0566922 0.057911 0.0554734 0.0498425 0.0416875 0.0321557 0.0226909 0.0149265 0.0101655 0.00935396 0.0125534 0.0189232 0.0267342 0.0336719 0.0374365 0.0363524 0.029831 0.0184955 0.00354338 -0.0135861 -0.0311203 -0.0469756 -0.0586658 -0.063588 -0.0603017 -0.0494622 -0.0337638 -0.0173105 -0.00392877 0.00440326 0.0088864 0.0138596 0.0248037 0.0449897 0.073084 0.103069 0.12678 0.137856 0.133816 0.116432 0.0906994 0.0638046 0.0445577 0.0400002 0.0502989 0.067135 0.075568 0.0642698 0.0342653 -0.000978839 -0.0229258 -0.0198758 0.00718994 0.0444008 0.0690199 0.0674765 0.047571 0.0262271 0.0151166 0.0152481 0.0187458 0.017998 0.0120287 0.00456381 -0.000695616 -0.0026859 -0.00249014 -0.00119936 0 0 
0 0 -0.000592083 -0.00119756 -0.00124073 -0.000198389 0.00235342 0.00581377 0.0086734 0.0102196 0.0125387 0.0198028 0.0330979 0.046263 0.0492173 0.0356278 0.0114255 -0.00541638 -0.00213348 0.0184487 0.0445215 0.06044 0.0555326 0.0342275 0.0118082 0.00366825 0.015801 0.0424797 0.0734615 0.100063 0.117169 0.123271 0.119949 0.111528 0.103793 0.100801 0.102556 0.104589 0.100827 0.0872794 0.0640625 0.0350434 0.00556875 -0.0199718 -0.0391128 -0.0512335 -0.0565879 -0.0560682 -0.0506711 -0.0420362 -0.0319282 -0.0222638 -0.0146455 -0.00995632 -0.00802034 -0.00789196 -0.00774653 -0.00598384 -0.00145646 0.00606964 0.0159671 0.0269156 0.0374212 0.0462012 0.0523783 0.0556489 0.0560479 0.0541029 0.0503108 0.0452365 0.039363 0.0330156 0.0263086 0.0194097 0.0123275 0.00518103 -0.00199974 -0.00909212 -0.0159379 -0.0223271 -0.0280905 -0.0330843 -0.0371595 -0.0402858 -0.042319 -0.0432747 -0.0431551 -0.0421379 -0.0404171 -0.0380743 -0.0351488 -0.0316252 -0.0274358 -0.0228304 -0.0182814 -0.0143921 -0.0114706 -0.00920106 -0.00675928 -0.00333732 0.00110271 0.00528175 0.00703552 0.00448371 -0.00243914 -0.0116239 -0.020025 -0.025616 -0.0286288 -0.0308552 -0.0336695 -0.0370979 -0.0401176 -0.0420131 -0.0428808 -0.0429511 -0.0420929 -0.0400846 -0.0368842 -0.0328101 -0.0279272 -0.0222542 -0.0158704 -0.00907504 -0.00213161 0.00497613 0.0121457 0.0192104 0.0260532 0.0327585 0.0391006 0.0447613 0.049415 0.0525625 0.0534736 0.0517714 0.0472155 0.0400963 0.0311487 0.0217856 0.0133848 0.0070967 0.00358794 0.002545 0.00299163 0.00343126 0.00237103 -0.00170613 -0.0094863 -0.0207807 -0.0340678 -0.0466827 -0.0559393 -0.0600513 -0.0585222 -0.0516458 -0.0392198 -0.0207641 0.00394185 0.03293 0.0618991 0.0853667 0.0992805 0.103172 0.100989 0.0988324 0.101405 0.108955 0.117577 0.121384 0.115939 0.0994059 0.073155 0.0423295 0.0158291 0.00365292 0.0114325 0.0333262 0.0541436 0.0588544 0.0431284 0.0174824 -0.00269099 -0.00577291 0.0109939 0.0349911 0.0485078 0.0456654 0.0327157 0.0196092 0.0124277 0.0101143 0.00855281 0.00568125 0.00220991 -0.000340416 -0.00130095 -0.000876343 0 0 
0 0 -0.00042094 -0.000638299 -0.000263201 0.000830502 0.00243161 0.00420055 0.0064883 0.0107677 0.018291 0.0271704 0.0319023 0.028133 0.0178006 0.0103893 0.0163811 0.0344025 0.0520763 0.057926 0.0458158 0.0205684 -0.00130622 -0.00603914 0.00791948 0.0318076 0.0541426 0.0684876 0.0746789 0.0754884 0.0756538 0.0801731 0.0924691 0.112089 0.13349 0.148887 0.152022 0.14146 0.12074 0.0954976 0.070835 0.0493149 0.0311607 0.0155653 0.0017512 -0.0107021 -0.0218944 -0.0319458 -0.0410416 -0.0492845 -0.0561127 -0.0602146 -0.0599004 -0.0541102 -0.0429401 -0.0278525 -0.0113067 0.00415777 0.0164721 0.0247433 0.0288917 0.0299189 0.029132 0.0280018 0.0275489 0.0284186 0.030542 0.0336688 0.037021 0.0398865 0.0416928 0.0419068 0.0402683 0.0368281 0.031733 0.0252878 0.0179465 0.00998709 0.00194195 -0.00591552 -0.0132726 -0.019886 -0.0256618 -0.0304954 -0.0342995 -0.0370827 -0.0387742 -0.039595 -0.039556 -0.0389226 -0.0377688 -0.0361052 -0.0339386 -0.0312787 -0.0282934 -0.0251285 -0.0218049 -0.0179059 -0.0130705 -0.00746346 -0.00231504 0.000184483 -0.0016224 -0.0078343 -0.0163935 -0.024221 -0.029336 -0.0317904 -0.0331649 -0.0347478 -0.0366829 -0.0383075 -0.0391739 -0.0393043 -0.0385509 -0.0368826 -0.0340391 -0.0302021 -0.0254293 -0.0197374 -0.0131536 -0.00583299 0.00194118 0.00987432 0.0177618 0.0250702 0.0314568 0.0364515 0.0398397 0.041341 0.0407843 0.0383982 0.0346439 0.0300724 0.0255959 0.022363 0.021107 0.0223622 0.0258247 0.03036 0.0338046 0.0337701 0.0281672 0.0163439 -0.000660092 -0.0200072 -0.0382875 -0.0524658 -0.0608369 -0.063121 -0.0600679 -0.0529195 -0.0432857 -0.0326287 -0.0218549 -0.0110491 0.00047814 0.0136974 0.0292399 0.0476935 0.0694544 0.0940586 0.118976 0.139241 0.149434 0.146194 0.13107 0.110177 0.0911872 0.0793346 0.0750553 0.0749764 0.0742251 0.0681735 0.0538395 0.0316613 0.00794626 -0.00596973 -0.00148128 0.0199101 0.0446678 0.0565268 0.0507523 0.0333844 0.0157226 0.00995305 0.0173969 0.0276939 0.0314803 0.0268451 0.0180827 0.0106339 0.00637567 0.00408472 0.0023239 0.000772625 -0.000194139 -0.000340359 0 0 
0 0 -0.000197626 -0.000197912 0.000146878 0.000861689 0.00202797 0.00410291 0.00776676 0.0129195 0.0175909 0.0190338 0.017319 0.0167883 0.0230514 0.0369903 0.0500984 0.0518159 0.0400111 0.0201161 0.00426719 0.00467354 0.0199724 0.0382323 0.0490482 0.048977 0.0423433 0.0359785 0.0354533 0.0448503 0.064795 0.0912417 0.117009 0.134911 0.141945 0.140269 0.134704 0.129363 0.125314 0.120787 0.113394 0.101353 0.0845675 0.0638284 0.0402735 0.0150143 -0.0103258 -0.0334275 -0.0516953 -0.0631381 -0.0670576 -0.0642225 -0.0566212 -0.0466667 -0.036672 -0.0281847 -0.021809 -0.017275 -0.0136712 -0.00983806 -0.0049505 0.00146842 0.00918755 0.0177598 0.0264684 0.0345912 0.0414887 0.0468968 0.0504662 0.0521939 0.0521821 0.0504865 0.0471348 0.0424107 0.0363392 0.0291936 0.0211477 0.0124823 0.00351357 -0.00543481 -0.0141379 -0.0223085 -0.0296633 -0.036065 -0.0413342 -0.0453801 -0.0482059 -0.049833 -0.0503573 -0.0499771 -0.048948 -0.04752 -0.0457438 -0.0435919 -0.040781 -0.0370235 -0.0318796 -0.0252023 -0.0175532 -0.0105409 -0.00650126 -0.00730848 -0.0130194 -0.0215354 -0.0298102 -0.0357132 -0.0391458 -0.04147 -0.0437456 -0.0460882 -0.0479772 -0.0492589 -0.0499181 -0.0496797 -0.0481008 -0.0451222 -0.0410049 -0.0358443 -0.0295448 -0.0221848 -0.0140148 -0.00541978 0.00341608 0.0123354 0.020954 0.0288866 0.0358978 0.0418215 0.0462574 0.049026 0.0498777 0.0487752 0.0456819 0.0408256 0.0347502 0.0283151 0.0221645 0.0170576 0.0132429 0.0103189 0.00745262 0.00372774 -0.00163194 -0.00876196 -0.017408 -0.0271441 -0.037656 -0.0485632 -0.058822 -0.0664261 -0.0688314 -0.0640516 -0.0518054 -0.0333916 -0.0108714 0.0137016 0.0386726 0.0624526 0.0834146 0.10006 0.111607 0.118468 0.122618 0.126643 0.132182 0.138199 0.140307 0.133537 0.115751 0.0899934 0.063701 0.0440074 0.0350262 0.0359387 0.0422029 0.0485682 0.0484667 0.0377051 0.0195826 0.0044138 0.00391249 0.0194705 0.0390388 0.0506729 0.0490127 0.0361582 0.0225006 0.016411 0.0170087 0.0187518 0.0173514 0.0127424 0.00764245 0.00401179 0.00197172 0.000872199 0.000279361 2.32681e-06 0 0 
0 0 -6.3673e-05 -2.64638e-06 0.000251856 0.000915399 0.00228743 0.00459461 0.00750044 0.00998396 0.0114841 0.0135839 0.0191525 0.0288753 0.038787 0.0416497 0.0345909 0.0235138 0.0169786 0.0217447 0.0371207 0.0508676 0.0526469 0.0434952 0.0303065 0.0212627 0.0214102 0.031167 0.0485543 0.0683838 0.0843154 0.0932999 0.0970012 0.100569 0.10884 0.122441 0.138208 0.151176 0.15742 0.155348 0.145244 0.128298 0.106038 0.0806186 0.0546528 0.0306842 0.0105899 -0.00502073 -0.0169042 -0.0266841 -0.0361156 -0.0461496 -0.056267 -0.0647519 -0.0694331 -0.0685806 -0.0618168 -0.0501396 -0.035412 -0.0197971 -0.0051915 0.00727703 0.0171062 0.0245205 0.0299964 0.0341288 0.0373789 0.0399508 0.0418848 0.0430421 0.0432095 0.0421435 0.0397596 0.0360697 0.0311625 0.0252489 0.0186964 0.0116822 0.00464426 -0.00217809 -0.00863727 -0.0144589 -0.0195302 -0.0238227 -0.027207 -0.0297308 -0.031359 -0.0321865 -0.0322829 -0.0317998 -0.0310324 -0.0301884 -0.0293705 -0.028297 -0.0261971 -0.0223216 -0.016099 -0.007907 0.000470674 0.00638799 0.00761197 0.00364387 -0.00356895 -0.0110272 -0.0165397 -0.0198428 -0.0221171 -0.0243625 -0.0264889 -0.0282077 -0.0295882 -0.0309442 -0.0320574 -0.0322099 -0.0311759 -0.0293619 -0.0269637 -0.0237377 -0.0194063 -0.0142933 -0.00858702 -0.00226616 0.00453095 0.0115266 0.0184005 0.0247662 0.0304077 0.0348134 0.037689 0.0389125 0.0385912 0.0370333 0.0348762 0.0329575 0.0319412 0.031975 0.0325847 0.0324086 0.0294798 0.0219058 0.00868228 -0.00947367 -0.0300843 -0.0493736 -0.0636742 -0.0708982 -0.0709177 -0.0653571 -0.0564988 -0.0464209 -0.0363323 -0.0267339 -0.0170148 -0.00551738 0.00962728 0.0295737 0.0536497 0.0794998 0.10441 0.125983 0.142474 0.152519 0.154715 0.14873 0.135942 0.120288 0.106658 0.0984312 0.095032 0.091701 0.083171 0.0676999 0.0481927 0.0310183 0.021338 0.0211117 0.0298943 0.0427916 0.0516902 0.0498508 0.036239 0.0210468 0.0163487 0.0228104 0.033766 0.0407797 0.0380202 0.0283127 0.018776 0.0133255 0.0112861 0.00982478 0.00738217 0.00452102 0.00226577 0.000968024 0.000412516 0.000108561 0 0 
0 0 -5.44134e-06 9.97054e-05 0.000379677 0.00107956 0.00226547 0.00376267 0.00533357 0.00733003 0.0110218 0.0171897 0.0241625 0.028359 0.0273518 0.0238551 0.0246586 0.0330577 0.0464147 0.0568786 0.0552534 0.0430553 0.0306696 0.0249772 0.0281792 0.0383872 0.0504542 0.0596562 0.0627296 0.0603082 0.0579429 0.0618806 0.0749055 0.0949333 0.116437 0.134469 0.146594 0.152643 0.153615 0.150308 0.143514 0.133997 0.122699 0.110235 0.0965239 0.0804726 0.0609657 0.0375582 0.0115181 -0.0145288 -0.0373893 -0.0547467 -0.0655096 -0.0699934 -0.0693808 -0.0649549 -0.0581307 -0.0498635 -0.0408701 -0.0316531 -0.0223512 -0.0132547 -0.00442303 0.00391455 0.0116505 0.0185248 0.0245266 0.0296313 0.0339155 0.0373982 0.0400487 0.0418715 0.0427025 0.0425064 0.0411352 0.0385043 0.0347097 0.0297226 0.0237455 0.0169594 0.00956697 0.00191213 -0.00574931 -0.0132356 -0.0202001 -0.0264278 -0.0317927 -0.0362282 -0.0397468 -0.0425275 -0.0447089 -0.0465329 -0.0478881 -0.048343 -0.0468943 -0.0428883 -0.0362395 -0.0283274 -0.0217017 -0.0188298 -0.0207137 -0.0259938 -0.0319472 -0.0363577 -0.0389794 -0.0407297 -0.0422958 -0.0435359 -0.0437812 -0.0432889 -0.0425928 -0.0416752 -0.0396714 -0.0361501 -0.0314426 -0.0261213 -0.0201254 -0.0131704 -0.00557809 0.00200908 0.00950376 0.0168597 0.0236162 0.0294152 0.0341217 0.0375229 0.0394444 0.0397001 0.0384672 0.0361063 0.0329935 0.0298697 0.0273802 0.025893 0.0252703 0.0247708 0.0231183 0.0188044 0.0109225 -0.000714603 -0.014973 -0.0299198 -0.0431966 -0.0534476 -0.0605164 -0.0651961 -0.0681478 -0.0686876 -0.0649521 -0.0548226 -0.0376121 -0.0146535 0.0112933 0.0370324 0.0601327 0.0794122 0.0950257 0.10812 0.119946 0.131005 0.140541 0.147426 0.150703 0.14963 0.143514 0.131429 0.113624 0.0925375 0.0729486 0.0603419 0.0566619 0.059179 0.0617206 0.0587551 0.0496676 0.0377695 0.0276828 0.0244947 0.0300572 0.0421927 0.0541503 0.0556962 0.0453423 0.0321739 0.0239283 0.0231948 0.0267118 0.0277796 0.0237006 0.0168673 0.0108165 0.00719578 0.00524284 0.00371201 0.00226549 0.00114948 0.000534201 0.000156596 0 0 
0 0 3.58236e-05 0.000179404 0.000445499 0.000952421 0.00168574 0.00273658 0.00453211 0.00764291 0.011817 0.01552 0.0175184 0.018774 0.0226369 0.0317832 0.043441 0.0513277 0.05067 0.0419162 0.0340457 0.0348865 0.0424977 0.0523717 0.05989 0.0607814 0.0554737 0.0476856 0.0432817 0.0473605 0.0594621 0.0750211 0.0891867 0.0993182 0.106663 0.113503 0.12125 0.130272 0.139622 0.148323 0.155032 0.157844 0.154764 0.144084 0.12578 0.10178 0.0752962 0.0496986 0.0273298 0.00899763 -0.00581434 -0.0185251 -0.0303881 -0.0421441 -0.0534524 -0.0630219 -0.0692005 -0.0708723 -0.0676394 -0.0600202 -0.0491129 -0.0363233 -0.0229238 -0.00981448 0.00236329 0.0132697 0.0229042 0.0310464 0.0378618 0.0430972 0.0467198 0.0485614 0.0484435 0.0464316 0.0425704 0.0370957 0.0303188 0.0226247 0.0143993 0.00603493 -0.00221612 -0.0099746 -0.0170429 -0.0232771 -0.0285863 -0.0328619 -0.0361429 -0.0385475 -0.0401478 -0.0412389 -0.0420499 -0.0424612 -0.0422784 -0.0407015 -0.0369447 -0.030955 -0.0237662 -0.0173491 -0.0139699 -0.0145096 -0.018009 -0.0222153 -0.0253754 -0.0273382 -0.0292356 -0.0316065 -0.0340602 -0.0358074 -0.0368142 -0.0378557 -0.0392762 -0.0401542 -0.0397691 -0.0381626 -0.0357859 -0.0327408 -0.0285697 -0.0231527 -0.0169141 -0.0100085 -0.00233151 0.00591316 0.0140695 0.021863 0.028971 0.0348275 0.0389215 0.0411628 0.0416586 0.0408538 0.0393509 0.037885 0.0367079 0.0353149 0.0328141 0.0275732 0.018367 0.0045569 -0.0131097 -0.0325261 -0.0506759 -0.0644173 -0.0717438 -0.0724874 -0.0680025 -0.060412 -0.0513216 -0.0414006 -0.0306511 -0.018928 -0.00588852 0.00902626 0.0269731 0.0487191 0.0737612 0.0997051 0.123152 0.141001 0.151509 0.154562 0.151635 0.144698 0.135813 0.12652 0.117708 0.110334 0.103848 0.0968051 0.0868284 0.0728112 0.0573828 0.0455342 0.041729 0.0464994 0.0542725 0.0595116 0.0586488 0.0512844 0.0415784 0.034085 0.0332541 0.0409852 0.049604 0.050239 0.0424705 0.030999 0.0220301 0.0182874 0.0171107 0.0151972 0.0115912 0.00750448 0.00445607 0.00270515 0.00169829 0.00101862 0.000569225 0.00020042 0 0 
0 0 6.00159e-05 0.000189601 0.000363686 0.000691664 0.0013081 0.00246012 0.00429466 0.00648908 0.00848451 0.0106598 0.0146226 0.0216795 0.0307807 0.0376981 0.0390626 0.0365107 0.0352852 0.0410422 0.0524955 0.0618129 0.0653121 0.0625967 0.0549724 0.0481252 0.0470047 0.0526804 0.0625773 0.0707946 0.0740841 0.0737868 0.0733306 0.0765259 0.0846134 0.0967702 0.111559 0.127119 0.141339 0.151969 0.15689 0.155638 0.149273 0.139907 0.129586 0.119058 0.107644 0.0939257 0.0763775 0.0549861 0.0308593 0.00641523 -0.015979 -0.0347696 -0.0494022 -0.0599608 -0.0666672 -0.0697334 -0.0691314 -0.0649254 -0.057395 -0.0471138 -0.0348601 -0.0216854 -0.00868612 0.00305649 0.0129517 0.0206088 0.0260849 0.0297092 0.0318358 0.0329148 0.0332546 0.0330393 0.0323532 0.0311348 0.0293507 0.0269619 0.023863 0.0200971 0.0156635 0.0107414 0.0054319 -0.000131112 -0.00570024 -0.0111049 -0.0162681 -0.0211019 -0.0256144 -0.0298332 -0.03369 -0.0366943 -0.0382038 -0.0375177 -0.0343539 -0.0299122 -0.0259997 -0.0245628 -0.0262165 -0.0297859 -0.0330115 -0.0343826 -0.0341135 -0.0337013 -0.0340473 -0.034707 -0.034614 -0.0336522 -0.0323355 -0.0313291 -0.0301551 -0.0278894 -0.024487 -0.0204164 -0.0159814 -0.0110523 -0.00563107 -2.43915e-05 0.00543678 0.0106249 0.0154726 0.0196626 0.0228613 0.0251203 0.0263433 0.0265345 0.0260432 0.0254767 0.0254781 0.0265464 0.028924 0.0319482 0.0341625 0.0338021 0.0289607 0.0186041 0.00319449 -0.0155203 -0.0346374 -0.0511343 -0.0627449 -0.0686713 -0.0696836 -0.0674892 -0.0634801 -0.0577519 -0.0488712 -0.0353164 -0.0165237 0.00632084 0.0308037 0.0543357 0.0749002 0.0917629 0.105067 0.116102 0.126294 0.136362 0.145545 0.151692 0.152692 0.147744 0.137291 0.123381 0.108089 0.0934758 0.0814412 0.0734941 0.0704655 0.0712145 0.0718832 0.0689324 0.0609833 0.0512754 0.0457403 0.0469012 0.0536712 0.0612116 0.0639162 0.0605031 0.0513658 0.0401048 0.0344453 0.035658 0.0381934 0.0368655 0.0300785 0.0211508 0.0142358 0.0103796 0.00828546 0.00635698 0.00422061 0.00243356 0.00132155 0.000745707 0.000459919 0.000185431 0 0 
0 0 5.58174e-05 0.000151657 0.000274167 0.000561192 0.00111147 0.00194189 0.00295431 0.00424454 0.00654097 0.0106817 0.0163284 0.0216899 0.0247673 0.026251 0.0300602 0.0387259 0.0506086 0.0599624 0.0618564 0.0586049 0.0542441 0.0519724 0.0556447 0.0638394 0.0711842 0.0736656 0.0699791 0.0638859 0.0604807 0.0618301 0.067784 0.0765037 0.0862368 0.0962303 0.105343 0.113086 0.119439 0.125256 0.131882 0.139793 0.147897 0.153788 0.154385 0.147951 0.134431 0.115663 0.0941768 0.0723412 0.0514549 0.0321878 0.0145159 -0.00175275 -0.0169544 -0.0310006 -0.0435785 -0.0539251 -0.0613621 -0.0653247 -0.0656854 -0.0625702 -0.056288 -0.0474257 -0.0365824 -0.024512 -0.0118648 0.000566504 0.012241 0.0226139 0.0313713 0.0382993 0.0431193 0.0458613 0.0463995 0.0448322 0.0413423 0.036193 0.02969 0.0221938 0.0140402 0.00561254 -0.00275031 -0.0107545 -0.0182393 -0.0250823 -0.0312317 -0.036756 -0.041665 -0.0458813 -0.0491561 -0.0507733 -0.0502425 -0.0473706 -0.0431489 -0.0395814 -0.0386906 -0.0410748 -0.045461 -0.0492583 -0.0505863 -0.0496744 -0.0481319 -0.0474205 -0.047542 -0.0474692 -0.0468344 -0.0461426 -0.0458531 -0.0456346 -0.044782 -0.0426821 -0.0395987 -0.0356587 -0.0307879 -0.0249172 -0.0181546 -0.0107555 -0.00287458 0.00531598 0.0133758 0.0208204 0.0272341 0.0322975 0.0357172 0.0376307 0.0384524 0.0386973 0.0386802 0.0385428 0.0375465 0.034438 0.0278552 0.0168935 0.00172604 -0.0161894 -0.0343293 -0.05023 -0.0617577 -0.067865 -0.068623 -0.0651455 -0.0588725 -0.0509492 -0.0417792 -0.0308486 -0.0177113 -0.00246896 0.0141168 0.0316688 0.0502342 0.0702618 0.0915589 0.112769 0.131289 0.144493 0.150553 0.149699 0.143659 0.13549 0.127677 0.121299 0.115693 0.109473 0.101823 0.0928911 0.083183 0.073785 0.0654273 0.0598024 0.0586861 0.0622074 0.0684144 0.0721967 0.0698188 0.0626222 0.0545959 0.0510261 0.0532764 0.057568 0.0607321 0.0588328 0.0495951 0.0378586 0.0293308 0.0255925 0.024165 0.0211697 0.0159244 0.0104036 0.00635985 0.00412983 0.00288846 0.00191603 0.00112038 0.000603397 0.000347496 0.000136259 0 0 
0 0 4.47663e-05 0.000121888 0.000220982 0.000412243 0.000701542 0.00112966 0.00193593 0.0035779 0.00620401 0.00919414 0.0118746 0.0145849 0.019217 0.0276255 0.038042 0.0461998 0.0492388 0.0483923 0.0488517 0.0531512 0.0605744 0.0696993 0.0752151 0.0738103 0.0682841 0.0628827 0.0614646 0.0646166 0.0690969 0.0728485 0.0749405 0.0755927 0.0760609 0.0771463 0.0804489 0.0875755 0.0987189 0.113015 0.127453 0.138903 0.145407 0.146626 0.144156 0.139671 0.134092 0.127388 0.118685 0.106993 0.0918215 0.0734504 0.0531086 0.0321765 0.0118949 -0.00715779 -0.0245663 -0.0401059 -0.0532106 -0.0631145 -0.0690327 -0.0703775 -0.0670221 -0.0592877 -0.0479691 -0.0342771 -0.019658 -0.00564627 0.00668354 0.0164446 0.0234019 0.0276973 0.0297201 0.0300263 0.0290897 0.0273515 0.025072 0.022425 0.0193857 0.016085 0.0124004 0.00848503 0.00426006 -9.98087e-05 -0.00466983 -0.00940931 -0.0142353 -0.0192682 -0.0241996 -0.0284792 -0.0315685 -0.0326327 -0.0315574 -0.0291617 -0.0273028 -0.0278779 -0.0317796 -0.0377332 -0.0432725 -0.0460738 -0.0459477 -0.0441027 -0.0422047 -0.0404881 -0.0385446 -0.0360346 -0.0335993 -0.0317479 -0.0304138 -0.0289459 -0.0269406 -0.0242522 -0.0210978 -0.0173767 -0.0132748 -0.00902659 -0.00461666 -0.000261114 0.00381414 0.00749998 0.0104987 0.0128663 0.0145153 0.0158197 0.0172465 0.0196081 0.0233441 0.0283732 0.0338016 0.0378742 0.0383351 0.0332192 0.0217661 0.00478157 -0.0153509 -0.0355408 -0.0528052 -0.0651686 -0.0717267 -0.0726401 -0.0687368 -0.0611536 -0.0510327 -0.0389714 -0.0247728 -0.00814125 0.010839 0.0312414 0.0518938 0.0715469 0.0892762 0.104122 0.11567 0.124162 0.130534 0.135768 0.140142 0.14266 0.141548 0.135206 0.123981 0.109704 0.0955686 0.0846167 0.0778364 0.0749013 0.0741513 0.0739378 0.073461 0.0714804 0.0678335 0.0634985 0.0605343 0.0621243 0.0675324 0.0729788 0.0743776 0.068933 0.0599064 0.0525427 0.0482467 0.047714 0.0484793 0.0454107 0.0373188 0.0270197 0.0187215 0.0141725 0.0115374 0.00893639 0.00602586 0.00346853 0.00187684 0.00110618 0.000705893 0.000440079 0.000265885 0.000103811 0 0 
0 0 3.76147e-05 9.01119e-05 0.000134685 0.000201789 0.000347083 0.000716722 0.00147258 0.00256187 0.00377507 0.00542419 0.00852372 0.0139529 0.0211987 0.0275567 0.0311447 0.0336796 0.0382073 0.0466545 0.057029 0.0654235 0.0696299 0.0681101 0.0639567 0.0629952 0.0661779 0.0713535 0.0751968 0.075113 0.072115 0.0679403 0.0638865 0.0618716 0.0626676 0.0670974 0.0746667 0.0833491 0.0912994 0.0974106 0.102386 0.108137 0.115795 0.125399 0.135233 0.142892 0.146213 0.144212 0.137104 0.125991 0.11189 0.0957254 0.0779813 0.059289 0.0402492 0.0215518 0.00382072 -0.0124521 -0.0268429 -0.0390599 -0.0488008 -0.0560156 -0.0605281 -0.0622155 -0.0608796 -0.056348 -0.0486751 -0.0384017 -0.0262559 -0.0133485 -0.000689502 0.010856 0.0206302 0.0282601 0.0335603 0.0366882 0.0376707 0.0367262 0.0340871 0.0300244 0.0247609 0.0185381 0.0117481 0.00455567 -0.00290981 -0.0105022 -0.0180818 -0.0255322 -0.032212 -0.0374869 -0.0405114 -0.0411919 -0.0403283 -0.0397192 -0.0414149 -0.0462397 -0.0532277 -0.0598929 -0.0641703 -0.0655332 -0.0650242 -0.0638344 -0.062159 -0.0595142 -0.0558622 -0.0518914 -0.0484766 -0.0456714 -0.0430966 -0.0403112 -0.037062 -0.0330691 -0.028126 -0.0225143 -0.0163466 -0.00981006 -0.00289042 0.00398931 0.0103463 0.0159425 0.0206387 0.0241469 0.0266686 0.0287401 0.0308403 0.0332046 0.035435 0.0364464 0.0344356 0.0277671 0.015719 -0.000898217 -0.0198058 -0.037982 -0.0525691 -0.0620636 -0.0663366 -0.0661472 -0.0625218 -0.0562905 -0.0479397 -0.0379226 -0.0263233 -0.0129866 0.00252119 0.0200023 0.0386509 0.0574202 0.0756376 0.0929708 0.109009 0.123089 0.134063 0.14094 0.142799 0.13958 0.132161 0.122533 0.113108 0.105646 0.100138 0.0954031 0.0896366 0.082015 0.0736448 0.0662404 0.0619474 0.0612625 0.0633876 0.0675843 0.0718947 0.0749869 0.0751058 0.0712775 0.0661853 0.0630329 0.0639409 0.0679386 0.0693094 0.0650341 0.0566354 0.0463011 0.0378584 0.0332863 0.0306899 0.0270898 0.0207703 0.0136034 0.00826135 0.00522614 0.00362719 0.00246209 0.0014162 0.000692587 0.000344704 0.000214173 0.000155993 7.0937e-05 0 0 
0 0 2.61805e-05 4.92909e-05 5.35477e-05 7.31519e-05 0.000150243 0.000306967 0.000524882 0.000914177 0.00198163 0.00430167 0.00775684 0.0114664 0.0144988 0.0177321 0.0237305 0.0328986 0.0430054 0.0508726 0.054501 0.0552619 0.0557166 0.0594142 0.0669414 0.073557 0.0759994 0.0742818 0.0700194 0.0661485 0.0636917 0.0625398 0.0630567 0.0643856 0.0654821 0.0653598 0.0636675 0.0622715 0.0635252 0.0692477 0.0795317 0.0923407 0.105188 0.115862 0.123625 0.128775 0.131989 0.1337 0.133497 0.130946 0.125557 0.117083 0.105727 0.0918125 0.0759742 0.0586791 0.0402458 0.0209797 0.00124543 -0.0181125 -0.0359156 -0.0508523 -0.0618799 -0.0682179 -0.0697566 -0.0664442 -0.0588568 -0.0478315 -0.0345223 -0.0204288 -0.0068806 0.00488104 0.0141569 0.0205793 0.0243041 0.0257689 0.0253886 0.0237139 0.0211665 0.0179938 0.0143786 0.0104621 0.00627586 0.0017796 -0.00308048 -0.00835138 -0.0138521 -0.0192227 -0.0236405 -0.0263751 -0.0270789 -0.0263932 -0.0261367 -0.0282326 -0.033684 -0.0414152 -0.0490533 -0.0544077 -0.0570114 -0.0578077 -0.0580304 -0.0576338 -0.0559174 -0.0524224 -0.0478957 -0.0432764 -0.0390621 -0.0352766 -0.0320747 -0.0292564 -0.0264176 -0.0230084 -0.0191533 -0.0152509 -0.0112992 -0.00725442 -0.00328917 0.000133829 0.00294407 0.00535563 0.0075959 0.0100987 0.013582 0.018616 0.0250041 0.0316196 0.0364468 0.037098 0.0315565 0.0193441 0.00186472 -0.0181642 -0.0373697 -0.0532691 -0.0645428 -0.0710395 -0.0730436 -0.0704265 -0.0631652 -0.0512861 -0.0358167 -0.0181646 0.00041839 0.0192867 0.0381262 0.0565324 0.0737825 0.0894225 0.103139 0.114526 0.123054 0.128431 0.130959 0.131267 0.129833 0.126936 0.121998 0.114435 0.103985 0.0914468 0.0789402 0.0689345 0.0634306 0.0623389 0.063824 0.0656097 0.0658487 0.0647957 0.063517 0.0629252 0.0640058 0.0663576 0.0702236 0.0745145 0.0762092 0.0737501 0.0671661 0.0596251 0.0558774 0.0552869 0.0544132 0.0507037 0.0428097 0.0327031 0.023542 0.0175289 0.0142662 0.0112358 0.00755963 0.00414859 0.00187023 0.000837029 0.000477044 0.000282287 0.000141521 7.43825e-05 5.88877e-05 3.08502e-05 0 0 
0 0 1.57351e-05 2.29789e-05 9.93055e-06 -2.96201e-05 -0.000111427 -0.000220536 -0.000216643 0.000182091 0.00108911 0.00224056 0.00354021 0.00557423 0.00964576 0.0164562 0.0240555 0.030053 0.0340554 0.0372623 0.0423039 0.0503171 0.0597828 0.0670834 0.0689022 0.0671679 0.0654917 0.06504 0.0663017 0.0678072 0.0682543 0.0673885 0.0640935 0.0587394 0.0529138 0.0485451 0.0479734 0.0511889 0.0567285 0.0627318 0.0677566 0.0724442 0.0778858 0.0852505 0.0947644 0.105349 0.115711 0.124447 0.130523 0.133602 0.133338 0.129751 0.122563 0.111775 0.0975737 0.0807388 0.0624607 0.0437939 0.0255961 0.00835062 -0.00751936 -0.0217163 -0.0341016 -0.0444563 -0.0527297 -0.0585202 -0.0614106 -0.0608772 -0.0565843 -0.0486788 -0.037794 -0.0250986 -0.0118916 0.000559216 0.0112778 0.019781 0.0257806 0.029403 0.0309086 0.0305737 0.0287425 0.0256263 0.0214516 0.0162832 0.0102173 0.00348336 -0.0033617 -0.00956253 -0.0142424 -0.0170025 -0.0182792 -0.0197832 -0.0234355 -0.0302526 -0.0394506 -0.0486139 -0.0555896 -0.059622 -0.0617738 -0.0631971 -0.0641937 -0.0638884 -0.0617221 -0.0577982 -0.0528579 -0.0472389 -0.0413327 -0.0355979 -0.0305899 -0.0260253 -0.0212557 -0.016088 -0.0107433 -0.00555257 -0.000371238 0.00467672 0.00914248 0.0127157 0.015617 0.0181884 0.0208566 0.0241358 0.0283351 0.0327443 0.0357251 0.0352145 0.0291869 0.0168681 -0.000707896 -0.0206376 -0.039354 -0.053826 -0.0625458 -0.0659199 -0.0652066 -0.0615442 -0.0554061 -0.0467194 -0.0355731 -0.0223741 -0.00801884 0.00718669 0.0235308 0.0413031 0.0601179 0.0786818 0.0955178 0.10963 0.120536 0.127946 0.131722 0.132133 0.129264 0.12349 0.115051 0.104883 0.094472 0.0851946 0.0781393 0.0728899 0.0683386 0.0633895 0.0574528 0.0519479 0.0487618 0.0493301 0.0535909 0.0592406 0.0643502 0.0674687 0.0682479 0.0678044 0.0663481 0.0651086 0.0655308 0.0671267 0.0687465 0.0669114 0.0596483 0.0502774 0.0423317 0.0372989 0.0340503 0.0299929 0.0239725 0.0163715 0.00956944 0.00549854 0.00345159 0.00215018 0.00101364 0.000126446 -0.00025326 -0.000241743 -0.000122615 -3.72937e-05 -1.43177e-06 6.2544e-06 0 0 
0 0 1.13938e-05 5.65538e-06 -3.55939e-05 -0.00014219 -0.000311588 -0.000495481 -0.000634112 -0.00075292 -0.000869391 -0.0005752 0.000870158 0.00383643 0.00777614 0.0112658 0.0142844 0.0186767 0.0254416 0.0346853 0.0443212 0.05098 0.0537231 0.0544345 0.0568048 0.0614862 0.0660281 0.0691024 0.0696268 0.067464 0.0636224 0.058463 0.0538852 0.0513969 0.0506624 0.0507314 0.0496321 0.0467131 0.0433836 0.0415142 0.0431792 0.0486677 0.0571308 0.0672302 0.0775097 0.0874639 0.0967664 0.105323 0.112792 0.118518 0.122094 0.12313 0.121793 0.118162 0.112201 0.103917 0.0930203 0.0795991 0.0634937 0.0450798 0.0249515 0.00434344 -0.0152394 -0.0323274 -0.045838 -0.055253 -0.0603991 -0.0613594 -0.0582531 -0.0515223 -0.0416525 -0.0296803 -0.0167602 -0.00420517 0.00683301 0.015699 0.0219086 0.0255344 0.0269133 0.026531 0.0246949 0.0217815 0.0179162 0.0132644 0.00797547 0.00240466 -0.0026879 -0.00660264 -0.00884126 -0.009954 -0.0112845 -0.0149053 -0.0217816 -0.0312693 -0.0410827 -0.0489814 -0.0541402 -0.0573749 -0.0598843 -0.0619508 -0.062911 -0.0622686 -0.0600756 -0.0566606 -0.052004 -0.0460867 -0.0395136 -0.033247 -0.0276879 -0.022552 -0.0174369 -0.0126231 -0.00817864 -0.00419865 -0.000509874 0.00266181 0.00531953 0.00776453 0.0106828 0.0147185 0.0202564 0.0272032 0.0342639 0.0392435 0.039565 0.0334344 0.0205467 0.00278968 -0.0166 -0.0342726 -0.0480091 -0.0572304 -0.0624774 -0.0646039 -0.0635189 -0.0584923 -0.0487622 -0.0343648 -0.0163339 0.00350633 0.0235507 0.0429 0.0610103 0.0774678 0.0913862 0.102448 0.110683 0.116771 0.120761 0.12246 0.121605 0.118184 0.112664 0.10541 0.0969922 0.087859 0.0780926 0.0679865 0.0579646 0.0495086 0.0440388 0.0424416 0.0443022 0.0475529 0.0503093 0.0511602 0.05081 0.0512901 0.0536387 0.0581672 0.0632923 0.0671005 0.0692161 0.0685989 0.06553 0.0610295 0.0564075 0.0540625 0.0533699 0.0506656 0.0441005 0.0345842 0.025442 0.0187185 0.0143235 0.0112898 0.00778219 0.00383982 0.000862993 -0.000595276 -0.000897238 -0.000782146 -0.000657556 -0.000511716 -0.00032402 -0.00015706 -5.87774e-05 -1.0757e-05 0 0 
0 0 8.04051e-06 -8.70472e-06 -6.62263e-05 -0.000194723 -0.000414825 -0.000760607 -0.00125707 -0.00179855 -0.00204363 -0.00171837 -0.000979625 -0.000104269 0.00106534 0.00375863 0.00918626 0.0163619 0.0235741 0.0292657 0.0328369 0.0367973 0.043285 0.0515813 0.0586978 0.0623463 0.063346 0.0625388 0.0607951 0.05944 0.058642 0.0585811 0.0581548 0.0554243 0.0501776 0.043256 0.0369754 0.0334754 0.0328773 0.034576 0.0370864 0.0397029 0.0428385 0.046926 0.0527573 0.0603314 0.0691489 0.0788354 0.0887811 0.0986824 0.107934 0.115869 0.121616 0.124143 0.122908 0.117439 0.108165 0.0958806 0.0817142 0.0665227 0.0508006 0.0350024 0.019231 0.00413575 -0.0100125 -0.0227147 -0.0337267 -0.0426689 -0.0489762 -0.0521624 -0.0516298 -0.0472095 -0.0392272 -0.0286043 -0.0165679 -0.00445572 0.00639539 0.0151965 0.0215161 0.0252743 0.026643 0.0258938 0.0232755 0.0192364 0.0142762 0.00917337 0.00494163 0.001961 -5.50258e-05 -0.00244965 -0.00708318 -0.0150169 -0.0256117 -0.0367665 -0.0461754 -0.0528664 -0.0576383 -0.0615974 -0.0650187 -0.0672518 -0.0678568 -0.0668952 -0.064922 -0.0616826 -0.0567387 -0.0502187 -0.0429565 -0.0356041 -0.0284448 -0.02146 -0.0148171 -0.0089024 -0.00382592 0.000514949 0.00416618 0.00723676 0.0102881 0.0138602 0.0186001 0.0246801 0.0312854 0.0366224 0.038177 0.0337063 0.0223751 0.00544678 -0.014068 -0.032189 -0.0458189 -0.0538084 -0.0566256 -0.0556472 -0.0519997 -0.046047 -0.0373901 -0.0259345 -0.0121945 0.00292261 0.0182881 0.0336131 0.0488714 0.0644996 0.0801098 0.0948008 0.107254 0.116439 0.122019 0.123673 0.121526 0.11589 0.108004 0.0988643 0.0891301 0.0793309 0.0697497 0.0610246 0.0535617 0.0477751 0.0437209 0.0406401 0.0380451 0.035473 0.0336329 0.0340218 0.0372855 0.0433368 0.0500939 0.0552247 0.0578738 0.0582189 0.0581849 0.0589065 0.0601818 0.0618505 0.0626595 0.0616757 0.0581127 0.0511297 0.0429912 0.0366028 0.0326879 0.0291378 0.0235096 0.016372 0.00926269 0.00386755 0.00116456 -3.17879e-05 -0.000934353 -0.00169353 -0.00203513 -0.00180014 -0.00126379 -0.00077004 -0.000426556 -0.000212359 -9.52871e-05 -2.54478e-05 0 0 
0 0 7.52303e-06 -1.0356e-05 -7.15417e-05 -0.000230181 -0.000534457 -0.00100934 -0.00161188 -0.00224507 -0.0029195 -0.00371073 -0.00428314 -0.00390205 -0.00188729 0.00160106 0.00517167 0.00839476 0.0120825 0.0173546 0.025515 0.0349309 0.0423146 0.0465625 0.0487577 0.0510566 0.0537277 0.056466 0.0592513 0.0607015 0.0600472 0.0567022 0.0511289 0.0457573 0.04195 0.0399002 0.0385738 0.0362529 0.032701 0.0285981 0.0253983 0.0244118 0.025831 0.0296004 0.0351451 0.042253 0.0508139 0.060351 0.0705913 0.0806834 0.0900296 0.0981491 0.104842 0.110259 0.11438 0.11709 0.117644 0.115372 0.109709 0.100373 0.0874118 0.0711285 0.0524571 0.0325627 0.0129939 -0.00490411 -0.0202327 -0.0324963 -0.0416024 -0.0475876 -0.0503932 -0.0499037 -0.0461591 -0.0395507 -0.0306389 -0.0205826 -0.0104279 -0.00136703 0.0057903 0.01047 0.0126027 0.0122628 0.00990253 0.00607259 0.0018731 -0.00192056 -0.00455043 -0.00637672 -0.00868325 -0.0132185 -0.021161 -0.0319875 -0.0436277 -0.0538036 -0.0614652 -0.0672671 -0.0723456 -0.0770107 -0.080596 -0.0824837 -0.0828536 -0.0821297 -0.0803303 -0.076996 -0.0719996 -0.0657392 -0.0587083 -0.051177 -0.0433285 -0.0356309 -0.028565 -0.0224974 -0.0175767 -0.0135936 -0.0100383 -0.00616058 -0.00111478 0.00547017 0.0136474 0.0219002 0.0279507 0.0290914 0.0236246 0.0115087 -0.00501736 -0.0223749 -0.0369771 -0.0470469 -0.0522981 -0.0540104 -0.0533647 -0.0506523 -0.0452319 -0.0362432 -0.0233026 -0.00685629 0.0119294 0.0317296 0.051358 0.0697687 0.0860998 0.0993756 0.10906 0.114769 0.116916 0.116415 0.114007 0.110199 0.104857 0.098146 0.0901349 0.080997 0.0710827 0.0609341 0.0514694 0.0430321 0.0360426 0.0305806 0.0268909 0.025538 0.0264615 0.0295251 0.0334487 0.0368049 0.0389305 0.0400799 0.0420044 0.0457063 0.0510234 0.0565187 0.0598056 0.0603384 0.0587669 0.0558874 0.053187 0.0505772 0.0483527 0.0461882 0.0420059 0.0347095 0.0254243 0.0173686 0.0121691 0.00850179 0.00529235 0.00172851 -0.00174809 -0.00377229 -0.00418611 -0.00364578 -0.00288266 -0.0022268 -0.00160481 -0.00101063 -0.000542865 -0.000248561 -0.000106001 -2.77505e-05 0 0 
0 0 1.0367e-05 -6.66899e-06 -7.43242e-05 -0.000251257 -0.000576764 -0.00108738 -0.00183024 -0.00285817 -0.00409454 -0.00514263 -0.00562194 -0.00556697 -0.00521285 -0.00468525 -0.00296954 0.00115106 0.00733674 0.0145904 0.0205762 0.0244256 0.02846 0.0339244 0.0402531 0.046069 0.0502437 0.0526508 0.0526834 0.0509167 0.0488193 0.0474337 0.0473197 0.0469218 0.0446883 0.0403092 0.0343555 0.0288243 0.0247917 0.0225163 0.0217239 0.0216752 0.0223649 0.0239697 0.0266028 0.0306096 0.0355366 0.0416553 0.0488363 0.0574626 0.0676259 0.0790007 0.0909104 0.102028 0.111234 0.11753 0.120165 0.119016 0.114302 0.106701 0.0966908 0.0847649 0.0710523 0.0557901 0.0393363 0.0222717 0.00537055 -0.0107527 -0.0255437 -0.0386549 -0.0494783 -0.0575887 -0.0624356 -0.063643 -0.0611051 -0.0552425 -0.0469595 -0.037434 -0.0280804 -0.0201932 -0.0145467 -0.0115884 -0.0109867 -0.0119815 -0.0134239 -0.0145932 -0.0154003 -0.0169875 -0.0210106 -0.0286232 -0.0393189 -0.0511805 -0.061816 -0.0702036 -0.076832 -0.0828089 -0.0885202 -0.0933008 -0.0964654 -0.0981672 -0.0987643 -0.0983189 -0.0963503 -0.0928115 -0.0879636 -0.0821735 -0.0755262 -0.068085 -0.0602418 -0.052533 -0.045331 -0.0391664 -0.0341008 -0.0296543 -0.0247844 -0.0186985 -0.0111583 -0.00291355 0.004391 0.00797116 0.00543458 -0.00408338 -0.0191284 -0.0365319 -0.0522681 -0.0632526 -0.0685217 -0.0689113 -0.0658264 -0.0603307 -0.0526083 -0.0422678 -0.0289844 -0.0133185 0.00389474 0.0215334 0.0387885 0.0551036 0.0702598 0.0840472 0.0961332 0.106208 0.113701 0.118271 0.119394 0.11694 0.110863 0.101788 0.0907325 0.0790269 0.0679101 0.0579302 0.0494093 0.0423899 0.036446 0.0316778 0.0278088 0.0252471 0.0236941 0.0229324 0.0228721 0.0235063 0.0255823 0.0294237 0.0347542 0.0406177 0.0449196 0.0471344 0.0474354 0.0474113 0.0486316 0.050537 0.0521898 0.0520504 0.0496712 0.0455641 0.0398535 0.0336184 0.028248 0.0242749 0.0205084 0.0145933 0.00743811 0.00131869 -0.00275891 -0.00447785 -0.00503145 -0.00540676 -0.00549448 -0.00504923 -0.00403153 -0.00282145 -0.00181235 -0.00108209 -0.000581816 -0.000268897 -0.000109469 -2.52378e-05 0 0 
0 0 1.25808e-05 -5.5533e-07 -6.15752e-05 -0.000229294 -0.000570432 -0.00116336 -0.00205381 -0.00319488 -0.00445001 -0.00580372 -0.0073474 -0.00875416 -0.00932146 -0.00830676 -0.00562744 -0.00251019 0.000370784 0.00328993 0.00741787 0.0141627 0.0217178 0.0279421 0.0324311 0.0351961 0.037038 0.0384308 0.040266 0.0428484 0.0449333 0.0452567 0.0430033 0.0390012 0.0352068 0.0323916 0.0309384 0.0298023 0.0280795 0.0257223 0.0229603 0.0207711 0.0193696 0.0189137 0.0196998 0.0217449 0.0255286 0.0310244 0.0379755 0.0459931 0.0542019 0.062301 0.0699755 0.0773773 0.084641 0.0917114 0.098398 0.103739 0.106856 0.106684 0.102684 0.0946585 0.0827262 0.0674587 0.049489 0.0301048 0.0103886 -0.00846012 -0.025718 -0.0409136 -0.0538734 -0.0645216 -0.0726189 -0.0779305 -0.0801045 -0.0790681 -0.0748603 -0.0681395 -0.0598958 -0.0515583 -0.0441068 -0.0383951 -0.0343324 -0.031424 -0.0290546 -0.0270957 -0.0265214 -0.0287471 -0.0349383 -0.0446472 -0.0558995 -0.0663164 -0.0747513 -0.0815989 -0.0879327 -0.0942564 -0.0999103 -0.104126 -0.106955 -0.108764 -0.109716 -0.109162 -0.107048 -0.103558 -0.0991462 -0.0938716 -0.0878482 -0.081383 -0.0746058 -0.067681 -0.0609726 -0.0547641 -0.0488987 -0.0425811 -0.0351617 -0.0267048 -0.018506 -0.0126243 -0.0116901 -0.0175276 -0.0298504 -0.0462267 -0.0626598 -0.0757485 -0.0833884 -0.0858104 -0.0844375 -0.0807596 -0.0752027 -0.0675472 -0.0571392 -0.0437235 -0.0275895 -0.00937752 0.0100651 0.0298816 0.0490798 0.0669072 0.0821976 0.0941994 0.102173 0.105991 0.105973 0.102825 0.0976013 0.0911148 0.084246 0.0771535 0.069969 0.0625798 0.0546771 0.0466203 0.0387787 0.0320416 0.0266994 0.0230224 0.0210511 0.0202615 0.0206681 0.021933 0.0239413 0.0265081 0.0286752 0.0303197 0.0314226 0.0328765 0.0356108 0.039273 0.0430685 0.0451305 0.0446819 0.0425063 0.0398447 0.0378991 0.036496 0.0346783 0.0319612 0.0275733 0.021472 0.0140633 0.00743836 0.00337579 0.000502213 -0.00233748 -0.00542099 -0.0080734 -0.00909932 -0.00856117 -0.00719453 -0.00569315 -0.00437187 -0.00314487 -0.0020271 -0.00115243 -0.000571701 -0.000243893 -9.44605e-05 -1.96711e-05 0 0 
0 0 1.48153e-05 8.95916e-06 -4.13197e-05 -0.00020189 -0.000542729 -0.0011294 -0.0020151 -0.00325076 -0.00489176 -0.00684418 -0.00867177 -0.00997704 -0.0107186 -0.0111288 -0.011447 -0.0107998 -0.00810669 -0.00338845 0.00230254 0.00673797 0.00991371 0.0133406 0.0170645 0.0212919 0.0258464 0.0299799 0.0328118 0.0333846 0.0326029 0.031735 0.0318992 0.0331659 0.0340241 0.0335651 0.0315381 0.0285147 0.0257647 0.0233914 0.0217246 0.0205462 0.0196751 0.0194138 0.019494 0.02004 0.0206581 0.0212506 0.0221417 0.0237393 0.0268836 0.0319115 0.0389806 0.047535 0.0566303 0.0652904 0.0724944 0.0778952 0.0808472 0.0814155 0.0794517 0.0750546 0.068469 0.0594837 0.0481647 0.0345458 0.019113 0.00249808 -0.0144066 -0.0309063 -0.0464349 -0.060464 -0.0726899 -0.082615 -0.0898803 -0.0940782 -0.0950109 -0.0925358 -0.0872822 -0.0800559 -0.0717859 -0.0632928 -0.0549974 -0.0472084 -0.0403398 -0.0356608 -0.0346202 -0.0382229 -0.0461164 -0.0562059 -0.0659928 -0.0741082 -0.0808129 -0.0872446 -0.0937888 -0.0999542 -0.10496 -0.108745 -0.111544 -0.11361 -0.114438 -0.113765 -0.11169 -0.108633 -0.104551 -0.099776 -0.094695 -0.0895295 -0.0839797 -0.0778639 -0.0711022 -0.0636924 -0.0552768 -0.0457744 -0.0360868 -0.0280252 -0.0240995 -0.0265712 -0.036137 -0.0514774 -0.0689869 -0.0845917 -0.0953194 -0.100322 -0.100576 -0.0975011 -0.0923024 -0.0850111 -0.0753067 -0.0630392 -0.0484893 -0.0321428 -0.0148693 0.00251379 0.0191229 0.0341871 0.0474474 0.0587007 0.0678669 0.0745202 0.0787281 0.0804767 0.079895 0.0771103 0.0719266 0.0649192 0.0564408 0.047561 0.0392339 0.0323671 0.0274753 0.024486 0.023092 0.0223355 0.0218171 0.0212663 0.0207694 0.0206302 0.0207411 0.0214252 0.0224447 0.02404 0.0264185 0.029222 0.0322384 0.0341855 0.0344594 0.0334477 0.032031 0.0318069 0.0325972 0.0332877 0.0325307 0.0295343 0.025407 0.0209458 0.0168082 0.0131765 0.00979605 0.00667629 0.00231315 -0.0032848 -0.0079262 -0.0105485 -0.0111933 -0.0108879 -0.0104938 -0.00977836 -0.0085039 -0.00671743 -0.00480357 -0.00319466 -0.00198372 -0.00111451 -0.000540469 -0.000213307 -7.13212e-05 -9.73456e-06 0 0 
0 0 1.55184e-05 1.43383e-05 -2.52792e-05 -0.000156952 -0.000449888 -0.00100626 -0.00193513 -0.00329365 -0.00501383 -0.00691464 -0.00899536 -0.011331 -0.0135868 -0.0152106 -0.0154193 -0.0141404 -0.0125255 -0.0110902 -0.00965662 -0.00698047 -0.0023781 0.00254861 0.00722332 0.0112044 0.0138028 0.015564 0.0172092 0.0198105 0.0233663 0.0264886 0.0281914 0.0279387 0.0266711 0.0254319 0.0246346 0.0242027 0.0233877 0.0221789 0.0204019 0.0181691 0.015636 0.0125677 0.00925114 0.0058815 0.00309131 0.00147753 0.00105742 0.00192574 0.00353356 0.00568031 0.00823327 0.0114125 0.0156925 0.0212221 0.028192 0.0361106 0.0442977 0.0517191 0.0572015 0.0599434 0.0594568 0.0556379 0.0484703 0.0383376 0.0256217 0.0112001 -0.0041903 -0.0197535 -0.0347825 -0.0490118 -0.0620208 -0.0736598 -0.0835296 -0.0914891 -0.0970218 -0.0999341 -0.0999131 -0.0969084 -0.090871 -0.0822465 -0.071668 -0.0604206 -0.0505455 -0.044325 -0.043416 -0.0475729 -0.0550651 -0.0631447 -0.0702219 -0.0762998 -0.0823671 -0.0888306 -0.0952018 -0.100703 -0.105168 -0.108869 -0.111974 -0.113895 -0.114524 -0.113822 -0.112167 -0.109387 -0.105768 -0.101686 -0.0976673 -0.0935555 -0.0887304 -0.0825432 -0.0746314 -0.0648222 -0.0536476 -0.0426736 -0.0346727 -0.032284 -0.0374218 -0.0496058 -0.0661099 -0.0828082 -0.0958721 -0.103349 -0.105351 -0.103522 -0.0992931 -0.0933629 -0.0854716 -0.0756417 -0.0638151 -0.0504193 -0.0356396 -0.0199916 -0.00403294 0.0112789 0.0251583 0.03728 0.0473027 0.054797 0.0589282 0.0593513 0.0563443 0.0508314 0.0436639 0.0357342 0.0279553 0.0210627 0.015672 0.011582 0.00856956 0.00612743 0.00409012 0.00265877 0.00196717 0.00248997 0.00421029 0.00701087 0.0103154 0.0134965 0.0164364 0.0189226 0.0211689 0.023016 0.0242805 0.0250892 0.0254391 0.0261126 0.0272229 0.0284122 0.0285904 0.0268297 0.0235734 0.0198645 0.0170804 0.0153039 0.0135412 0.0110104 0.00709146 0.00250384 -0.00234791 -0.00686187 -0.00949004 -0.0108849 -0.0122863 -0.0138761 -0.0151465 -0.0149488 -0.0133461 -0.0111237 -0.00882454 -0.00678387 -0.00492242 -0.00323575 -0.00190202 -0.00098968 -0.000445497 -0.000164912 -4.92953e-05 -2.80734e-06 0 0 
0 0 1.38942e-05 1.66983e-05 -8.48726e-06 -0.000108366 -0.000358667 -0.000857198 -0.00169851 -0.00297006 -0.00473641 -0.00704481 -0.00975607 -0.0123813 -0.0146408 -0.0165464 -0.0182806 -0.0200809 -0.0209081 -0.0198629 -0.0171735 -0.0137813 -0.0110209 -0.00845992 -0.00583857 -0.00315474 0.00051311 0.00494279 0.00925867 0.0123362 0.0135069 0.0137707 0.0141203 0.0151093 0.0162832 0.0166277 0.015806 0.0137198 0.0108962 0.00773089 0.00419805 0.000652054 -0.00299021 -0.0063043 -0.00923952 -0.0120061 -0.0147596 -0.0179927 -0.0214805 -0.0249259 -0.0274344 -0.0281815 -0.0266435 -0.0225795 -0.016394 -0.00854743 0.000156058 0.00916037 0.0179825 0.026155 0.0334398 0.0391937 0.0432449 0.0450715 0.0444412 0.0411252 0.0348701 0.025743 0.0140813 0.000715688 -0.013816 -0.0286459 -0.0433754 -0.0574459 -0.0705454 -0.0823859 -0.0926425 -0.10088 -0.106615 -0.109007 -0.107267 -0.101289 -0.0917358 -0.080826 -0.071459 -0.066202 -0.0658476 -0.0692597 -0.0742231 -0.079132 -0.0837379 -0.0888281 -0.0947376 -0.100965 -0.106533 -0.111351 -0.115573 -0.119379 -0.122291 -0.123973 -0.124559 -0.124183 -0.1229 -0.120645 -0.117749 -0.114684 -0.11135 -0.107365 -0.1018 -0.0940548 -0.0838238 -0.0719498 -0.0605533 -0.0527368 -0.0512778 -0.0574964 -0.0701447 -0.0856507 -0.0996263 -0.108953 -0.112533 -0.111459 -0.107272 -0.101124 -0.0932208 -0.0833503 -0.0716573 -0.0585602 -0.0444134 -0.0294225 -0.0140882 0.000850837 0.0140843 0.0250645 0.0335354 0.0396935 0.0434581 0.0445903 0.0428594 0.0385547 0.0326768 0.025639 0.0177454 0.00901297 -9.91819e-06 -0.00861451 -0.0162654 -0.0223133 -0.026324 -0.027783 -0.0268537 -0.0241885 -0.020589 -0.0170442 -0.0138002 -0.0111066 -0.00846178 -0.0055892 -0.00226103 0.00144944 0.00512393 0.00873086 0.0119075 0.0146417 0.0166065 0.0173303 0.0169004 0.0156856 0.0146241 0.0141954 0.013774 0.0124566 0.00920633 0.00476356 0.000366231 -0.00321849 -0.00585562 -0.00841914 -0.0109338 -0.0136219 -0.0169504 -0.0195588 -0.0205927 -0.0197715 -0.0179896 -0.0162804 -0.0143972 -0.0121682 -0.0095807 -0.00691487 -0.00464927 -0.00291515 -0.00166632 -0.000840588 -0.000353055 -0.000113147 -2.69973e-05 2.28261e-06 0 0 
0 0 1.13043e-05 1.51572e-05 -1.83082e-06 -7.46427e-05 -0.000257506 -0.000642163 -0.00137341 -0.00260269 -0.00441056 -0.00673431 -0.00940032 -0.0124369 -0.0158437 -0.0192303 -0.0220677 -0.0235485 -0.0238408 -0.0239613 -0.0238917 -0.0232542 -0.021341 -0.0182169 -0.0147396 -0.0110237 -0.0082029 -0.00676074 -0.00598968 -0.00529317 -0.00388028 -0.00230581 -0.00166879 -0.00244635 -0.00462545 -0.00731673 -0.0100554 -0.0127288 -0.0153315 -0.0180427 -0.0206725 -0.0232903 -0.0259243 -0.0288209 -0.0321087 -0.0356241 -0.0390507 -0.0416156 -0.0432166 -0.0436916 -0.043326 -0.0423959 -0.0408808 -0.0388424 -0.0356955 -0.0310319 -0.0245298 -0.0160925 -0.0062208 0.00461205 0.0154195 0.0254136 0.0334175 0.0389774 0.0416965 0.0414222 0.0381757 0.0318451 0.0226891 0.0110831 -0.00220006 -0.0166494 -0.0316422 -0.0468488 -0.0619031 -0.0765156 -0.0902694 -0.102543 -0.112598 -0.119222 -0.121488 -0.119058 -0.112987 -0.10546 -0.0989504 -0.0948904 -0.0931969 -0.0925826 -0.0921619 -0.0920918 -0.0933688 -0.0963701 -0.100485 -0.104663 -0.108507 -0.112245 -0.115929 -0.119092 -0.121359 -0.12278 -0.123561 -0.123681 -0.123002 -0.121716 -0.120107 -0.118053 -0.115085 -0.110548 -0.103853 -0.094972 -0.0850363 -0.0763627 -0.0718622 -0.0736535 -0.0822119 -0.0955311 -0.109755 -0.120823 -0.126666 -0.127297 -0.124022 -0.118149 -0.110435 -0.100753 -0.0892362 -0.0762484 -0.0623306 -0.047729 -0.0325194 -0.0171093 -0.00223946 0.0109673 0.0219337 0.0304199 0.0366399 0.0403494 0.0412137 0.0386964 0.0329615 0.0247895 0.0149414 0.00440959 -0.00632692 -0.0161965 -0.0245659 -0.0309032 -0.0354319 -0.0385061 -0.0404424 -0.0418298 -0.0426388 -0.0429539 -0.0424563 -0.040911 -0.0384158 -0.0350696 -0.0315803 -0.0282043 -0.0251567 -0.0223775 -0.0196438 -0.017039 -0.0144091 -0.0119189 -0.00931044 -0.00658802 -0.00389307 -0.00174354 -0.00107426 -0.00182753 -0.0035549 -0.00510416 -0.00595082 -0.00681987 -0.0082703 -0.0110313 -0.014672 -0.0180709 -0.0211139 -0.0229857 -0.0235868 -0.0236485 -0.0235261 -0.0232263 -0.0217523 -0.0189457 -0.0155944 -0.0122271 -0.00923518 -0.00661322 -0.00432978 -0.00255234 -0.0013441 -0.000627176 -0.000251965 -7.74083e-05 -1.5235e-05 4.00096e-06 0 0 
0 0 7.52017e-06 9.99279e-06 -6.33657e-07 -4.67703e-05 -0.000175422 -0.000476404 -0.00106381 -0.0020739 -0.00367254 -0.00597867 -0.00904686 -0.012644 -0.0162104 -0.0195181 -0.0224952 -0.0252933 -0.0279475 -0.0293524 -0.0292241 -0.0281745 -0.0268605 -0.0260728 -0.0257579 -0.0260916 -0.0265034 -0.0262386 -0.0259345 -0.0263332 -0.0280382 -0.0309206 -0.0339451 -0.0365292 -0.0384435 -0.0401406 -0.0418899 -0.0436895 -0.0455383 -0.0472286 -0.0488214 -0.0502955 -0.0514085 -0.0519726 -0.0516805 -0.0508873 -0.0499562 -0.0494158 -0.049615 -0.0503805 -0.0514603 -0.0520545 -0.0516112 -0.0496253 -0.0461547 -0.0412594 -0.0350946 -0.028088 -0.020393 -0.0122883 -0.003867 0.00455216 0.0123961 0.0191526 0.0241501 0.0272176 0.0278064 0.0257179 0.0206213 0.012678 0.00214458 -0.0102627 -0.0239145 -0.0383866 -0.053256 -0.0682454 -0.0826842 -0.0958458 -0.106602 -0.114124 -0.117946 -0.118468 -0.116903 -0.114711 -0.112651 -0.110225 -0.106454 -0.101058 -0.0951157 -0.0903355 -0.0878762 -0.0873909 -0.0879545 -0.0890269 -0.0907415 -0.092991 -0.0953534 -0.0972977 -0.0988267 -0.100155 -0.101232 -0.101861 -0.102052 -0.101918 -0.10123 -0.0994065 -0.0959251 -0.0904179 -0.0833308 -0.0761497 -0.071502 -0.0719896 -0.0788253 -0.0909451 -0.105441 -0.118493 -0.127077 -0.130275 -0.129224 -0.125466 -0.119867 -0.11254 -0.103345 -0.0924606 -0.0802852 -0.0673551 -0.0536082 -0.0391963 -0.0244791 -0.0104348 0.00193586 0.0119136 0.0192755 0.0242323 0.0266674 0.0266308 0.0238847 0.0188228 0.0118972 0.00411364 -0.00408349 -0.0123468 -0.0204318 -0.0280797 -0.0349435 -0.0409344 -0.0457594 -0.0491733 -0.051032 -0.0514219 -0.0508454 -0.0498189 -0.0491417 -0.0490642 -0.0496974 -0.0506231 -0.0512445 -0.0513287 -0.0505783 -0.0493464 -0.047881 -0.0463589 -0.0447283 -0.0428779 -0.0410378 -0.0392528 -0.0375946 -0.0357655 -0.0332829 -0.0303419 -0.0275538 -0.0259274 -0.0256233 -0.0259634 -0.0262602 -0.0258253 -0.025492 -0.0257833 -0.0265394 -0.027836 -0.0288521 -0.0289729 -0.0275825 -0.0249493 -0.0221782 -0.0192344 -0.0159634 -0.0124455 -0.00889675 -0.00587112 -0.00360189 -0.00203041 -0.00103851 -0.000463364 -0.000170401 -4.8233e-05 -9.72328e-06 2.30402e-06 0 0 
0 0 3.87807e-06 3.92966e-06 -4.77763e-06 -3.88966e-05 -0.00012988 -0.000331701 -0.000749106 -0.00156636 -0.00296291 -0.00505446 -0.00783593 -0.0111715 -0.0150963 -0.019389 -0.0234594 -0.0269086 -0.0293708 -0.0315355 -0.0341483 -0.0369382 -0.0399573 -0.042749 -0.0452833 -0.047737 -0.0503757 -0.0540324 -0.0583255 -0.0624759 -0.0657859 -0.0678536 -0.069489 -0.0709966 -0.0723417 -0.0735577 -0.0740392 -0.0739415 -0.0731251 -0.0717351 -0.0698245 -0.0673768 -0.0647579 -0.0622019 -0.0601111 -0.0585006 -0.0573201 -0.0562611 -0.0550992 -0.0538958 -0.0527148 -0.0519727 -0.05166 -0.0516895 -0.0517158 -0.0511928 -0.0496181 -0.0464888 -0.0417977 -0.0355913 -0.0281886 -0.0200833 -0.0117476 -0.00391841 0.00292533 0.00834713 0.0121514 0.0140093 0.0137957 0.0111534 0.00615197 -0.000992424 -0.00988715 -0.0200967 -0.031275 -0.0429756 -0.0544927 -0.0646471 -0.0726159 -0.0777702 -0.0806418 -0.0822785 -0.0838807 -0.0855086 -0.0859573 -0.0833119 -0.076579 -0.0666548 -0.0558803 -0.0462334 -0.0384396 -0.0322054 -0.0274162 -0.0243176 -0.0228419 -0.0224816 -0.0225863 -0.0230448 -0.0238624 -0.0250066 -0.026195 -0.0274002 -0.0284094 -0.0288604 -0.0280842 -0.0257553 -0.0219234 -0.017407 -0.013973 -0.0144285 -0.0210753 -0.0341876 -0.0515826 -0.0693271 -0.083574 -0.0921073 -0.0952318 -0.0947745 -0.0924917 -0.0889798 -0.0841009 -0.0776087 -0.0698777 -0.0612093 -0.0519545 -0.0418483 -0.0311052 -0.0201639 -0.00990263 -0.00114518 0.00551452 0.00992819 0.012348 0.0128161 0.01143 0.00798566 0.00263258 -0.0042767 -0.0120775 -0.0202739 -0.028221 -0.035529 -0.0416909 -0.0462838 -0.049257 -0.0507567 -0.0512157 -0.0511032 -0.051046 -0.0514154 -0.0522963 -0.0536118 -0.0549809 -0.0562331 -0.0572422 -0.0582342 -0.0595905 -0.0614863 -0.063967 -0.0665949 -0.069091 -0.0709951 -0.0723163 -0.0730458 -0.0731487 -0.0726699 -0.0715113 -0.0701834 -0.068702 -0.0670859 -0.0650701 -0.0617893 -0.0576488 -0.0533077 -0.0497121 -0.047135 -0.0447332 -0.0422399 -0.0394754 -0.036482 -0.0337133 -0.031127 -0.0289791 -0.0265492 -0.0231355 -0.0191143 -0.0148722 -0.0109962 -0.00770521 -0.0049634 -0.00290369 -0.00152963 -0.000727976 -0.000320919 -0.000125753 -3.99287e-05 -1.12936e-05 -5.61511e-07 0 0 
0 0 2.41661e-07 -3.34506e-06 -1.28027e-05 -3.98985e-05 -0.000103435 -0.000246669 -0.000550841 -0.0011122 -0.00208609 -0.0037085 -0.00615539 -0.00954433 -0.0136616 -0.0180937 -0.0229315 -0.0282295 -0.0341469 -0.0405404 -0.0466804 -0.052943 -0.0593958 -0.0659907 -0.0729404 -0.0797617 -0.0861154 -0.0910777 -0.0944907 -0.0970712 -0.0990828 -0.100788 -0.101767 -0.101535 -0.100226 -0.0978776 -0.0950378 -0.0917969 -0.0882154 -0.0845828 -0.0809271 -0.0774828 -0.0741604 -0.0708112 -0.067333 -0.063701 -0.060311 -0.0575858 -0.0560502 -0.0557217 -0.0565508 -0.0581341 -0.0599583 -0.0616862 -0.0628312 -0.0633421 -0.0629391 -0.0616091 -0.0591058 -0.0552251 -0.0498958 -0.0429904 -0.0346675 -0.0251172 -0.0149228 -0.0044845 0.00548703 0.0147263 0.0228149 0.0291592 0.0334817 0.0354349 0.0351871 0.0329613 0.029334 0.0247514 0.020257 0.0164875 0.0140847 0.0127211 0.0112666 0.00850321 0.00417774 -0.000348624 -0.00271469 -0.000891664 0.00533966 0.0146966 0.0253681 0.0363883 0.0471838 0.0572873 0.0655599 0.0716646 0.0756639 0.0782763 0.0796798 0.080068 0.0794934 0.0784711 0.0772139 0.0760615 0.0754581 0.0762347 0.0785977 0.0822295 0.0856117 0.0867098 0.0828998 0.0726844 0.0563282 0.0369444 0.0185757 0.00490996 -0.00274876 -0.00530951 -0.00492892 -0.00316474 -0.000704814 0.00244663 0.00618715 0.0101795 0.0140861 0.0180161 0.022252 0.0265889 0.0307914 0.0339915 0.0356282 0.035103 0.0324489 0.0277585 0.0215691 0.0139615 0.00506952 -0.00482163 -0.0152441 -0.0253373 -0.0347399 -0.0429579 -0.0498258 -0.0550827 -0.0588143 -0.06122 -0.0624539 -0.0627953 -0.0622465 -0.0610762 -0.0594511 -0.0578153 -0.0564427 -0.0557759 -0.0561609 -0.0576205 -0.0601418 -0.0633192 -0.0668188 -0.0702551 -0.0736348 -0.0769518 -0.0803269 -0.0838655 -0.087387 -0.0909261 -0.0941385 -0.0969558 -0.09925 -0.100538 -0.100704 -0.099728 -0.0979654 -0.0959199 -0.0932478 -0.0897662 -0.08487 -0.0786712 -0.0719776 -0.0651433 -0.05864 -0.0522691 -0.0460843 -0.04002 -0.0337086 -0.0278564 -0.0226215 -0.0178407 -0.0134604 -0.00939197 -0.00604905 -0.00363804 -0.00203914 -0.00108233 -0.000533681 -0.000237901 -0.0001001 -4.07208e-05 -1.78835e-05 -5.07248e-06 0 0 
0 0 -3.10794e-06 -1.02506e-05 -2.19571e-05 -4.84294e-05 -9.887e-05 -0.000195731 -0.000371248 -0.000713948 -0.00140836 -0.00263715 -0.00465008 -0.00772924 -0.0121213 -0.0181785 -0.0257187 -0.034307 -0.0436302 -0.0533488 -0.0638396 -0.0747247 -0.0852207 -0.0950533 -0.103365 -0.109968 -0.115125 -0.119091 -0.122241 -0.124018 -0.124287 -0.122934 -0.120424 -0.117427 -0.113996 -0.110359 -0.106427 -0.102156 -0.0978946 -0.0933672 -0.0887415 -0.0839805 -0.0793139 -0.0751413 -0.0716995 -0.0692309 -0.0675366 -0.066512 -0.0658977 -0.0657118 -0.0660548 -0.0669777 -0.0686312 -0.0707062 -0.0728921 -0.0744801 -0.0749625 -0.0736482 -0.0700931 -0.0640279 -0.0553149 -0.0441354 -0.0305395 -0.0149935 0.00220634 0.020355 0.0390015 0.0573827 0.0750843 0.0914938 0.1058 0.117426 0.125835 0.131278 0.134155 0.135332 0.135622 0.13556 0.134842 0.132552 0.12754 0.119646 0.110154 0.101379 0.0953461 0.0929113 0.0936625 0.0968318 0.102293 0.110068 0.119582 0.129438 0.138222 0.145389 0.150933 0.154744 0.156818 0.157333 0.156972 0.156163 0.155455 0.155393 0.156878 0.160042 0.164222 0.167571 0.167762 0.162468 0.150913 0.134567 0.116888 0.101889 0.0922753 0.0884602 0.0890663 0.0921679 0.0967609 0.102495 0.108974 0.115587 0.121674 0.126845 0.131018 0.134389 0.136784 0.137807 0.136851 0.133307 0.126624 0.116994 0.104663 0.0903173 0.0743036 0.0569462 0.0386409 0.0200261 0.00202825 -0.0149547 -0.0304345 -0.0440406 -0.0551379 -0.0636921 -0.069604 -0.0731069 -0.0743955 -0.0738771 -0.072306 -0.0702479 -0.0684256 -0.0670227 -0.0662344 -0.0659394 -0.0660142 -0.0664317 -0.0672538 -0.068856 -0.0713535 -0.0747935 -0.07897 -0.0835141 -0.0881003 -0.0925598 -0.096995 -0.101184 -0.105373 -0.109229 -0.112763 -0.116122 -0.119028 -0.121479 -0.122752 -0.122428 -0.120589 -0.117391 -0.113475 -0.108448 -0.101951 -0.093786 -0.0840918 -0.0737625 -0.0630038 -0.0526475 -0.04305 -0.0338535 -0.0253731 -0.017923 -0.0119437 -0.00760457 -0.00456448 -0.00258029 -0.00137227 -0.000691881 -0.000357764 -0.000188464 -9.62601e-05 -4.97312e-05 -2.65671e-05 -9.44835e-06 0 0 
0 0 -6.19852e-06 -1.71156e-05 -3.05814e-05 -5.34052e-05 -9.40798e-05 -0.000164129 -0.000294152 -0.00056604 -0.00110513 -0.00221117 -0.00433808 -0.00790252 -0.0133897 -0.0209052 -0.0303977 -0.0419031 -0.054734 -0.0681864 -0.0812942 -0.0931941 -0.103852 -0.112934 -0.120544 -0.126825 -0.131381 -0.134171 -0.134973 -0.134421 -0.133006 -0.130874 -0.128284 -0.124904 -0.120897 -0.11645 -0.111699 -0.10688 -0.102111 -0.0976478 -0.0935789 -0.0899964 -0.0870291 -0.0844272 -0.0822523 -0.0803843 -0.0790009 -0.0781323 -0.077818 -0.0779922 -0.0782982 -0.0784646 -0.0779333 -0.0764181 -0.0734398 -0.0687655 -0.0622172 -0.053544 -0.0426441 -0.0293103 -0.0134903 0.00479891 0.025248 0.0475516 0.0713965 0.0960097 0.120718 0.144629 0.167156 0.187506 0.205054 0.219086 0.229109 0.235168 0.237889 0.238176 0.23657 0.23306 0.226603 0.216196 0.201496 0.183977 0.166085 0.150024 0.13672 0.125808 0.116763 0.110094 0.106648 0.106985 0.110411 0.115745 0.121956 0.128296 0.133939 0.138095 0.140546 0.141702 0.142116 0.142375 0.143228 0.145532 0.149418 0.153928 0.157107 0.1566 0.150539 0.138904 0.124148 0.110242 0.100812 0.0976322 0.1002 0.10672 0.11546 0.12606 0.138519 0.152641 0.167563 0.18229 0.196193 0.208865 0.219909 0.229177 0.236138 0.240366 0.241071 0.237729 0.230214 0.218989 0.204469 0.186959 0.166766 0.144218 0.120323 0.0958157 0.0714768 0.0477804 0.0254343 0.00501267 -0.0131151 -0.0287589 -0.0420294 -0.0529329 -0.061595 -0.0682291 -0.073106 -0.0763475 -0.0781118 -0.0787499 -0.0785807 -0.0781077 -0.077708 -0.0778568 -0.0786785 -0.0801255 -0.0820382 -0.0841451 -0.0866095 -0.0893769 -0.0928084 -0.0967579 -0.101112 -0.105755 -0.110431 -0.115067 -0.119409 -0.12334 -0.126648 -0.129185 -0.131274 -0.132652 -0.133204 -0.132381 -0.129638 -0.125156 -0.118963 -0.11147 -0.102517 -0.0919873 -0.0802429 -0.0672872 -0.054016 -0.0413555 -0.0299861 -0.0206166 -0.0131937 -0.00777355 -0.00425656 -0.00216257 -0.00107655 -0.000547635 -0.000282765 -0.000158471 -9.26736e-05 -5.51559e-05 -3.45758e-05 -1.40567e-05 0 0 
0 0 -8.9992e-06 -2.20758e-05 -3.57995e-05 -6.27627e-05 -0.000113005 -0.000209885 -0.000420905 -0.000848244 -0.00170452 -0.00331866 -0.00599952 -0.0102362 -0.0164456 -0.0248401 -0.0355025 -0.0476892 -0.0607261 -0.0739166 -0.0863897 -0.097929 -0.10786 -0.115963 -0.122329 -0.126803 -0.129959 -0.131944 -0.13292 -0.133004 -0.13182 -0.129709 -0.126722 -0.123273 -0.119693 -0.116007 -0.112543 -0.109166 -0.106165 -0.103611 -0.101461 -0.0996897 -0.0982581 -0.0971339 -0.0961486 -0.0950809 -0.0935867 -0.0912082 -0.0876728 -0.0824993 -0.0756646 -0.0670662 -0.0567523 -0.0447738 -0.0311733 -0.0159971 0.000730558 0.0189291 0.0384864 0.0591205 0.0805639 0.102575 0.124666 0.146572 0.167937 0.188426 0.207656 0.225091 0.240157 0.252422 0.26152 0.267159 0.269207 0.267806 0.263585 0.257102 0.248335 0.236521 0.220632 0.200272 0.176553 0.151882 0.128704 0.108058 0.0897254 0.0730701 0.0583069 0.046272 0.037912 0.0332945 0.0321521 0.0342217 0.0390516 0.0456113 0.052506 0.0586543 0.0636995 0.0677346 0.0709964 0.074181 0.0779584 0.0823001 0.0861786 0.0876228 0.0844551 0.0755201 0.0615958 0.0458434 0.0325362 0.0248709 0.0237487 0.0280393 0.0359091 0.0460962 0.0585189 0.0733665 0.0907351 0.11009 0.130772 0.15204 0.173293 0.193836 0.213067 0.230524 0.245652 0.25766 0.265892 0.270201 0.270833 0.268042 0.261966 0.252538 0.239962 0.224723 0.207406 0.188481 0.168218 0.146923 0.125013 0.103006 0.0811217 0.0597466 0.0390746 0.0194733 0.00115235 -0.0158112 -0.0312545 -0.0450603 -0.0570834 -0.0673082 -0.0757044 -0.0822957 -0.0873399 -0.0908659 -0.0933171 -0.0948196 -0.0957993 -0.0966323 -0.0975913 -0.0989213 -0.100581 -0.102639 -0.105037 -0.107908 -0.111162 -0.114539 -0.118138 -0.121653 -0.12505 -0.127998 -0.130118 -0.131301 -0.131283 -0.130343 -0.128393 -0.125245 -0.12082 -0.11452 -0.106525 -0.0967023 -0.0853058 -0.0729751 -0.0599498 -0.0470675 -0.0350317 -0.0245058 -0.0162106 -0.0100798 -0.00589978 -0.00325846 -0.00167058 -0.000828405 -0.000409665 -0.000205105 -0.000112339 -6.47706e-05 -4.03423e-05 -1.72126e-05 0 0 
0 0 -1.20525e-05 -2.90696e-05 -5.35051e-05 -0.00010707 -0.000222205 -0.000475084 -0.000963387 -0.00183554 -0.00331303 -0.00557384 -0.00890812 -0.0135536 -0.019544 -0.0270848 -0.0360193 -0.0461987 -0.0573636 -0.0685903 -0.0794263 -0.0891658 -0.0974469 -0.104445 -0.109925 -0.114179 -0.11713 -0.118816 -0.119568 -0.11948 -0.118982 -0.118162 -0.117046 -0.115836 -0.114597 -0.113666 -0.113065 -0.112889 -0.113097 -0.113385 -0.113674 -0.113356 -0.112106 -0.109322 -0.104531 -0.0975687 -0.0880342 -0.0760926 -0.0616186 -0.0447737 -0.0257028 -0.00476976 0.0176131 0.0408671 0.0641667 0.0869927 0.108638 0.128717 0.146853 0.16284 0.176593 0.188171 0.197754 0.20539 0.211371 0.215798 0.218935 0.220767 0.221164 0.220025 0.217378 0.213396 0.208284 0.202455 0.195838 0.188151 0.178276 0.165034 0.147796 0.127314 0.105561 0.0847613 0.0659526 0.0489389 0.0331174 0.0186295 0.00619266 -0.00352861 -0.0104915 -0.0148537 -0.0162388 -0.0142465 -0.00896219 -0.00124672 0.0077895 0.0173003 0.02664 0.0353498 0.0433753 0.0507347 0.0573077 0.0614608 0.0614935 0.0554391 0.0429917 0.0258274 0.007637 -0.00743724 -0.01679 -0.0202569 -0.0193937 -0.0159424 -0.0105429 -0.00303324 0.00693166 0.0191834 0.0334097 0.0494747 0.0670242 0.08559 0.104569 0.12345 0.141611 0.158504 0.173401 0.185874 0.19592 0.204029 0.21047 0.215494 0.218931 0.220805 0.221296 0.220683 0.219003 0.216095 0.211787 0.205811 0.198255 0.188752 0.177182 0.163355 0.147291 0.129026 0.108695 0.086799 0.0638025 0.0405114 0.0174283 -0.00469242 -0.0254014 -0.0443507 -0.0612739 -0.0757808 -0.0877155 -0.0970983 -0.103896 -0.108549 -0.111246 -0.112473 -0.112725 -0.112345 -0.111964 -0.111685 -0.111782 -0.112322 -0.113194 -0.114405 -0.115582 -0.116701 -0.117545 -0.118086 -0.118248 -0.117594 -0.115902 -0.112943 -0.108712 -0.10326 -0.0963376 -0.0881245 -0.0784814 -0.0677536 -0.0566419 -0.0456141 -0.0355573 -0.0267294 -0.0192757 -0.0133588 -0.00877532 -0.00548729 -0.00326136 -0.00180577 -0.000947272 -0.000468601 -0.000221178 -0.000110021 -5.67067e-05 -2.29465e-05 0 0 
0 0 -2.15041e-05 -6.0525e-05 -0.000116901 -0.000248046 -0.000533301 -0.00106333 -0.00195133 -0.00336214 -0.00536657 -0.00805783 -0.0114769 -0.0154966 -0.0203241 -0.0259339 -0.0323004 -0.039567 -0.04728 -0.0555271 -0.0638601 -0.0715772 -0.0785586 -0.0841106 -0.088301 -0.0914571 -0.093826 -0.0958347 -0.0974338 -0.0988479 -0.100257 -0.101986 -0.104357 -0.107264 -0.110782 -0.114514 -0.11801 -0.120785 -0.12211 -0.121641 -0.118755 -0.113048 -0.104179 -0.0917746 -0.0756395 -0.0557954 -0.03253 -0.00648194 0.0213592 0.0498851 0.0781026 0.104861 0.129445 0.150978 0.169023 0.183074 0.192953 0.198582 0.200203 0.19815 0.192886 0.185286 0.175908 0.165739 0.155408 0.145611 0.136923 0.129596 0.123851 0.119529 0.116681 0.115509 0.116361 0.118969 0.122479 0.125036 0.124788 0.120419 0.112369 0.102323 0.0922407 0.0830195 0.0742392 0.0650956 0.055614 0.0468381 0.0395269 0.0338686 0.0294324 0.0264559 0.0255451 0.027171 0.0314194 0.0381343 0.0471879 0.0582634 0.0703896 0.0829367 0.0950068 0.105554 0.112418 0.113448 0.107079 0.093671 0.0755828 0.0571786 0.0422568 0.0328979 0.0283461 0.0266586 0.0264442 0.0273604 0.0298917 0.0343609 0.0403588 0.0475607 0.0556275 0.0644711 0.0737461 0.0832174 0.0926023 0.101494 0.109249 0.115025 0.118465 0.119726 0.119679 0.119066 0.118588 0.118492 0.119176 0.121029 0.124632 0.130117 0.137406 0.146062 0.155852 0.166264 0.176496 0.185868 0.19335 0.198498 0.200379 0.198527 0.192665 0.182667 0.168727 0.150926 0.129699 0.105336 0.0786492 0.050352 0.0217608 -0.00604655 -0.0319425 -0.0550538 -0.0748304 -0.090939 -0.103344 -0.112182 -0.117853 -0.120698 -0.121151 -0.119796 -0.116981 -0.113452 -0.109704 -0.106177 -0.103273 -0.100927 -0.0992522 -0.0979092 -0.0965898 -0.0950783 -0.0930687 -0.0906694 -0.087505 -0.0833101 -0.0777873 -0.0708396 -0.0631832 -0.0549061 -0.0467392 -0.0390996 -0.0319094 -0.0256075 -0.0200578 -0.0152876 -0.0113178 -0.00794397 -0.00529055 -0.00331524 -0.00192536 -0.00105107 -0.000530998 -0.00025439 -0.000131003 -4.76851e-05 0 0 
0 0 -3.70789e-05 -0.00010678 -0.000212647 -0.000440638 -0.000903136 -0.00168526 -0.00290001 -0.00469523 -0.00695824 -0.00972157 -0.0128694 -0.016023 -0.0195475 -0.0230849 -0.0267587 -0.0311052 -0.0354791 -0.0405344 -0.0456767 -0.0505572 -0.0554564 -0.059341 -0.0628664 -0.0657881 -0.0682475 -0.0711694 -0.0741715 -0.0782393 -0.0831636 -0.088853 -0.0955683 -0.102308 -0.109068 -0.114803 -0.118845 -0.120489 -0.118514 -0.112679 -0.101724 -0.0857213 -0.0645765 -0.0387703 -0.00939979 0.0228779 0.056431 0.090403 0.123126 0.153258 0.179615 0.200917 0.216668 0.226179 0.229616 0.226976 0.218839 0.20594 0.189251 0.169956 0.149065 0.12801 0.10753 0.0890454 0.0730251 0.0602777 0.051007 0.0455585 0.043842 0.0453936 0.0503318 0.0584618 0.0702206 0.0847912 0.100482 0.114081 0.12316 0.126541 0.125946 0.124041 0.122864 0.121944 0.11959 0.114656 0.107971 0.101466 0.0958613 0.090897 0.0859329 0.0816099 0.0787559 0.0778644 0.0789138 0.082667 0.0896924 0.100371 0.113536 0.128337 0.143019 0.15511 0.161038 0.158213 0.146145 0.127524 0.107243 0.0911646 0.0822182 0.079954 0.0807758 0.0820358 0.0827615 0.0840323 0.0868788 0.0914365 0.0967792 0.102391 0.107812 0.113004 0.117549 0.121355 0.124451 0.126264 0.125955 0.122426 0.115559 0.105817 0.0947889 0.0833478 0.0724228 0.0622588 0.0537705 0.0477144 0.0453042 0.0466761 0.0518711 0.060838 0.0734658 0.0895683 0.10816 0.128522 0.149368 0.170094 0.189189 0.205608 0.218305 0.226548 0.229547 0.226553 0.217365 0.201729 0.180317 0.153748 0.123579 0.0910018 0.0572625 0.0238001 -0.00847569 -0.0379459 -0.0637729 -0.0849097 -0.100897 -0.111858 -0.117757 -0.119724 -0.118104 -0.114056 -0.108366 -0.101619 -0.094934 -0.0882529 -0.0826441 -0.077791 -0.0738287 -0.0708932 -0.0679722 -0.0654664 -0.0625104 -0.0589628 -0.055068 -0.050164 -0.0452886 -0.0401618 -0.0351322 -0.0307824 -0.0264631 -0.0228119 -0.0193064 -0.0158167 -0.0127003 -0.00959315 -0.00686635 -0.00463434 -0.00286423 -0.00166727 -0.000900077 -0.000451254 -0.000234408 -8.62237e-05 0 0 
0 0 -6.33246e-05 -0.000177232 -0.000340588 -0.000666911 -0.00128047 -0.00223756 -0.00362463 -0.00555756 -0.0077977 -0.0103703 -0.0130845 -0.0153786 -0.0176416 -0.0192909 -0.0206056 -0.0221757 -0.0231203 -0.0247234 -0.0263623 -0.0280451 -0.0307176 -0.0331804 -0.0366227 -0.0404428 -0.044653 -0.0501848 -0.0562751 -0.0639253 -0.0723981 -0.081242 -0.0902096 -0.0976878 -0.103479 -0.105915 -0.104178 -0.0976939 -0.0853793 -0.0678078 -0.0443517 -0.016199 0.0160662 0.0511206 0.0869856 0.122403 0.155093 0.183974 0.207482 0.224745 0.23525 0.238622 0.235606 0.226294 0.212008 0.193468 0.171913 0.148532 0.124429 0.100976 0.0789712 0.0595849 0.0432164 0.0308831 0.0225402 0.0183846 0.0182225 0.0219904 0.0294481 0.0399471 0.0534581 0.0698824 0.0898051 0.112092 0.134468 0.15281 0.164235 0.168129 0.16749 0.16619 0.166278 0.1664 0.163595 0.156536 0.146825 0.137114 0.128274 0.119553 0.110211 0.101387 0.0939907 0.088521 0.0847654 0.0840291 0.0876531 0.0963651 0.108972 0.124184 0.139471 0.151262 0.154887 0.148333 0.132409 0.111979 0.0931348 0.0817307 0.0793629 0.0835535 0.0897233 0.0954207 0.100179 0.10545 0.112081 0.120395 0.129346 0.138271 0.146599 0.15396 0.160048 0.165093 0.169113 0.17132 0.17046 0.165277 0.155465 0.14175 0.126006 0.109152 0.0919501 0.0744626 0.0578195 0.0430436 0.0316248 0.0236718 0.0193986 0.0190139 0.0229279 0.031396 0.0438221 0.0600141 0.0791134 0.100931 0.124192 0.148053 0.171365 0.193221 0.212299 0.227063 0.236638 0.239619 0.236001 0.225239 0.207981 0.184674 0.155994 0.123369 0.0878711 0.0519182 0.0167949 -0.0154611 -0.0436381 -0.0671312 -0.0847943 -0.0971325 -0.103693 -0.10547 -0.103123 -0.0973912 -0.0900052 -0.0811013 -0.0723384 -0.0639316 -0.0563549 -0.050307 -0.0447915 -0.0405507 -0.0367076 -0.0332283 -0.0307152 -0.0280116 -0.0262774 -0.0246085 -0.0229744 -0.0220017 -0.0204122 -0.0190918 -0.0174419 -0.0151926 -0.0129218 -0.0102392 -0.00769996 -0.00548951 -0.0035829 -0.00221609 -0.00127834 -0.000684115 -0.000374234 -0.000142895 0 0 
0 0 -0.000100445 -0.000269077 -0.000489273 -0.000896494 -0.00160635 -0.00264206 -0.00405243 -0.0058987 -0.00788745 -0.0100769 -0.0121972 -0.0135914 -0.0146893 -0.0146844 -0.0138171 -0.0127297 -0.0105644 -0.00898404 -0.00766658 -0.00712754 -0.00843456 -0.0105156 -0.0148533 -0.0207925 -0.0281188 -0.0373356 -0.0468388 -0.0570762 -0.0666918 -0.0747353 -0.0806435 -0.0824637 -0.080046 -0.0717471 -0.0574787 -0.0372281 -0.0109673 0.019557 0.0535865 0.0886455 0.123259 0.155489 0.183476 0.206286 0.222218 0.231392 0.233062 0.227797 0.216171 0.19923 0.178707 0.155706 0.132307 0.109411 0.0884237 0.0698769 0.0543426 0.042376 0.0337871 0.0288443 0.0271463 0.0289164 0.0335122 0.0407293 0.0498815 0.0609288 0.0734983 0.0872314 0.102261 0.11907 0.138598 0.159775 0.180032 0.194698 0.200739 0.198247 0.191425 0.185246 0.181937 0.179117 0.172807 0.161413 0.147086 0.133099 0.120249 0.107381 0.093623 0.0804994 0.0691917 0.0600648 0.0525955 0.0484413 0.049327 0.0562854 0.0678646 0.0824199 0.096703 0.106422 0.106992 0.0971985 0.0798552 0.0607344 0.0456855 0.0391959 0.0411919 0.0487835 0.0580197 0.067494 0.0766552 0.0863259 0.0968952 0.108889 0.121636 0.134602 0.146887 0.158015 0.167933 0.177256 0.185997 0.193091 0.19713 0.196527 0.190904 0.181094 0.168997 0.155403 0.140664 0.124384 0.107491 0.091088 0.0763133 0.0630412 0.051261 0.0413513 0.0338364 0.029394 0.0277269 0.0292216 0.0338272 0.0422258 0.0540286 0.0693925 0.0880218 0.109481 0.13294 0.156743 0.179837 0.200225 0.216906 0.228336 0.233643 0.232142 0.223061 0.207112 0.184231 0.156193 0.12389 0.0892386 0.0541265 0.020032 -0.0105796 -0.0369341 -0.05729 -0.0716794 -0.0800628 -0.082592 -0.0808543 -0.075033 -0.067044 -0.0574755 -0.0472723 -0.0377738 -0.0285861 -0.0212639 -0.0153058 -0.010935 -0.00879359 -0.0074233 -0.00788602 -0.00912103 -0.0106283 -0.0127051 -0.0137368 -0.0145622 -0.0145444 -0.013444 -0.0120572 -0.00996005 -0.00779415 -0.00582987 -0.00400964 -0.00262088 -0.00160798 -0.000922993 -0.00053768 -0.000214325 0 0 
0 0 -0.000144089 -0.000370245 -0.000638044 -0.00109877 -0.00184135 -0.00285886 -0.00417083 -0.0057929 -0.00738944 -0.00895752 -0.0102122 -0.0105993 -0.0104845 -0.00889993 -0.0060914 -0.00280903 0.00146676 0.00479691 0.00736704 0.00851866 0.00687575 0.00330866 -0.00327827 -0.0119628 -0.0219934 -0.0330852 -0.0429636 -0.0513145 -0.0563511 -0.0567888 -0.052037 -0.040534 -0.0228367 0.00140389 0.0308109 0.0638477 0.0990447 0.133683 0.166261 0.194125 0.215771 0.229885 0.235477 0.233038 0.222598 0.205917 0.184257 0.159554 0.133678 0.108149 0.0848294 0.0645097 0.0486019 0.0371799 0.0306351 0.0284016 0.0299973 0.0349638 0.042149 0.0511803 0.0611104 0.0718475 0.082653 0.0932315 0.10314 0.112423 0.12132 0.129888 0.138851 0.149262 0.162558 0.177848 0.192378 0.200994 0.200571 0.191659 0.179598 0.170161 0.165434 0.162264 0.155588 0.143369 0.128142 0.113362 0.0998683 0.0860651 0.0711432 0.0567313 0.04444 0.0342967 0.0259058 0.0207496 0.020739 0.0268924 0.0375798 0.050632 0.0623628 0.0686336 0.0657033 0.0540753 0.037802 0.0226023 0.0124898 0.00965668 0.0129266 0.0202316 0.0295221 0.0404181 0.0521587 0.064022 0.0759506 0.0885745 0.101901 0.115364 0.128042 0.139337 0.149699 0.160047 0.170649 0.180449 0.187747 0.190997 0.189821 0.185121 0.179041 0.172121 0.164458 0.155178 0.144901 0.134462 0.124667 0.114903 0.104645 0.0938273 0.0829304 0.072327 0.0617341 0.0515357 0.0421303 0.0347944 0.0297344 0.0280615 0.0305273 0.037585 0.0495082 0.0655912 0.0857915 0.108975 0.134348 0.160179 0.184943 0.206661 0.223308 0.23368 0.236103 0.230498 0.21632 0.194568 0.166616 0.133936 0.0991951 0.0638811 0.0306956 0.00114486 -0.023196 -0.0410114 -0.0525889 -0.057418 -0.0569959 -0.0519656 -0.0435938 -0.0336711 -0.0226212 -0.012614 -0.00396061 0.00265129 0.00625131 0.00796994 0.0068946 0.00443558 0.00121097 -0.00295531 -0.00614653 -0.00888453 -0.0104136 -0.0105085 -0.0101105 -0.00886302 -0.00730885 -0.00573069 -0.00413249 -0.00284208 -0.00184969 -0.00113695 -0.00070172 -0.000289702 0 0 
0 0 -0.000188742 -0.000466035 -0.000762682 -0.00124534 -0.00197212 -0.00290054 -0.00400689 -0.0052629 -0.00634925 -0.00717313 -0.00737865 -0.00648878 -0.00487387 -0.00195131 0.00195826 0.00626418 0.011037 0.0143436 0.0160477 0.0152327 0.011153 0.00487281 -0.00390312 -0.0134846 -0.0227226 -0.0304899 -0.034203 -0.0331298 -0.0252794 -0.0101873 0.0119036 0.0407236 0.074172 0.110755 0.147715 0.182326 0.212319 0.234971 0.249162 0.253555 0.248369 0.234195 0.212371 0.185056 0.154176 0.122572 0.0922432 0.065429 0.0435442 0.0273989 0.0175489 0.0135797 0.0153127 0.0217415 0.0319092 0.0444746 0.058179 0.071997 0.0846498 0.0957143 0.10459 0.111572 0.116548 0.119739 0.121425 0.122221 0.122899 0.12408 0.126813 0.132656 0.142934 0.156847 0.170934 0.179531 0.178993 0.170301 0.159427 0.152514 0.151682 0.152862 0.150196 0.141225 0.128558 0.115962 0.104197 0.0914938 0.0771194 0.0629419 0.0507951 0.0408952 0.0326513 0.0274892 0.0272672 0.0326188 0.0415376 0.051491 0.0589554 0.0605835 0.0543602 0.0427523 0.0301239 0.0208455 0.0163165 0.0163132 0.0193804 0.0250126 0.0332437 0.0445326 0.0575984 0.0707616 0.083123 0.0952187 0.107216 0.118622 0.128606 0.136793 0.14376 0.150627 0.157968 0.164877 0.16968 0.170578 0.167479 0.161722 0.155579 0.149868 0.144557 0.138978 0.133584 0.129318 0.126671 0.124967 0.123062 0.120381 0.116871 0.112139 0.105313 0.0960934 0.0846313 0.0718101 0.0579979 0.0444085 0.0321606 0.0224831 0.0163545 0.0145138 0.0182254 0.0279553 0.044108 0.0660897 0.0929724 0.123255 0.154731 0.18552 0.212853 0.234682 0.248771 0.253803 0.249268 0.234935 0.212152 0.18202 0.147259 0.11017 0.0734827 0.0399737 0.0111042 -0.0109861 -0.026063 -0.0338669 -0.0349041 -0.031131 -0.02338 -0.0141684 -0.00461769 0.00413674 0.0104229 0.014539 0.0154206 0.0138212 0.0106233 0.00597198 0.00176675 -0.00205139 -0.0048998 -0.00647055 -0.00732895 -0.0071127 -0.00629044 -0.00521476 -0.00397755 -0.00289147 -0.00198924 -0.00129533 -0.000839951 -0.000357378 0 0 
0 0 -0.00022849 -0.000544984 -0.000849487 -0.0013175 -0.0019799 -0.00277081 -0.003607 -0.00436367 -0.00477953 -0.0047504 -0.00390301 -0.00187892 0.00106637 0.00495776 0.00905692 0.0127693 0.0157802 0.0167095 0.0153518 0.0112053 0.00451774 -0.00331805 -0.0111238 -0.0166541 -0.0182211 -0.0142171 -0.00308923 0.0155692 0.0421157 0.0752871 0.11329 0.153533 0.192528 0.227393 0.25494 0.273012 0.280181 0.275709 0.260406 0.235476 0.203602 0.167448 0.130106 0.0944629 0.0626833 0.0368301 0.0179765 0.00678185 0.00306127 0.00608535 0.0145902 0.0269784 0.0417532 0.0572864 0.0722952 0.0856217 0.0964825 0.104379 0.108958 0.11045 0.10923 0.106209 0.101997 0.0971124 0.0922182 0.0881298 0.0856344 0.0854048 0.0885933 0.0965285 0.110486 0.129228 0.148592 0.162333 0.166463 0.162217 0.155885 0.154135 0.158892 0.165536 0.167684 0.16258 0.152756 0.142029 0.131332 0.119063 0.104647 0.0899704 0.0772067 0.0667551 0.0581472 0.0526108 0.0516156 0.0550841 0.0606387 0.0655117 0.0669514 0.0632763 0.0547841 0.0450301 0.0380524 0.0358005 0.0369698 0.0396835 0.0430017 0.0478336 0.0557296 0.0675848 0.0819757 0.0968913 0.110982 0.12395 0.135596 0.145442 0.15298 0.158013 0.161187 0.163701 0.166307 0.168262 0.167853 0.163226 0.154319 0.142953 0.131522 0.12107 0.111756 0.103127 0.0958678 0.0911623 0.0898304 0.0911274 0.094045 0.0979499 0.102498 0.106964 0.110032 0.110812 0.108863 0.1042 0.0964615 0.0858606 0.0728915 0.0581912 0.0427152 0.0276425 0.0149437 0.00641711 0.00356453 0.00744705 0.0186697 0.0374034 0.0630689 0.0947553 0.130384 0.167711 0.203747 0.235472 0.260222 0.275359 0.279661 0.272375 0.254187 0.226561 0.191637 0.15263 0.11241 0.074446 0.0413384 0.0148285 -0.00380197 -0.0149497 -0.0188824 -0.0172963 -0.0117641 -0.00399283 0.00382894 0.0105135 0.014691 0.0161163 0.0152678 0.0123611 0.00874061 0.00474605 0.000939709 -0.00193838 -0.00391185 -0.00473342 -0.00475094 -0.0043366 -0.00359134 -0.00277211 -0.00200668 -0.00137719 -0.000935783 -0.000409902 0 0 
0 0 -0.000257342 -0.000597223 -0.000892773 -0.00131479 -0.00185285 -0.00243613 -0.00296108 -0.00319393 -0.00288412 -0.00190729 -6.72371e-05 0.00255754 0.00586382 0.00959704 0.0126807 0.014325 0.0136371 0.0103588 0.00520942 -0.00122938 -0.00712986 -0.0108078 -0.0103295 -0.00344867 0.011046 0.0343024 0.0656479 0.103596 0.145741 0.188603 0.229126 0.263531 0.288768 0.302529 0.303203 0.291137 0.267348 0.234357 0.195359 0.15374 0.113095 0.0763205 0.0460553 0.0236933 0.00990974 0.00455707 0.0065792 0.0146843 0.0270056 0.0418753 0.0572901 0.0716781 0.0837579 0.092747 0.0982084 0.10011 0.0988242 0.0946146 0.0883259 0.0804933 0.0721198 0.0642204 0.0573837 0.0522025 0.0488204 0.0478829 0.0495559 0.054517 0.0632768 0.0772777 0.0972192 0.121691 0.145864 0.163349 0.170051 0.167706 0.162896 0.16275 0.169181 0.177483 0.181054 0.176736 0.167146 0.155864 0.14412 0.13051 0.114701 0.0986204 0.0845527 0.072941 0.0637461 0.0576523 0.0555638 0.0563914 0.0574212 0.0559904 0.0508582 0.0423122 0.0330415 0.0266481 0.0259819 0.0300882 0.0360056 0.0412112 0.0455988 0.0508616 0.0591533 0.0713004 0.086571 0.103303 0.120223 0.135991 0.149498 0.160073 0.167676 0.172306 0.17489 0.176444 0.177888 0.178416 0.176178 0.16926 0.157471 0.142772 0.127325 0.112395 0.0979601 0.083897 0.0709479 0.0607469 0.054166 0.0512055 0.0509156 0.0533487 0.058182 0.0650902 0.0729027 0.0807896 0.0882004 0.0944907 0.0989866 0.100653 0.0990209 0.0936483 0.0844495 0.0719643 0.0573799 0.0420794 0.0274821 0.015318 0.00719369 0.00499786 0.0101704 0.0238163 0.0460832 0.0762414 0.112887 0.153389 0.194857 0.233682 0.266526 0.290216 0.302249 0.301562 0.287825 0.26263 0.228287 0.187811 0.144976 0.10279 0.0647502 0.0332399 0.0101647 -0.00415177 -0.0109189 -0.0113554 -0.00767655 -0.00178089 0.00464168 0.00980694 0.0131124 0.013854 0.0122907 0.00929599 0.00565053 0.00242074 -0.000141966 -0.00193911 -0.00289092 -0.00319159 -0.00296173 -0.00245041 -0.00188995 -0.00138159 -0.000982142 -0.000440785 0 0 
0 0 -0.000272356 -0.00061496 -0.000881425 -0.0012331 -0.0016101 -0.00191851 -0.00205286 -0.0017624 -0.000888668 0.000743159 0.00323291 0.00591696 0.00843991 0.0101357 0.0100979 0.00830102 0.0039078 -0.00208837 -0.00785912 -0.0115337 -0.00953698 -0.000136556 0.0182114 0.0458736 0.0814347 0.123781 0.169687 0.215731 0.25782 0.291393 0.313677 0.321908 0.315902 0.296361 0.26531 0.226425 0.183003 0.139489 0.0992122 0.0651683 0.0395757 0.0229586 0.0156811 0.016373 0.02366 0.0353823 0.0492793 0.0633841 0.0757422 0.0854768 0.0914952 0.0937394 0.0921884 0.087504 0.0805117 0.0719159 0.0628555 0.0536662 0.04521 0.0376583 0.0315739 0.027305 0.0251517 0.0249989 0.0267387 0.0305939 0.0365272 0.0451153 0.056841 0.0732477 0.094792 0.119983 0.143786 0.159941 0.164544 0.159666 0.152486 0.15027 0.155151 0.162279 0.165186 0.160529 0.150449 0.138356 0.125581 0.111031 0.0946726 0.07824 0.0640019 0.0524173 0.0438255 0.0381596 0.0356198 0.0338961 0.0302885 0.0226704 0.0116917 -0.000136643 -0.0086343 -0.0108395 -0.00605228 0.00255824 0.0113762 0.018249 0.0238898 0.0297956 0.0380127 0.0490176 0.0632763 0.0800053 0.0983158 0.116059 0.131393 0.143171 0.151401 0.156507 0.159776 0.162398 0.165257 0.167313 0.166769 0.161626 0.151712 0.138506 0.124057 0.109585 0.0948274 0.0796946 0.0648146 0.0518865 0.0416488 0.0343343 0.029235 0.0265059 0.026155 0.0281833 0.032181 0.0377799 0.0450592 0.0536645 0.0632673 0.0726947 0.0813968 0.0882134 0.0925186 0.0937253 0.0914361 0.085638 0.0761394 0.0638389 0.0496531 0.0356263 0.0237619 0.0163331 0.0154485 0.0225347 0.0389907 0.0644767 0.0984133 0.138581 0.182006 0.225397 0.264296 0.295413 0.315018 0.321094 0.312881 0.290574 0.256877 0.214594 0.168257 0.122021 0.0799517 0.0447871 0.0174228 -0.000704549 -0.00998791 -0.0119393 -0.00826462 -0.0025185 0.00346579 0.00786501 0.00970648 0.00979581 0.00816883 0.0057173 0.00310018 0.000663986 -0.000932546 -0.00178763 -0.00207336 -0.00194682 -0.00165598 -0.00130394 -0.000969015 -0.000444191 0 0 
0 0 -0.00027287 -0.000596621 -0.000810465 -0.00106005 -0.00125889 -0.00128645 -0.00101276 -0.000212661 0.00103698 0.00273544 0.00488066 0.00651348 0.00715496 0.005733 0.00163043 -0.00356144 -0.00929343 -0.0126268 -0.0106651 -0.00150879 0.01815 0.048187 0.0883453 0.136089 0.18661 0.236153 0.279079 0.311545 0.33047 0.333513 0.321288 0.294622 0.257025 0.212569 0.165737 0.121607 0.0833696 0.0543036 0.0354221 0.0268617 0.0275848 0.0350631 0.0472828 0.061063 0.0745151 0.0854996 0.0928604 0.0961448 0.0951349 0.0906928 0.0831636 0.0738532 0.0633151 0.0525885 0.0425064 0.0334814 0.0263519 0.020875 0.0174785 0.0154164 0.0149034 0.0154899 0.0171366 0.019496 0.0223707 0.0260287 0.030474 0.0367196 0.0454811 0.0588205 0.0770617 0.0988408 0.118945 0.131523 0.132895 0.125519 0.116605 0.11346 0.118114 0.12582 0.130247 0.127761 0.120084 0.109905 0.0987635 0.0858919 0.0716847 0.0574385 0.0453016 0.0358661 0.0294178 0.0254288 0.0228195 0.0187317 0.0106696 -0.00224745 -0.0173273 -0.0303866 -0.0367698 -0.0349336 -0.0263787 -0.0155238 -0.00545003 0.00250285 0.00925636 0.0157121 0.0229089 0.0314241 0.0424982 0.0564812 0.0728866 0.0893549 0.103885 0.114651 0.121407 0.124494 0.125998 0.12739 0.129636 0.131613 0.131623 0.127824 0.120012 0.10961 0.0983154 0.0873459 0.0762117 0.0649125 0.053697 0.0441334 0.0362812 0.0302968 0.0252763 0.0212601 0.0182149 0.0162181 0.0152044 0.0153564 0.0173688 0.0210734 0.0269923 0.0343566 0.043281 0.0529982 0.0633162 0.0736625 0.0830929 0.0908555 0.095403 0.0963836 0.0929531 0.0854819 0.074373 0.0607385 0.0467205 0.0342786 0.0266689 0.0258862 0.0344168 0.0532829 0.0823792 0.120647 0.164834 0.211724 0.256211 0.293782 0.320332 0.332346 0.328998 0.309675 0.276767 0.23339 0.184179 0.134202 0.0869639 0.0472287 0.0175033 -0.00195145 -0.0110018 -0.0129309 -0.00959056 -0.00388746 0.00130917 0.00541858 0.00687779 0.00628881 0.00470931 0.00261634 0.000957391 -0.000266589 -0.00105425 -0.00132875 -0.0013114 -0.00113003 -0.000890338 -0.000420387 0 0 
0 0 -0.000256621 -0.000542909 -0.000690082 -0.000808494 -0.000803126 -0.000577197 -2.88454e-05 0.0010478 0.00236867 0.0035548 0.00425123 0.0033865 0.00103957 -0.00308023 -0.00867392 -0.0127163 -0.0130912 -0.00524054 0.0140442 0.0451419 0.0883316 0.139078 0.193424 0.2462 0.291264 0.324758 0.341762 0.340864 0.322483 0.288639 0.244768 0.195326 0.146377 0.102683 0.0675737 0.0439252 0.0315397 0.030211 0.0374053 0.0504362 0.0663404 0.0816598 0.0944652 0.10247 0.105409 0.102956 0.0959757 0.0858999 0.0736368 0.06137 0.0496122 0.0397708 0.0317455 0.0256489 0.0213317 0.0182296 0.0163672 0.0149553 0.0141218 0.0131318 0.0121264 0.0109086 0.00960526 0.00829924 0.00702155 0.00629326 0.00656667 0.00902179 0.0149113 0.0261159 0.0429956 0.0637842 0.0832973 0.0956327 0.0974501 0.0912442 0.0841975 0.0832005 0.0901263 0.100495 0.108252 0.109699 0.105891 0.0989577 0.0904325 0.0799938 0.0685125 0.0570374 0.0475357 0.0403078 0.0357613 0.0326666 0.0289744 0.0215064 0.0087472 -0.00849393 -0.0259032 -0.0384086 -0.0420806 -0.0369674 -0.0264227 -0.014763 -0.00397788 0.00538576 0.0139081 0.0214713 0.0284374 0.0352698 0.0436353 0.0542657 0.0674477 0.0811571 0.0936848 0.102651 0.107171 0.10736 0.105573 0.103734 0.102924 0.102153 0.0997548 0.0939219 0.0847286 0.0735413 0.0620526 0.051316 0.0411934 0.0317724 0.0233976 0.0171844 0.0131254 0.0110533 0.0101709 0.0101752 0.0106179 0.0113253 0.0121222 0.0129578 0.0141323 0.0153829 0.0171361 0.0190421 0.021834 0.0257104 0.0314891 0.0395432 0.0496202 0.0615273 0.0737251 0.0858146 0.0957439 0.102636 0.104959 0.101856 0.0936334 0.0806575 0.0652642 0.0493595 0.0363829 0.029262 0.0306987 0.0431256 0.0668067 0.101869 0.14548 0.194194 0.243337 0.286769 0.320175 0.338057 0.338549 0.321177 0.287927 0.243333 0.191118 0.137327 0.0870997 0.0443376 0.0135511 -0.00554118 -0.0133063 -0.0129194 -0.00888054 -0.00331292 0.000812109 0.00317674 0.00406728 0.00341038 0.00226143 0.000968852 -8.90875e-05 -0.000632095 -0.000860733 -0.000873186 -0.000754789 -0.000371957 0 0 
0 0 -0.000222244 -0.000452467 -0.000527414 -0.000517017 -0.000315331 0.000122227 0.000756535 0.00163407 0.00233031 0.00231877 0.00108215 -0.00234424 -0.00692842 -0.0111223 -0.0125088 -0.0066432 0.00880524 0.0371088 0.0787557 0.130766 0.189436 0.246504 0.295166 0.329336 0.344415 0.340367 0.317426 0.279469 0.23147 0.178794 0.128423 0.0848046 0.0524922 0.0333042 0.0269345 0.0321348 0.0448887 0.0621325 0.0795591 0.0942232 0.104206 0.10808 0.106553 0.0999498 0.090116 0.0783208 0.0660514 0.0546205 0.0445591 0.0367358 0.0309862 0.0273867 0.0252661 0.0239388 0.0226685 0.0207093 0.0180177 0.0139448 0.00916944 0.00336107 -0.00275209 -0.00907278 -0.0148032 -0.0197006 -0.0235356 -0.0257206 -0.0258366 -0.0226033 -0.0148934 -0.000984185 0.018893 0.042644 0.0647739 0.0793839 0.0835802 0.079838 0.0751896 0.076013 0.0841431 0.0954997 0.104656 0.108149 0.106439 0.100946 0.093208 0.0835666 0.0733402 0.063482 0.0552786 0.0490492 0.0448078 0.0407535 0.0341563 0.0220743 0.00454145 -0.0158016 -0.0336452 -0.0442941 -0.0452711 -0.0382795 -0.0272414 -0.0155626 -0.00393492 0.00741391 0.018329 0.0278383 0.0360682 0.0433862 0.0510828 0.0600323 0.0708293 0.0825022 0.0938411 0.102455 0.106841 0.1066 0.103889 0.100603 0.0980291 0.0953707 0.0909281 0.0828348 0.0712415 0.0574689 0.0432411 0.0294155 0.016247 0.00425073 -0.00613277 -0.013719 -0.018582 -0.0206051 -0.0203563 -0.0179749 -0.0140345 -0.00893993 -0.00301271 0.0031446 0.0093783 0.0145567 0.0187776 0.021302 0.0228708 0.0237471 0.0249524 0.027222 0.0310441 0.0367631 0.0443373 0.0541724 0.0654522 0.077631 0.0893335 0.09905 0.105558 0.107029 0.103166 0.0932573 0.0786861 0.061392 0.0442206 0.0314329 0.02609 0.0322314 0.0510875 0.0829793 0.126121 0.176 0.228242 0.275914 0.31372 0.336636 0.340688 0.325773 0.291954 0.243784 0.187299 0.129204 0.0777195 0.0364637 0.00844244 -0.00685371 -0.0126504 -0.0112557 -0.0070765 -0.00250737 0.000917243 0.00217348 0.00221023 0.00153939 0.000682456 5.79866e-05 -0.000375208 -0.000574114 -0.000573421 -0.000297645 0 0 
0 0 -0.000173811 -0.000331009 -0.000328529 -0.000216793 8.93984e-05 0.000577939 0.00106358 0.00131823 0.000725215 -0.00106268 -0.00388611 -0.00757906 -0.0098922 -0.00771997 0.00292486 0.0266837 0.0643055 0.114882 0.173391 0.231957 0.283718 0.320499 0.337746 0.333398 0.307823 0.266018 0.213587 0.158384 0.107562 0.0662611 0.0385425 0.0248237 0.0242874 0.0338555 0.0497015 0.0679836 0.0846693 0.097484 0.10442 0.105225 0.100489 0.0912646 0.0797744 0.067532 0.0565414 0.0477465 0.0418104 0.038658 0.0372982 0.0372532 0.0369948 0.0361327 0.03372 0.0293768 0.0231187 0.0149622 0.00556985 -0.00461941 -0.014502 -0.0237654 -0.0314959 -0.0377101 -0.0418354 -0.0439314 -0.0441849 -0.0424126 -0.0386568 -0.0316619 -0.0204077 -0.00355879 0.0185514 0.0432923 0.0653336 0.079235 0.0825136 0.0780236 0.0724451 0.0717624 0.077656 0.086703 0.094308 0.0975495 0.0961645 0.090859 0.0829183 0.0734587 0.0641121 0.0556862 0.0487495 0.0432078 0.0386227 0.0326624 0.0224062 0.00588801 -0.0151648 -0.0363539 -0.0525805 -0.0604129 -0.0593694 -0.0519872 -0.0417896 -0.0306597 -0.0185637 -0.00568327 0.00690866 0.0180653 0.0278509 0.0364039 0.0444138 0.0524351 0.0613294 0.0709929 0.0809325 0.0893856 0.0947243 0.0962952 0.0954312 0.0937708 0.0924963 0.0910731 0.0878979 0.0811694 0.0707722 0.0578984 0.04391 0.0296007 0.0152463 0.00135171 -0.0113973 -0.0221387 -0.0308921 -0.0371988 -0.0412325 -0.0425475 -0.0413776 -0.0378496 -0.0319074 -0.0238927 -0.0140997 -0.00388409 0.00621469 0.0152392 0.0230317 0.0290757 0.0334409 0.0360607 0.0370114 0.037039 0.0367424 0.0378666 0.0409071 0.0467408 0.0554717 0.0664447 0.0787576 0.0903253 0.0996397 0.104458 0.103719 0.0968118 0.0839361 0.0670308 0.0484057 0.0321121 0.0220333 0.022073 0.0353531 0.062759 0.103911 0.154792 0.210265 0.263071 0.304657 0.329965 0.334253 0.317171 0.280757 0.229503 0.171507 0.113562 0.0634728 0.0262064 0.00267828 -0.00786183 -0.0100006 -0.00768749 -0.00400497 -0.00118099 0.000612914 0.00121932 0.000982337 0.000509659 3.19056e-05 -0.000263562 -0.000356934 -0.000201637 0 0 
0 0 -0.000117316 -0.000197746 -0.000128668 4.42703e-05 0.000319633 0.000573141 0.000547829 -7.31505e-05 -0.00182268 -0.00454063 -0.00692389 -0.0067683 -0.000109201 0.0166102 0.0461673 0.0897557 0.143993 0.203186 0.258106 0.298787 0.318584 0.313962 0.287186 0.243576 0.190118 0.135028 0.0849297 0.0459592 0.0214241 0.012073 0.0166107 0.0308596 0.0504394 0.070224 0.0862531 0.0961179 0.0987104 0.0949544 0.0864213 0.0755244 0.0646146 0.0551414 0.0484988 0.0446289 0.0434538 0.0440389 0.0455277 0.046928 0.0472885 0.0458725 0.042198 0.0362294 0.0280389 0.0180718 0.0068122 -0.00504988 -0.0168001 -0.027703 -0.0367944 -0.0436945 -0.0480839 -0.0502109 -0.0499468 -0.0477975 -0.0442168 -0.039675 -0.0339895 -0.0261487 -0.0149128 0.00101181 0.0211468 0.0429179 0.0610807 0.0710693 0.0707535 0.0635232 0.0555382 0.0522704 0.0550002 0.0612187 0.0671323 0.0704153 0.0701609 0.066319 0.0596493 0.051789 0.0447169 0.0391533 0.0347446 0.0306344 0.0258785 0.018114 0.00464878 -0.0149835 -0.0373057 -0.056861 -0.0696133 -0.0743493 -0.0721505 -0.0657011 -0.0571771 -0.0471985 -0.0352752 -0.0220344 -0.00916488 0.00244382 0.0128634 0.0219614 0.0296743 0.0362897 0.0426771 0.0491834 0.0558175 0.0618592 0.0663298 0.0687339 0.0696 0.0700198 0.0706184 0.0711762 0.0702554 0.0664848 0.0596289 0.0506721 0.0401977 0.0291248 0.0174216 0.00569277 -0.00573183 -0.0162205 -0.0259604 -0.0345535 -0.0416447 -0.0468441 -0.049835 -0.0505917 -0.0485424 -0.0437087 -0.0361723 -0.0268961 -0.0163528 -0.00503966 0.00652775 0.0177649 0.0278511 0.0361351 0.0420093 0.0453196 0.0463765 0.0458554 0.0444201 0.0428847 0.0423252 0.0436227 0.0476697 0.0544649 0.0640114 0.0749452 0.0857253 0.0940761 0.0975174 0.0945025 0.0841374 0.0675813 0.0473104 0.0273859 0.0129956 0.00855264 0.0182021 0.0432422 0.0828302 0.133543 0.18832 0.241202 0.284328 0.310813 0.315362 0.295759 0.255466 0.201077 0.142452 0.0887343 0.0455546 0.0162794 -0.00028275 -0.00686725 -0.00700543 -0.00462629 -0.00191362 -0.00016212 0.000469732 0.000507358 0.000268801 1.04579e-05 -0.000140843 -0.000101702 0 0 
0 0 -5.81788e-05 -7.63691e-05 1.47671e-05 0.000165052 0.000271362 7.66949e-05 -0.0006779 -0.00206293 -0.00382908 -0.00468036 -0.00218794 0.00726709 0.0280184 0.0621523 0.108924 0.163327 0.216484 0.259305 0.282936 0.282708 0.258667 0.214758 0.159696 0.102832 0.053077 0.0171538 -0.00221152 -0.00498595 0.00517294 0.0236789 0.0451398 0.0645172 0.078806 0.0859159 0.0861181 0.0805024 0.0710511 0.0604247 0.0504668 0.0432158 0.039322 0.0391864 0.0420585 0.0466231 0.0515969 0.0550995 0.0563612 0.054443 0.0494576 0.0416102 0.0316478 0.0205451 0.0090894 -0.00174011 -0.0116631 -0.0203686 -0.0278697 -0.0340825 -0.0387819 -0.0419062 -0.043614 -0.044169 -0.0435573 -0.0421677 -0.0402899 -0.0383438 -0.0357693 -0.0313479 -0.0233986 -0.010767 0.00601271 0.0241967 0.0389301 0.0460755 0.0441889 0.0365891 0.028796 0.0255936 0.0277564 0.0335272 0.0399545 0.0454841 0.0485252 0.0482664 0.0447737 0.0401637 0.0367531 0.0349838 0.0336635 0.0310461 0.0258134 0.0159239 -0.000299539 -0.0215656 -0.0429928 -0.0591054 -0.0676654 -0.069692 -0.0673151 -0.0625436 -0.0559339 -0.0471864 -0.0359601 -0.0232862 -0.0109348 0.000461298 0.0108781 0.0198594 0.0268987 0.0320075 0.0358097 0.038477 0.0403675 0.0417571 0.0425241 0.0429092 0.0429614 0.0432354 0.043577 0.043769 0.0424898 0.0391478 0.033663 0.0268522 0.0190066 0.0106905 0.00199911 -0.00645774 -0.0142374 -0.0211731 -0.0275784 -0.0334237 -0.0381751 -0.041634 -0.0437632 -0.0446876 -0.044016 -0.0417542 -0.0380185 -0.0333236 -0.0276334 -0.0206071 -0.0119922 -0.00195807 0.00891046 0.0202918 0.0311179 0.0407162 0.0482976 0.0532581 0.0552183 0.0540004 0.0506124 0.0458241 0.0414619 0.0386603 0.0387859 0.0424974 0.0494399 0.0589223 0.0690426 0.0779522 0.0831175 0.0825664 0.0752983 0.0610775 0.0419942 0.0210616 0.00320192 -0.00622089 -0.00276163 0.0171577 0.0528837 0.102068 0.158288 0.212744 0.25617 0.279941 0.280141 0.256725 0.214302 0.161651 0.107759 0.0614335 0.027614 0.00706075 -0.00229836 -0.00475916 -0.00389993 -0.00213234 -0.000742431 2.0509e-05 0.000229659 0.000142499 1.42518e-05 -1.85549e-05 0 0 
0 0 -8.47822e-06 6.86276e-06 5.85779e-05 6.11854e-05 -0.000130823 -0.000747177 -0.00183138 -0.00291453 -0.0025457 0.00207705 0.0141598 0.0368201 0.0716031 0.116194 0.165158 0.208999 0.237121 0.242189 0.220966 0.178135 0.122731 0.0653274 0.0166183 -0.017522 -0.0336635 -0.0325819 -0.0180545 0.00507819 0.0299328 0.0517244 0.0662993 0.0719954 0.0698262 0.061512 0.0508796 0.0406694 0.0334094 0.0305539 0.0316238 0.0362533 0.0422159 0.0483684 0.0531519 0.0556207 0.0556691 0.0529543 0.0483026 0.0418672 0.0345097 0.0264594 0.0182521 0.0102313 0.00242511 -0.00465022 -0.0112374 -0.0171236 -0.0228556 -0.0282016 -0.0331417 -0.0374465 -0.041029 -0.044103 -0.0462456 -0.047877 -0.0489586 -0.04993 -0.0499226 -0.04755 -0.0410692 -0.029516 -0.0137337 0.00328539 0.0169382 0.0235808 0.0221235 0.0160592 0.0101374 0.00829906 0.0107948 0.0165854 0.0237289 0.0314341 0.0377069 0.0409726 0.0406458 0.0391203 0.0388627 0.0402274 0.040958 0.0386382 0.0316537 0.0189548 0.000380881 -0.0211674 -0.0400852 -0.0520167 -0.0566384 -0.0568894 -0.0551694 -0.0521691 -0.0471632 -0.0395515 -0.0292636 -0.0175802 -0.0058334 0.00536968 0.0157991 0.0247853 0.031563 0.0361583 0.0385897 0.0387508 0.0368637 0.0339547 0.0306828 0.0281259 0.0264637 0.026006 0.0258002 0.0251664 0.022635 0.0182684 0.012311 0.00566379 -0.00182588 -0.00977404 -0.0180446 -0.0257233 -0.0321643 -0.0373267 -0.0416374 -0.0451569 -0.0472308 -0.0477519 -0.0466544 -0.0445851 -0.0412979 -0.0371419 -0.0323491 -0.0275813 -0.0228402 -0.0175071 -0.0115759 -0.0048063 0.00219528 0.00973961 0.0174323 0.0253812 0.0333566 0.0408056 0.0473446 0.0520859 0.0549356 0.0550328 0.0526167 0.0476893 0.0413027 0.0349308 0.0298106 0.0281549 0.0305117 0.0373774 0.0474303 0.0581305 0.0667747 0.0694831 0.0644453 0.0506289 0.0295097 0.00527514 -0.017441 -0.0316685 -0.0327754 -0.0168612 0.0168173 0.0649762 0.121711 0.176523 0.218873 0.239854 0.234814 0.206939 0.163509 0.114995 0.070821 0.0363585 0.0139124 0.00194753 -0.00262013 -0.00296924 -0.00187955 -0.000788849 -0.000161559 4.41122e-05 5.70673e-05 2.92684e-05 0 0 
0 0 1.23303e-05 1.78986e-05 -2.11916e-05 -0.000231322 -0.000706666 -0.00139645 -0.00171867 -0.00036038 0.00502501 0.0177751 0.0403894 0.0734406 0.113629 0.153034 0.18271 0.193321 0.179942 0.143986 0.090867 0.0323845 -0.0200718 -0.0570301 -0.0725783 -0.068578 -0.049087 -0.0217775 0.00573084 0.0285879 0.0425166 0.0478787 0.0456767 0.038661 0.0304515 0.0230006 0.0189698 0.0186359 0.0220076 0.0283525 0.0356397 0.0429869 0.0482898 0.0511508 0.0509061 0.0479982 0.0433278 0.0374204 0.0317507 0.0264897 0.0223775 0.0189649 0.0159933 0.012928 0.00885777 0.0040263 -0.00226163 -0.00951475 -0.0179478 -0.0269746 -0.0359357 -0.0442229 -0.0511605 -0.056659 -0.0601121 -0.0620603 -0.0625132 -0.0622551 -0.0604666 -0.0560579 -0.0474662 -0.0340766 -0.0173487 -0.000345363 0.0122815 0.0176619 0.0152366 0.00878057 0.0024313 -0.000447398 3.79795e-05 0.00330908 0.0086391 0.0160938 0.0235477 0.0286794 0.0303768 0.0308029 0.0326782 0.0360127 0.0376395 0.0344652 0.0250901 0.00974847 -0.0098991 -0.0298175 -0.0447423 -0.0520382 -0.0534524 -0.0528009 -0.0520195 -0.05052 -0.0468821 -0.0405671 -0.0318739 -0.0217445 -0.0110155 -0.000292049 0.00981469 0.0185014 0.0251837 0.029814 0.0320046 0.0313001 0.0278599 0.0227384 0.0171959 0.0129515 0.0108266 0.0113093 0.0129283 0.0142209 0.0134557 0.0108102 0.0064245 0.00121164 -0.00531719 -0.013013 -0.0220581 -0.0310039 -0.0390567 -0.0459712 -0.0521584 -0.0575438 -0.0610351 -0.0622109 -0.0605577 -0.0569433 -0.0511419 -0.0437493 -0.0352268 -0.0265649 -0.0181501 -0.00997261 -0.00257923 0.00382511 0.00847566 0.0121949 0.0150343 0.0179557 0.0214674 0.0257398 0.0311187 0.0368548 0.0427778 0.047391 0.0500729 0.0499183 0.0465991 0.0407462 0.0328967 0.0251837 0.0186437 0.0153147 0.0159543 0.0205328 0.0286803 0.0376663 0.0453989 0.0482207 0.043282 0.0296326 0.00686708 -0.0206159 -0.0477944 -0.0671939 -0.0712727 -0.0559967 -0.0195181 0.0323195 0.0901423 0.142679 0.178242 0.191458 0.18093 0.151522 0.112478 0.0726617 0.0399208 0.017519 0.00489542 -0.000428653 -0.00176066 -0.00142541 -0.000727164 -0.000247683 -3.43378e-05 1.83162e-05 0 0 
0 0 -7.52575e-06 -6.10564e-05 -0.000211893 -0.000539095 -0.000936147 -0.000893091 0.000989114 0.00683631 0.0190469 0.0396135 0.0678615 0.100146 0.129315 0.145425 0.141288 0.113255 0.0654822 0.00902958 -0.044686 -0.0835604 -0.102309 -0.100976 -0.0830486 -0.0566552 -0.0280885 -0.0039886 0.0116179 0.0184526 0.0168919 0.0111245 0.00429946 -0.000308013 -0.000216344 0.00398496 0.0120762 0.0213265 0.0297619 0.0359662 0.0385632 0.0385704 0.0361329 0.0329533 0.0297709 0.027265 0.026042 0.0254089 0.025599 0.0255022 0.0250382 0.0234406 0.0204059 0.0157817 0.00924511 0.00144608 -0.00762523 -0.0169428 -0.0265841 -0.0357086 -0.0439524 -0.0506612 -0.0556114 -0.058658 -0.0596317 -0.0592424 -0.057808 -0.0563025 -0.0538126 -0.0493371 -0.0411164 -0.0289262 -0.0142038 -0.000247291 0.00871605 0.0103775 0.00504002 -0.00352866 -0.0112603 -0.0157682 -0.0173819 -0.0163232 -0.0124517 -0.00496178 0.00413988 0.0119055 0.0164466 0.0197678 0.0242051 0.0295438 0.0318689 0.0277983 0.0165597 -6.94475e-05 -0.0186384 -0.0348477 -0.0446564 -0.0474985 -0.0465667 -0.0456141 -0.0455679 -0.045117 -0.0427464 -0.0381916 -0.0317072 -0.0237107 -0.0146474 -0.00530809 0.0035333 0.0109541 0.0166504 0.0205154 0.0218065 0.0200431 0.0150948 0.0080356 3.95154e-05 -0.00659815 -0.0103654 -0.0102958 -0.00772354 -0.0043003 -0.00212744 -0.00162497 -0.00259841 -0.0045095 -0.00778112 -0.0127368 -0.0195022 -0.026691 -0.0333815 -0.039545 -0.0455578 -0.0516482 -0.0564435 -0.0594292 -0.0598822 -0.0585185 -0.055155 -0.0500474 -0.0434096 -0.0356049 -0.0269699 -0.0174319 -0.00795173 0.00117 0.00867732 0.0149623 0.0195243 0.0227105 0.0245164 0.025099 0.0252412 0.0249605 0.0253997 0.0262355 0.0282288 0.0308348 0.0334931 0.0355123 0.035263 0.0326949 0.0267812 0.0188972 0.0103537 0.00306437 -0.000381533 0.000156744 0.00522117 0.0122987 0.0181717 0.0197254 0.0128538 -0.0027788 -0.0267804 -0.0551929 -0.0814323 -0.099318 -0.100769 -0.0823265 -0.0439431 0.00915396 0.0649828 0.112233 0.139952 0.144021 0.128048 0.0991498 0.0671626 0.0391774 0.0188058 0.00671464 0.000930612 -0.000922893 -0.000953939 -0.00055663 -0.000230841 -6.10171e-05 0 0 
0 0 -5.91635e-05 -0.000187252 -0.00039155 -0.000559123 -0.000198927 0.00171063 0.00701414 0.0177488 0.0350728 0.0581699 0.0822041 0.0999586 0.103783 0.0875745 0.0522094 0.00313155 -0.049281 -0.092285 -0.117919 -0.121581 -0.106813 -0.0817743 -0.0545274 -0.0332736 -0.0204875 -0.0165221 -0.018892 -0.0229732 -0.0262826 -0.0256245 -0.0208608 -0.0127356 -0.00243849 0.00742512 0.0159547 0.021535 0.0241193 0.0239882 0.0215707 0.0185592 0.0154258 0.0137145 0.0136943 0.0153659 0.0184765 0.0217199 0.0245573 0.0255476 0.0244251 0.0208148 0.0148316 0.00716752 -0.00177228 -0.0109077 -0.0197022 -0.0272307 -0.0334795 -0.0380958 -0.0412007 -0.0430035 -0.0434837 -0.043179 -0.0419695 -0.0407335 -0.0398768 -0.0400423 -0.0403723 -0.0392079 -0.0347635 -0.026658 -0.0163509 -0.00721847 -0.00305095 -0.00571087 -0.0141791 -0.0242551 -0.0324647 -0.0370249 -0.0388893 -0.0381804 -0.0340331 -0.0250205 -0.012877 -0.00107694 0.00790641 0.0153353 0.0231465 0.0305996 0.0336246 0.0289651 0.016899 0.000833743 -0.014616 -0.0254431 -0.029675 -0.0287736 -0.0264519 -0.0255317 -0.0258235 -0.0259268 -0.0247106 -0.0222212 -0.0183626 -0.0129702 -0.00624822 0.000967503 0.00763726 0.0129443 0.0167156 0.0186271 0.0178598 0.0140043 0.00694932 -0.00271343 -0.0138148 -0.0239302 -0.0310783 -0.0338557 -0.0328785 -0.0294738 -0.0258578 -0.0227877 -0.0206842 -0.0190353 -0.0186202 -0.0197619 -0.0223608 -0.0253438 -0.0277322 -0.0298319 -0.0323323 -0.0354568 -0.0384538 -0.040685 -0.0418008 -0.0425143 -0.0426511 -0.0422996 -0.0408355 -0.0382458 -0.0339283 -0.02767 -0.0200226 -0.0112329 -0.00237772 0.00648152 0.0142931 0.0204954 0.0242588 0.0253 0.0241235 0.0209536 0.0172556 0.0135327 0.0112643 0.0107718 0.0122255 0.0153271 0.0186296 0.0216034 0.0224709 0.02069 0.0158891 0.00801219 -0.0013784 -0.0114057 -0.0194287 -0.0242078 -0.0249439 -0.021663 -0.0175537 -0.0150796 -0.0190838 -0.031864 -0.0530203 -0.080135 -0.105056 -0.119812 -0.116322 -0.0910501 -0.0485724 0.00325561 0.0517914 0.086779 0.102804 0.0989985 0.0814013 0.0575845 0.0347009 0.0175409 0.00690926 0.00165951 -0.000224796 -0.000576547 -0.000394432 -0.000164012 0 0 
0 0 -0.000110568 -0.000247653 -0.000313912 0.00010106 0.00189542 0.00639572 0.0151242 0.0286627 0.0455938 0.0621061 0.0713628 0.0667046 0.0445408 0.00606571 -0.0396964 -0.081799 -0.110235 -0.119218 -0.111552 -0.0924902 -0.0704986 -0.0528194 -0.0423712 -0.040782 -0.0448197 -0.0509388 -0.0555075 -0.0548256 -0.0487655 -0.0376486 -0.0240672 -0.0110217 -0.000736346 0.00486312 0.00629881 0.00429724 0.00105409 -0.00163934 -0.00262396 -0.00111966 0.00209603 0.00658949 0.0109298 0.0143488 0.0163053 0.0162815 0.014737 0.0115271 0.00748403 0.00276308 -0.00212975 -0.00672418 -0.0111104 -0.0148778 -0.0181945 -0.0206827 -0.0226411 -0.0240427 -0.0251492 -0.0261283 -0.0270063 -0.0279635 -0.0286517 -0.0296703 -0.0311635 -0.0336899 -0.0360687 -0.0366992 -0.0337381 -0.0270647 -0.0183841 -0.0113553 -0.00958682 -0.0145797 -0.024465 -0.0351543 -0.0431575 -0.0475132 -0.0496094 -0.0496362 -0.0460558 -0.0367054 -0.022991 -0.00848043 0.00377755 0.0141398 0.0237643 0.0315483 0.0337479 0.0278213 0.0153311 0.000989402 -0.010164 -0.0153275 -0.0147162 -0.0112812 -0.00847051 -0.00761021 -0.00783187 -0.00808804 -0.00798775 -0.00750664 -0.00613036 -0.00321361 0.00119884 0.00624145 0.0109126 0.0144966 0.0167473 0.0171459 0.0149994 0.00998092 0.00200249 -0.0085532 -0.0207296 -0.0322825 -0.0412639 -0.046034 -0.0466535 -0.0438425 -0.0395507 -0.0348553 -0.0303901 -0.0266099 -0.0243386 -0.0240002 -0.0251838 -0.0267361 -0.0274922 -0.0278097 -0.0282467 -0.0291039 -0.0295011 -0.0291797 -0.0279405 -0.0268066 -0.0259071 -0.0254557 -0.0250123 -0.0243071 -0.0230096 -0.0209445 -0.0183567 -0.0151296 -0.0114669 -0.00703132 -0.00222827 0.00276226 0.00739177 0.0111182 0.0138534 0.0148281 0.0142305 0.0116866 0.00786408 0.00340365 -0.000887054 -0.00361486 -0.00438903 -0.00251324 0.00102059 0.00498055 0.00746382 0.00630412 0.000771856 -0.00955039 -0.0226724 -0.0363012 -0.0473849 -0.053359 -0.0538761 -0.0491603 -0.0431207 -0.0392455 -0.0409171 -0.0513902 -0.0690047 -0.0909107 -0.109901 -0.117619 -0.108845 -0.080777 -0.0391655 0.00609906 0.0441652 0.0660914 0.0706864 0.0615058 0.0451427 0.0283679 0.0149546 0.00630776 0.00185592 9.3581e-05 -0.000269749 -0.000187526 0 0 
0 0 -0.000105072 -9.64125e-05 0.000259002 0.00167538 0.00516754 0.011768 0.0218425 0.0338219 0.0437935 0.0465309 0.0368769 0.0134078 -0.0204382 -0.0575019 -0.0874693 -0.103198 -0.102195 -0.0875876 -0.0685779 -0.0529361 -0.0465225 -0.0499299 -0.0588848 -0.0689761 -0.0748795 -0.0746683 -0.0684022 -0.0575937 -0.0457787 -0.0348381 -0.0267932 -0.0221074 -0.0199253 -0.0197154 -0.0197758 -0.0196058 -0.0182927 -0.0156719 -0.0119916 -0.00739059 -0.00296603 0.000896693 0.00327969 0.00400493 0.00304151 0.000654652 -0.0024253 -0.00566803 -0.00835579 -0.0102788 -0.0111392 -0.0112369 -0.0106945 -0.0100775 -0.00977616 -0.00976896 -0.0103589 -0.0113575 -0.0130091 -0.015036 -0.0175105 -0.0200861 -0.0224733 -0.0248089 -0.0274124 -0.0304756 -0.0329067 -0.0332922 -0.0298415 -0.0229361 -0.0144978 -0.00856648 -0.0083383 -0.0151414 -0.0263726 -0.0377934 -0.0460508 -0.0508069 -0.0538815 -0.0555596 -0.0536627 -0.0454186 -0.0316615 -0.0157826 -0.00142781 0.0106946 0.0207688 0.0274593 0.0277255 0.0205606 0.00869989 -0.00245302 -0.00848017 -0.00817733 -0.00369737 0.00127908 0.00420266 0.00526487 0.00543034 0.00522704 0.00414253 0.00269671 0.00180225 0.00229506 0.00418088 0.00687079 0.00953484 0.011562 0.0124484 0.0116814 0.00855327 0.00293965 -0.00521752 -0.0154823 -0.0269853 -0.0378514 -0.0465446 -0.0515375 -0.0525993 -0.0501131 -0.0454047 -0.039308 -0.0326588 -0.0266708 -0.0225242 -0.0211955 -0.0219478 -0.0235821 -0.0244968 -0.0249938 -0.0252881 -0.0256619 -0.0252427 -0.0237085 -0.0212019 -0.0186248 -0.0163797 -0.0145632 -0.0131095 -0.0116495 -0.0105247 -0.00968328 -0.00960749 -0.0100005 -0.0106269 -0.0110219 -0.0108997 -0.0102369 -0.00877897 -0.00666717 -0.0040703 -0.00163152 0.000272575 0.000938945 0.000313457 -0.00168598 -0.00485218 -0.008465 -0.0122078 -0.0151096 -0.0171788 -0.0181538 -0.0182166 -0.0182041 -0.0185413 -0.020824 -0.025531 -0.0334972 -0.0442821 -0.0559254 -0.0665855 -0.0727687 -0.0730274 -0.0672613 -0.0573675 -0.0485824 -0.0453048 -0.0517412 -0.0673374 -0.0862594 -0.100835 -0.101919 -0.086429 -0.0568213 -0.0201632 0.0133197 0.0365452 0.0460956 0.0433755 0.0334926 0.0216222 0.0116438 0.00512005 0.00169954 0.000383938 -1.56136e-05 0 0 
0 0 2.77847e-05 0.000379903 0.0013697 0.0038841 0.00858021 0.0154812 0.0233238 0.028983 0.0281716 0.0173515 -0.00421714 -0.0321897 -0.0588059 -0.076276 -0.0798826 -0.0718979 -0.0581113 -0.0458665 -0.0411325 -0.0444088 -0.0544994 -0.0666757 -0.0761838 -0.0806173 -0.0782931 -0.0712257 -0.0617734 -0.0527202 -0.0466682 -0.0439499 -0.0443412 -0.04586 -0.0466548 -0.0452903 -0.0407493 -0.0340577 -0.0260894 -0.0188115 -0.0135158 -0.0106751 -0.0106057 -0.0120243 -0.0144539 -0.0164094 -0.0174691 -0.0173377 -0.015991 -0.0141284 -0.0119133 -0.0102266 -0.00898858 -0.00854609 -0.00867272 -0.00937188 -0.0105025 -0.0114561 -0.0122413 -0.0124457 -0.012366 -0.0119098 -0.0115421 -0.0112507 -0.0112547 -0.0118166 -0.0132838 -0.0158369 -0.0184762 -0.0196614 -0.0177446 -0.0131135 -0.00783006 -0.00576701 -0.00979628 -0.0205043 -0.0347892 -0.0481201 -0.057332 -0.0627666 -0.0665747 -0.0692411 -0.0682729 -0.0603742 -0.0456696 -0.0274753 -0.0100797 0.00474029 0.0159893 0.0223199 0.0218384 0.0153042 0.00660576 0.000995514 0.00133831 0.00720829 0.0150127 0.0212936 0.0246965 0.0263517 0.0272044 0.0268491 0.0245478 0.0210971 0.0177545 0.0152622 0.0136179 0.0128803 0.0123976 0.0116895 0.00992298 0.00653398 0.000953057 -0.00681572 -0.0167242 -0.0279897 -0.0398584 -0.050581 -0.0589739 -0.0640246 -0.0655145 -0.0635937 -0.0588654 -0.0516008 -0.0422499 -0.0324389 -0.0240244 -0.0185376 -0.0157814 -0.0146024 -0.0132994 -0.011963 -0.0109716 -0.0105724 -0.0103246 -0.00996351 -0.0095419 -0.00975614 -0.0106399 -0.0117458 -0.0126332 -0.0126396 -0.0120392 -0.0109142 -0.00992237 -0.00887353 -0.00817482 -0.00801042 -0.0087168 -0.0105387 -0.0129664 -0.0158596 -0.0183179 -0.0200425 -0.0202479 -0.0189318 -0.016411 -0.0132299 -0.01097 -0.0103135 -0.0125825 -0.0175597 -0.0247313 -0.0327445 -0.0395336 -0.0441727 -0.045582 -0.0447511 -0.0431302 -0.0426117 -0.0452023 -0.0511507 -0.0601764 -0.0696463 -0.0767004 -0.079059 -0.0747188 -0.0653665 -0.0533604 -0.043436 -0.0402474 -0.0450091 -0.0572041 -0.0709339 -0.0789088 -0.0753982 -0.0581482 -0.0318272 -0.00414609 0.0172054 0.0279147 0.0287132 0.0231056 0.0153457 0.00854193 0.00396251 0.00159521 0.000419891 0 0 
0 0 0.000324165 0.00117075 0.00276601 0.00588568 0.0104613 0.0153193 0.0180297 0.0154582 0.00549589 -0.0113313 -0.0313858 -0.0484151 -0.0570763 -0.055189 -0.0450607 -0.0338031 -0.0277044 -0.0308856 -0.0424019 -0.0563824 -0.0681417 -0.073391 -0.0721556 -0.067355 -0.0615656 -0.0584205 -0.0581507 -0.0605773 -0.0641646 -0.0663682 -0.0666287 -0.0637453 -0.0584982 -0.0517999 -0.0444184 -0.0379124 -0.0324365 -0.0287419 -0.0266898 -0.0259625 -0.0263499 -0.0268449 -0.0274496 -0.027141 -0.0261426 -0.0243717 -0.0219956 -0.0198463 -0.0177327 -0.0165509 -0.0158667 -0.0159599 -0.0161797 -0.0164054 -0.016374 -0.0154439 -0.0138326 -0.01103 -0.00776173 -0.00404024 -0.000689402 0.0020376 0.00361497 0.00371717 0.00213637 -0.00120272 -0.00509115 -0.00802443 -0.00840704 -0.00666295 -0.00479805 -0.00657467 -0.0144198 -0.0285413 -0.0451909 -0.0597499 -0.0693275 -0.0747596 -0.0786179 -0.0815533 -0.0809213 -0.0728687 -0.057142 -0.0366768 -0.0163126 0.00108719 0.0133453 0.0194675 0.0188869 0.0146283 0.0108652 0.0120472 0.018891 0.0295365 0.039796 0.0472823 0.0515047 0.0542199 0.0556294 0.0550272 0.0514581 0.0463126 0.0405586 0.0349445 0.0294128 0.0248161 0.0206929 0.016666 0.0115115 0.00510705 -0.00346175 -0.0138655 -0.0260495 -0.0388793 -0.0514975 -0.0621852 -0.0703031 -0.0750782 -0.0768072 -0.0756694 -0.0717049 -0.0645245 -0.0540412 -0.0416314 -0.0294738 -0.0199646 -0.0133572 -0.00878538 -0.00466167 -0.000877294 0.0024248 0.00467873 0.00611826 0.00645193 0.00563832 0.00334086 -0.000227848 -0.00416577 -0.00802997 -0.0109677 -0.0132341 -0.0144742 -0.0154054 -0.0156162 -0.0155296 -0.0155604 -0.0160434 -0.0175447 -0.0194204 -0.0220155 -0.0243976 -0.0266872 -0.0280297 -0.028322 -0.0278421 -0.0265033 -0.0254484 -0.0247319 -0.0253862 -0.0275212 -0.0313957 -0.0370394 -0.0436039 -0.0509789 -0.0575484 -0.0626731 -0.0654242 -0.0651183 -0.0629033 -0.0593551 -0.056994 -0.057301 -0.0604601 -0.0662128 -0.0709871 -0.07223 -0.067062 -0.0554454 -0.0416401 -0.0302674 -0.027158 -0.0332356 -0.0444361 -0.0545116 -0.0564255 -0.0478835 -0.0310431 -0.0111962 0.00546382 0.0153297 0.0178827 0.0152196 0.0104596 0.00602725 0.0030736 0.00107426 0 0 
0 0 0.000728462 0.00206096 0.0039271 0.0067009 0.00955445 0.0107238 0.0080327 -4.94532e-06 -0.0124826 -0.0257899 -0.0352046 -0.0370297 -0.0320224 -0.0244104 -0.01931 -0.0210112 -0.028841 -0.0402037 -0.0510583 -0.057471 -0.0594374 -0.0572677 -0.0541426 -0.0530255 -0.0545127 -0.059791 -0.0665288 -0.0729351 -0.0770735 -0.0769004 -0.0733073 -0.0664635 -0.0587722 -0.0520536 -0.0470955 -0.044984 -0.0442844 -0.0445906 -0.0443109 -0.0427629 -0.0401095 -0.0363184 -0.0327993 -0.0297996 -0.0282445 -0.0281161 -0.0291225 -0.0309686 -0.0324808 -0.0335992 -0.0332816 -0.0316704 -0.0283489 -0.02367 -0.0181532 -0.0118478 -0.00572281 0.000515029 0.00579234 0.010319 0.0132778 0.0145859 0.0139719 0.0115027 0.00738516 0.00190978 -0.00346435 -0.00745203 -0.00835336 -0.00702562 -0.00552741 -0.00780052 -0.0161276 -0.0304051 -0.0467749 -0.0604623 -0.0691058 -0.0737178 -0.0774437 -0.0807686 -0.0810577 -0.0739329 -0.0587993 -0.0381215 -0.0170398 0.000716254 0.0121671 0.0167737 0.0157623 0.0138004 0.0152586 0.0227702 0.0348209 0.0484645 0.0601322 0.0685216 0.0737912 0.0774525 0.0792597 0.0782173 0.0738299 0.0674666 0.0598353 0.0515053 0.0427363 0.034857 0.027733 0.0209586 0.0134407 0.00506646 -0.00502978 -0.0166299 -0.0295679 -0.0424558 -0.0544056 -0.0637966 -0.070377 -0.0736672 -0.0746639 -0.0736925 -0.0709653 -0.065312 -0.0563418 -0.0447706 -0.0326939 -0.0225834 -0.015123 -0.00979362 -0.0050367 -0.000505927 0.00423071 0.00846695 0.0123654 0.0150533 0.0162388 0.0155335 0.0132959 0.0100635 0.00574444 0.000981887 -0.00477409 -0.0106988 -0.0171421 -0.0230018 -0.0280645 -0.0318684 -0.034221 -0.035251 -0.034466 -0.0329414 -0.0307777 -0.0292413 -0.0285912 -0.0293698 -0.0317556 -0.0349227 -0.0386184 -0.0413854 -0.0431852 -0.0436828 -0.0435369 -0.0442592 -0.0463141 -0.0511392 -0.057752 -0.0653505 -0.0721883 -0.0758177 -0.0760696 -0.0719922 -0.0656402 -0.0589018 -0.0536803 -0.0521965 -0.0533092 -0.0564074 -0.0585631 -0.0566236 -0.0502822 -0.0395522 -0.0283158 -0.020589 -0.0189382 -0.0240201 -0.0315936 -0.0365875 -0.03481 -0.0255052 -0.0123337 2.77812e-05 0.00800539 0.0107079 0.00961692 0.00689771 0.00426167 0.00174106 0 0 
0 0 0.00109268 0.00267708 0.00426734 0.00580453 0.00609669 0.00374598 -0.00188624 -0.010031 -0.0180605 -0.0227687 -0.0225299 -0.0178456 -0.0127528 -0.0118404 -0.0169699 -0.0275937 -0.0383232 -0.044859 -0.0458241 -0.0420115 -0.0387054 -0.0385516 -0.0431987 -0.0518895 -0.0611593 -0.0690994 -0.0732806 -0.073702 -0.0716201 -0.0680124 -0.0651652 -0.0629565 -0.0619514 -0.0615507 -0.060644 -0.0595143 -0.0570775 -0.0541766 -0.0507006 -0.0471135 -0.0441741 -0.0417001 -0.0406222 -0.0403728 -0.041265 -0.0427392 -0.0442361 -0.0454994 -0.0455102 -0.0443917 -0.0415064 -0.0371678 -0.0313498 -0.0244148 -0.016988 -0.00929714 -0.00209512 0.00469063 0.0103908 0.0152455 0.0184892 0.0200305 0.0194622 0.0168833 0.0125883 0.00701397 0.00153576 -0.00255549 -0.0037108 -0.00282298 -0.00201037 -0.00525394 -0.0147213 -0.0299414 -0.0469172 -0.0608979 -0.0695043 -0.074253 -0.0782914 -0.0822524 -0.0834405 -0.0774661 -0.0632568 -0.0431234 -0.0222229 -0.00477646 0.0059205 0.00984183 0.00982727 0.0116955 0.019388 0.0332922 0.0499035 0.0658111 0.0787865 0.0885011 0.0952379 0.0998879 0.101818 0.100367 0.0952665 0.0877713 0.078211 0.0670309 0.0549655 0.0435009 0.0328543 0.0227524 0.0124127 0.00171428 -0.0101853 -0.0230934 -0.036692 -0.0496033 -0.0609352 -0.0691674 -0.0740499 -0.0755652 -0.074968 -0.0729649 -0.0698087 -0.0644506 -0.0560421 -0.0449902 -0.0328948 -0.0220299 -0.0132981 -0.00660825 -0.000710705 0.0045286 0.00969135 0.0143445 0.018419 0.0210711 0.0218131 0.0206747 0.0182572 0.0150794 0.0108064 0.00559682 -0.000994973 -0.00832597 -0.0164118 -0.0243762 -0.0318537 -0.0382091 -0.0430685 -0.0462291 -0.047129 -0.0465403 -0.0445716 -0.0423281 -0.0401724 -0.0388029 -0.0389081 -0.0400503 -0.0427401 -0.045949 -0.049758 -0.0533544 -0.0562408 -0.0586122 -0.0596359 -0.0604759 -0.0608488 -0.0618942 -0.0641545 -0.0670694 -0.070709 -0.0728162 -0.0723922 -0.0682162 -0.0603072 -0.0511188 -0.0424833 -0.0378902 -0.0380285 -0.0413115 -0.0450875 -0.0441548 -0.0376957 -0.0271017 -0.0166031 -0.0115502 -0.0124899 -0.0175631 -0.0222335 -0.0224929 -0.0178403 -0.00988344 -0.001794 0.00383149 0.00623248 0.00603695 0.00457162 0.00210974 0 0 
0 0 0.00125025 0.00270174 0.0035204 0.00351163 0.00178014 -0.00207323 -0.00717034 -0.0116671 -0.0134316 -0.0119102 -0.00931085 -0.00826402 -0.0112864 -0.0181319 -0.0254693 -0.0313065 -0.032968 -0.0312914 -0.0291732 -0.0280325 -0.0310805 -0.0374021 -0.0457362 -0.0543691 -0.0604413 -0.0638825 -0.0642774 -0.0628456 -0.0615844 -0.0610281 -0.0626413 -0.0654216 -0.068494 -0.0705651 -0.0702528 -0.0677761 -0.0631599 -0.0580296 -0.0534514 -0.0504695 -0.0497431 -0.0506626 -0.0530724 -0.0555128 -0.0575372 -0.0583011 -0.0574834 -0.0553153 -0.051624 -0.0471557 -0.041913 -0.0364524 -0.0307103 -0.0249515 -0.0190765 -0.0130611 -0.00711523 -0.000968843 0.0050802 0.0112147 0.0167639 0.021198 0.0236913 0.0239205 0.0219479 0.0180017 0.013288 0.00917429 0.00712334 0.00641404 0.00504328 -0.000842771 -0.0132311 -0.0312669 -0.0507523 -0.0666454 -0.0767427 -0.082583 -0.0873874 -0.0918245 -0.0932894 -0.087673 -0.0739101 -0.0542271 -0.033515 -0.0160406 -0.00492568 0.00031525 0.00371674 0.0115109 0.0265321 0.0469582 0.0677744 0.0860115 0.100697 0.112506 0.121114 0.126767 0.128708 0.126832 0.121028 0.11224 0.100334 0.0860593 0.0702257 0.0545523 0.0393549 0.0248067 0.0104497 -0.00370949 -0.0184451 -0.0336257 -0.0487384 -0.0625624 -0.0742413 -0.0822958 -0.0863623 -0.0865512 -0.0842201 -0.0802597 -0.0751077 -0.0679994 -0.0581904 -0.0458616 -0.0324257 -0.0196609 -0.00844268 0.00112808 0.00956951 0.0164824 0.0221699 0.026178 0.0284873 0.0284453 0.0260268 0.0217321 0.0166322 0.011472 0.00594817 7.86474e-05 -0.00630574 -0.0127504 -0.0193405 -0.0258446 -0.0321344 -0.0381399 -0.0436056 -0.0484656 -0.0522097 -0.0550459 -0.0564611 -0.0567097 -0.0556317 -0.0535637 -0.05135 -0.0491973 -0.0485037 -0.0493565 -0.052379 -0.0569012 -0.0619773 -0.0665563 -0.0690332 -0.0693793 -0.067357 -0.0643282 -0.0615712 -0.059985 -0.0605503 -0.0618463 -0.0633194 -0.0629974 -0.0595771 -0.0535514 -0.0449623 -0.0367066 -0.0304251 -0.0274212 -0.0285524 -0.0306667 -0.0323567 -0.0307369 -0.0249875 -0.017754 -0.0110074 -0.00804648 -0.00911588 -0.0117132 -0.0132304 -0.011479 -0.00700376 -0.00191068 0.00196884 0.00375149 0.00376256 0.00196035 0 0 
0 0 0.00111294 0.0021002 0.00202035 0.000896073 -0.00142338 -0.0044164 -0.00685158 -0.00774171 -0.00686775 -0.00555698 -0.0064035 -0.0103451 -0.0169617 -0.0233017 -0.0254459 -0.0236945 -0.0194283 -0.0170086 -0.0197162 -0.0261806 -0.0352753 -0.0427841 -0.0469065 -0.0481608 -0.0471504 -0.0471351 -0.0489753 -0.0531424 -0.0591567 -0.0646753 -0.0690593 -0.0708174 -0.0705164 -0.0689132 -0.0666362 -0.064974 -0.0637416 -0.0633591 -0.0634601 -0.0636799 -0.0640124 -0.0640027 -0.0639007 -0.0633449 -0.0625717 -0.0614472 -0.0599654 -0.0581902 -0.0558688 -0.0531054 -0.0494491 -0.0450783 -0.0395845 -0.0332039 -0.0258563 -0.0178175 -0.00956916 -0.00129936 0.00653772 0.0140287 0.0204856 0.0253362 0.0277615 0.0275375 0.0247163 0.0199069 0.0142856 0.0094704 0.00707528 0.00631884 0.00500085 -0.000787424 -0.0131106 -0.0311847 -0.0505261 -0.0663536 -0.0762425 -0.0820035 -0.0865487 -0.0907142 -0.0919641 -0.0867715 -0.0741923 -0.0564295 -0.0377733 -0.0218062 -0.0109947 -0.00410565 0.00325762 0.0168212 0.0380369 0.0633588 0.0869906 0.106758 0.123022 0.136664 0.146996 0.153324 0.15522 0.153004 0.146734 0.136758 0.123021 0.106195 0.0873568 0.0680696 0.0488645 0.0305173 0.0129195 -0.00392386 -0.0206084 -0.0368471 -0.0523947 -0.0662474 -0.0775876 -0.0850682 -0.0883259 -0.0876521 -0.0841923 -0.0790964 -0.0728795 -0.0653037 -0.0555857 -0.044223 -0.0321865 -0.0208924 -0.0104713 -0.000808357 0.00850685 0.0167461 0.0237605 0.0288762 0.0318633 0.0322999 0.030068 0.0258881 0.0206678 0.0147967 0.00771548 -0.000462218 -0.00953943 -0.0185436 -0.027157 -0.0349218 -0.0414766 -0.0467422 -0.0505171 -0.0533237 -0.0551849 -0.0567921 -0.0581292 -0.0594455 -0.0606361 -0.0616358 -0.0624511 -0.0627189 -0.0627754 -0.0624013 -0.062112 -0.0619269 -0.0623268 -0.0636094 -0.0653759 -0.0677237 -0.0693725 -0.0696748 -0.0679058 -0.0635357 -0.058067 -0.052157 -0.0481051 -0.0463983 -0.0464213 -0.0474102 -0.0461339 -0.0420297 -0.0345794 -0.0255732 -0.0191717 -0.0165093 -0.0189253 -0.0231693 -0.0249433 -0.0228507 -0.0166042 -0.0100869 -0.00621312 -0.0053961 -0.00670278 -0.00756474 -0.00666746 -0.00422496 -0.00122072 0.00111153 0.00218869 0.00134365 0 0 
0 0 0.000729617 0.00115127 0.000511766 -0.000860496 -0.0025508 -0.00380435 -0.00407319 -0.00387253 -0.00434995 -0.00659975 -0.01072 -0.0146804 -0.017005 -0.0169476 -0.0149072 -0.013835 -0.0146126 -0.0181536 -0.023957 -0.0292624 -0.0336011 -0.0353787 -0.0354671 -0.0357199 -0.0366456 -0.0400865 -0.045335 -0.0518901 -0.0585169 -0.0635128 -0.0667609 -0.0674108 -0.0666871 -0.0655141 -0.0647922 -0.0656371 -0.067461 -0.0702247 -0.0725697 -0.073925 -0.0738745 -0.0722219 -0.0698645 -0.067074 -0.0648609 -0.0634203 -0.0627715 -0.0626342 -0.0622 -0.0611489 -0.0584118 -0.0540444 -0.0475714 -0.0395336 -0.0300204 -0.0197178 -0.0094918 0.00014747 0.00862403 0.0160692 0.0218777 0.0257439 0.0269037 0.0252882 0.0210674 0.0149969 0.00856218 0.0034921 0.00153 0.00182465 0.00199794 -0.00219471 -0.0129875 -0.0296164 -0.0476463 -0.0621863 -0.0710674 -0.0758755 -0.0795192 -0.0827186 -0.0832157 -0.0781541 -0.0670957 -0.0521943 -0.036812 -0.023331 -0.0128476 -0.00373806 0.00820755 0.0272804 0.0533907 0.0818646 0.107274 0.128224 0.145971 0.161303 0.172905 0.179691 0.181559 0.179147 0.172464 0.161485 0.146194 0.127413 0.106195 0.0838628 0.0613165 0.03966 0.0193364 0.000403312 -0.0174943 -0.0342285 -0.0495803 -0.063022 -0.073769 -0.0806287 -0.0833297 -0.0822188 -0.0783382 -0.0728943 -0.0665803 -0.0591289 -0.0502162 -0.0404362 -0.0308866 -0.022431 -0.0145995 -0.00682678 0.00176787 0.0102528 0.0181397 0.0244063 0.028614 0.0302299 0.029292 0.0264797 0.0223969 0.0171145 0.00970137 0.000339143 -0.0105073 -0.0214927 -0.0320306 -0.0414841 -0.0491796 -0.0549607 -0.0584067 -0.0602508 -0.0606357 -0.0607532 -0.0608627 -0.0616378 -0.0632912 -0.0656727 -0.068543 -0.0708499 -0.0724401 -0.0724314 -0.0710779 -0.0687477 -0.0660686 -0.0643031 -0.0635213 -0.0642774 -0.0654763 -0.0662293 -0.0656213 -0.0624297 -0.0575362 -0.0509998 -0.044569 -0.0394011 -0.0360139 -0.0350837 -0.0348184 -0.0347087 -0.0329363 -0.0286319 -0.0233864 -0.017652 -0.0141581 -0.0134136 -0.0145043 -0.0165553 -0.0166469 -0.0143703 -0.01047 -0.00640734 -0.00418706 -0.00371341 -0.00390488 -0.00362461 -0.00236901 -0.00069508 0.000599714 0.000557136 0 0 
0 0 0.000269956 0.000258573 -0.000417924 -0.00133481 -0.00210568 -0.00245933 -0.00261333 -0.00345301 -0.00564694 -0.00902041 -0.012255 -0.013174 -0.0116199 -0.00918388 -0.00851169 -0.0120037 -0.0179975 -0.0241297 -0.0273419 -0.0264654 -0.0242039 -0.0222655 -0.0235899 -0.0285168 -0.0352399 -0.0426373 -0.0479851 -0.0511677 -0.0526113 -0.053259 -0.0550143 -0.057805 -0.0620346 -0.0666112 -0.0705848 -0.0734703 -0.0745663 -0.0746837 -0.07393 -0.0731976 -0.0728927 -0.0729648 -0.0737312 -0.0742111 -0.0747577 -0.0743747 -0.0730706 -0.070729 -0.0671061 -0.0627203 -0.0570644 -0.051021 -0.0441398 -0.0370037 -0.0295432 -0.0219071 -0.0144253 -0.00720544 -0.000598088 0.00580791 0.0114539 0.016101 0.0186621 0.0189388 0.0167844 0.0126129 0.0079021 0.00436499 0.0036538 0.00494442 0.00572134 0.00155211 -0.00963796 -0.0271746 -0.0461837 -0.0617919 -0.071588 -0.0771129 -0.0809442 -0.0837947 -0.0837979 -0.078761 -0.0691466 -0.057122 -0.044966 -0.0332217 -0.0216277 -0.00813634 0.0100596 0.035425 0.0661665 0.0976397 0.125007 0.148062 0.168025 0.185295 0.19807 0.205473 0.207452 0.204925 0.197498 0.185252 0.168143 0.147155 0.123083 0.0973357 0.0707852 0.0452324 0.0212353 -0.000687631 -0.020783 -0.0387398 -0.0547702 -0.0684381 -0.0790957 -0.0855993 -0.0877843 -0.0859044 -0.0810959 -0.0744518 -0.0665436 -0.0573483 -0.0467421 -0.0358141 -0.0257408 -0.0176734 -0.0107941 -0.00427465 0.00309628 0.0103764 0.0169365 0.021691 0.0241969 0.0239554 0.021278 0.0171191 0.0120956 0.00661255 -0.000199946 -0.00792672 -0.0162729 -0.0241516 -0.0315477 -0.0384422 -0.0448123 -0.0508185 -0.0560214 -0.0611314 -0.0653216 -0.0690021 -0.0715153 -0.0729531 -0.0734448 -0.0729018 -0.0723463 -0.0714783 -0.0713594 -0.0717044 -0.0724884 -0.0733321 -0.0732835 -0.0722092 -0.0693286 -0.0653528 -0.0608378 -0.0566695 -0.0539956 -0.0523403 -0.0517883 -0.0503939 -0.0472811 -0.0419584 -0.0346388 -0.02798 -0.0231012 -0.0217828 -0.0236895 -0.0259183 -0.0267886 -0.0236086 -0.0175487 -0.011623 -0.00818522 -0.00887356 -0.0113128 -0.0128694 -0.0119767 -0.00878986 -0.00546011 -0.00329311 -0.00246232 -0.002309 -0.0019658 -0.001234 -0.000411957 -6.77069e-05 0 0 
0 0 -7.57872e-05 -0.00030027 -0.000721908 -0.00110106 -0.00142653 -0.00198879 -0.00318833 -0.00512013 -0.00707271 -0.00821517 -0.00830351 -0.00771802 -0.00802125 -0.0097926 -0.0128022 -0.0165012 -0.0188608 -0.0198776 -0.0193819 -0.018391 -0.0188948 -0.0207285 -0.0246175 -0.0294538 -0.0340068 -0.0381655 -0.0407835 -0.0428208 -0.044645 -0.0468712 -0.0506301 -0.0551608 -0.0608362 -0.0662578 -0.0706154 -0.073767 -0.0748794 -0.0752943 -0.0749827 -0.0750971 -0.0759959 -0.0773909 -0.0793879 -0.0806184 -0.0812052 -0.0800466 -0.0772514 -0.0729448 -0.0672423 -0.0610844 -0.0544222 -0.0481541 -0.0420607 -0.0364716 -0.0311689 -0.0258584 -0.0206997 -0.0153686 -0.0101584 -0.00452331 0.000780926 0.00571662 0.00904074 0.0105601 0.00983223 0.00713766 0.00386225 0.00163635 0.00217697 0.00460706 0.0060818 0.00220711 -0.00920566 -0.0271965 -0.0468131 -0.0630982 -0.0734216 -0.0791967 -0.0828146 -0.0848648 -0.0838781 -0.0786437 -0.0703702 -0.0613062 -0.0523177 -0.0419287 -0.0283243 -0.00947921 0.01538 0.0465157 0.08092 0.114517 0.143814 0.169239 0.191512 0.210482 0.224179 0.232165 0.234442 0.231778 0.223532 0.209997 0.191189 0.168154 0.141468 0.112518 0.0823303 0.0529835 0.0253605 0.000433505 -0.0219685 -0.0414408 -0.0583965 -0.0725058 -0.0832568 -0.0896996 -0.0916487 -0.0895194 -0.0842629 -0.0769901 -0.068266 -0.0579446 -0.0460593 -0.0341124 -0.0235059 -0.015438 -0.00925734 -0.00388252 0.00182567 0.00726907 0.0120187 0.0151129 0.0162829 0.0150762 0.0116738 0.00689801 0.0012606 -0.00441321 -0.010715 -0.0168503 -0.0227206 -0.0276837 -0.0323136 -0.0368035 -0.0416313 -0.0470204 -0.0528692 -0.0594387 -0.0657314 -0.0716119 -0.0760316 -0.0788175 -0.0799014 -0.0792471 -0.0779489 -0.075943 -0.074578 -0.0737548 -0.0736579 -0.0739969 -0.0735953 -0.0725031 -0.0693832 -0.0650927 -0.0597558 -0.054187 -0.0497452 -0.0460736 -0.0439067 -0.0421368 -0.040148 -0.0375773 -0.0334612 -0.0289428 -0.0241519 -0.0202941 -0.0184779 -0.0179747 -0.0189532 -0.0194365 -0.0184402 -0.0161085 -0.0124541 -0.00948934 -0.00774442 -0.00746071 -0.00805597 -0.00798524 -0.0068698 -0.00494873 -0.0030463 -0.00187105 -0.0013394 -0.00107137 -0.000787534 -0.000373257 0 0 
0 0 -0.00022676 -0.000510428 -0.000742448 -0.000993862 -0.00145373 -0.00240422 -0.00389799 -0.00551754 -0.00631893 -0.00594826 -0.00528821 -0.00576598 -0.00881737 -0.0132906 -0.0167036 -0.017461 -0.0149353 -0.0122232 -0.0116734 -0.014314 -0.0198593 -0.0249974 -0.02851 -0.0294021 -0.0284139 -0.0281485 -0.0293295 -0.0334928 -0.0396915 -0.0464137 -0.0527778 -0.0569746 -0.0599151 -0.0617074 -0.0634766 -0.0664311 -0.0699932 -0.0747333 -0.0791165 -0.0828378 -0.0851605 -0.0855667 -0.0846554 -0.0821134 -0.0790904 -0.0754371 -0.071865 -0.0683062 -0.0646597 -0.0610761 -0.0568626 -0.0525014 -0.0473655 -0.0419332 -0.0359886 -0.0297114 -0.0234152 -0.0171807 -0.0117298 -0.00674163 -0.00291071 -0.000124711 0.000934714 0.000254719 -0.00235854 -0.00641763 -0.010541 -0.0127242 -0.0114542 -0.00757247 -0.0042254 -0.00602338 -0.0153277 -0.031161 -0.0486509 -0.0628784 -0.0713052 -0.0751729 -0.0767755 -0.0766612 -0.0738824 -0.0680725 -0.0611649 -0.0551548 -0.0495169 -0.0405102 -0.0248645 -0.00105416 0.0295573 0.0648498 0.101202 0.135546 0.166177 0.193579 0.217669 0.237646 0.25178 0.2602 0.262814 0.260036 0.251071 0.236553 0.216625 0.192185 0.163674 0.132474 0.0998679 0.0677485 0.0374807 0.0103322 -0.0135903 -0.0339861 -0.0513881 -0.0655826 -0.0763571 -0.0829016 -0.0851777 -0.0836864 -0.0794504 -0.0734401 -0.0662015 -0.0574499 -0.0472725 -0.0370648 -0.0282652 -0.0220605 -0.0177868 -0.0142536 -0.0104054 -0.00656153 -0.00297738 -3.18132e-05 0.00219683 0.00332269 0.00283275 0.000812183 -0.00278081 -0.00732001 -0.0129959 -0.0188482 -0.0247771 -0.0302942 -0.0357361 -0.0410718 -0.0461176 -0.0510166 -0.05538 -0.0597487 -0.0635064 -0.0672424 -0.0707456 -0.07422 -0.0777565 -0.0807165 -0.0832714 -0.0842263 -0.0838786 -0.0815921 -0.0778481 -0.0734579 -0.0687187 -0.0652141 -0.0623486 -0.0606918 -0.0590096 -0.0561449 -0.0520108 -0.0456923 -0.0390285 -0.0329025 -0.0288318 -0.0277361 -0.0280066 -0.028978 -0.0280841 -0.0246019 -0.0194977 -0.0140007 -0.0113697 -0.0119114 -0.0145804 -0.0170785 -0.016329 -0.012952 -0.0085341 -0.00552745 -0.00507158 -0.00574175 -0.00612549 -0.00535025 -0.00376863 -0.00231858 -0.00142146 -0.00103291 -0.000857001 -0.000425935 0 0 
0 0 -0.000254791 -0.000561397 -0.000793865 -0.00123991 -0.0019809 -0.00286384 -0.00357723 -0.0040748 -0.00446763 -0.00527638 -0.00692311 -0.00880435 -0.0107322 -0.011866 -0.0119312 -0.0119861 -0.0118639 -0.0130045 -0.0151419 -0.0173132 -0.019792 -0.0210025 -0.0218991 -0.0226742 -0.0233586 -0.0255225 -0.0284123 -0.032545 -0.0374035 -0.0422024 -0.0470464 -0.050892 -0.0545955 -0.0581055 -0.0618315 -0.0663223 -0.0709401 -0.0760448 -0.0802967 -0.0836429 -0.0854707 -0.0854637 -0.0843524 -0.0817502 -0.0787934 -0.0752076 -0.0715921 -0.0678764 -0.0639077 -0.0599597 -0.0554083 -0.0508009 -0.0457012 -0.040643 -0.0355425 -0.0305212 -0.0258084 -0.0213596 -0.0177632 -0.014812 -0.0129404 -0.0118802 -0.0119974 -0.0132837 -0.0158413 -0.0194039 -0.0227492 -0.0239818 -0.0215633 -0.0164889 -0.0119211 -0.0125831 -0.0208915 -0.0358369 -0.0525174 -0.0658637 -0.0733498 -0.0761108 -0.0762877 -0.074547 -0.0703989 -0.0642753 -0.0586678 -0.0551912 -0.0518515 -0.0430587 -0.0242853 0.0049883 0.0412635 0.080237 0.118277 0.153565 0.185858 0.215495 0.241549 0.262441 0.277148 0.286139 0.289254 0.286144 0.276337 0.260701 0.239666 0.213677 0.183326 0.149953 0.114901 0.0798632 0.0466653 0.0168517 -0.00912551 -0.0310852 -0.0493857 -0.0641703 -0.0753097 -0.0821486 -0.0848071 -0.0837664 -0.0801325 -0.0748837 -0.0683563 -0.0603475 -0.0509344 -0.0413477 -0.0331272 -0.02742 -0.0236015 -0.0208145 -0.01821 -0.0163228 -0.0151757 -0.014509 -0.0136712 -0.0126045 -0.0118227 -0.011925 -0.0133132 -0.015666 -0.0189549 -0.0222823 -0.025874 -0.0296088 -0.0340172 -0.0389834 -0.0441162 -0.0493742 -0.0542738 -0.0589826 -0.0629406 -0.0668048 -0.0704368 -0.0740174 -0.0775467 -0.0805271 -0.0831161 -0.0842478 -0.084215 -0.0824014 -0.0790619 -0.0748487 -0.0698237 -0.0652685 -0.0608744 -0.0572241 -0.0537959 -0.0501642 -0.0463966 -0.0416377 -0.0369099 -0.0321344 -0.0280728 -0.0252384 -0.0230979 -0.0224124 -0.0216265 -0.0207218 -0.0195089 -0.01704 -0.0148649 -0.0127262 -0.0115755 -0.0116793 -0.0116215 -0.0115541 -0.0104387 -0.00854415 -0.00669353 -0.00507915 -0.00429817 -0.00393332 -0.00347403 -0.00281057 -0.00199321 -0.00132765 -0.000927855 -0.000408718 0 0 
0 0 -0.000284568 -0.00064708 -0.000946194 -0.00147997 -0.00221376 -0.00283021 -0.00304181 -0.00321603 -0.00394236 -0.00587459 -0.00875833 -0.0105226 -0.0104587 -0.00871227 -0.00697046 -0.00830998 -0.0118134 -0.0163423 -0.0194375 -0.0189023 -0.0168126 -0.0142669 -0.0138936 -0.0167585 -0.021431 -0.0270795 -0.031177 -0.0335545 -0.0346063 -0.0352614 -0.0377689 -0.0421262 -0.0488302 -0.0565069 -0.0638579 -0.0701413 -0.0742088 -0.076734 -0.0779678 -0.0787035 -0.0794941 -0.0802818 -0.0811751 -0.0813954 -0.0807408 -0.0785272 -0.0747645 -0.0695286 -0.0631231 -0.0562158 -0.0492773 -0.0431518 -0.0378058 -0.0339448 -0.0314098 -0.0299832 -0.0293273 -0.0289858 -0.0289682 -0.0289313 -0.0289602 -0.0286754 -0.0284167 -0.0281 -0.0284102 -0.0294879 -0.0304285 -0.0297188 -0.0259189 -0.0200464 -0.0152928 -0.0162913 -0.0253348 -0.0413389 -0.0590207 -0.0732905 -0.0813726 -0.0843114 -0.0841448 -0.081766 -0.0769778 -0.0709796 -0.0665061 -0.0647372 -0.0622744 -0.051975 -0.0291192 0.00597293 0.0476565 0.0902826 0.13035 0.167323 0.2019 0.234165 0.262257 0.284407 0.299942 0.309683 0.313209 0.309719 0.298948 0.282114 0.259636 0.231881 0.199344 0.163546 0.125663 0.087294 0.0505706 0.0174768 -0.0114219 -0.0356423 -0.0557267 -0.0716491 -0.0835554 -0.0909778 -0.0939145 -0.0929575 -0.0891752 -0.0836295 -0.0765183 -0.0677806 -0.0574402 -0.0467941 -0.0373023 -0.0303787 -0.0254787 -0.0221501 -0.0201031 -0.0201628 -0.0222307 -0.0255773 -0.0284999 -0.0300746 -0.0305082 -0.0301926 -0.0299556 -0.0295888 -0.0292073 -0.0284875 -0.027911 -0.0279542 -0.0293275 -0.0321163 -0.0362405 -0.0418138 -0.0482328 -0.0553117 -0.0621578 -0.0684209 -0.073624 -0.0773989 -0.0796163 -0.0802596 -0.080035 -0.0790909 -0.0782501 -0.0774773 -0.0768053 -0.075665 -0.0732329 -0.0692551 -0.0630176 -0.0557267 -0.0480941 -0.0414944 -0.0372317 -0.0348463 -0.0342795 -0.0333003 -0.0309575 -0.0268797 -0.0212729 -0.0166363 -0.013783 -0.014134 -0.0166319 -0.0186744 -0.0191712 -0.0160805 -0.0115653 -0.00807286 -0.00672622 -0.00844435 -0.0101771 -0.0102485 -0.00851341 -0.00567732 -0.00379046 -0.0031035 -0.00297069 -0.00280677 -0.00225108 -0.00158167 -0.00107187 -0.000458496 0 0 
0 0 -0.000356286 -0.000798039 -0.00111535 -0.00148682 -0.00194054 -0.00248045 -0.00314354 -0.00412002 -0.00513784 -0.00607626 -0.00705273 -0.00754637 -0.00830286 -0.00921561 -0.00994353 -0.0114265 -0.0122681 -0.013051 -0.0137336 -0.0136198 -0.0144677 -0.0152601 -0.0166383 -0.018637 -0.0202452 -0.0225775 -0.0247123 -0.0272716 -0.0303505 -0.0336414 -0.0378865 -0.0424923 -0.0479528 -0.0537574 -0.059448 -0.0650002 -0.0695997 -0.0735761 -0.0765763 -0.0788069 -0.0803004 -0.0807762 -0.0805397 -0.0790033 -0.076532 -0.0728498 -0.0682446 -0.0630391 -0.0574532 -0.0520369 -0.0468826 -0.0424412 -0.038484 -0.0354637 -0.0333187 -0.0320154 -0.0315178 -0.0315151 -0.0322214 -0.0333695 -0.0350558 -0.0367319 -0.0384011 -0.0398714 -0.0414988 -0.0434887 -0.0449485 -0.0444439 -0.040557 -0.0342241 -0.0286955 -0.0287249 -0.03664 -0.0513493 -0.067679 -0.08044 -0.0869385 -0.0881525 -0.0862334 -0.0823677 -0.0767446 -0.0707642 -0.0671597 -0.0664162 -0.0639223 -0.051787 -0.0252381 0.0140331 0.0592555 0.104111 0.145581 0.183927 0.220264 0.254305 0.283819 0.306875 0.323216 0.333508 0.337267 0.33341 0.321986 0.304218 0.28072 0.251632 0.217624 0.180106 0.140202 0.0994393 0.0601654 0.0245843 -0.00643231 -0.0324989 -0.0538881 -0.0708513 -0.083581 -0.0917535 -0.0954442 -0.0953019 -0.0925066 -0.0881156 -0.0823144 -0.0749842 -0.066132 -0.056833 -0.0485181 -0.0423514 -0.0378385 -0.0347002 -0.0328547 -0.0333473 -0.0361198 -0.040076 -0.0430044 -0.0437394 -0.0423604 -0.0396102 -0.0365852 -0.0336758 -0.0313727 -0.0296342 -0.0289532 -0.0294234 -0.0311999 -0.0338264 -0.0370493 -0.0410484 -0.0456765 -0.050958 -0.0563902 -0.061948 -0.0672044 -0.0717897 -0.0754397 -0.0778324 -0.0793882 -0.0796 -0.0791436 -0.0776913 -0.0755183 -0.0725801 -0.0686708 -0.0641425 -0.0586761 -0.0530728 -0.0473587 -0.0419987 -0.0374764 -0.033323 -0.0301002 -0.0270885 -0.0245808 -0.0224916 -0.0201707 -0.0185739 -0.0165623 -0.0151784 -0.014352 -0.0134811 -0.0135588 -0.0128463 -0.0120418 -0.0111744 -0.00968856 -0.00895367 -0.00804737 -0.00730008 -0.00682938 -0.00588717 -0.00499059 -0.00402241 -0.00309699 -0.00248048 -0.00198659 -0.00157723 -0.0012205 -0.00057176 0 0 
0 0 -0.00041176 -0.000906335 -0.0012213 -0.00147298 -0.0017583 -0.00232645 -0.00340598 -0.00493116 -0.00598309 -0.00593255 -0.00526912 -0.00495606 -0.00684457 -0.0103547 -0.0132322 -0.0142287 -0.0119279 -0.00903355 -0.00785455 -0.00911275 -0.0134373 -0.0174568 -0.0200938 -0.0204015 -0.0186083 -0.0175293 -0.0178825 -0.0212646 -0.0270423 -0.0336376 -0.0401141 -0.0447731 -0.0482683 -0.0508537 -0.0537082 -0.0578639 -0.0630143 -0.0691708 -0.0747741 -0.0792089 -0.0813833 -0.0809964 -0.0784964 -0.0741449 -0.0691106 -0.0637531 -0.0589481 -0.054852 -0.051387 -0.0486694 -0.0460369 -0.0437991 -0.0411809 -0.0386756 -0.0362741 -0.03431 -0.033036 -0.0325362 -0.0332599 -0.0350167 -0.0379042 -0.0414099 -0.0452481 -0.0490873 -0.052982 -0.056889 -0.0599583 -0.0605602 -0.0573192 -0.0511514 -0.0452659 -0.0444359 -0.0511413 -0.0642311 -0.0787518 -0.0894009 -0.0937109 -0.0926275 -0.0886311 -0.0831423 -0.076793 -0.0708578 -0.0675781 -0.066591 -0.0626913 -0.0478533 -0.0178909 0.0243905 0.0718375 0.118282 0.161299 0.201376 0.239413 0.274756 0.305265 0.329315 0.346439 0.357306 0.361008 0.356951 0.344975 0.326587 0.302073 0.271823 0.236521 0.197461 0.155757 0.112969 0.0715623 0.0337409 0.000670667 -0.0272343 -0.0501278 -0.068399 -0.0823056 -0.0915637 -0.0964146 -0.097525 -0.0961867 -0.0934144 -0.0894967 -0.0840501 -0.0771321 -0.0696202 -0.0628519 -0.0577034 -0.0538364 -0.0509375 -0.0489757 -0.0490215 -0.0509655 -0.0534919 -0.0546276 -0.0532684 -0.0496157 -0.0447356 -0.0397415 -0.035256 -0.0320181 -0.0301689 -0.0301778 -0.0316674 -0.0342396 -0.0371038 -0.0397116 -0.0422753 -0.0446155 -0.0473912 -0.0502017 -0.0537717 -0.057943 -0.0627433 -0.0680047 -0.0729515 -0.0773405 -0.0798596 -0.0803248 -0.0781976 -0.0738143 -0.0682286 -0.0621181 -0.0570513 -0.0529979 -0.0502754 -0.0477885 -0.0443958 -0.0397875 -0.0333699 -0.0268233 -0.0211233 -0.017818 -0.0175458 -0.0186199 -0.0203828 -0.0200459 -0.0173908 -0.0133785 -0.00905396 -0.00777 -0.00889623 -0.0117292 -0.0139704 -0.0129587 -0.010087 -0.00660693 -0.0047413 -0.00506874 -0.00575522 -0.00584143 -0.00484117 -0.00337231 -0.00233945 -0.00180924 -0.00155754 -0.00131855 -0.000650791 0 0 
0 0 -0.000407423 -0.000902171 -0.00124054 -0.00163266 -0.00209248 -0.00262366 -0.00327588 -0.00416764 -0.00510456 -0.00600213 -0.00676879 -0.00708087 -0.0076417 -0.00832639 -0.00909264 -0.0103265 -0.0108521 -0.0114613 -0.011815 -0.0117831 -0.0123804 -0.012685 -0.013788 -0.0153498 -0.0170222 -0.0193832 -0.021407 -0.0238661 -0.0265814 -0.0297363 -0.0340934 -0.038639 -0.0441909 -0.049639 -0.0547385 -0.0596887 -0.0634949 -0.0670551 -0.0694705 -0.0711988 -0.0720306 -0.071683 -0.0706662 -0.0684335 -0.0656182 -0.0619857 -0.0579262 -0.0536016 -0.0490274 -0.0448429 -0.0408668 -0.0376823 -0.0351659 -0.0337689 -0.0334159 -0.0341244 -0.0359466 -0.0383914 -0.0416066 -0.0449991 -0.0487713 -0.0523445 -0.0557745 -0.0587338 -0.0615801 -0.06436 -0.0664631 -0.0664935 -0.0630948 -0.0572589 -0.0522008 -0.0523555 -0.0602052 -0.0744591 -0.0899249 -0.101308 -0.105913 -0.104964 -0.100977 -0.0958258 -0.0901308 -0.0850295 -0.0818859 -0.0795263 -0.0724783 -0.0535064 -0.0198285 0.0252132 0.0745195 0.123109 0.168861 0.212002 0.252429 0.289454 0.3213 0.346827 0.365203 0.376625 0.380334 0.376012 0.363635 0.344333 0.318352 0.286399 0.249113 0.207841 0.163577 0.118232 0.0740195 0.0333473 -0.00267734 -0.0332159 -0.0585088 -0.0786976 -0.0940206 -0.104275 -0.109728 -0.111216 -0.109859 -0.10681 -0.102296 -0.096142 -0.0881992 -0.079557 -0.0715584 -0.0653023 -0.0606493 -0.0573232 -0.055465 -0.0558048 -0.0579876 -0.060705 -0.0620483 -0.0612746 -0.0587161 -0.0549206 -0.0505732 -0.0456552 -0.0410765 -0.0368081 -0.0337457 -0.0317987 -0.0313023 -0.0319181 -0.0334212 -0.0360361 -0.0393553 -0.0434926 -0.0477333 -0.0523947 -0.0568155 -0.0609202 -0.0645491 -0.0673407 -0.0695825 -0.0706021 -0.0709742 -0.0701971 -0.0685294 -0.0661644 -0.0626931 -0.0589488 -0.0540978 -0.0490706 -0.0437311 -0.0382634 -0.0338157 -0.0295491 -0.0264688 -0.0238293 -0.0214187 -0.0194411 -0.0170749 -0.0154049 -0.0138075 -0.0126873 -0.0123416 -0.0117046 -0.0116977 -0.0112976 -0.010665 -0.0101135 -0.00886748 -0.00809341 -0.00741192 -0.00685962 -0.00656675 -0.00583452 -0.00497698 -0.0040858 -0.00324345 -0.00263762 -0.00215143 -0.00173436 -0.00135553 -0.000639053 0 0 
0 0 -0.00038703 -0.000857194 -0.00120152 -0.00177709 -0.00252477 -0.0031222 -0.00330237 -0.00334337 -0.00391483 -0.0056937 -0.00822226 -0.00972927 -0.00930399 -0.00700672 -0.00501259 -0.0057937 -0.00883027 -0.0131455 -0.0155646 -0.0147348 -0.0122228 -0.00913423 -0.00867811 -0.0110443 -0.0153308 -0.0206415 -0.0242876 -0.0265037 -0.0272861 -0.0278041 -0.0299872 -0.033866 -0.0402198 -0.0473388 -0.0541806 -0.0596911 -0.0627617 -0.0641464 -0.0638444 -0.0631153 -0.0624135 -0.061976 -0.0619793 -0.0614057 -0.060528 -0.0582334 -0.0549578 -0.0507227 -0.0458001 -0.0411677 -0.0367981 -0.0339013 -0.0320773 -0.031946 -0.033208 -0.0356494 -0.0390499 -0.0429088 -0.0471072 -0.0509886 -0.0549329 -0.0585119 -0.062103 -0.065334 -0.0684886 -0.07165 -0.0739847 -0.0742672 -0.0712322 -0.0659126 -0.061341 -0.0620729 -0.0703163 -0.0849374 -0.100534 -0.111946 -0.116265 -0.115039 -0.11113 -0.106603 -0.102148 -0.0980501 -0.0947455 -0.0902062 -0.0793086 -0.0562023 -0.0196157 0.0266552 0.0765848 0.126696 0.17522 0.221499 0.264132 0.302551 0.335535 0.362505 0.382043 0.394036 0.39765 0.393262 0.380549 0.360473 0.333053 0.299461 0.260283 0.217023 0.170597 0.123165 0.0767597 0.033724 -0.00479805 -0.0377134 -0.0650739 -0.0869883 -0.103608 -0.114688 -0.120746 -0.122523 -0.121293 -0.118133 -0.113464 -0.107058 -0.0986847 -0.089676 -0.0812122 -0.0747881 -0.0701719 -0.06716 -0.0654211 -0.0654074 -0.0663542 -0.0672392 -0.0667373 -0.0649302 -0.0624215 -0.0594895 -0.0563163 -0.0522441 -0.047829 -0.0428974 -0.0382374 -0.0340963 -0.0311719 -0.0297707 -0.0300248 -0.0320731 -0.0352284 -0.0397244 -0.0444154 -0.0493825 -0.0537019 -0.057068 -0.0594748 -0.0604366 -0.061035 -0.0610041 -0.0614169 -0.0621587 -0.0629458 -0.0633477 -0.0620762 -0.05908 -0.0536319 -0.0468274 -0.0397933 -0.0335211 -0.0297627 -0.0276916 -0.0272713 -0.0265448 -0.0243655 -0.020706 -0.0154271 -0.0111273 -0.00877072 -0.00916482 -0.0122017 -0.0146219 -0.0154217 -0.012981 -0.00867097 -0.00563509 -0.00484085 -0.00680351 -0.00907549 -0.00950351 -0.00802361 -0.00553743 -0.00379997 -0.00326366 -0.00325917 -0.00312536 -0.00258765 -0.0019026 -0.00134697 -0.000594655 0 0 
0 0 -0.000408939 -0.000880177 -0.0011866 -0.00169839 -0.00246905 -0.00332929 -0.00398166 -0.00432334 -0.00447204 -0.00496675 -0.00619048 -0.0076898 -0.00911218 -0.00952313 -0.00886953 -0.00817239 -0.00747077 -0.00799592 -0.0093003 -0.0108186 -0.0126751 -0.0134366 -0.0139284 -0.0141305 -0.0143468 -0.01588 -0.0182252 -0.0220585 -0.0265342 -0.0309061 -0.0351472 -0.0382671 -0.0413023 -0.0439574 -0.0468059 -0.0501875 -0.0534403 -0.0568767 -0.059229 -0.0606238 -0.0605774 -0.0589918 -0.0565478 -0.0530079 -0.0496236 -0.0462476 -0.0434586 -0.0414021 -0.0398429 -0.0390945 -0.0384449 -0.0382928 -0.038181 -0.0384567 -0.0389125 -0.0396725 -0.0409841 -0.0427428 -0.0452559 -0.0480473 -0.0516921 -0.0560009 -0.0613504 -0.0673 -0.0736165 -0.0798621 -0.0849525 -0.0874856 -0.0860816 -0.0817718 -0.0775228 -0.077902 -0.0852248 -0.0983724 -0.112198 -0.121469 -0.12373 -0.120701 -0.11571 -0.111229 -0.107477 -0.103878 -0.0995266 -0.0918953 -0.0765495 -0.0494559 -0.0109532 0.0350931 0.0844015 0.135104 0.185911 0.234816 0.279271 0.318492 0.352341 0.380344 0.400844 0.413133 0.416823 0.412356 0.399571 0.378856 0.350414 0.315425 0.274901 0.230131 0.182327 0.133591 0.0859356 0.041279 0.000929635 -0.0339124 -0.0631009 -0.0866644 -0.104678 -0.116994 -0.12414 -0.127052 -0.126959 -0.125154 -0.121938 -0.117043 -0.110327 -0.10286 -0.0958856 -0.0907339 -0.0872229 -0.0847646 -0.082526 -0.080518 -0.0779309 -0.0742235 -0.0691116 -0.0636633 -0.0589679 -0.0553293 -0.0524516 -0.0495157 -0.046872 -0.0441559 -0.041704 -0.0393193 -0.0375127 -0.0364352 -0.0360132 -0.0362505 -0.0366116 -0.0374586 -0.0383747 -0.0400413 -0.0422052 -0.0450471 -0.0485419 -0.0520221 -0.0556586 -0.0581171 -0.0597337 -0.0597893 -0.0584194 -0.0560979 -0.0527497 -0.0495669 -0.0462832 -0.0435034 -0.0409511 -0.0379708 -0.0349504 -0.0307686 -0.0264827 -0.0220425 -0.0182688 -0.0159354 -0.0143932 -0.0141422 -0.0139071 -0.0133974 -0.0125988 -0.0107321 -0.00919501 -0.0078741 -0.00732736 -0.00799193 -0.00867533 -0.00931289 -0.00890743 -0.00750681 -0.00603223 -0.00482978 -0.00435617 -0.00423036 -0.00391997 -0.00331437 -0.0025188 -0.00182338 -0.00135031 -0.000616288 0 0 
0 0 -0.000432875 -0.000940543 -0.00127978 -0.0016236 -0.00214463 -0.00309832 -0.00449645 -0.00592158 -0.00640568 -0.00556436 -0.00438276 -0.0042173 -0.00654825 -0.0103435 -0.0128411 -0.0127258 -0.00932385 -0.00555624 -0.00418793 -0.0058156 -0.0104557 -0.0148342 -0.0174213 -0.0176972 -0.0160348 -0.015137 -0.015806 -0.0192673 -0.0248758 -0.0309961 -0.0366478 -0.0401133 -0.0420271 -0.042657 -0.0429984 -0.0442217 -0.0460808 -0.0487428 -0.05116 -0.0527427 -0.0530166 -0.0516063 -0.0491098 -0.0456809 -0.0423773 -0.0393907 -0.0373241 -0.0362039 -0.0359282 -0.0364927 -0.0372233 -0.0384857 -0.0395909 -0.0408734 -0.0420704 -0.0432674 -0.0446736 -0.0463094 -0.0483932 -0.0506015 -0.0534856 -0.0571325 -0.0621739 -0.0682362 -0.0751815 -0.0822525 -0.0883876 -0.0919613 -0.0917132 -0.0886711 -0.085578 -0.087038 -0.0951005 -0.108778 -0.122818 -0.132168 -0.134253 -0.131295 -0.126972 -0.123943 -0.12189 -0.119052 -0.113296 -0.101769 -0.0812681 -0.0499774 -0.00962431 0.0362532 0.0851365 0.136904 0.19033 0.242295 0.28908 0.329823 0.364921 0.394214 0.415835 0.428639 0.432534 0.427978 0.414829 0.39319 0.363441 0.326822 0.284422 0.237736 0.188136 0.137749 0.0882931 0.0416692 -0.000897559 -0.0380805 -0.0694969 -0.0950156 -0.114567 -0.127957 -0.135761 -0.139025 -0.138979 -0.137025 -0.133586 -0.128463 -0.121324 -0.113438 -0.105993 -0.100511 -0.0965319 -0.0934709 -0.0900291 -0.0861101 -0.0810954 -0.0749494 -0.0682526 -0.062239 -0.0580545 -0.0553557 -0.0534726 -0.0515218 -0.0498972 -0.0482264 -0.0464933 -0.0442744 -0.0419229 -0.0397763 -0.0378773 -0.0364452 -0.035094 -0.0345148 -0.0342368 -0.0347931 -0.0361033 -0.0382306 -0.0412991 -0.0446875 -0.0482177 -0.0508281 -0.0523234 -0.0521317 -0.0505303 -0.0481017 -0.0454641 -0.0436465 -0.0425177 -0.0422879 -0.0417659 -0.0399234 -0.0365034 -0.0308795 -0.0247777 -0.0191956 -0.0157738 -0.0151385 -0.016009 -0.0176231 -0.01732 -0.014733 -0.0103747 -0.00575665 -0.00411513 -0.00544956 -0.00916898 -0.0125209 -0.0126296 -0.0101472 -0.00639501 -0.0040895 -0.00425908 -0.00543826 -0.00628276 -0.00581554 -0.00442037 -0.0030618 -0.00216108 -0.00171327 -0.00143341 -0.000707918 0 0 
0 0 -0.000333645 -0.000842675 -0.00140846 -0.0019145 -0.00234605 -0.00295944 -0.00405936 -0.00577183 -0.00734815 -0.007883 -0.00731007 -0.00578457 -0.00505043 -0.00603889 -0.00799032 -0.0107155 -0.0119855 -0.0116498 -0.0103764 -0.00824591 -0.00765539 -0.00835823 -0.0108269 -0.0148003 -0.0184004 -0.0217986 -0.0237196 -0.0246954 -0.0256228 -0.0268824 -0.0297301 -0.0335036 -0.0379505 -0.0419843 -0.0446646 -0.0457141 -0.0449216 -0.043101 -0.0407896 -0.0388386 -0.0376992 -0.0373461 -0.0378228 -0.0384254 -0.0389623 -0.0389436 -0.0382577 -0.0371328 -0.035668 -0.0345447 -0.0338755 -0.0342681 -0.0355884 -0.0381 -0.0413082 -0.0449549 -0.0487729 -0.0524498 -0.0558298 -0.0583699 -0.0605069 -0.0626092 -0.0656343 -0.0696804 -0.0748036 -0.0805305 -0.0858798 -0.0893357 -0.0896969 -0.0878456 -0.0865197 -0.0899253 -0.0999923 -0.115495 -0.131256 -0.142046 -0.145567 -0.144129 -0.141874 -0.141397 -0.141643 -0.139624 -0.132048 -0.116184 -0.0904607 -0.0551139 -0.0130777 0.0327442 0.0814571 0.134281 0.190127 0.244975 0.294251 0.33694 0.373704 0.404424 0.42706 0.440583 0.444748 0.440092 0.426254 0.403609 0.372449 0.334071 0.289717 0.24107 0.189627 0.137454 0.0861469 0.037443 -0.00744094 -0.0470886 -0.0809632 -0.10853 -0.129593 -0.14392 -0.151994 -0.154926 -0.154109 -0.151038 -0.146186 -0.139452 -0.130732 -0.121042 -0.111815 -0.10446 -0.0987066 -0.0938794 -0.0887888 -0.0834341 -0.0775624 -0.0715918 -0.0663657 -0.0627233 -0.0610509 -0.0604075 -0.0596832 -0.0581301 -0.0562888 -0.0539003 -0.0509039 -0.0469374 -0.0425131 -0.0383558 -0.0349153 -0.0327928 -0.0318496 -0.0324258 -0.0337252 -0.0355062 -0.0369358 -0.0377851 -0.0379583 -0.0374747 -0.0369809 -0.0365739 -0.0370465 -0.0382769 -0.0402823 -0.0426141 -0.0444493 -0.0452646 -0.0442338 -0.0416318 -0.0376516 -0.0332951 -0.0295642 -0.0267593 -0.0254879 -0.0245506 -0.0235584 -0.021649 -0.0182497 -0.0146738 -0.010723 -0.00827237 -0.00756188 -0.00812772 -0.0102246 -0.011482 -0.0118083 -0.0105555 -0.00784877 -0.00591763 -0.00494029 -0.00567077 -0.00718198 -0.00775475 -0.00723041 -0.00567091 -0.0039798 -0.00290026 -0.00231831 -0.00194833 -0.00152322 -0.000731633 0 0 
0 0 -3.86524e-05 -0.00039476 -0.00125525 -0.00234634 -0.0032755 -0.00373155 -0.0038367 -0.00448434 -0.00626698 -0.00894844 -0.0113769 -0.0111421 -0.00827712 -0.00460095 -0.00241599 -0.00473083 -0.00949209 -0.0141796 -0.0164193 -0.0142475 -0.0107649 -0.00784685 -0.0078201 -0.0114885 -0.0168962 -0.0228975 -0.027155 -0.0291426 -0.0294855 -0.0288486 -0.0291881 -0.0305862 -0.0332812 -0.0364374 -0.0387639 -0.0399667 -0.0391124 -0.0371168 -0.0342859 -0.0315447 -0.0295957 -0.0283759 -0.0284359 -0.0289573 -0.0301079 -0.0312545 -0.0323795 -0.0335553 -0.0346354 -0.0358904 -0.0372687 -0.0390182 -0.0409087 -0.0430592 -0.0452293 -0.0473595 -0.0494878 -0.0516432 -0.053929 -0.0559352 -0.0581268 -0.0607233 -0.0645806 -0.0698487 -0.0763778 -0.0835555 -0.0902056 -0.0947475 -0.0959654 -0.0947873 -0.0937521 -0.0970544 -0.106655 -0.121386 -0.136254 -0.146215 -0.149219 -0.148017 -0.146931 -0.148262 -0.150301 -0.148517 -0.138906 -0.11915 -0.0893216 -0.0514739 -0.00912531 0.0356288 0.0832552 0.135874 0.192435 0.248622 0.299479 0.343765 0.381809 0.413368 0.436613 0.450665 0.45514 0.45035 0.435926 0.412482 0.380486 0.341093 0.295581 0.245961 0.193806 0.141072 0.0891041 0.039612 -0.00625608 -0.0471768 -0.0824112 -0.111187 -0.13319 -0.148115 -0.1565 -0.159472 -0.158766 -0.155825 -0.151374 -0.145369 -0.137515 -0.128629 -0.119915 -0.112683 -0.106593 -0.100968 -0.0946049 -0.0877691 -0.0805346 -0.0735582 -0.0675716 -0.0632122 -0.0604877 -0.0585273 -0.0565935 -0.054489 -0.0530508 -0.0519892 -0.0510292 -0.0493953 -0.0471479 -0.044509 -0.041602 -0.0387431 -0.0361097 -0.0341647 -0.0326407 -0.0316562 -0.0307397 -0.02997 -0.0290939 -0.0281296 -0.027703 -0.0276839 -0.028931 -0.0309692 -0.033803 -0.0367266 -0.0387868 -0.0396647 -0.0384625 -0.0361406 -0.0329949 -0.0303385 -0.0289715 -0.0286675 -0.0292936 -0.0289557 -0.0269471 -0.02271 -0.0167506 -0.0114002 -0.0077524 -0.00776921 -0.0106382 -0.0140655 -0.016219 -0.0139903 -0.0093603 -0.00463465 -0.00235498 -0.00451982 -0.00816174 -0.0110068 -0.0112401 -0.00883371 -0.00617387 -0.00440212 -0.00375549 -0.00364767 -0.00320469 -0.00232142 -0.00131099 -0.000503025 0 0 
0 0 0.000372304 0.000390701 -0.000474574 -0.00208136 -0.00399429 -0.00540294 -0.00570491 -0.00537815 -0.00546687 -0.00702976 -0.0102073 -0.012944 -0.0138302 -0.0120208 -0.00806793 -0.00521756 -0.004289 -0.00638464 -0.0106263 -0.0143486 -0.0173701 -0.0179252 -0.0170435 -0.0160465 -0.0153906 -0.0172691 -0.0209672 -0.0261323 -0.0314812 -0.034928 -0.0364726 -0.0351673 -0.0325549 -0.0296287 -0.0272182 -0.0265293 -0.026645 -0.0277316 -0.0284443 -0.0283054 -0.0272699 -0.0250598 -0.0228951 -0.0209397 -0.0202894 -0.0210895 -0.0235341 -0.0274689 -0.0321223 -0.0373065 -0.041969 -0.0459951 -0.0487986 -0.0505044 -0.0512327 -0.0511115 -0.0508518 -0.0506362 -0.051202 -0.0521005 -0.0539543 -0.0568611 -0.0614925 -0.0678607 -0.075741 -0.0844085 -0.0924391 -0.0983387 -0.100599 -0.100327 -0.0998443 -0.103349 -0.112694 -0.126774 -0.140903 -0.150141 -0.152956 -0.152102 -0.15232 -0.155364 -0.158608 -0.156263 -0.144058 -0.120329 -0.0869596 -0.0471504 -0.0046258 0.0393465 0.0860776 0.138168 0.19462 0.251245 0.303431 0.34939 0.388782 0.421042 0.444641 0.459097 0.463949 0.458981 0.44397 0.419818 0.387156 0.347013 0.300648 0.250354 0.197905 0.144831 0.0924982 0.0425967 -0.0040284 -0.0460916 -0.0826615 -0.112635 -0.135706 -0.151373 -0.160276 -0.163502 -0.163132 -0.160625 -0.156968 -0.151783 -0.144779 -0.136294 -0.127478 -0.119544 -0.112382 -0.105481 -0.097802 -0.089933 -0.0817639 -0.0741963 -0.0675356 -0.0622023 -0.058109 -0.0548033 -0.0520202 -0.0498803 -0.0493349 -0.0498158 -0.0511743 -0.0522816 -0.0529621 -0.0524867 -0.0505588 -0.0470654 -0.0421555 -0.0366093 -0.0306984 -0.025633 -0.0216938 -0.0195054 -0.0190524 -0.0200111 -0.0222004 -0.0244869 -0.0267152 -0.0277837 -0.0279651 -0.0273354 -0.0263266 -0.0263121 -0.0270325 -0.0294675 -0.0323313 -0.034906 -0.0361141 -0.0345424 -0.0310717 -0.0257784 -0.0206853 -0.0170745 -0.0152324 -0.0158876 -0.0168513 -0.0177088 -0.0171345 -0.014142 -0.0104486 -0.00626195 -0.00419575 -0.005129 -0.00796695 -0.0118933 -0.0136951 -0.0128248 -0.0101137 -0.0069602 -0.00540143 -0.00530022 -0.00561016 -0.00529559 -0.00389018 -0.00200349 -0.000463745 4.55726e-05 0 0 
0 0 0.000711097 0.00123914 0.000889037 -0.00053864 -0.00316217 -0.00638427 -0.00895017 -0.00977845 -0.00856358 -0.0066729 -0.00653236 -0.00920886 -0.0143447 -0.0187162 -0.0188707 -0.0148722 -0.00818333 -0.00372296 -0.00421582 -0.00888677 -0.0163324 -0.0219434 -0.0246015 -0.0243381 -0.0219723 -0.0207899 -0.0209699 -0.0235892 -0.0278188 -0.0314973 -0.034341 -0.0343607 -0.0324185 -0.0288866 -0.0245576 -0.0211273 -0.0182084 -0.016901 -0.0162939 -0.0163269 -0.0166574 -0.01686 -0.0175281 -0.0182445 -0.019728 -0.0217558 -0.0244222 -0.0278455 -0.0314046 -0.0354384 -0.0392198 -0.0430795 -0.0464575 -0.0495359 -0.0522472 -0.0543071 -0.0561303 -0.0572609 -0.0584447 -0.0590282 -0.0597136 -0.0606524 -0.0626833 -0.0662232 -0.0713872 -0.0779591 -0.0845169 -0.089808 -0.0924366 -0.0932821 -0.0946661 -0.100345 -0.111955 -0.128278 -0.144588 -0.156138 -0.161378 -0.163319 -0.166484 -0.172075 -0.176526 -0.173177 -0.15792 -0.130213 -0.0935521 -0.0517843 -0.00852979 0.0359174 0.0829619 0.13512 0.191303 0.248349 0.301883 0.350021 0.391142 0.424366 0.448311 0.463246 0.468417 0.463341 0.447615 0.42267 0.389107 0.348066 0.30065 0.249583 0.196298 0.142544 0.0893188 0.0384022 -0.00961646 -0.0532151 -0.0916058 -0.123246 -0.147702 -0.164249 -0.173561 -0.176651 -0.175794 -0.172486 -0.167632 -0.160891 -0.151604 -0.140141 -0.127751 -0.116142 -0.105815 -0.0967038 -0.0880683 -0.0803457 -0.0735482 -0.0682246 -0.0641556 -0.0615211 -0.0599047 -0.0587628 -0.057765 -0.0567157 -0.0561816 -0.055548 -0.0551228 -0.0541356 -0.0530014 -0.0511632 -0.048476 -0.0449914 -0.0406629 -0.0361645 -0.031187 -0.0267908 -0.0228665 -0.0200432 -0.0181443 -0.0169302 -0.0166169 -0.0162554 -0.0162383 -0.0159772 -0.0159606 -0.0165657 -0.0179161 -0.0209031 -0.0244165 -0.0287602 -0.0322422 -0.0340685 -0.0339128 -0.0309786 -0.0272826 -0.0231164 -0.0206231 -0.0205516 -0.0217532 -0.0240851 -0.0243082 -0.021662 -0.0160914 -0.00873168 -0.00410875 -0.00363771 -0.00807001 -0.0147166 -0.0186958 -0.0185542 -0.0142364 -0.0091525 -0.00650124 -0.00663508 -0.00849547 -0.00968248 -0.00884025 -0.00626866 -0.00304432 -0.000421446 0.000963897 0.000758295 0 0 
0 0 0.000811265 0.00175214 0.00225222 0.00186667 -0.000267763 -0.00446546 -0.00981306 -0.0143236 -0.0158101 -0.0138192 -0.0102603 -0.00791204 -0.00943617 -0.0142726 -0.0196874 -0.0231932 -0.0220691 -0.0179143 -0.0130223 -0.00950049 -0.0103255 -0.0141895 -0.0203719 -0.0269052 -0.0311093 -0.0330219 -0.0315866 -0.0285848 -0.0255207 -0.0232556 -0.0233766 -0.0244608 -0.0262281 -0.0268695 -0.0251556 -0.0216429 -0.0159955 -0.0104538 -0.00570686 -0.00320527 -0.00343252 -0.00576419 -0.0101958 -0.0150547 -0.0201248 -0.0244713 -0.0279404 -0.0309642 -0.0331801 -0.0357323 -0.0382318 -0.0413324 -0.0445511 -0.0481027 -0.0517061 -0.0549248 -0.0578866 -0.0600105 -0.0617436 -0.0627006 -0.0633593 -0.0639277 -0.0651639 -0.067569 -0.0714361 -0.0766094 -0.0820128 -0.0862783 -0.0881636 -0.0886194 -0.0898914 -0.0956575 -0.107542 -0.124321 -0.141422 -0.154284 -0.161415 -0.165878 -0.171801 -0.17972 -0.185098 -0.180842 -0.163191 -0.133003 -0.0949448 -0.0531101 -0.0102418 0.0339165 0.0805988 0.131614 0.186102 0.241908 0.295615 0.344977 0.38725 0.420894 0.444904 0.459892 0.465261 0.460161 0.444151 0.41876 0.384894 0.343678 0.296237 0.245322 0.192406 0.139041 0.0862481 0.0356107 -0.012311 -0.0561433 -0.0949187 -0.127045 -0.151865 -0.168556 -0.177787 -0.180692 -0.179442 -0.175675 -0.17015 -0.162372 -0.151451 -0.137906 -0.123425 -0.110177 -0.0991108 -0.0903149 -0.0827106 -0.0764517 -0.0713535 -0.0676569 -0.0651169 -0.063566 -0.0627609 -0.0622154 -0.061666 -0.0607316 -0.05958 -0.0578874 -0.0559394 -0.0535503 -0.0512739 -0.0487422 -0.0459326 -0.0431494 -0.0402627 -0.0375898 -0.0343923 -0.0312471 -0.0273727 -0.0232733 -0.0185643 -0.0134649 -0.00888517 -0.0048117 -0.00285657 -0.00286982 -0.0055574 -0.0103344 -0.0158988 -0.0215174 -0.0250093 -0.0266606 -0.0259435 -0.0240954 -0.0229385 -0.022786 -0.0250676 -0.0281708 -0.0312475 -0.0327193 -0.0308272 -0.0266306 -0.0201408 -0.0139984 -0.0101868 -0.00937275 -0.0128741 -0.0177366 -0.0218643 -0.0229943 -0.0195375 -0.0141854 -0.00939944 -0.00789608 -0.010221 -0.0137429 -0.0157044 -0.0142128 -0.00971671 -0.00437851 -0.000168805 0.00199866 0.00238586 0.00130734 0 0 
0 0 0.000627162 0.0016583 0.00287926 0.00396094 0.00373854 0.000889842 -0.00515091 -0.0134628 -0.0213518 -0.0256107 -0.0244432 -0.0184906 -0.0117907 -0.00885872 -0.0119238 -0.0201656 -0.0283547 -0.0323363 -0.0303562 -0.023713 -0.0175261 -0.0145693 -0.016671 -0.0226319 -0.0291941 -0.0345554 -0.0363408 -0.0347886 -0.0309386 -0.0257612 -0.0213134 -0.0177213 -0.0155926 -0.014421 -0.0133134 -0.0122332 -0.010216 -0.00793805 -0.00538993 -0.00321147 -0.00210541 -0.00216081 -0.0040678 -0.007239 -0.011939 -0.0174735 -0.0235476 -0.0297821 -0.0354836 -0.0408633 -0.0450841 -0.0486625 -0.0509634 -0.0525954 -0.0537333 -0.0543738 -0.0550297 -0.0555047 -0.0564732 -0.0575489 -0.0593677 -0.061627 -0.0648017 -0.068989 -0.0744338 -0.0807577 -0.0866957 -0.0909477 -0.0921065 -0.0913071 -0.0909064 -0.0947447 -0.104517 -0.119473 -0.1352 -0.147545 -0.155125 -0.160832 -0.168247 -0.177197 -0.182294 -0.176457 -0.156633 -0.125016 -0.0871492 -0.0466318 -0.00511875 0.0381759 0.0837846 0.132603 0.184127 0.237272 0.289689 0.338905 0.381438 0.415042 0.438761 0.453518 0.458767 0.453777 0.437878 0.412671 0.379141 0.338581 0.292258 0.242631 0.191147 0.139318 0.0881952 0.0390881 -0.00752165 -0.0503279 -0.0883846 -0.120145 -0.144974 -0.161818 -0.171376 -0.174919 -0.174325 -0.171231 -0.166176 -0.15851 -0.147413 -0.133764 -0.119558 -0.107526 -0.0984261 -0.0919338 -0.0863278 -0.0813204 -0.0765468 -0.0725036 -0.0688169 -0.0655274 -0.0626335 -0.0600547 -0.0579794 -0.0560282 -0.0547173 -0.0534357 -0.052736 -0.0522661 -0.0522667 -0.0520282 -0.0511792 -0.0496336 -0.0467914 -0.0430234 -0.0375979 -0.0313609 -0.0243797 -0.0174527 -0.0111586 -0.00594503 -0.00263057 -0.00084706 -0.00113007 -0.00264034 -0.00519942 -0.00795956 -0.0103267 -0.0122604 -0.0131876 -0.0141039 -0.0151462 -0.0172078 -0.0208492 -0.0253723 -0.0306653 -0.0345667 -0.0361435 -0.0343264 -0.0289722 -0.0224307 -0.0165193 -0.0144367 -0.0173741 -0.0235138 -0.0300981 -0.0320729 -0.0281328 -0.0200351 -0.0118785 -0.00885346 -0.0117607 -0.0183979 -0.0242949 -0.0254481 -0.0212179 -0.0133839 -0.00512168 0.000904226 0.00378398 0.00407772 0.00306178 0.00140117 0 0 
0 0 0.000248997 0.0009991 0.00244841 0.00468413 0.006903 0.00739464 0.00408885 -0.00436343 -0.0169577 -0.0298905 -0.0384563 -0.039063 -0.0322754 -0.0225596 -0.0150069 -0.0140733 -0.0195037 -0.0281169 -0.0361811 -0.0397211 -0.0385349 -0.0336214 -0.0275167 -0.0233198 -0.0219732 -0.0240322 -0.0279872 -0.0317692 -0.0335647 -0.0316342 -0.0263819 -0.0185469 -0.0101986 -0.00326832 0.00120624 0.00245366 0.00155664 -0.000766873 -0.00301597 -0.00452214 -0.0051106 -0.00489518 -0.00508272 -0.00603183 -0.0087007 -0.0130812 -0.0190235 -0.0260154 -0.0331315 -0.0400353 -0.0458171 -0.0505019 -0.0536893 -0.055786 -0.0570301 -0.0576307 -0.057952 -0.0580259 -0.0583396 -0.0587752 -0.0598011 -0.0613041 -0.0635051 -0.066745 -0.0711932 -0.0768618 -0.0824272 -0.0864925 -0.0876332 -0.0868704 -0.0864929 -0.0903411 -0.100213 -0.11555 -0.132177 -0.146238 -0.156119 -0.16424 -0.173606 -0.183118 -0.187133 -0.178821 -0.156306 -0.123228 -0.0853675 -0.0456758 -0.00449767 0.0390411 0.0846687 0.132151 0.181221 0.231865 0.282749 0.331423 0.373987 0.407768 0.431552 0.446124 0.451151 0.446129 0.430435 0.405489 0.372323 0.332428 0.287152 0.238674 0.188289 0.137507 0.0874768 0.0392777 -0.00662856 -0.0490989 -0.0871348 -0.119434 -0.145062 -0.163049 -0.173833 -0.178386 -0.178352 -0.174901 -0.168626 -0.158871 -0.145305 -0.129554 -0.114059 -0.10174 -0.0930889 -0.0872169 -0.0820173 -0.0771539 -0.0726284 -0.0691429 -0.0662013 -0.0637765 -0.0615657 -0.0598007 -0.0585855 -0.0576393 -0.0570317 -0.0563396 -0.0558084 -0.0553319 -0.0549931 -0.0542555 -0.0527935 -0.0503251 -0.0465482 -0.0416317 -0.0352416 -0.0282825 -0.0210364 -0.0144968 -0.00928179 -0.00579648 -0.0042203 -0.00369338 -0.00390444 -0.00359387 -0.00247347 -0.00057826 0.00152147 0.00238949 0.00127994 -0.00297767 -0.00972925 -0.0179988 -0.0258921 -0.0312913 -0.0333812 -0.0316754 -0.0279143 -0.0239104 -0.0218315 -0.023143 -0.0273025 -0.03336 -0.0382366 -0.0394205 -0.0359204 -0.0279359 -0.0194121 -0.0140365 -0.0149677 -0.022448 -0.0320706 -0.0387975 -0.0381938 -0.0297013 -0.0168763 -0.00438268 0.00401127 0.0073165 0.0068791 0.0047607 0.00264984 0.000994438 0 0 
0 0 -0.000155533 9.60704e-05 0.00123698 0.00374109 0.00755521 0.0115383 0.0133944 0.0101028 -0.000357065 -0.0171071 -0.0365687 -0.0524979 -0.0592446 -0.0551949 -0.0423325 -0.027886 -0.0189493 -0.0188989 -0.0274535 -0.0386039 -0.0472167 -0.0496606 -0.0453292 -0.0376514 -0.0292331 -0.0231782 -0.020423 -0.020141 -0.0212851 -0.0216564 -0.0203787 -0.0168627 -0.0114165 -0.0050772 0.00132761 0.00633048 0.00956089 0.0103495 0.00883693 0.00552832 0.000766012 -0.00427318 -0.0093383 -0.0136633 -0.0173531 -0.020373 -0.0230091 -0.0258407 -0.0289008 -0.03276 -0.0371989 -0.0422348 -0.047533 -0.0528154 -0.0577068 -0.0617743 -0.064822 -0.0665745 -0.0672492 -0.0670526 -0.0662886 -0.0654518 -0.0648046 -0.0650672 -0.0668027 -0.0702476 -0.0743956 -0.0775958 -0.0784569 -0.0776365 -0.0773433 -0.0812744 -0.0914928 -0.107602 -0.125978 -0.142557 -0.155763 -0.167089 -0.17871 -0.188881 -0.191715 -0.181239 -0.156898 -0.12343 -0.0866152 -0.0483099 -0.00776253 0.035822 0.0812495 0.127246 0.173721 0.221524 0.270011 0.317003 0.35883 0.392581 0.41652 0.430828 0.435513 0.43035 0.415141 0.390813 0.358426 0.319634 0.275946 0.229084 0.180166 0.130848 0.0823433 0.0355428 -0.00914525 -0.0507207 -0.0882422 -0.120591 -0.14686 -0.165843 -0.177566 -0.182642 -0.182163 -0.177115 -0.168182 -0.155238 -0.138827 -0.120956 -0.104595 -0.0921724 -0.0838603 -0.0781533 -0.0729954 -0.0683633 -0.0647901 -0.0630043 -0.0624642 -0.0625856 -0.0630253 -0.0639397 -0.0651407 -0.0661531 -0.0663407 -0.0653362 -0.0630927 -0.0597264 -0.0556027 -0.0508852 -0.0459233 -0.0411088 -0.0367847 -0.0332249 -0.0302469 -0.027882 -0.0254368 -0.0227437 -0.0192742 -0.0149011 -0.00978492 -0.00400502 0.00152155 0.00645778 0.00971574 0.0110324 0.0100174 0.0066199 0.00159799 -0.00477068 -0.0110416 -0.0164724 -0.0200328 -0.021377 -0.0210757 -0.0199251 -0.0202169 -0.0229369 -0.028955 -0.0372928 -0.0449287 -0.0492327 -0.0468351 -0.0383198 -0.027291 -0.0188317 -0.0188886 -0.0277465 -0.0420574 -0.0548015 -0.0588092 -0.05212 -0.0363294 -0.0170355 -0.00042818 0.00994584 0.0132158 0.01139 0.00747553 0.0037623 0.0014028 0.000310094 0 0 
0 0 -0.000436978 -0.000675121 -0.00016481 0.00167155 0.0054842 0.0113126 0.0180338 0.0226333 0.0209013 0.00963085 -0.0118733 -0.039061 -0.0639633 -0.0793348 -0.0801155 -0.068714 -0.051344 -0.035123 -0.0268613 -0.0268489 -0.0335878 -0.0427217 -0.0491135 -0.0509296 -0.0462241 -0.0370447 -0.0257179 -0.0148016 -0.00726586 -0.00322746 -0.00289342 -0.00439801 -0.00551544 -0.00522311 -0.00229027 0.002232 0.00734509 0.0113519 0.0127595 0.0114563 0.0070339 0.000863968 -0.00629235 -0.013256 -0.0191492 -0.0239355 -0.0272439 -0.0299345 -0.0320562 -0.0344422 -0.037227 -0.0405784 -0.0445798 -0.0489675 -0.0535382 -0.0577223 -0.0615937 -0.0645615 -0.066825 -0.0683281 -0.0692308 -0.0698743 -0.0701832 -0.070881 -0.0723638 -0.0751624 -0.0782221 -0.0799998 -0.0789803 -0.0757117 -0.0724392 -0.0730094 -0.0799263 -0.0934376 -0.110676 -0.127746 -0.14275 -0.156249 -0.169396 -0.179618 -0.181417 -0.169736 -0.145324 -0.113548 -0.0798271 -0.0447319 -0.00649521 0.0354412 0.078896 0.122066 0.164858 0.208577 0.253117 0.296662 0.336292 0.369093 0.392858 0.406815 0.410997 0.405785 0.391329 0.368285 0.337661 0.301045 0.260059 0.216061 0.170182 0.123886 0.0784247 0.0348056 -0.00678283 -0.0455662 -0.0808568 -0.111741 -0.137336 -0.156214 -0.168014 -0.172685 -0.171099 -0.16415 -0.153222 -0.138961 -0.122707 -0.106586 -0.0932616 -0.0843802 -0.0793769 -0.0763314 -0.0733194 -0.0705524 -0.0687394 -0.0684373 -0.0686521 -0.0688201 -0.0685316 -0.068361 -0.0681405 -0.0675588 -0.0661263 -0.0636598 -0.060344 -0.0561554 -0.0517179 -0.0471028 -0.0428021 -0.0389817 -0.0360074 -0.0338407 -0.032264 -0.0310401 -0.0291538 -0.0263271 -0.021742 -0.0156553 -0.00820015 -0.00032331 0.00660937 0.0116607 0.01343 0.0122831 0.00835492 0.00316739 -0.00150008 -0.00466033 -0.00519573 -0.00427982 -0.00287306 -0.00317237 -0.00706789 -0.0144309 -0.025239 -0.0365328 -0.0456815 -0.0503881 -0.0486464 -0.0423374 -0.0333319 -0.0266784 -0.0267101 -0.0349198 -0.050991 -0.0682055 -0.0795035 -0.0787288 -0.0634985 -0.0388125 -0.0118606 0.00946179 0.0206431 0.0223657 0.0178071 0.0111452 0.00537909 0.00163416 -8.49316e-05 -0.000339877 0 0 
0 0 -0.000538679 -0.00109765 -0.0012344 -0.000540114 0.00196557 0.00732529 0.0160039 0.0265354 0.0351616 0.0368444 0.0265561 0.00324093 -0.0296439 -0.064936 -0.0921958 -0.104809 -0.0999643 -0.0811166 -0.05792 -0.0378393 -0.0276052 -0.0276359 -0.0334712 -0.0410141 -0.0444167 -0.0423648 -0.0348422 -0.023314 -0.0113922 -0.000428977 0.00723358 0.0111944 0.0121121 0.0101517 0.0073932 0.00429423 0.00216569 0.00125625 0.00117263 0.00190888 0.00205184 0.00147479 -0.000757318 -0.00458159 -0.00984458 -0.0164138 -0.0231262 -0.0299483 -0.0357784 -0.0407593 -0.04449 -0.0471228 -0.0491902 -0.0506379 -0.0522353 -0.0537908 -0.0559145 -0.0582821 -0.0610547 -0.0639355 -0.0669078 -0.0698751 -0.0723923 -0.0749369 -0.0776005 -0.0810162 -0.0841058 -0.0854314 -0.083326 -0.0781713 -0.0721835 -0.0691321 -0.0723501 -0.0826525 -0.0981177 -0.115033 -0.131224 -0.145951 -0.159416 -0.168551 -0.168417 -0.155152 -0.130742 -0.100774 -0.0699435 -0.0376449 -0.00152277 0.0387658 0.0802118 0.120665 0.160175 0.200033 0.2403 0.279696 0.316347 0.347757 0.371139 0.384824 0.388608 0.383444 0.369811 0.34831 0.319743 0.285659 0.247602 0.206716 0.164066 0.120943 0.078608 0.0380661 -0.000562821 -0.0367846 -0.0703057 -0.100226 -0.125659 -0.144865 -0.156911 -0.161159 -0.158433 -0.150018 -0.138089 -0.123944 -0.109569 -0.0965894 -0.0870476 -0.0815987 -0.0794661 -0.0784672 -0.077089 -0.0756508 -0.0747943 -0.074795 -0.0744163 -0.0732098 -0.0708751 -0.0684783 -0.0659334 -0.0632308 -0.0604082 -0.0575863 -0.0551041 -0.052773 -0.0508891 -0.0490798 -0.0476077 -0.0455668 -0.0430056 -0.0395213 -0.0350408 -0.0299464 -0.0239608 -0.0180566 -0.0121436 -0.00729742 -0.0035139 -0.000971698 0.000228042 0.00087002 0.000962331 0.00181336 0.00325774 0.00565504 0.00867397 0.0110956 0.0125801 0.0112655 0.0070841 -0.000522108 -0.0113033 -0.0229616 -0.0343332 -0.0417549 -0.0438518 -0.0405384 -0.0331229 -0.0273786 -0.0273912 -0.0375571 -0.0574862 -0.0804835 -0.0991696 -0.10398 -0.091494 -0.0644828 -0.0295084 0.00309558 0.0262214 0.0364354 0.034783 0.0262412 0.0158001 0.00718771 0.00186374 -0.000623745 -0.00125339 -0.000747227 0 0 
0 0 -0.000497687 -0.0011604 -0.00171643 -0.0020482 -0.00131795 0.00181434 0.0089072 0.0205949 0.0357183 0.0505739 0.0584749 0.0531602 0.0308883 -0.0066743 -0.0503718 -0.089955 -0.114921 -0.120057 -0.108188 -0.0842766 -0.0580579 -0.0363853 -0.0225419 -0.0182993 -0.01987 -0.024355 -0.0278068 -0.0267257 -0.02121 -0.0109129 0.00102866 0.0121076 0.0199679 0.0224867 0.0205946 0.0147111 0.00733573 0.000383122 -0.00500807 -0.0075743 -0.00839109 -0.00767777 -0.00703011 -0.00715765 -0.00867785 -0.0120809 -0.0165767 -0.0223763 -0.0284016 -0.034637 -0.0404104 -0.0456335 -0.0504399 -0.0544061 -0.0580048 -0.0606078 -0.0629543 -0.064647 -0.0658986 -0.0667285 -0.0672798 -0.0679746 -0.0684458 -0.0695271 -0.0712632 -0.0744366 -0.0780219 -0.0805394 -0.079866 -0.0759639 -0.0705461 -0.0671367 -0.0693244 -0.0786396 -0.0940159 -0.111968 -0.129726 -0.145477 -0.15838 -0.165238 -0.162101 -0.146377 -0.121301 -0.092254 -0.06303 -0.0321661 0.00299546 0.0422514 0.0823079 0.120865 0.158041 0.194968 0.231466 0.266754 0.300054 0.329679 0.352452 0.365942 0.369654 0.364682 0.351846 0.331847 0.305409 0.273866 0.238435 0.200263 0.160436 0.120097 0.0802051 0.0417896 0.00507407 -0.029922 -0.0630418 -0.0933955 -0.1198 -0.140084 -0.152913 -0.157051 -0.153592 -0.144291 -0.132049 -0.118584 -0.105709 -0.0944169 -0.0860498 -0.0807875 -0.0778438 -0.0755357 -0.0728539 -0.070397 -0.0688656 -0.0686113 -0.0684464 -0.0680405 -0.0671283 -0.0668188 -0.0664931 -0.066067 -0.0652587 -0.064078 -0.0625149 -0.06005 -0.057091 -0.0532749 -0.0492264 -0.0444184 -0.0390669 -0.0332582 -0.0271751 -0.0215434 -0.0163676 -0.0126204 -0.0100494 -0.00927035 -0.00971698 -0.0105981 -0.0111472 -0.0097828 -0.00640266 -5.35446e-05 0.00771168 0.0156615 0.0217059 0.0234599 0.0205996 0.0124037 0.00111007 -0.0108902 -0.0211531 -0.0265764 -0.0275757 -0.0240149 -0.0196133 -0.0181067 -0.0223496 -0.0361004 -0.0576027 -0.0836084 -0.107317 -0.119098 -0.114022 -0.089302 -0.0500853 -0.00677885 0.0304598 0.0525594 0.0578549 0.0500515 0.0353458 0.0203651 0.00877718 0.00173143 -0.00139822 -0.00215218 -0.00180959 -0.000865516 0 0 
0 0 -0.000386853 -0.000978861 -0.00165156 -0.00256699 -0.00331745 -0.00287472 0.000602851 0.00916027 0.0242109 0.0450158 0.0669532 0.0831893 0.0858888 0.0694544 0.0348183 -0.0128022 -0.0625343 -0.102415 -0.124545 -0.124263 -0.10568 -0.0765639 -0.0456357 -0.0214817 -0.0064691 -0.00119339 -0.00247409 -0.00620233 -0.00975101 -0.0100582 -0.0073053 -0.00177346 0.00533786 0.0117044 0.0166378 0.0181873 0.0165491 0.0119124 0.00498123 -0.0024405 -0.00974542 -0.0151501 -0.018672 -0.0200566 -0.0196686 -0.0188801 -0.0179683 -0.0185218 -0.0204181 -0.0244162 -0.029982 -0.036828 -0.0444568 -0.051867 -0.0588423 -0.0644058 -0.0689432 -0.0719452 -0.0736957 -0.0740905 -0.0736921 -0.0727765 -0.0716025 -0.0707698 -0.0706558 -0.072059 -0.0741357 -0.0755033 -0.0739754 -0.0691895 -0.0623894 -0.0570088 -0.0570063 -0.0646992 -0.0797108 -0.0988253 -0.118625 -0.13597 -0.149114 -0.154805 -0.150371 -0.134533 -0.111084 -0.0848622 -0.0587764 -0.0305309 0.00225052 0.039096 0.0764428 0.112356 0.146919 0.180788 0.213314 0.244129 0.273439 0.300352 0.32192 0.335061 0.338957 0.334515 0.322682 0.304289 0.280332 0.251717 0.219359 0.184429 0.148021 0.111144 0.0745082 0.0391218 0.00503773 -0.0276908 -0.0591219 -0.0880973 -0.113322 -0.132177 -0.143171 -0.145127 -0.139644 -0.12894 -0.116411 -0.103763 -0.0924784 -0.0829118 -0.0759273 -0.0716374 -0.0693688 -0.0678119 -0.0661315 -0.0650021 -0.0650382 -0.0664524 -0.0680614 -0.0694737 -0.0705504 -0.0719484 -0.0731319 -0.0735467 -0.0730649 -0.0714699 -0.0687614 -0.0642138 -0.0583384 -0.0511263 -0.0436607 -0.0359818 -0.0289802 -0.0232526 -0.0191859 -0.0173528 -0.0170967 -0.018498 -0.0199641 -0.0211053 -0.02048 -0.0175682 -0.0124401 -0.0050452 0.00281603 0.0103796 0.0157072 0.0179304 0.0167566 0.0120528 0.00575552 -0.00128335 -0.00686226 -0.00964114 -0.00951713 -0.006081 -0.00250914 -0.00119116 -0.00650352 -0.0213639 -0.0453434 -0.0759759 -0.104863 -0.123273 -0.123586 -0.101673 -0.0621793 -0.0129068 0.0342905 0.0686354 0.0849602 0.082325 0.0662682 0.0445545 0.023953 0.00904278 0.000557013 -0.00290451 -0.00336956 -0.00266615 -0.00178116 -0.000763376 0 0 
0 0 -0.000265143 -0.000703675 -0.00128289 -0.00233294 -0.00384366 -0.0053286 -0.00541959 -0.00197783 0.00755368 0.0252082 0.050606 0.0804164 0.107502 0.122297 0.117388 0.0894331 0.0429293 -0.0117237 -0.0628638 -0.0990337 -0.115116 -0.110734 -0.0900726 -0.0610659 -0.0304525 -0.00511194 0.0113133 0.018107 0.0161606 0.00944118 0.00115566 -0.00528657 -0.00787903 -0.00664116 -0.00213001 0.00329811 0.00806605 0.0104258 0.00955166 0.00586038 -0.000291676 -0.00722452 -0.0140861 -0.019787 -0.0237346 -0.0262567 -0.0272812 -0.0278849 -0.0281672 -0.0292459 -0.031066 -0.0340345 -0.0382341 -0.0431992 -0.0490329 -0.0548019 -0.0609142 -0.0665189 -0.0715962 -0.0754799 -0.0783883 -0.080329 -0.0811095 -0.0812054 -0.0808365 -0.08097 -0.0809131 -0.0795538 -0.0749339 -0.0665551 -0.0555979 -0.045496 -0.0407439 -0.0444382 -0.0572435 -0.0759479 -0.0964914 -0.114351 -0.127025 -0.131574 -0.126574 -0.111993 -0.091757 -0.0698112 -0.0478741 -0.02341 0.00561498 0.0384519 0.0717874 0.10402 0.13531 0.165701 0.19403 0.220039 0.24467 0.268009 0.287378 0.299818 0.304134 0.300584 0.290064 0.273637 0.252462 0.227373 0.198725 0.167707 0.135532 0.10297 0.0705005 0.0389479 0.00843479 -0.020997 -0.0493343 -0.0752126 -0.0971569 -0.112703 -0.120493 -0.11985 -0.112839 -0.101872 -0.0903801 -0.0798643 -0.0714844 -0.0651685 -0.0617022 -0.0608524 -0.0621168 -0.0641959 -0.0662585 -0.0686897 -0.0718256 -0.0754864 -0.0782872 -0.0799633 -0.0802579 -0.0798231 -0.0781519 -0.0751191 -0.0710279 -0.0661148 -0.0608908 -0.0548602 -0.0488412 -0.0428069 -0.0377645 -0.0335282 -0.0304258 -0.0284852 -0.0272679 -0.0268349 -0.0262379 -0.0254151 -0.02329 -0.0198241 -0.0147372 -0.00849156 -0.00203319 0.0038243 0.00742301 0.00836108 0.00619554 0.00168677 -0.00338876 -0.00748909 -0.00821437 -0.00514856 0.00165499 0.0100736 0.0167096 0.0184418 0.0114177 -0.00514318 -0.0303413 -0.0606814 -0.0894228 -0.109915 -0.114271 -0.098363 -0.0625454 -0.0119 0.0422571 0.0883526 0.116095 0.120999 0.106389 0.0795902 0.0500827 0.024938 0.00745306 -0.00198946 -0.00540399 -0.0053242 -0.00387269 -0.00241434 -0.00141416 -0.000560033 0 0 
0 0 -0.000167142 -0.000455228 -0.000867969 -0.00174749 -0.00328377 -0.00550188 -0.00789584 -0.0091047 -0.00673399 0.00258919 0.0217033 0.0512774 0.0883053 0.125268 0.152873 0.162254 0.148383 0.112422 0.0604345 0.00324979 -0.0476269 -0.0829701 -0.0975011 -0.092259 -0.0718254 -0.0437921 -0.0157404 0.00667782 0.0199631 0.0241171 0.0205308 0.012303 0.00255824 -0.00645839 -0.0125743 -0.0152819 -0.0144273 -0.0108429 -0.00606219 -0.0013012 0.00150903 0.00179146 -0.00100723 -0.00647186 -0.0135326 -0.0212685 -0.0282733 -0.0339356 -0.0377062 -0.0398859 -0.0408163 -0.0411996 -0.0417717 -0.0429625 -0.0452776 -0.0484732 -0.0529258 -0.0580107 -0.0634003 -0.0684291 -0.0728034 -0.0764716 -0.0791387 -0.0809819 -0.0821583 -0.0833449 -0.0839813 -0.0829807 -0.0784682 -0.0695012 -0.0570385 -0.0443575 -0.0363515 -0.0370108 -0.0476976 -0.0653985 -0.0850998 -0.101352 -0.110957 -0.111966 -0.104393 -0.0894889 -0.0708563 -0.0514086 -0.0317765 -0.00957698 0.0168031 0.0464043 0.0764533 0.105801 0.134543 0.162232 0.187181 0.209182 0.229521 0.248954 0.265551 0.276974 0.28166 0.279439 0.270452 0.256015 0.23746 0.215604 0.19043 0.16297 0.134336 0.105256 0.0759411 0.0470531 0.0187991 -0.00861953 -0.0348154 -0.0584595 -0.0781213 -0.0918494 -0.0986335 -0.0983389 -0.0928939 -0.0844742 -0.0758924 -0.0685618 -0.0632658 -0.0599784 -0.059147 -0.0603517 -0.0630671 -0.0661528 -0.0690086 -0.0718682 -0.0749293 -0.0778508 -0.0795347 -0.0797051 -0.0784013 -0.0762345 -0.0728204 -0.0682216 -0.0629587 -0.0576917 -0.0529865 -0.0486908 -0.045318 -0.0428522 -0.0415897 -0.0409362 -0.0404729 -0.0395297 -0.0372383 -0.0332881 -0.0274604 -0.0204651 -0.0128022 -0.00588329 -0.000673472 0.0017579 0.0010558 -0.00220911 -0.00744525 -0.0126819 -0.0166259 -0.0176843 -0.0149167 -0.00845219 0.00115937 0.0115775 0.0204142 0.0243991 0.0204306 0.00716078 -0.0153484 -0.0435217 -0.0713859 -0.0916377 -0.0968677 -0.0824759 -0.0474996 0.00289928 0.0595336 0.111056 0.146711 0.160506 0.151269 0.123971 0.0873939 0.0507383 0.0214565 0.00252858 -0.00670302 -0.0090504 -0.00785312 -0.00548622 -0.00330161 -0.00180828 -0.000974616 -0.000363778 0 0 
0 0 -0.000106151 -0.000284689 -0.000537093 -0.00112229 -0.00227812 -0.00434979 -0.00751322 -0.0112612 -0.0141638 -0.0133614 -0.00531042 0.012987 0.0434947 0.084375 0.129947 0.171248 0.197302 0.200747 0.178793 0.135444 0.0800749 0.0227205 -0.0263038 -0.0606339 -0.0774722 -0.0769945 -0.0632241 -0.0410199 -0.0169409 0.00364513 0.0170133 0.0215133 0.018269 0.00938207 -0.00177528 -0.0121677 -0.0199315 -0.0236093 -0.0236175 -0.0205195 -0.0158934 -0.0111089 -0.00741718 -0.00587638 -0.00664965 -0.00997688 -0.0150965 -0.0215276 -0.0283541 -0.0350638 -0.0410306 -0.0459512 -0.0497778 -0.0525583 -0.0545604 -0.0559908 -0.0573153 -0.058785 -0.0602587 -0.0618828 -0.0635057 -0.0654318 -0.0673283 -0.0694025 -0.0716026 -0.0742036 -0.0767504 -0.0777594 -0.0754063 -0.0681704 -0.0566561 -0.0438589 -0.0349748 -0.0348067 -0.0451946 -0.0632928 -0.0830174 -0.0979562 -0.104564 -0.102089 -0.0921289 -0.0771471 -0.0601263 -0.0428373 -0.0249823 -0.00449324 0.0196509 0.0464308 0.0737014 0.10074 0.127563 0.15315 0.175724 0.194696 0.21158 0.227213 0.240841 0.250792 0.255851 0.254966 0.24782 0.235288 0.219057 0.19978 0.177655 0.15314 0.127353 0.100751 0.0736215 0.046574 0.0199827 -0.00558355 -0.0294119 -0.0503843 -0.0675633 -0.0797905 -0.0864139 -0.0874553 -0.084107 -0.077935 -0.0712001 -0.0654979 -0.0616259 -0.0596256 -0.0594319 -0.0604868 -0.0622204 -0.0639171 -0.065319 -0.0665016 -0.0677819 -0.0686923 -0.0687728 -0.0679558 -0.0666257 -0.06533 -0.0636877 -0.061846 -0.0599372 -0.0585641 -0.0574608 -0.0562833 -0.0547995 -0.0527323 -0.0498551 -0.0459263 -0.0409261 -0.0350123 -0.0282965 -0.0212959 -0.0147041 -0.00944383 -0.0059938 -0.00505546 -0.00652601 -0.0102671 -0.0152484 -0.0202656 -0.0239623 -0.0246524 -0.0216774 -0.0144805 -0.00435449 0.00684907 0.016074 0.0197893 0.0158203 0.00292558 -0.0172233 -0.0409535 -0.0628958 -0.0765528 -0.0770098 -0.0603687 -0.0264002 0.0221491 0.078933 0.133799 0.17676 0.198561 0.195208 0.169454 0.1286 0.0834892 0.0430212 0.0128134 -0.00530482 -0.0132766 -0.0140669 -0.0111871 -0.00747149 -0.00433937 -0.0022933 -0.00116365 -0.000609877 -0.000224472 0 0 
0 0 -7.54002e-05 -0.00018353 -0.000312737 -0.00064245 -0.00137217 -0.00288969 -0.00560886 -0.00963688 -0.0148147 -0.0197594 -0.0217838 -0.0173998 -0.00183636 0.0272787 0.0692085 0.11961 0.169116 0.208877 0.23006 0.227397 0.201595 0.156012 0.0993676 0.0409078 -0.0108928 -0.0487487 -0.0702707 -0.0748173 -0.0660008 -0.0488274 -0.0283045 -0.00976816 0.00406187 0.0112477 0.0117716 0.00704844 -0.00163529 -0.0114073 -0.0207759 -0.0276823 -0.0312992 -0.0314671 -0.0284538 -0.0237365 -0.0183282 -0.0139751 -0.0115674 -0.0116892 -0.0147201 -0.0198917 -0.0268839 -0.0344939 -0.0421083 -0.0489323 -0.0546177 -0.0590449 -0.0621835 -0.064419 -0.0656371 -0.0662952 -0.066345 -0.0663409 -0.0662418 -0.0663472 -0.0667633 -0.0676491 -0.0687439 -0.0686987 -0.0656327 -0.0579859 -0.0459942 -0.0323816 -0.0227124 -0.0224112 -0.0338126 -0.0537749 -0.0751693 -0.0905032 -0.0960909 -0.0922618 -0.0823358 -0.0696108 -0.0562543 -0.0427612 -0.028084 -0.0106892 0.0100371 0.0329782 0.0568687 0.0810322 0.105548 0.128878 0.149301 0.165865 0.179761 0.19185 0.202259 0.210328 0.215339 0.2158 0.210691 0.200347 0.18637 0.169551 0.15024 0.128597 0.105538 0.0812721 0.0565319 0.0318747 0.00822293 -0.0137575 -0.033055 -0.049265 -0.0622402 -0.0717422 -0.077141 -0.0780284 -0.0747692 -0.0682699 -0.0608733 -0.0546123 -0.0505998 -0.0487764 -0.0486794 -0.0495289 -0.0510804 -0.0529652 -0.0551741 -0.0575142 -0.059924 -0.0620364 -0.0636326 -0.0646967 -0.0654996 -0.0662186 -0.0665094 -0.0663034 -0.0654306 -0.0643507 -0.0623667 -0.0594033 -0.0550237 -0.0493426 -0.0424794 -0.0346713 -0.0269738 -0.020056 -0.0149608 -0.0118417 -0.0115607 -0.0137838 -0.017882 -0.0229972 -0.0274218 -0.03027 -0.0300714 -0.0267013 -0.0202715 -0.0115593 -0.0024692 0.00556493 0.00984941 0.00905081 0.00179385 -0.0120168 -0.0303654 -0.0506176 -0.0673549 -0.0756976 -0.0706377 -0.0487632 -0.0111113 0.0401375 0.0980236 0.154109 0.199288 0.224878 0.227584 0.20666 0.167344 0.118355 0.0684634 0.0269514 -0.00187724 -0.0172878 -0.0216262 -0.0196168 -0.0147137 -0.00957848 -0.00558397 -0.00288998 -0.0013868 -0.000669464 -0.000360351 -0.000138333 0 0 
0 0 -5.92665e-05 -0.000128699 -0.00018972 -0.000365099 -0.000760998 -0.00165003 -0.00342522 -0.00652222 -0.0116594 -0.0185846 -0.0258917 -0.0313492 -0.0305258 -0.0199824 0.00338119 0.041376 0.0902234 0.144865 0.19558 0.232193 0.248659 0.240503 0.21059 0.163967 0.107359 0.0495643 -0.00338666 -0.0447569 -0.0713152 -0.0822725 -0.0784753 -0.0645494 -0.044621 -0.0240896 -0.00710659 0.00398821 0.00777806 0.00557024 -0.00149294 -0.0108066 -0.0202727 -0.0284051 -0.0337019 -0.0362421 -0.0356504 -0.0330269 -0.0289194 -0.0244551 -0.0207384 -0.0182455 -0.0178465 -0.0193536 -0.0231749 -0.028695 -0.0356318 -0.043406 -0.0512367 -0.0588322 -0.0652048 -0.0704026 -0.0738206 -0.0758861 -0.0764405 -0.0760434 -0.0750051 -0.0737067 -0.0720901 -0.0692138 -0.0637099 -0.0537429 -0.0394799 -0.0235129 -0.0117391 -0.00998235 -0.0212013 -0.041764 -0.0636073 -0.0782284 -0.0818802 -0.0762578 -0.0660951 -0.0554893 -0.0455182 -0.0355416 -0.0237919 -0.00959674 0.00749438 0.0263921 0.0467202 0.0678342 0.0896523 0.110514 0.128812 0.143379 0.154837 0.16376 0.171009 0.176897 0.181364 0.182854 0.17987 0.171996 0.160421 0.145931 0.129182 0.11023 0.0896735 0.067694 0.0453504 0.0235127 0.00362877 -0.0138418 -0.0280107 -0.0395887 -0.0491287 -0.0570943 -0.0623067 -0.0637684 -0.0608379 -0.0543338 -0.0468409 -0.0409504 -0.0380045 -0.0375489 -0.0388927 -0.0410217 -0.0441431 -0.04818 -0.0531514 -0.0583108 -0.0634505 -0.0679491 -0.0715872 -0.0741532 -0.0755364 -0.0756111 -0.0738553 -0.0704245 -0.0651099 -0.058822 -0.051442 -0.0437701 -0.0361519 -0.0293381 -0.0237799 -0.0197898 -0.0181446 -0.0185698 -0.0211755 -0.0248354 -0.0291829 -0.0330781 -0.0354053 -0.0356791 -0.0328139 -0.0272882 -0.0190307 -0.00965992 -0.00062134 0.00605983 0.00783092 0.00357176 -0.00795966 -0.0253584 -0.0462722 -0.0665369 -0.0806909 -0.0845526 -0.0734791 -0.046628 -0.00484 0.048524 0.105966 0.162002 0.208168 0.23781 0.245939 0.229685 0.193499 0.143315 0.0892511 0.0408949 0.00328787 -0.0198556 -0.0302946 -0.0311082 -0.0257007 -0.0184541 -0.011588 -0.00649344 -0.00342054 -0.0016597 -0.000776024 -0.000385342 -0.000222897 -9.07102e-05 0 0 
0 0 -4.9243e-05 -0.000104376 -0.000143722 -0.000233174 -0.000390333 -0.000805926 -0.00180052 -0.00376216 -0.00752299 -0.0133768 -0.0212926 -0.0309837 -0.0396882 -0.0445562 -0.0410889 -0.0244066 0.00608696 0.0503405 0.102826 0.155939 0.202712 0.234361 0.247115 0.238368 0.208872 0.16378 0.108188 0.0504791 -0.0024326 -0.0450608 -0.0731909 -0.0869043 -0.0866038 -0.0759686 -0.058774 -0.0388536 -0.02063 -0.00598082 0.00255481 0.00511161 0.00211343 -0.00516508 -0.0143547 -0.0241561 -0.0322067 -0.0379288 -0.0404862 -0.0400233 -0.0374097 -0.033119 -0.028765 -0.0247127 -0.0223384 -0.0218675 -0.0237079 -0.0278249 -0.0335914 -0.0409293 -0.0487192 -0.0567806 -0.064053 -0.0705047 -0.0755978 -0.079587 -0.0823529 -0.083989 -0.0844252 -0.0825655 -0.0773095 -0.0667863 -0.0510644 -0.0326114 -0.0177989 -0.0129783 -0.0216509 -0.0399406 -0.059131 -0.0700577 -0.0690288 -0.0591875 -0.0467089 -0.0359452 -0.0271836 -0.0185061 -0.00803699 0.00441114 0.0187651 0.0345268 0.0520189 0.0706717 0.0901168 0.108761 0.125366 0.138537 0.148311 0.154878 0.159549 0.163226 0.16661 0.168629 0.167554 0.162135 0.152917 0.140385 0.12551 0.108419 0.0896571 0.0694003 0.0490748 0.0299676 0.0136719 0.000236465 -0.0103225 -0.0194173 -0.0283743 -0.0375093 -0.0451192 -0.0492693 -0.0488623 -0.0448416 -0.0400848 -0.0374872 -0.0381956 -0.0413097 -0.0457211 -0.0502345 -0.0553619 -0.0609284 -0.0669059 -0.0720418 -0.0760319 -0.0781794 -0.0786766 -0.0775053 -0.0745066 -0.0699944 -0.0638325 -0.056668 -0.0486674 -0.0409686 -0.0337734 -0.0281509 -0.0242781 -0.022619 -0.0231787 -0.0254167 -0.0293175 -0.0336448 -0.037918 -0.0405255 -0.0408654 -0.0381067 -0.0321079 -0.0237628 -0.01373 -0.00435975 0.0030367 0.0060577 0.00344461 -0.00520725 -0.0200003 -0.0384704 -0.0586715 -0.0762248 -0.0872688 -0.088013 -0.0747494 -0.0469964 -0.00464248 0.0481718 0.105953 0.161729 0.206516 0.235716 0.244391 0.231794 0.200512 0.154244 0.101702 0.0497526 0.00594892 -0.0242402 -0.0407576 -0.0441926 -0.0393712 -0.0307495 -0.0211447 -0.0132962 -0.00749073 -0.00375889 -0.00181042 -0.000822299 -0.000407356 -0.000251129 -0.000166089 -7.17461e-05 0 0 
0 0 -4.41897e-05 -9.39383e-05 -0.000124737 -0.000166312 -0.000205596 -0.000382553 -0.000888998 -0.0018819 -0.00398146 -0.00770452 -0.0138533 -0.0233262 -0.0347564 -0.0466752 -0.0559149 -0.0581715 -0.0511854 -0.0309194 0.00284659 0.0478409 0.099981 0.150777 0.193827 0.222564 0.233008 0.225179 0.199055 0.159071 0.109517 0.0561651 0.00565395 -0.0375863 -0.0688257 -0.0867686 -0.0914427 -0.0845289 -0.0700848 -0.0511329 -0.0321928 -0.0156891 -0.00379162 0.0023533 0.00342555 -0.00041284 -0.00707934 -0.0156403 -0.0243185 -0.0320385 -0.0380941 -0.0416605 -0.0431749 -0.0424751 -0.0405901 -0.0379878 -0.0355584 -0.0340809 -0.0337458 -0.0351957 -0.0380538 -0.0426609 -0.0481713 -0.0545316 -0.0610317 -0.0676164 -0.0738989 -0.079437 -0.0837579 -0.0855466 -0.083617 -0.0757703 -0.0619898 -0.0443517 -0.02944 -0.0239113 -0.0316297 -0.0485962 -0.065581 -0.0729755 -0.0674887 -0.0534805 -0.0382883 -0.0264351 -0.0173676 -0.0082891 0.00257207 0.0146634 0.0276782 0.0418109 0.0578219 0.0751615 0.0931462 0.110441 0.126169 0.138856 0.148059 0.153517 0.156659 0.158601 0.160753 0.162474 0.162555 0.159059 0.151705 0.140387 0.126257 0.109711 0.0915127 0.0721666 0.0533085 0.0363535 0.0226732 0.0118467 0.00283729 -0.00632047 -0.0168557 -0.0285791 -0.039186 -0.0462084 -0.0483882 -0.0469012 -0.0447577 -0.0446954 -0.0476934 -0.0524638 -0.0576131 -0.0618599 -0.0659611 -0.0698432 -0.0735606 -0.0755706 -0.0756996 -0.073609 -0.0700945 -0.0654198 -0.059772 -0.0537439 -0.0476533 -0.0423614 -0.0379353 -0.0351926 -0.0338374 -0.0343446 -0.036088 -0.0387886 -0.0415341 -0.0434139 -0.0439944 -0.042341 -0.038702 -0.0325655 -0.0247259 -0.015861 -0.00704894 -0.000190122 0.00377194 0.00276296 -0.00329848 -0.0151005 -0.0315141 -0.050384 -0.0693103 -0.0838023 -0.0907958 -0.0862947 -0.0685738 -0.0376889 0.00514168 0.0551432 0.108031 0.157148 0.196857 0.222785 0.230532 0.220173 0.191747 0.149129 0.0988739 0.047264 0.00274828 -0.0306913 -0.0507479 -0.0576743 -0.0554422 -0.0462947 -0.0344882 -0.0231628 -0.0137757 -0.00767719 -0.00398246 -0.00189546 -0.000906526 -0.000402731 -0.000223886 -0.000182113 -0.000140182 -6.53785e-05 0 0 
0 0 -4.11345e-05 -8.33781e-05 -0.000103075 -0.000132622 -0.000162933 -0.000239989 -0.000409049 -0.000737665 -0.00171498 -0.00378995 -0.00759492 -0.0140977 -0.0232721 -0.0354585 -0.0495276 -0.0626077 -0.0721543 -0.0733299 -0.0633588 -0.0408613 -0.00586275 0.0376127 0.085788 0.132746 0.172904 0.202219 0.216088 0.21351 0.19428 0.160539 0.1171 0.068338 0.0205109 -0.0220777 -0.0556129 -0.0777574 -0.0884163 -0.088015 -0.0790797 -0.0641858 -0.0464109 -0.028884 -0.0137275 -0.00304401 0.00275247 0.00325791 -0.000550269 -0.00765346 -0.0166822 -0.0259801 -0.0348393 -0.0419985 -0.0475379 -0.051036 -0.052925 -0.0535232 -0.05328 -0.0527738 -0.0522191 -0.0522464 -0.0526596 -0.0537495 -0.0553071 -0.0576821 -0.0607051 -0.0640706 -0.0671957 -0.0689652 -0.0679268 -0.061962 -0.0504153 -0.0352535 -0.0226047 -0.0192279 -0.0288669 -0.0473432 -0.0648715 -0.0716637 -0.0648341 -0.0496731 -0.0342369 -0.0230158 -0.014564 -0.00566431 0.00516616 0.0165849 0.0281695 0.0406494 0.0552609 0.0713234 0.0879085 0.103816 0.118754 0.13127 0.140409 0.145686 0.148212 0.149116 0.149954 0.150752 0.151075 0.148852 0.142881 0.132529 0.118698 0.102249 0.0845681 0.0664953 0.0498351 0.0356025 0.0246232 0.0158789 0.00777147 -0.00177642 -0.0133178 -0.0260617 -0.0373167 -0.0446552 -0.0468881 -0.0453352 -0.0429182 -0.0422788 -0.0442095 -0.0474392 -0.0505138 -0.0524126 -0.0540823 -0.0560718 -0.0583665 -0.0596512 -0.0595766 -0.058355 -0.056891 -0.0554646 -0.0539826 -0.0527197 -0.051789 -0.0517312 -0.0519736 -0.0526442 -0.0532366 -0.0536494 -0.053364 -0.0517746 -0.0485347 -0.043105 -0.0358785 -0.0268307 -0.0173355 -0.00814556 -0.000917358 0.00303541 0.00268393 -0.00303499 -0.013657 -0.0287975 -0.0462529 -0.0638974 -0.0786667 -0.087482 -0.0878175 -0.0770826 -0.0548818 -0.0212995 0.021256 0.0689532 0.117462 0.160543 0.193856 0.212601 0.214695 0.200359 0.171195 0.131407 0.0849266 0.0371993 -0.00583177 -0.0405139 -0.0627835 -0.0726759 -0.0715134 -0.062074 -0.049119 -0.0351845 -0.0231148 -0.0140212 -0.00757543 -0.00379749 -0.00173633 -0.000761625 -0.000430821 -0.000260936 -0.000180026 -0.000146767 -0.000118021 -5.72056e-05 0 0 
0 0 -3.61465e-05 -7.26543e-05 -8.92313e-05 -0.000120515 -0.000156423 -0.000176298 -0.000181497 -0.000246953 -0.000656275 -0.0016205 -0.00341065 -0.00677264 -0.0124462 -0.0215675 -0.0343133 -0.0492559 -0.064766 -0.0777709 -0.0856777 -0.0858641 -0.0754057 -0.0535059 -0.0203046 0.0215167 0.0675825 0.113462 0.153733 0.184538 0.202583 0.205849 0.194348 0.168854 0.132522 0.0890701 0.0432801 6.22381e-05 -0.036858 -0.0643366 -0.0813069 -0.0877729 -0.0850444 -0.0755661 -0.0614975 -0.0458374 -0.0305486 -0.0176297 -0.00830766 -0.00317697 -0.00242123 -0.005477 -0.0117796 -0.0202599 -0.0300716 -0.0399583 -0.0491915 -0.0571157 -0.0632303 -0.0675616 -0.0699171 -0.0708838 -0.0704908 -0.069107 -0.0670351 -0.0648465 -0.0629348 -0.0612526 -0.0594753 -0.056769 -0.0519925 -0.0432359 -0.0297129 -0.0131788 0.000420065 0.00432811 -0.00500082 -0.0232604 -0.0405142 -0.0468601 -0.0398606 -0.0252636 -0.0115592 -0.00272558 0.00335852 0.0103838 0.0193207 0.0282545 0.0366026 0.0458488 0.0573772 0.0705825 0.0840988 0.0972805 0.110148 0.1215 0.130019 0.13511 0.137403 0.13774 0.137314 0.136939 0.136812 0.135365 0.130789 0.122018 0.109545 0.0945911 0.0790379 0.0644499 0.0521578 0.0425673 0.035483 0.0296777 0.0233486 0.0149835 0.00461395 -0.00655138 -0.0161488 -0.0219949 -0.0232029 -0.0209514 -0.0181296 -0.0172955 -0.0194114 -0.0230415 -0.026726 -0.0296926 -0.0330202 -0.0375328 -0.04308 -0.0481947 -0.0523441 -0.0557334 -0.0592577 -0.0626985 -0.0656541 -0.0678821 -0.0693515 -0.0701684 -0.0695384 -0.0672743 -0.063005 -0.0570947 -0.049463 -0.0405209 -0.0309277 -0.0213751 -0.0129488 -0.00645605 -0.00315758 -0.00367676 -0.00866433 -0.0178951 -0.0307647 -0.0460318 -0.0616572 -0.0756865 -0.0850923 -0.0877077 -0.0811491 -0.0640846 -0.0365532 0.000486136 0.0438283 0.0897882 0.133333 0.169711 0.195151 0.206533 0.20306 0.184682 0.153448 0.112694 0.0670709 0.021445 -0.0199835 -0.0529024 -0.074631 -0.0850287 -0.0848764 -0.0770701 -0.0642048 -0.0488503 -0.0340529 -0.0214276 -0.0123918 -0.00676306 -0.00342701 -0.0016481 -0.000686183 -0.0002755 -0.000205403 -0.000196039 -0.000172688 -0.000135285 -0.000104173 -4.90024e-05 0 0 
0 0 -3.04615e-05 -6.62266e-05 -8.71747e-05 -0.00010788 -0.000122581 -0.00012124 -0.000143082 -0.00019321 -0.00024225 -0.000442971 -0.00104778 -0.00262064 -0.00579803 -0.0110074 -0.0190537 -0.0303077 -0.0446115 -0.060966 -0.0768985 -0.0898256 -0.0968223 -0.0955026 -0.08438 -0.0627268 -0.0313976 0.00791665 0.0520807 0.0969618 0.13827 0.171701 0.194009 0.202882 0.197609 0.178931 0.148886 0.110773 0.0683534 0.0257047 -0.0134119 -0.0460913 -0.0702132 -0.0851472 -0.0909837 -0.0889838 -0.0809087 -0.0689071 -0.0550498 -0.0413153 -0.0293023 -0.0200782 -0.0144482 -0.012553 -0.0142507 -0.018927 -0.0258268 -0.034121 -0.0428861 -0.0513463 -0.0588938 -0.0651699 -0.0697978 -0.0724717 -0.07327 -0.0727326 -0.0711487 -0.0685983 -0.0648247 -0.0593923 -0.0514599 -0.0394945 -0.0227742 -0.00329681 0.0133741 0.0202845 0.0142289 -0.000857514 -0.0149415 -0.0186347 -0.00985551 0.00533202 0.0184766 0.0261191 0.0310113 0.0370385 0.0446341 0.0515428 0.0571318 0.0632755 0.0717773 0.0817159 0.091817 0.101801 0.112171 0.12191 0.129594 0.134519 0.137038 0.137311 0.136009 0.134324 0.133164 0.13156 0.12787 0.120777 0.110414 0.0979788 0.0857112 0.0754258 0.0680077 0.0626758 0.0586091 0.0544275 0.0489454 0.0413889 0.0320048 0.0219352 0.0130701 0.00729422 0.0053552 0.00621196 0.00722245 0.00572222 0.000936632 -0.00579145 -0.0125237 -0.0188793 -0.0257695 -0.0341109 -0.0432473 -0.0515943 -0.0582422 -0.0633966 -0.0676579 -0.0707483 -0.0719432 -0.0711005 -0.0684876 -0.0642757 -0.0583626 -0.0508939 -0.0424862 -0.033945 -0.0259072 -0.0192546 -0.0148564 -0.0135003 -0.0155493 -0.0210763 -0.0300695 -0.0418804 -0.0554833 -0.0692957 -0.0813201 -0.0893998 -0.0913341 -0.0853971 -0.0703745 -0.0461606 -0.0134464 0.0257005 0.0683762 0.110906 0.149183 0.179405 0.198239 0.203611 0.194828 0.172575 0.13917 0.0977671 0.0526966 0.008224 -0.0308127 -0.0618415 -0.0833067 -0.0943921 -0.0957681 -0.0889058 -0.0761519 -0.0604135 -0.0442371 -0.0300821 -0.0189406 -0.010963 -0.0058049 -0.00264963 -0.00108527 -0.0004808 -0.000275935 -0.000221744 -0.000166169 -0.000140542 -0.000140062 -0.000123232 -9.81851e-05 -4.63231e-05 0 0 
0 0 -2.69106e-05 -6.02755e-05 -7.84653e-05 -8.62138e-05 -9.95516e-05 -0.000103162 -0.000141407 -0.000184875 -7.98588e-05 -7.85233e-05 -0.000265997 -0.000844447 -0.00236481 -0.00462599 -0.00866957 -0.0153655 -0.0249945 -0.0382448 -0.0532983 -0.0689269 -0.0833646 -0.0940286 -0.0997664 -0.0979681 -0.087381 -0.0672279 -0.0374535 -0.000456781 0.0413642 0.0841299 0.124087 0.158004 0.182619 0.196264 0.197281 0.185749 0.162743 0.130207 0.0915069 0.0499237 0.00928089 -0.0274662 -0.0578189 -0.0802734 -0.0946099 -0.100875 -0.100253 -0.0939167 -0.0835536 -0.0708496 -0.0572858 -0.0444694 -0.0332154 -0.0245174 -0.0185402 -0.0156507 -0.0155428 -0.0177728 -0.0219574 -0.0274226 -0.0337373 -0.0397308 -0.0453053 -0.0500933 -0.0542663 -0.0572303 -0.0584933 -0.0574449 -0.0532338 -0.0443782 -0.0301897 -0.0125707 0.00316321 0.0102919 0.00573407 -0.0067984 -0.0178253 -0.0186403 -0.00762197 0.00885604 0.0227231 0.0309583 0.0367029 0.0437396 0.0520855 0.0591341 0.0641722 0.0694249 0.0765874 0.0848546 0.0927987 0.100784 0.109477 0.11832 0.125718 0.131133 0.134476 0.135443 0.133809 0.130893 0.127928 0.124929 0.1207 0.11446 0.105965 0.0961659 0.0868367 0.0798495 0.0752071 0.071596 0.0676592 0.0625681 0.0558087 0.047356 0.0375099 0.0269042 0.0170664 0.00978719 0.00600061 0.00470192 0.00355159 7.35911e-05 -0.00629658 -0.0140143 -0.0210413 -0.0270561 -0.032926 -0.0394289 -0.0458055 -0.0504031 -0.0524529 -0.0523794 -0.0510649 -0.0483214 -0.0440526 -0.0383616 -0.0323522 -0.026464 -0.0213212 -0.0171692 -0.0149934 -0.0153399 -0.0184387 -0.0245429 -0.033461 -0.04507 -0.0581316 -0.0717001 -0.0843334 -0.0945889 -0.10085 -0.101444 -0.095231 -0.08087 -0.0582988 -0.0277907 0.00906492 0.0497266 0.0913385 0.129998 0.1626 0.185686 0.197382 0.196491 0.18298 0.15846 0.124668 0.0848467 0.0422376 0.000505848 -0.0364433 -0.0662776 -0.0862179 -0.0966838 -0.0984701 -0.0928617 -0.0823706 -0.0681575 -0.0527438 -0.0378898 -0.0247987 -0.0152806 -0.00865511 -0.00464147 -0.00239985 -0.000890676 -0.000309932 -0.000118256 -0.000114202 -0.000212468 -0.000164073 -0.00012258 -0.000117599 -0.000100364 -8.65288e-05 -4.37024e-05 0 0 
0 0 -2.41697e-05 -5.06633e-05 -5.97209e-05 -6.80363e-05 -0.000105961 -0.000105637 -9.79496e-05 -0.000129194 -8.48586e-05 -0.000247223 -0.000345148 -0.000239999 -0.000717399 -0.00145891 -0.00345084 -0.006917 -0.0114244 -0.0187983 -0.0283808 -0.0406831 -0.0550285 -0.0689025 -0.0817098 -0.0907175 -0.0950369 -0.0934855 -0.084124 -0.0671077 -0.0415577 -0.00915306 0.0280043 0.0674608 0.105207 0.1389 0.165146 0.182123 0.188561 0.183418 0.16766 0.141813 0.108621 0.0705165 0.0306968 -0.0076072 -0.0421609 -0.0704294 -0.0916256 -0.104946 -0.110783 -0.109782 -0.102944 -0.091893 -0.0776901 -0.061986 -0.0457923 -0.0305856 -0.0171229 -0.00610688 0.00188361 0.00670945 0.0082085 0.00720884 0.00372985 -0.00170958 -0.00895344 -0.0170536 -0.0249335 -0.0316005 -0.0356532 -0.0355464 -0.0300766 -0.0208902 -0.0125259 -0.0111186 -0.019342 -0.0338255 -0.0456141 -0.0470216 -0.0368404 -0.0214761 -0.00831655 -0.000165631 0.00628836 0.0144265 0.0239385 0.0319413 0.0377519 0.0435109 0.0507181 0.0584961 0.065528 0.0725981 0.0806324 0.0892107 0.0968483 0.103177 0.107703 0.109763 0.108281 0.104396 0.0993117 0.0939939 0.0880823 0.0818255 0.0749607 0.0677414 0.0610262 0.0559966 0.0520684 0.0478217 0.0422138 0.0351114 0.026718 0.0173144 0.00709722 -0.00378298 -0.0138411 -0.0212612 -0.0248154 -0.0256212 -0.0255973 -0.0269785 -0.0299597 -0.0331823 -0.0346049 -0.0341459 -0.0326433 -0.0311454 -0.0290465 -0.0253027 -0.0194288 -0.0126123 -0.00605483 -0.000143023 0.00484082 0.00852233 0.00957158 0.00769574 0.00255906 -0.00542341 -0.0164749 -0.0301518 -0.0455127 -0.0617432 -0.0775528 -0.0920497 -0.103386 -0.11036 -0.111467 -0.105693 -0.0923694 -0.0711956 -0.0429458 -0.00836834 0.0301083 0.0700903 0.108294 0.141501 0.16734 0.183092 0.188296 0.181958 0.165089 0.138926 0.105315 0.0676422 0.0282914 -0.00873568 -0.0409816 -0.0663666 -0.0832204 -0.0924476 -0.0938824 -0.0895467 -0.0805967 -0.0679467 -0.0542595 -0.0401284 -0.0280289 -0.0185967 -0.0113389 -0.00689163 -0.00347378 -0.00150112 -0.000763132 -0.000288664 -0.000386492 -0.000284745 -0.000118474 -0.000157069 -0.000121481 -0.000124516 -0.000122768 -8.11618e-05 -6.89466e-05 -3.59526e-05 0 0 
0 0 -2.00192e-05 -4.15055e-05 -4.77731e-05 -5.93071e-05 -0.000103497 -9.62762e-05 -9.71428e-05 -0.00017868 -0.000170018 -0.000357348 -0.000429561 -0.000203567 -0.000389305 -0.000268566 -0.000736581 -0.00187311 -0.00311947 -0.00629012 -0.0104716 -0.0171177 -0.0265497 -0.0372339 -0.0498478 -0.0620181 -0.0731688 -0.082354 -0.0874099 -0.0880949 -0.0822615 -0.0694666 -0.0494872 -0.0224511 0.00911019 0.0439543 0.078597 0.110648 0.137764 0.157416 0.168746 0.170063 0.161918 0.144476 0.119111 0.0881042 0.0532665 0.0180473 -0.0156955 -0.0452209 -0.0692106 -0.0864505 -0.0964034 -0.099635 -0.0962947 -0.0878388 -0.0751618 -0.0600212 -0.0436013 -0.0271074 -0.0118887 0.00132956 0.0115195 0.0188975 0.0227643 0.0233369 0.0203014 0.0145614 0.00701591 -0.00120194 -0.00864499 -0.0137026 -0.0149174 -0.0135477 -0.0130404 -0.0187939 -0.03251 -0.0511722 -0.0664711 -0.0716909 -0.0657818 -0.0547857 -0.0452043 -0.0394516 -0.0343409 -0.0269871 -0.0179932 -0.0100892 -0.00419442 0.00167442 0.00854028 0.0157081 0.0218707 0.0281367 0.0354855 0.0437639 0.0514417 0.0584045 0.0639575 0.0669989 0.0659374 0.0614513 0.0545715 0.0468363 0.0391023 0.0327658 0.0276855 0.0235573 0.0197245 0.016284 0.0122895 0.00708716 0.000222452 -0.00758897 -0.0160157 -0.024641 -0.0334952 -0.0424848 -0.0502174 -0.0549269 -0.0553434 -0.0526342 -0.0483815 -0.0446768 -0.0415977 -0.0381806 -0.0326096 -0.0254283 -0.0173624 -0.00998217 -0.00293123 0.00435693 0.0119889 0.0186116 0.0229153 0.0247194 0.0237288 0.0200581 0.0127714 0.0022215 -0.0112193 -0.0263814 -0.0429132 -0.0595038 -0.0747406 -0.0873413 -0.095791 -0.0993302 -0.0963711 -0.0866651 -0.0697091 -0.0459593 -0.0165372 0.0171819 0.0524054 0.087277 0.118428 0.143895 0.16142 0.169573 0.168284 0.156972 0.137401 0.11039 0.0784157 0.0438425 0.00904542 -0.0224645 -0.0494488 -0.0693514 -0.0820235 -0.0877182 -0.0868388 -0.0815871 -0.0723511 -0.0612126 -0.0490919 -0.0365773 -0.0260183 -0.0167265 -0.0102185 -0.0061423 -0.00305969 -0.00186542 -0.000768741 -0.000314947 -0.000434812 -0.000250569 -0.000468933 -0.000392965 -0.00020247 -0.000206463 -0.000120832 -0.000114233 -0.000119599 -7.28288e-05 -5.75522e-05 -2.88411e-05 0 0 
0 0 -1.59462e-05 -3.74094e-05 -4.85513e-05 -5.62523e-05 -9.04567e-05 -9.95922e-05 -0.000156967 -0.000276219 -0.000217314 -0.000271519 -0.000250588 -7.62114e-05 -0.000211561 0.000462773 0.00114516 0.00157098 0.00219286 0.00134142 0.000236059 -0.00199892 -0.00611127 -0.0116023 -0.0201636 -0.0303267 -0.0419993 -0.0544201 -0.0656746 -0.0760044 -0.083142 -0.0866024 -0.085142 -0.0772374 -0.0633108 -0.0426147 -0.0169496 0.0123697 0.0433558 0.0733284 0.100844 0.123311 0.139858 0.149092 0.150505 0.144335 0.130703 0.111349 0.087205 0.0606895 0.0334754 0.00759277 -0.015206 -0.0340098 -0.0476561 -0.0563529 -0.0599002 -0.0593821 -0.0553064 -0.0486547 -0.040631 -0.0319889 -0.0239342 -0.0165986 -0.010915 -0.00717627 -0.00601248 -0.006926 -0.00957484 -0.0129543 -0.0162076 -0.0180579 -0.017404 -0.0153536 -0.0147426 -0.020041 -0.0324958 -0.0492335 -0.0631333 -0.0684945 -0.0644764 -0.0562162 -0.0491273 -0.0450133 -0.0411961 -0.0351742 -0.0275891 -0.0208448 -0.0157615 -0.0108424 -0.00522662 0.000250505 0.004778 0.0094238 0.0152627 0.0222444 0.0291409 0.0357443 0.0413361 0.0446985 0.0440111 0.0393717 0.0316659 0.0226791 0.0141695 0.00845136 0.0058752 0.00538048 0.0049932 0.00356099 0.000122071 -0.00534312 -0.0120173 -0.0190143 -0.0260968 -0.0331616 -0.0403495 -0.047439 -0.0532481 -0.0562605 -0.0555725 -0.0522222 -0.0475678 -0.0434091 -0.0398743 -0.036355 -0.0314633 -0.0256823 -0.0198031 -0.015164 -0.0114733 -0.00817207 -0.00514358 -0.003283 -0.00362133 -0.00591751 -0.0100556 -0.015561 -0.0228893 -0.0312135 -0.0400356 -0.0479863 -0.0546258 -0.0588252 -0.0593821 -0.0556831 -0.0469068 -0.0333522 -0.0147442 0.00776186 0.0332819 0.0600799 0.0864125 0.110484 0.129837 0.143511 0.149728 0.148359 0.139153 0.12265 0.100267 0.0727847 0.0429153 0.0120002 -0.0172222 -0.0428382 -0.0634825 -0.0773895 -0.0852735 -0.0867004 -0.0831908 -0.0759552 -0.0654969 -0.0540628 -0.0416367 -0.0299776 -0.0198167 -0.0112657 -0.005795 -0.0017291 0.000446102 0.00147915 0.00225744 0.00159216 0.00112949 0.000432998 -0.000248229 -0.000118612 -0.000290187 -0.000307295 -0.000249087 -0.000303719 -0.000179447 -0.000117111 -0.000107525 -6.9635e-05 -5.51977e-05 -2.82474e-05 0 0 
0 0 -1.51169e-05 -3.70494e-05 -5.38954e-05 -6.36778e-05 -9.69729e-05 -0.00011765 -0.000172259 -0.000240383 -0.000111896 -3.53249e-05 0.000173058 0.000635155 0.000933738 0.00187774 0.00285473 0.00390256 0.00548333 0.00608911 0.00672651 0.00648765 0.00504432 0.00305635 -0.00121562 -0.00709343 -0.0153928 -0.0260351 -0.0377971 -0.0508231 -0.0632928 -0.074879 -0.0847353 -0.0913158 -0.0942724 -0.0916979 -0.0834824 -0.0689453 -0.0484716 -0.0236223 0.00483262 0.0343625 0.0637423 0.0909549 0.114646 0.133853 0.147218 0.154744 0.155529 0.150155 0.138795 0.122555 0.102781 0.0805914 0.0578949 0.0355066 0.0149637 -0.00349588 -0.0191748 -0.0320632 -0.0423354 -0.0503125 -0.0565982 -0.061085 -0.0646443 -0.0673094 -0.069827 -0.0718377 -0.0731912 -0.0734733 -0.0720053 -0.0683111 -0.0618375 -0.0538515 -0.0468528 -0.0445485 -0.0479258 -0.0548649 -0.0598115 -0.0584434 -0.0501332 -0.0389556 -0.0291779 -0.0221568 -0.0158365 -0.00817898 0.000281319 0.00766973 0.013357 0.0185043 0.0235794 0.0281191 0.0315846 0.0351052 0.0395275 0.0451296 0.0508201 0.0564827 0.0614295 0.0645054 0.0639424 0.0595879 0.0520307 0.0430454 0.0348253 0.0301451 0.0294899 0.0315295 0.0333067 0.0329712 0.0294219 0.023439 0.0163156 0.00909381 0.00160393 -0.00643361 -0.0150599 -0.0238889 -0.0320887 -0.0385537 -0.0427285 -0.0452939 -0.0472096 -0.0499931 -0.0536239 -0.057485 -0.0603337 -0.0624399 -0.0641977 -0.0663599 -0.0683079 -0.0695097 -0.0694059 -0.0686282 -0.067654 -0.0660832 -0.0637971 -0.0602041 -0.0557364 -0.0497126 -0.0418403 -0.0314715 -0.0185444 -0.0029253 0.0155499 0.0362739 0.0587906 0.0814869 0.10355 0.123085 0.138916 0.149829 0.154945 0.154018 0.146475 0.133057 0.11383 0.0900783 0.0628579 0.0335252 0.0041073 -0.0242768 -0.0490187 -0.069416 -0.0838537 -0.092008 -0.0945233 -0.0915485 -0.084945 -0.0750754 -0.0634665 -0.0509662 -0.0378761 -0.0260095 -0.0153885 -0.00709204 -0.00117382 0.00315879 0.00521443 0.0066816 0.00692407 0.006248 0.00559201 0.00396263 0.00286968 0.0018641 0.000901934 0.000595192 0.000134586 -7.04914e-05 -0.000142863 -0.00026689 -0.000194069 -0.000135986 -0.000114942 -7.58748e-05 -5.77711e-05 -3.07177e-05 0 0 
0 0 -1.90426e-05 -3.89606e-05 -5.64834e-05 -7.47553e-05 -0.000103408 -8.90925e-05 -4.26453e-05 3.89582e-05 0.000271049 0.000535101 0.00104841 0.00189194 0.00267775 0.00379786 0.00479965 0.00582571 0.00733734 0.00841225 0.00967812 0.0103585 0.0101686 0.00944754 0.0073257 0.00428996 -0.000390817 -0.00718351 -0.0159148 -0.027148 -0.0399017 -0.0538311 -0.068087 -0.0813908 -0.0932552 -0.1022 -0.107549 -0.108006 -0.102661 -0.091185 -0.073133 -0.0494327 -0.0207974 0.0110449 0.0442969 0.077388 0.108205 0.135609 0.157977 0.174536 0.184467 0.187545 0.183867 0.173645 0.157899 0.137236 0.113082 0.0863753 0.0584574 0.0305077 0.00333776 -0.0221099 -0.0454306 -0.0659891 -0.0838414 -0.0987711 -0.111052 -0.120454 -0.126882 -0.13013 -0.130069 -0.126449 -0.119365 -0.109981 -0.100381 -0.093316 -0.0895998 -0.0877396 -0.0840606 -0.0756062 -0.0622769 -0.0468211 -0.0323102 -0.0198853 -0.00830014 0.003649 0.0156022 0.0262789 0.0352281 0.0430662 0.050139 0.0561276 0.0608808 0.0652863 0.0700571 0.0754616 0.0807782 0.085871 0.090147 0.0927377 0.0921919 0.0883048 0.0814873 0.0732996 0.0657406 0.0613052 0.0604648 0.0618707 0.0626701 0.0608188 0.0553831 0.0471741 0.0376395 0.0276249 0.0168949 0.00511097 -0.00758946 -0.0208062 -0.0337664 -0.0457522 -0.0563621 -0.0658171 -0.0747974 -0.0840696 -0.0935538 -0.102658 -0.110393 -0.116687 -0.121637 -0.125446 -0.127489 -0.127073 -0.123799 -0.117714 -0.109067 -0.0975305 -0.0829888 -0.0652121 -0.0447509 -0.0216178 0.00376826 0.0309938 0.0590087 0.0869283 0.113681 0.138008 0.158818 0.174621 0.184792 0.188293 0.184883 0.174562 0.157718 0.13516 0.107668 0.0767226 0.0435168 0.010113 -0.0217896 -0.0504168 -0.0740145 -0.0919808 -0.103356 -0.108601 -0.108047 -0.102605 -0.0936071 -0.0816942 -0.068374 -0.0540849 -0.0401552 -0.0273853 -0.0161459 -0.00736174 -0.000611094 0.00407939 0.00714783 0.00936524 0.0101695 0.0104567 0.00981736 0.00857587 0.00747337 0.00592812 0.00485467 0.00381167 0.00266652 0.0018634 0.00101388 0.000500364 0.000239475 1.16246e-05 -6.58678e-05 -0.000108805 -0.000120765 -8.65168e-05 -6.22192e-05 -3.16301e-05 0 0 
0 0 -2.502e-05 -4.63415e-05 -4.87885e-05 -4.87226e-05 -2.94336e-05 6.6857e-05 0.0002744 0.000592407 0.0010218 0.00155071 0.00230645 0.00331228 0.00437437 0.00546672 0.0063999 0.00724984 0.00823066 0.00914899 0.0101204 0.0108233 0.0110236 0.0106605 0.00946253 0.0075007 0.00447262 4.8871e-05 -0.00603897 -0.0142279 -0.0244295 -0.0364801 -0.0498376 -0.0636962 -0.0773782 -0.0899422 -0.100582 -0.108287 -0.112053 -0.110959 -0.104205 -0.0914924 -0.0728254 -0.0488566 -0.0206499 0.0104953 0.0429254 0.0751491 0.105566 0.132845 0.155801 0.173545 0.185415 0.190991 0.190239 0.18324 0.170487 0.152574 0.130417 0.105008 0.0773402 0.0485249 0.0194957 -0.0088013 -0.0356985 -0.0605509 -0.0829041 -0.102275 -0.118254 -0.130522 -0.138884 -0.143212 -0.143775 -0.141429 -0.137621 -0.133876 -0.130729 -0.127292 -0.121687 -0.112402 -0.0995091 -0.0845538 -0.0693438 -0.0547827 -0.0406198 -0.0265088 -0.0127192 8.43348e-05 0.0115211 0.0217285 0.0308141 0.0386737 0.0453793 0.0513967 0.0571777 0.0628347 0.0680958 0.0727187 0.076262 0.0781071 0.0774887 0.0742389 0.0687421 0.0621179 0.0558267 0.051341 0.0489894 0.0477673 0.0458465 0.0416542 0.0345407 0.0249276 0.0137259 0.00158548 -0.0114303 -0.0253501 -0.0399384 -0.0547732 -0.0692354 -0.0827727 -0.0950411 -0.106008 -0.115919 -0.12497 -0.133005 -0.13957 -0.14406 -0.146193 -0.145906 -0.143087 -0.13739 -0.128392 -0.115927 -0.100082 -0.0811341 -0.0592617 -0.0347702 -0.00808045 0.0200504 0.0489407 0.0777054 0.105404 0.130879 0.153092 0.17108 0.183962 0.191093 0.191936 0.186371 0.174401 0.156447 0.133212 0.105672 0.0750327 0.0426211 0.00999984 -0.0213405 -0.0497391 -0.0738355 -0.092547 -0.105222 -0.11191 -0.112903 -0.109028 -0.101212 -0.0904695 -0.077822 -0.0640713 -0.0501635 -0.036766 -0.0246961 -0.0144802 -0.0062865 -0.000192958 0.00419293 0.00720298 0.00917902 0.0104461 0.0108982 0.0108106 0.0101973 0.00929101 0.00838936 0.00739258 0.00650216 0.00552292 0.00439318 0.00330124 0.00228013 0.00151803 0.000988926 0.000562725 0.000248115 4.5281e-05 -4.62943e-05 -6.28763e-05 -6.43032e-05 -3.12389e-05 0 0 
0 0 -2.79571e-05 -4.09982e-05 -2.17212e-05 1.5719e-05 9.2993e-05 0.000279994 0.000647847 0.00119699 0.00185722 0.00259271 0.0034853 0.00457058 0.00572487 0.00678518 0.00760087 0.00819611 0.0087432 0.0093161 0.00992137 0.0104538 0.0107086 0.0105239 0.00977196 0.00841774 0.00632864 0.00334329 -0.000788669 -0.00642415 -0.0138412 -0.0231753 -0.0342469 -0.04666 -0.0598686 -0.0731896 -0.0859219 -0.097293 -0.106474 -0.112574 -0.114707 -0.112096 -0.104141 -0.0906349 -0.071735 -0.0480301 -0.0204726 0.00972667 0.041204 0.0725273 0.102375 0.129527 0.152928 0.171667 0.185079 0.192679 0.194245 0.189772 0.179527 0.163985 0.143794 0.119772 0.0928765 0.0640488 0.0343216 0.00461992 -0.0241257 -0.0510776 -0.0754885 -0.0967541 -0.114444 -0.128303 -0.138415 -0.145281 -0.149678 -0.152452 -0.153869 -0.153496 -0.150379 -0.143853 -0.134029 -0.12187 -0.108544 -0.0947861 -0.0808218 -0.0667183 -0.0528151 -0.039555 -0.0272985 -0.0161276 -0.00610133 0.00276431 0.010518 0.0174119 0.0236764 0.029372 0.0343466 0.0384317 0.0413139 0.04261 0.0419524 0.0392639 0.0348887 0.0295839 0.0243105 0.0199385 0.0166257 0.0137086 0.00997881 0.00436516 -0.0036006 -0.0137089 -0.0253787 -0.0380746 -0.051582 -0.0656549 -0.0800207 -0.0941943 -0.10766 -0.119922 -0.130616 -0.13956 -0.146695 -0.151963 -0.155135 -0.155863 -0.153751 -0.148556 -0.140169 -0.128576 -0.113638 -0.0953332 -0.0737742 -0.0493348 -0.0225678 0.00587384 0.035263 0.0647321 0.0933428 0.120103 0.144069 0.164291 0.179904 0.19023 0.194788 0.193341 0.185865 0.17257 0.153906 0.130499 0.103239 0.0732026 0.0416456 0.00992353 -0.0205266 -0.048344 -0.0723124 -0.0914636 -0.105165 -0.113228 -0.115855 -0.113677 -0.107484 -0.0981818 -0.0866844 -0.0738304 -0.0604013 -0.0470934 -0.0346063 -0.0234666 -0.0140975 -0.00664916 -0.00101228 0.00310681 0.0060364 0.00807708 0.00941568 0.0102073 0.0104776 0.0103499 0.00994643 0.00944315 0.0089249 0.0083788 0.00775257 0.00688406 0.00577144 0.00457699 0.00346664 0.00256142 0.00182273 0.00116456 0.000618508 0.000256034 7.59552e-05 1.97842e-06 -3.74842e-05 -2.31637e-05 0 0 
0 0 -2.56629e-05 -2.25382e-05 2.96039e-05 0.000126282 0.000276844 0.000547623 0.00104086 0.00178149 0.00265598 0.0035429 0.00446076 0.0054867 0.00658626 0.00758781 0.00830931 0.00870724 0.00892718 0.00914854 0.00945201 0.00975895 0.0099032 0.00971791 0.00911092 0.00802078 0.00638933 0.0041732 0.00123937 -0.00264535 -0.00779777 -0.0145091 -0.0228841 -0.0328715 -0.0441988 -0.0564566 -0.0690956 -0.0815401 -0.0931495 -0.103207 -0.110973 -0.115641 -0.116423 -0.112631 -0.103792 -0.0897486 -0.0707163 -0.0472463 -0.0202296 0.00920782 0.0398527 0.0704667 0.0998084 0.126719 0.150182 0.169347 0.183543 0.192253 0.195273 0.192486 0.184043 0.170314 0.151835 0.129363 0.103748 0.0759836 0.0470852 0.018057 -0.0101445 -0.0367205 -0.0609644 -0.0823912 -0.100804 -0.116209 -0.128907 -0.139156 -0.147044 -0.152254 -0.154337 -0.152962 -0.148287 -0.140943 -0.131725 -0.121281 -0.110005 -0.0982037 -0.0862446 -0.0745069 -0.0633828 -0.0530357 -0.0436114 -0.0351694 -0.0277002 -0.0211048 -0.0152654 -0.0102196 -0.0060241 -0.00280238 -0.000727437 2.37472e-05 -0.000693865 -0.00283394 -0.00618053 -0.0102125 -0.0143586 -0.0181295 -0.021453 -0.0248114 -0.0289331 -0.0345774 -0.0420629 -0.0512641 -0.0617957 -0.0731616 -0.0850659 -0.0971717 -0.109094 -0.120379 -0.13052 -0.139055 -0.145622 -0.149935 -0.151834 -0.151151 -0.14768 -0.141171 -0.131443 -0.118401 -0.102141 -0.0827815 -0.0605676 -0.0357843 -0.00888414 0.0194602 0.0484445 0.0771699 0.104672 0.130004 0.152227 0.170543 0.184213 0.192686 0.195556 0.192636 0.184014 0.169926 0.15089 0.127581 0.100809 0.0715515 0.040929 0.0101627 -0.0194673 -0.0467447 -0.070509 -0.0898579 -0.104233 -0.113387 -0.117445 -0.116832 -0.112234 -0.104456 -0.0943184 -0.0825828 -0.0700013 -0.0572213 -0.0448345 -0.0333739 -0.0232807 -0.0148162 -0.00804108 -0.00284108 0.00105418 0.00396167 0.00609864 0.00764781 0.00868298 0.00930112 0.00956122 0.00956104 0.00941363 0.00925856 0.00912289 0.00892644 0.0085063 0.00772771 0.00666484 0.00551288 0.00445096 0.00351301 0.00262046 0.00174684 0.00100873 0.00052058 0.000258443 0.000114813 1.71566e-05 -6.12298e-06 0 0 
0 0 -1.43503e-05 1.33319e-05 0.00010444 0.000278308 0.000521864 0.000867724 0.00142657 0.0022714 0.00329786 0.004299 0.00517967 0.00602163 0.00691287 0.00778866 0.00847077 0.00880471 0.00885569 0.00881671 0.00882649 0.00890736 0.00888463 0.00855676 0.00785194 0.0067495 0.00524062 0.00333801 0.00101064 -0.00182753 -0.0054408 -0.0101008 -0.0160265 -0.0233807 -0.0321691 -0.042256 -0.0533384 -0.0650265 -0.0768381 -0.0882594 -0.0986945 -0.107511 -0.113968 -0.117331 -0.116829 -0.111907 -0.102172 -0.0875918 -0.0684056 -0.0452229 -0.0188655 0.0096662 0.0392467 0.0686779 0.0968088 0.122608 0.145158 0.163703 0.177632 0.186508 0.190055 0.188183 0.18105 0.168954 0.152501 0.132378 0.109442 0.084585 0.0586935 0.0326364 0.00717006 -0.0170698 -0.0396049 -0.0601209 -0.0784042 -0.0943948 -0.107896 -0.118641 -0.126259 -0.130586 -0.131676 -0.129953 -0.125985 -0.120278 -0.113289 -0.105342 -0.0968815 -0.0882521 -0.079829 -0.0718172 -0.0644288 -0.0577293 -0.0517779 -0.0465633 -0.0420899 -0.0383884 -0.0355189 -0.033521 -0.0324601 -0.0323421 -0.0331555 -0.0347987 -0.0370989 -0.0397745 -0.0425469 -0.0451551 -0.0476223 -0.0502408 -0.0535038 -0.057881 -0.063614 -0.070598 -0.0785621 -0.0870755 -0.0958028 -0.104328 -0.112298 -0.119224 -0.124679 -0.128222 -0.12953 -0.128332 -0.124441 -0.117757 -0.108131 -0.0955214 -0.0799237 -0.061512 -0.0405524 -0.0174577 0.00732826 0.0332318 0.0596274 0.0857228 0.11065 0.133485 0.153385 0.169551 0.181379 0.188335 0.190129 0.186616 0.17783 0.164008 0.145554 0.123099 0.0974308 0.0694769 0.0402439 0.0108342 -0.0176256 -0.0440244 -0.0673717 -0.0868034 -0.101711 -0.111796 -0.117102 -0.117982 -0.114961 -0.108736 -0.100051 -0.0896345 -0.078157 -0.0662195 -0.0543877 -0.0431468 -0.032907 -0.0239594 -0.0164754 -0.0104263 -0.00567922 -0.00199537 0.000859357 0.00315185 0.00494986 0.00634102 0.0073534 0.00803959 0.00843436 0.00861322 0.00872693 0.0089058 0.00907009 0.00906794 0.00871456 0.00797507 0.00702672 0.00607073 0.00517928 0.00427093 0.00326191 0.00223537 0.0013926 0.000837034 0.000500689 0.000269635 9.90963e-05 2.0538e-05 0 0 
0 0 1.0684e-05 7.03524e-05 0.000198344 0.000454286 0.000805037 0.00122375 0.00178851 0.00262075 0.00368764 0.00475615 0.00560559 0.0062375 0.00681851 0.00745554 0.00808596 0.0084958 0.00855743 0.008366 0.00811277 0.00790613 0.00763902 0.00711362 0.00621607 0.0049197 0.00328874 0.00138763 -0.00069895 -0.00300214 -0.00566819 -0.00892901 -0.0129972 -0.0181045 -0.0243945 -0.031938 -0.0406824 -0.0504603 -0.060993 -0.0719057 -0.0827861 -0.0931192 -0.102346 -0.109801 -0.114764 -0.116556 -0.114583 -0.108399 -0.0978018 -0.0828565 -0.0638812 -0.0414447 -0.0163349 0.0104733 0.0379286 0.0650147 0.0907654 0.114267 0.134789 0.151651 0.164329 0.172474 0.175868 0.174553 0.168721 0.158816 0.145374 0.129026 0.110436 0.0902636 0.0691685 0.0477531 0.026595 0.00621379 -0.0129677 -0.0306147 -0.0463966 -0.0599288 -0.0709093 -0.079103 -0.0845272 -0.0873573 -0.0879538 -0.0867134 -0.0840163 -0.0801956 -0.0756399 -0.070657 -0.0655839 -0.0606387 -0.0560182 -0.0518181 -0.0481155 -0.044967 -0.0423998 -0.0405049 -0.039294 -0.0387594 -0.0388483 -0.0394325 -0.0403896 -0.0415392 -0.0428264 -0.0441188 -0.0453323 -0.0464168 -0.0474311 -0.048598 -0.0501801 -0.0525158 -0.0557704 -0.0598847 -0.0646352 -0.0696686 -0.0746575 -0.0792147 -0.0830078 -0.0856192 -0.0866544 -0.085782 -0.0827383 -0.0773275 -0.0694876 -0.0591479 -0.0463513 -0.0311569 -0.0137978 0.00539349 0.0259736 0.0474236 0.0691851 0.0906283 0.111133 0.129986 0.146464 0.159864 0.169564 0.175093 0.176128 0.172532 0.164309 0.151658 0.134905 0.114496 0.0910865 0.0654288 0.0384678 0.0112118 -0.0153548 -0.0402161 -0.0625062 -0.081457 -0.0965213 -0.107356 -0.113866 -0.116218 -0.114839 -0.110313 -0.103261 -0.0943401 -0.0841915 -0.0733823 -0.0624371 -0.0517949 -0.0418731 -0.032962 -0.0252418 -0.0187637 -0.0134953 -0.00927956 -0.00590664 -0.00314525 -0.000818899 0.00122965 0.00299784 0.00448038 0.00564075 0.00649644 0.0070758 0.00751959 0.00795723 0.00843995 0.00879255 0.0088019 0.00838467 0.00769091 0.00697058 0.00631018 0.0056159 0.00473101 0.00365186 0.00258541 0.00175432 0.00118963 0.000779736 0.000447662 0.000202921 5.74587e-05 0 0 
0 0 5.31831e-05 0.000152109 0.000307546 0.000627482 0.00108077 0.00158051 0.00212327 0.00283147 0.00378997 0.00484991 0.0057093 0.00621854 0.00649262 0.00678042 0.00722904 0.00770023 0.00793103 0.00776914 0.00730637 0.00674246 0.00612223 0.00531969 0.00419985 0.0027132 0.000898097 -0.00114328 -0.00326738 -0.00536442 -0.00753827 -0.00993375 -0.0127562 -0.0162129 -0.0204976 -0.0257646 -0.0321007 -0.0395221 -0.0479177 -0.0571282 -0.066879 -0.0768212 -0.0865199 -0.0954572 -0.103022 -0.10863 -0.111689 -0.111698 -0.108229 -0.101045 -0.0900856 -0.0754754 -0.0575687 -0.0369601 -0.0144055 0.00930033 0.0333069 0.0568025 0.0789733 0.099124 0.116595 0.130863 0.141566 0.148464 0.1516 0.151127 0.147348 0.140619 0.131315 0.11987 0.106682 0.0922341 0.0770093 0.0615472 0.0463381 0.031744 0.018183 0.00598666 -0.0044655 -0.0129821 -0.0194403 -0.0239095 -0.0265927 -0.0277209 -0.0276101 -0.0264907 -0.0247 -0.0225059 -0.0201542 -0.0178213 -0.015675 -0.0137848 -0.0122411 -0.0110932 -0.0104301 -0.0103024 -0.0107172 -0.0115932 -0.0127837 -0.014027 -0.0151354 -0.015885 -0.0162576 -0.0162706 -0.0160089 -0.0155651 -0.0150723 -0.0146692 -0.0145489 -0.0148956 -0.0158792 -0.0174494 -0.0194856 -0.0217153 -0.0238485 -0.0255693 -0.0266217 -0.0266398 -0.0253509 -0.0224919 -0.0179101 -0.0115052 -0.00327066 0.00673118 0.0184323 0.0316061 0.0459927 0.0611557 0.0766515 0.0919776 0.106604 0.120064 0.131836 0.141441 0.148361 0.152132 0.152407 0.148954 0.141748 0.130837 0.116484 0.0990505 0.0790155 0.0569629 0.0335644 0.009645 -0.01394 -0.0362948 -0.0566224 -0.0742251 -0.0886192 -0.0995005 -0.10677 -0.110445 -0.110759 -0.108075 -0.1029 -0.0958032 -0.0873244 -0.0779939 -0.0683009 -0.0586649 -0.0494598 -0.0409768 -0.0334226 -0.0269149 -0.0214505 -0.0169496 -0.0133 -0.0102997 -0.00776138 -0.00547689 -0.00334211 -0.00126756 0.000618834 0.00224042 0.00355965 0.00460487 0.00546137 0.00627177 0.00710243 0.00783765 0.00819537 0.00806188 0.00758473 0.00706678 0.00668145 0.00631332 0.00573147 0.00482881 0.00375551 0.00279778 0.00209018 0.00154509 0.0010516 0.000620722 0.000321622 0.000107434 0 0 
0 0 0.000112778 0.000259198 0.000432192 0.000777659 0.00129624 0.00187615 0.00241449 0.00296167 0.00367581 0.00458056 0.00544544 0.00597772 0.00609499 0.00602169 0.00609753 0.00642651 0.0067674 0.00678476 0.00630602 0.0054433 0.00436836 0.00316159 0.00177899 0.000140501 -0.00176953 -0.00392834 -0.00615055 -0.00830482 -0.010327 -0.01229 -0.0143495 -0.0167205 -0.0195845 -0.0231016 -0.027416 -0.0326151 -0.038714 -0.0456791 -0.0534026 -0.0616835 -0.070249 -0.0787176 -0.0866235 -0.0935147 -0.0989249 -0.102405 -0.103578 -0.102098 -0.0977296 -0.0903679 -0.0800438 -0.066972 -0.0515581 -0.0342691 -0.0156487 0.00367535 0.023089 0.0419484 0.0596094 0.0755343 0.0892419 0.100441 0.108994 0.114938 0.11841 0.119564 0.118583 0.11563 0.110917 0.104718 0.0974279 0.0894456 0.081199 0.0730143 0.0652181 0.0581001 0.05191 0.0468897 0.0431032 0.0406109 0.0392714 0.0389182 0.0393391 0.040353 0.0417054 0.0432021 0.0446608 0.0459661 0.0469934 0.0477159 0.0480988 0.0480479 0.0475292 0.0464842 0.0449418 0.0430514 0.0410622 0.0393185 0.0381003 0.0376497 0.0379472 0.0388601 0.0401889 0.0416934 0.0431866 0.0445398 0.0456339 0.046305 0.0464449 0.0460037 0.0450623 0.0437992 0.0424172 0.041185 0.040269 0.0399469 0.0404286 0.0418921 0.0444675 0.0481807 0.052976 0.0588418 0.0656194 0.0731772 0.0812027 0.0893666 0.0972785 0.104525 0.110786 0.115706 0.118983 0.120307 0.11938 0.115931 0.109784 0.100887 0.0893518 0.0754048 0.0594055 0.0417881 0.0230586 0.00377319 -0.0154507 -0.0339824 -0.0511618 -0.0663622 -0.0791339 -0.0891084 -0.0961978 -0.100436 -0.101963 -0.100988 -0.0978107 -0.0927764 -0.0863098 -0.0788813 -0.0709063 -0.0627668 -0.0547916 -0.0472397 -0.0403259 -0.0341701 -0.0288546 -0.024365 -0.0206352 -0.0175298 -0.0149331 -0.0126657 -0.0105321 -0.0083738 -0.00617329 -0.00400659 -0.00203246 -0.000356614 0.0010732 0.00235899 0.00361497 0.00490029 0.00606422 0.00685197 0.00706732 0.00683839 0.00650998 0.00635481 0.00631758 0.0060966 0.0054812 0.00456557 0.00364291 0.00292896 0.00238434 0.00184325 0.00126578 0.00076876 0.000451372 0.000174012 0 0 
0 0 0.000182335 0.000385613 0.000573949 0.000899764 0.00141508 0.00204636 0.00262281 0.00305703 0.00348129 0.00408405 0.00482759 0.00543362 0.00560332 0.00532154 0.00493262 0.00481457 0.00499928 0.00514662 0.00484441 0.00393637 0.00252569 0.000841674 -0.000950058 -0.0028013 -0.00473935 -0.00685169 -0.00908685 -0.0113162 -0.013428 -0.0153358 -0.0170796 -0.0188145 -0.0207168 -0.0229902 -0.0257785 -0.0292023 -0.0332949 -0.0380769 -0.0435376 -0.049581 -0.0560889 -0.0628229 -0.0694888 -0.075784 -0.08139 -0.0859983 -0.0892918 -0.0909992 -0.0908836 -0.0887622 -0.0845412 -0.0782455 -0.0699923 -0.0599775 -0.04844 -0.0356736 -0.0220572 -0.00801383 0.00597393 0.0194185 0.0319449 0.0432093 0.0530916 0.0615515 0.0686329 0.074386 0.0788292 0.0819832 0.0838856 0.084709 0.0846446 0.084043 0.0831742 0.0823046 0.0816375 0.0813124 0.0815017 0.082332 0.0838557 0.0860659 0.0888693 0.0921089 0.0956006 0.0991824 0.102652 0.105831 0.108622 0.110933 0.112712 0.113968 0.114653 0.114728 0.114157 0.112913 0.111069 0.108836 0.10652 0.104563 0.103304 0.102995 0.103614 0.104958 0.106691 0.108472 0.110055 0.111297 0.112083 0.112331 0.111898 0.11071 0.108786 0.106225 0.103202 0.0998902 0.096442 0.0930687 0.0899442 0.0872349 0.0850722 0.0834954 0.0824912 0.0820634 0.0821693 0.0826883 0.0834469 0.0841992 0.0846546 0.0845785 0.0837217 0.0819777 0.079131 0.0750666 0.0695816 0.0625407 0.0538828 0.0436273 0.0319922 0.0192091 0.00568196 -0.00824436 -0.0221439 -0.0356223 -0.0482849 -0.0597512 -0.0696567 -0.0777089 -0.0836825 -0.0875294 -0.0893209 -0.0892659 -0.0875683 -0.084449 -0.0801363 -0.0748847 -0.0689981 -0.0628039 -0.0565848 -0.0505481 -0.0448707 -0.0396351 -0.0349514 -0.0308433 -0.0273253 -0.0243702 -0.021874 -0.0197079 -0.0177207 -0.0157331 -0.0136211 -0.0113546 -0.00907276 -0.00690218 -0.00499642 -0.00333435 -0.00172326 -5.87146e-05 0.00168322 0.00331952 0.00457015 0.00521803 0.00533459 0.00528174 0.00540139 0.00570054 0.0058593 0.00557545 0.00488005 0.00407855 0.00344983 0.00302315 0.00259532 0.00202071 0.00138932 0.000889043 0.000591403 0.000258071 0 0 
0 0 0.000248173 0.000515223 0.0007275 0.00100648 0.00144213 0.00205007 0.00268053 0.00311927 0.00333668 0.00355416 0.00398004 0.00452787 0.00482807 0.00458157 0.00388056 0.00316789 0.00280878 0.00278473 0.00267187 0.00199972 0.000594379 -0.00140723 -0.00367973 -0.00594841 -0.00806293 -0.0101197 -0.0121965 -0.0143508 -0.0164995 -0.01851 -0.0202694 -0.0217932 -0.0231772 -0.0246003 -0.0262609 -0.0283075 -0.0308071 -0.0338003 -0.0372449 -0.0411221 -0.0453281 -0.049776 -0.0543062 -0.0587964 -0.0630947 -0.067046 -0.0704735 -0.0731786 -0.0749843 -0.07576 -0.0754186 -0.0739114 -0.0712691 -0.0675211 -0.0626822 -0.0568256 -0.0500679 -0.0425752 -0.0346235 -0.0264893 -0.0184228 -0.0106153 -0.00314573 0.00399771 0.0108655 0.017473 0.0237847 0.0297079 0.0351807 0.0402372 0.045041 0.0497817 0.0546804 0.0599005 0.0655284 0.0715816 0.0780826 0.0850934 0.0925605 0.100432 0.108559 0.11675 0.124803 0.132539 0.139748 0.146284 0.152031 0.156949 0.160988 0.164166 0.166486 0.167872 0.168323 0.167838 0.166499 0.164571 0.162417 0.160506 0.159275 0.158974 0.159597 0.160859 0.162341 0.163636 0.164408 0.164516 0.163877 0.162384 0.15997 0.156507 0.151984 0.146482 0.14012 0.133098 0.125532 0.117619 0.10954 0.101498 0.0936869 0.0861716 0.0790279 0.072352 0.0661566 0.0604619 0.0551594 0.0501264 0.045169 0.0401459 0.0349874 0.0296382 0.0240402 0.0181319 0.0118225 0.00500296 -0.00234891 -0.0102147 -0.0184347 -0.0267796 -0.0349988 -0.0428716 -0.050203 -0.0568048 -0.0625592 -0.0673326 -0.0709908 -0.0734432 -0.0746268 -0.0745695 -0.0734215 -0.071397 -0.0686637 -0.0653955 -0.0617152 -0.0577597 -0.0536501 -0.0495745 -0.0456423 -0.0419395 -0.0384789 -0.0353222 -0.0324839 -0.0300097 -0.0279004 -0.0260886 -0.0244359 -0.0227756 -0.0209652 -0.0189344 -0.01669 -0.0143646 -0.0121455 -0.0101444 -0.00832024 -0.0065194 -0.00452987 -0.00240124 -0.000340551 0.00132083 0.00236583 0.00286874 0.00318854 0.00369198 0.00440374 0.00500628 0.0051168 0.00469521 0.00405199 0.00355888 0.00330633 0.00308211 0.0026551 0.00203539 0.0014284 0.00099858 0.000738456 0.000351845 0 0 
0 0 0.000294959 0.000624181 0.000872368 0.00111098 0.00142265 0.00191318 0.00254031 0.00305926 0.00324983 0.00317659 0.00313151 0.00332616 0.00359901 0.00351431 0.00280962 0.00168889 0.000647912 5.12099e-05 -0.000201214 -0.000603282 -0.00166705 -0.00357661 -0.00613803 -0.00892106 -0.0115089 -0.0137544 -0.0157199 -0.0176 -0.0195435 -0.0215037 -0.0233451 -0.0249243 -0.0261855 -0.0271989 -0.0281248 -0.0291383 -0.0303848 -0.0319224 -0.0337658 -0.0358244 -0.0380232 -0.0402606 -0.0424652 -0.0446322 -0.0467917 -0.0489473 -0.0510727 -0.0531134 -0.054996 -0.0566454 -0.0580546 -0.059204 -0.0600669 -0.0606468 -0.060857 -0.0606714 -0.0600135 -0.0589172 -0.0574259 -0.0556574 -0.0536385 -0.0514287 -0.0489064 -0.0459652 -0.0424373 -0.0382581 -0.0334559 -0.028137 -0.0224206 -0.0162859 -0.00971004 -0.00248297 0.0055189 0.0144018 0.0241451 0.0346644 0.0458814 0.0577427 0.0701241 0.0828857 0.095822 0.108695 0.121262 0.133249 0.144472 0.154719 0.163911 0.171952 0.178845 0.18457 0.189124 0.192423 0.194466 0.195268 0.194915 0.193694 0.191995 0.190318 0.189141 0.188743 0.189129 0.190003 0.190852 0.191218 0.190713 0.189165 0.186501 0.182688 0.177682 0.171339 0.163669 0.154726 0.144664 0.133635 0.12184 0.10946 0.0967252 0.083877 0.0711657 0.0587632 0.0467962 0.0354534 0.0248516 0.0151017 0.00616697 -0.00198555 -0.00948985 -0.0163567 -0.0226391 -0.0282518 -0.0332327 -0.0375985 -0.0414592 -0.0449308 -0.0480984 -0.0510422 -0.0536935 -0.056018 -0.0578694 -0.059266 -0.0601742 -0.0606616 -0.0607378 -0.0604763 -0.0598251 -0.0588016 -0.0573403 -0.0555326 -0.053476 -0.051335 -0.0492206 -0.0472219 -0.0453163 -0.043473 -0.0416563 -0.039874 -0.0381399 -0.0364597 -0.0348678 -0.0333775 -0.0320566 -0.0308953 -0.0298496 -0.0287927 -0.0275505 -0.0260044 -0.0241119 -0.0219693 -0.019737 -0.0175999 -0.0156438 -0.0137639 -0.0117753 -0.00954163 -0.00706872 -0.00467228 -0.00268319 -0.00133986 -0.000517572 0.000154682 0.00107643 0.00226901 0.00338961 0.00398322 0.00392186 0.00351664 0.00321966 0.00319227 0.00322199 0.0030199 0.00251596 0.00190958 0.00142643 0.00111425 0.000878491 0.000437142 0 0 
0 0 0.000313797 0.000689767 0.000973946 0.00120865 0.00141362 0.00171856 0.00222106 0.00278709 0.00309119 0.00293853 0.0024864 0.0020945 0.00195707 0.00186717 0.00138272 0.000290117 -0.00116856 -0.00246649 -0.00328376 -0.00379449 -0.00452902 -0.00602222 -0.0084339 -0.0114892 -0.0146362 -0.0174114 -0.0196253 -0.0213699 -0.0229175 -0.0244789 -0.0261032 -0.0276589 -0.0290045 -0.0299975 -0.0306699 -0.031087 -0.0314194 -0.0317914 -0.0322513 -0.0328191 -0.0333504 -0.0337536 -0.033937 -0.0339349 -0.0338254 -0.0337646 -0.0338468 -0.0341841 -0.0348266 -0.0358427 -0.0373062 -0.039248 -0.0417025 -0.0446336 -0.0479449 -0.0515404 -0.0553186 -0.0591757 -0.0630654 -0.0670045 -0.07087 -0.0745645 -0.0778509 -0.0804113 -0.0819909 -0.0823453 -0.0814531 -0.0793493 -0.0761475 -0.0718714 -0.0664159 -0.059633 -0.051387 -0.0416134 -0.0304135 -0.0179593 -0.00440019 0.0101354 0.025454 0.0413324 0.057499 0.0736638 0.0895062 0.10474 0.119105 0.132394 0.144447 0.155184 0.16458 0.1726 0.179201 0.184334 0.187945 0.190049 0.190732 0.190278 0.189081 0.187658 0.186515 0.185991 0.186075 0.186482 0.186651 0.186076 0.184319 0.18118 0.176627 0.170674 0.1633 0.154429 0.144046 0.132224 0.119111 0.104941 0.0899201 0.0742839 0.0582933 0.042251 0.0264464 0.0111245 -0.00348963 -0.0171469 -0.0296449 -0.0408182 -0.0506013 -0.0590176 -0.0661227 -0.0719253 -0.0763982 -0.0794985 -0.0812377 -0.0816674 -0.0809639 -0.0793395 -0.0770206 -0.0741897 -0.0709772 -0.0674279 -0.063588 -0.0595712 -0.0555023 -0.0515211 -0.0478133 -0.0444625 -0.0414857 -0.0388999 -0.0366726 -0.0348159 -0.0333814 -0.0324381 -0.0319922 -0.031997 -0.032278 -0.0326721 -0.032985 -0.0331779 -0.0332464 -0.0332373 -0.0331722 -0.0331284 -0.033044 -0.0328583 -0.0324569 -0.0316816 -0.0304649 -0.0288267 -0.0269272 -0.0249735 -0.0231091 -0.0213489 -0.0195224 -0.0174043 -0.0149167 -0.0121585 -0.00945579 -0.00721041 -0.00563094 -0.00457271 -0.00361259 -0.00233904 -0.000699157 0.000927479 0.00201999 0.0023863 0.00231536 0.00230635 0.00258891 0.0029645 0.00306933 0.00274853 0.00219698 0.0017222 0.00143519 0.00123166 0.000984682 0.000490449 0 0 
0 0 0.000308592 0.000703099 0.000998563 0.00126621 0.00143882 0.0015707 0.00182849 0.00227189 0.00267335 0.00265529 0.00204805 0.00109745 0.000258848 -0.00025061 -0.000660647 -0.00141399 -0.00273609 -0.00439839 -0.00592088 -0.00702641 -0.007917 -0.00909306 -0.0110385 -0.013859 -0.0172254 -0.020539 -0.0233044 -0.0253211 -0.0267227 -0.027809 -0.0288764 -0.0300302 -0.0312242 -0.032289 -0.0330567 -0.033407 -0.0333376 -0.0329308 -0.0323009 -0.0314983 -0.0305407 -0.0293453 -0.0278464 -0.0260597 -0.0240835 -0.0220308 -0.0200834 -0.0184064 -0.0172139 -0.0166656 -0.0170011 -0.0183738 -0.0208548 -0.0244696 -0.0291207 -0.0346993 -0.0410538 -0.0480733 -0.0556736 -0.0637736 -0.0722133 -0.0808129 -0.0891902 -0.0969869 -0.103742 -0.109149 -0.113071 -0.115466 -0.116394 -0.115784 -0.113552 -0.10946 -0.103341 -0.0951518 -0.0849927 -0.0730681 -0.0595793 -0.0447294 -0.0287493 -0.0119018 0.00548728 0.0230552 0.0404518 0.0573019 0.073358 0.0883468 0.102098 0.114474 0.125461 0.134958 0.142938 0.149308 0.154014 0.15706 0.158507 0.158642 0.157831 0.156598 0.155451 0.154779 0.154585 0.154625 0.154308 0.153093 0.150496 0.146289 0.14045 0.133037 0.124117 0.113606 0.101545 0.0879974 0.0731789 0.0573091 0.0406769 0.0235209 0.00616694 -0.0110573 -0.027809 -0.0437699 -0.0586676 -0.0722249 -0.0841632 -0.0942672 -0.102459 -0.108749 -0.113211 -0.115838 -0.11667 -0.115647 -0.112856 -0.10843 -0.102661 -0.095851 -0.0883381 -0.0804432 -0.0723566 -0.064262 -0.0562529 -0.0485151 -0.0412403 -0.0346513 -0.0289463 -0.0242688 -0.020646 -0.0180722 -0.0164578 -0.0157518 -0.015874 -0.0167452 -0.0182684 -0.0202701 -0.0224999 -0.0247281 -0.0267728 -0.0286015 -0.030219 -0.0316841 -0.033011 -0.0341142 -0.0348776 -0.0351638 -0.0348926 -0.0340565 -0.0327846 -0.0312874 -0.0297735 -0.0283426 -0.0269259 -0.0252951 -0.023191 -0.0205313 -0.0175305 -0.0145938 -0.0121515 -0.0103836 -0.00909455 -0.00785377 -0.00625404 -0.00424653 -0.00222048 -0.000719652 3.72779e-05 0.000319855 0.000651033 0.00132858 0.00216074 0.00269125 0.00266293 0.00224086 0.00180502 0.00157464 0.00147172 0.00131238 0.00102697 0.000495844 0 0 
0 0 0.000294824 0.000676353 0.000937638 0.00123977 0.00145955 0.00151202 0.00150198 0.00163294 0.00191756 0.00203982 0.00158159 0.00041428 -0.00109793 -0.00237849 -0.00316611 -0.00371696 -0.00454579 -0.00594398 -0.00777639 -0.00961352 -0.0111853 -0.0126171 -0.0143013 -0.0165958 -0.0195823 -0.0229551 -0.0261841 -0.0287773 -0.0305062 -0.0315126 -0.0320914 -0.0325912 -0.0332257 -0.0339992 -0.0347681 -0.035259 -0.035258 -0.0346314 -0.0333573 -0.0315419 -0.0292326 -0.0265179 -0.0234495 -0.020126 -0.0166246 -0.0130585 -0.00953652 -0.0062089 -0.00329408 -0.00104721 0.000215787 0.000228254 -0.00123839 -0.00427266 -0.00883066 -0.0148351 -0.0221687 -0.0306795 -0.0402758 -0.0508753 -0.0622727 -0.0742083 -0.0862973 -0.09803 -0.108958 -0.118647 -0.126895 -0.133609 -0.138785 -0.142333 -0.144064 -0.143705 -0.141024 -0.135914 -0.128475 -0.118899 -0.107397 -0.0941867 -0.079504 -0.0636428 -0.046968 -0.0298677 -0.0127423 0.00404556 0.0201644 0.0353628 0.0494124 0.0621693 0.0735717 0.0835227 0.0919356 0.0987458 0.103888 0.107322 0.109122 0.109531 0.108891 0.10772 0.106517 0.105709 0.105337 0.1052 0.104722 0.103302 0.100436 0.0958634 0.0895674 0.0816537 0.0721977 0.0612082 0.0487337 0.0348587 0.0197947 0.00384541 -0.0127196 -0.0295952 -0.0464448 -0.0628921 -0.0786092 -0.0932379 -0.106472 -0.118013 -0.12758 -0.134958 -0.140062 -0.14294 -0.143693 -0.142397 -0.139089 -0.133799 -0.126665 -0.117874 -0.107802 -0.0968331 -0.0854043 -0.0738404 -0.0624511 -0.0514173 -0.0409213 -0.0311557 -0.0223538 -0.0147474 -0.00858454 -0.00400803 -0.00100232 0.000496348 0.000676331 -0.000251309 -0.00208363 -0.00465424 -0.00779943 -0.0113315 -0.0150392 -0.0187447 -0.0222831 -0.0256167 -0.0286971 -0.0314811 -0.0338312 -0.0356191 -0.0366692 -0.0369576 -0.0366099 -0.0358159 -0.0348696 -0.0339326 -0.0330619 -0.0320837 -0.0307268 -0.0287496 -0.0260792 -0.0229673 -0.019943 -0.0174112 -0.0155195 -0.0140072 -0.0124492 -0.0104826 -0.00811486 -0.00576133 -0.00398055 -0.00295858 -0.00240277 -0.00175311 -0.000668502 0.000661877 0.00170194 0.00208527 0.00192061 0.00161478 0.00148225 0.00151141 0.00149317 0.0013033 0.000991378 0.000456944 0 0 
0 0 0.000290279 0.000637402 0.000819702 0.00110711 0.00139563 0.00148647 0.00131269 0.001056 0.000960751 0.000989858 0.00074243 -0.000229705 -0.00196678 -0.0039616 -0.0055493 -0.0064501 -0.00698182 -0.00775224 -0.00919959 -0.0112751 -0.0135981 -0.0158233 -0.0178715 -0.0199537 -0.0223506 -0.0251703 -0.0282225 -0.0311349 -0.0334341 -0.0349016 -0.035567 -0.0357073 -0.0356671 -0.0357521 -0.0360173 -0.0363446 -0.0364 -0.0358905 -0.0345404 -0.0322454 -0.0290496 -0.0251015 -0.0205675 -0.0157355 -0.0108175 -0.00594347 -0.0012255 0.0032636 0.00735571 0.0108684 0.013474 0.0148618 0.0147563 0.012973 0.00944351 0.00416808 -0.00278852 -0.0113589 -0.0214915 -0.0330561 -0.0458826 -0.0596606 -0.073945 -0.0882056 -0.101889 -0.114563 -0.125945 -0.135949 -0.144506 -0.151504 -0.156749 -0.159899 -0.160681 -0.158951 -0.154738 -0.148216 -0.139576 -0.129036 -0.11683 -0.103238 -0.0885972 -0.0733511 -0.0578755 -0.0425591 -0.0277366 -0.0136583 -0.000565152 0.0113948 0.0221193 0.0315 0.039453 0.0458841 0.0507589 0.0540268 0.0557281 0.0561025 0.0554093 0.0541653 0.0528591 0.0519446 0.051488 0.0513758 0.0510422 0.0498983 0.0473587 0.0431562 0.0372352 0.0297278 0.0207534 0.0103605 -0.00135741 -0.0143124 -0.0282768 -0.0429612 -0.0580682 -0.0732717 -0.0882415 -0.102609 -0.116011 -0.128132 -0.138638 -0.147286 -0.153767 -0.157906 -0.159653 -0.159092 -0.15638 -0.151597 -0.144847 -0.136155 -0.125684 -0.113712 -0.100648 -0.0869314 -0.0730119 -0.0592975 -0.0460888 -0.0336501 -0.022175 -0.011868 -0.00296637 0.00431538 0.00977608 0.0133303 0.0150395 0.0151182 0.0138477 0.0115333 0.00841648 0.00467487 0.000403824 -0.00428622 -0.00925984 -0.0143465 -0.0193435 -0.0240771 -0.0283346 -0.0319573 -0.0347793 -0.0366725 -0.037664 -0.0379584 -0.0378407 -0.0375985 -0.0373825 -0.0371338 -0.0366172 -0.0355216 -0.0336791 -0.0311123 -0.0281294 -0.0252082 -0.0227692 -0.0208474 -0.0191845 -0.0173073 -0.014936 -0.0121779 -0.00952957 -0.007523 -0.0063509 -0.00562268 -0.0047272 -0.00328787 -0.00150681 3.50056e-05 0.000871192 0.00104213 0.000977332 0.00105358 0.00130093 0.00148191 0.00142108 0.00117383 0.000893577 0.000398599 0 0 
0 0 0.000301689 0.000611806 0.000700247 0.000895831 0.00118245 0.00135949 0.00119654 0.000680177 8.25094e-05 -0.000319157 -0.000601602 -0.00123441 -0.00267637 -0.00486614 -0.00719304 -0.00894284 -0.00984255 -0.0102602 -0.0109596 -0.0124964 -0.0149106 -0.0178428 -0.0207705 -0.0233553 -0.0256251 -0.0278355 -0.0301979 -0.0327301 -0.0351604 -0.0371656 -0.0384189 -0.0388826 -0.0386953 -0.038189 -0.037661 -0.0372382 -0.0368318 -0.036159 -0.034826 -0.0325392 -0.029098 -0.0245339 -0.0190426 -0.0129844 -0.00670342 -0.000513412 0.00540337 0.0109113 0.0158895 0.0201729 0.0235655 0.0258255 0.0267089 0.0260323 0.023703 0.0196405 0.0137958 0.00616888 -0.00327711 -0.0145127 -0.0273869 -0.041598 -0.0567042 -0.0721026 -0.0872409 -0.101588 -0.114856 -0.126897 -0.13766 -0.14702 -0.154755 -0.160512 -0.163995 -0.164992 -0.163535 -0.159768 -0.153847 -0.146016 -0.136444 -0.125422 -0.113287 -0.10043 -0.087242 -0.0740902 -0.061299 -0.0491046 -0.0377578 -0.0273634 -0.0180715 -0.00997532 -0.00313168 0.00235368 0.00644583 0.00910651 0.0103862 0.0104519 0.00953783 0.00812458 0.00668381 0.00565583 0.00522918 0.00529155 0.00535681 0.00481615 0.00306407 -0.000248199 -0.00516815 -0.0116133 -0.0194001 -0.028442 -0.038638 -0.0498862 -0.0620115 -0.074688 -0.0876513 -0.100571 -0.11312 -0.12494 -0.135717 -0.145154 -0.15292 -0.158793 -0.16248 -0.163855 -0.162896 -0.159684 -0.154399 -0.147155 -0.138038 -0.12711 -0.114553 -0.100661 -0.0858994 -0.0707502 -0.0557326 -0.0412303 -0.0276207 -0.0151416 -0.0040075 0.00564045 0.0136322 0.0198381 0.0241402 0.0264958 0.0270773 0.0260958 0.0238787 0.0207131 0.0167954 0.012181 0.00692051 0.00107815 -0.00518644 -0.0115983 -0.0177838 -0.0234212 -0.028217 -0.0320358 -0.0348281 -0.0367234 -0.0379265 -0.0387479 -0.0394318 -0.0400412 -0.0404476 -0.0403775 -0.0395341 -0.03784 -0.0354264 -0.0327168 -0.0301129 -0.0279137 -0.0261036 -0.0243381 -0.0221812 -0.0194251 -0.016321 -0.0134289 -0.0112635 -0.00997502 -0.00913929 -0.0080483 -0.00631886 -0.00415397 -0.00218924 -0.000949792 -0.000461666 -0.000258979 0.000107639 0.00068988 0.00119704 0.00135783 0.00119776 0.000950054 0.000775978 0.000353152 0 0 
0 0 0.00031809 0.000603521 0.000625532 0.000674758 0.000833323 0.0010212 0.000975507 0.000452344 -0.000488435 -0.00148379 -0.00221856 -0.00280084 -0.00375304 -0.00551895 -0.00799669 -0.0105186 -0.0123327 -0.0131475 -0.01345 -0.0141092 -0.015788 -0.0186272 -0.0221622 -0.0256925 -0.0286542 -0.0309249 -0.0327382 -0.034474 -0.0363159 -0.0382181 -0.0399055 -0.0410266 -0.0413946 -0.0410014 -0.0400657 -0.0388378 -0.0374949 -0.036027 -0.0342149 -0.0317213 -0.028265 -0.0236784 -0.0179538 -0.011354 -0.00424236 0.00304438 0.0101343 0.0167809 0.0227335 0.0277966 0.0317602 0.0344729 0.035822 0.0356938 0.0340974 0.0309318 0.0261707 0.0197148 0.0114558 0.00135496 -0.0105524 -0.0240504 -0.0387293 -0.0540279 -0.0693283 -0.0841225 -0.0980378 -0.110967 -0.122809 -0.133442 -0.142631 -0.149996 -0.155233 -0.158081 -0.158552 -0.15677 -0.152922 -0.147186 -0.13977 -0.130943 -0.121002 -0.110359 -0.0993694 -0.0883506 -0.0776408 -0.0674462 -0.0579751 -0.0493585 -0.0417212 -0.0351296 -0.029669 -0.0253688 -0.02228 -0.0203738 -0.0196544 -0.0199776 -0.0211539 -0.0227633 -0.0243515 -0.0254676 -0.02588 -0.0256056 -0.025073 -0.0248676 -0.0256697 -0.0278339 -0.0315215 -0.036617 -0.0429764 -0.0504563 -0.0589361 -0.0683316 -0.0784962 -0.0891363 -0.099997 -0.110725 -0.121038 -0.130628 -0.139172 -0.146397 -0.152016 -0.155767 -0.15741 -0.156836 -0.154057 -0.149138 -0.142296 -0.133628 -0.123234 -0.111192 -0.0976916 -0.0830984 -0.0678753 -0.052578 -0.0377046 -0.0236784 -0.01081 0.000686495 0.0107045 0.0191714 0.0260229 0.031189 0.034622 0.0362776 0.0362799 0.0347778 0.0320151 0.0282057 0.0234604 0.0178763 0.0115225 0.00454988 -0.00276197 -0.00998607 -0.0166776 -0.0224956 -0.0272418 -0.0310129 -0.0339691 -0.036363 -0.0383994 -0.0402246 -0.0417674 -0.0428357 -0.0431749 -0.0425858 -0.0410928 -0.0389583 -0.0366236 -0.0344862 -0.0326793 -0.031053 -0.0292119 -0.0267766 -0.0236857 -0.0203089 -0.0172638 -0.0150625 -0.0137246 -0.0127981 -0.0115552 -0.00956529 -0.00708167 -0.00477717 -0.00323623 -0.00249125 -0.00206197 -0.00141737 -0.000462051 0.000468161 0.000989288 0.00103094 0.000844905 0.000708477 0.000681348 0.000338448 0 0 
0 0 0.000315806 0.000588694 0.000598653 0.000511247 0.000443416 0.000480116 0.000495565 0.000153465 -0.000789863 -0.00219557 -0.0036019 -0.00464148 -0.0054636 -0.00660329 -0.00851973 -0.0111113 -0.0136836 -0.0154466 -0.016176 -0.0164327 -0.0171134 -0.0190193 -0.0222629 -0.0262956 -0.030245 -0.0334246 -0.0355752 -0.0369252 -0.0379431 -0.0390487 -0.040349 -0.0416878 -0.0426894 -0.0430122 -0.0424878 -0.0411255 -0.0391133 -0.036631 -0.0337422 -0.0304014 -0.0264368 -0.021689 -0.0160571 -0.00958396 -0.00239116 0.0052406 0.0130179 0.0205777 0.027541 0.0335451 0.0382838 0.0415736 0.0432908 0.0434401 0.0420918 0.0392862 0.0350262 0.0292884 0.021959 0.0129469 0.0022403 -0.0100203 -0.0235339 -0.0377726 -0.0521982 -0.0662895 -0.07972 -0.0923612 -0.104173 -0.115022 -0.124669 -0.132728 -0.138824 -0.142698 -0.144298 -0.143772 -0.14127 -0.137003 -0.131121 -0.123907 -0.115662 -0.106735 -0.0974908 -0.0882432 -0.0792479 -0.0707331 -0.0629049 -0.0558466 -0.0497053 -0.044507 -0.040295 -0.0370846 -0.0348928 -0.033683 -0.0334563 -0.0340979 -0.0354658 -0.0372144 -0.0389239 -0.0401452 -0.0405793 -0.0401731 -0.0392872 -0.0384511 -0.038349 -0.0394446 -0.0419511 -0.045813 -0.0508761 -0.0569416 -0.0639198 -0.0717218 -0.0802283 -0.0891879 -0.0983285 -0.107332 -0.115916 -0.123785 -0.130681 -0.136323 -0.140418 -0.142755 -0.143081 -0.14135 -0.13756 -0.131836 -0.124354 -0.115257 -0.104634 -0.0925913 -0.0793294 -0.0651844 -0.0506498 -0.0362322 -0.0224569 -0.00962798 0.00196379 0.0122638 0.0211872 0.0287524 0.0349072 0.0396011 0.042714 0.0441395 0.0438656 0.0419337 0.0385134 0.0338286 0.02809 0.0214956 0.0142717 0.00667223 -0.000952172 -0.00822267 -0.0147746 -0.0204546 -0.0252998 -0.0294945 -0.0332571 -0.0367083 -0.039808 -0.0423527 -0.0440984 -0.0448048 -0.0444802 -0.0432865 -0.0416069 -0.0398596 -0.0383132 -0.0369848 -0.0355653 -0.0336272 -0.0309112 -0.0275088 -0.0239171 -0.0208104 -0.0186604 -0.0174025 -0.016424 -0.0150358 -0.0128397 -0.0101004 -0.00756329 -0.0058298 -0.00491824 -0.00430583 -0.00342762 -0.00212353 -0.000765643 0.000168724 0.00051852 0.000505704 0.000462136 0.000529107 0.000622401 0.000342875 0 0 
0 0 0.000275007 0.000530362 0.00056969 0.000418703 0.000132183 -0.000118011 -0.000240839 -0.000438449 -0.00111046 -0.00249181 -0.00436864 -0.00616139 -0.007462 -0.00841095 -0.00956026 -0.0114084 -0.0138844 -0.0163157 -0.0179909 -0.0187654 -0.0191327 -0.0200373 -0.0222043 -0.0257362 -0.0300365 -0.0341911 -0.0374117 -0.0393662 -0.0402512 -0.0406186 -0.0409903 -0.0416622 -0.0425742 -0.0433675 -0.0436026 -0.0429174 -0.0411081 -0.0382395 -0.0344186 -0.0298594 -0.024717 -0.0191199 -0.0130789 -0.00662519 0.000279336 0.0076146 0.0152405 0.0229396 0.0303499 0.0370352 0.0425657 0.0466342 0.049039 0.0497061 0.0487215 0.0461531 0.042099 0.0365904 0.0295966 0.0210975 0.0111057 -0.000246132 -0.0126861 -0.0257313 -0.0388787 -0.0516755 -0.0638243 -0.0752931 -0.0860747 -0.0961149 -0.105213 -0.112969 -0.119031 -0.123069 -0.125022 -0.125012 -0.1232 -0.119756 -0.114861 -0.108745 -0.101693 -0.0940546 -0.0861368 -0.0782361 -0.0705974 -0.0634185 -0.0568809 -0.0510853 -0.0461435 -0.0420758 -0.0389201 -0.0366146 -0.0351556 -0.0344665 -0.0345471 -0.0353648 -0.0367937 -0.0385846 -0.0403756 -0.0417252 -0.0422592 -0.041875 -0.0407798 -0.0395097 -0.0387154 -0.0389017 -0.0404154 -0.0432198 -0.0471995 -0.0521469 -0.0579391 -0.0644855 -0.071684 -0.0793244 -0.0871595 -0.0948672 -0.102175 -0.108839 -0.114602 -0.119214 -0.122446 -0.124017 -0.123757 -0.121631 -0.117677 -0.112039 -0.104906 -0.0963904 -0.0865638 -0.0755028 -0.0633753 -0.0504718 -0.0372329 -0.0241012 -0.011546 0.000161447 0.0108244 0.0203903 0.0288171 0.0360578 0.0420165 0.0465255 0.0494352 0.0505207 0.0497319 0.047073 0.042785 0.0372171 0.0307126 0.0236596 0.0163253 0.00895372 0.0016815 -0.00525957 -0.011784 -0.017845 -0.0234847 -0.0287747 -0.0336914 -0.0380439 -0.0415562 -0.0439562 -0.045088 -0.0450916 -0.0443431 -0.0432818 -0.0422989 -0.0414969 -0.0406953 -0.0394937 -0.0374804 -0.0344945 -0.0308387 -0.0271105 -0.0240047 -0.0219399 -0.0207353 -0.0197416 -0.0182012 -0.0158446 -0.0129713 -0.0103357 -0.00855376 -0.00760271 -0.0068896 -0.0058052 -0.00417956 -0.00241198 -0.00108703 -0.000427094 -0.000216123 -8.05752e-05 0.000164999 0.000434821 0.000567689 0.000330388 0 0 
0 0 0.00019528 0.000406231 0.000468691 0.000338613 -4.85922e-05 -0.000582903 -0.00103856 -0.00134491 -0.00176986 -0.00277084 -0.00457812 -0.00687894 -0.0090118 -0.0104805 -0.0113802 -0.0122993 -0.0137981 -0.0159123 -0.0181211 -0.0198582 -0.0209047 -0.0216916 -0.0229659 -0.0253539 -0.0289315 -0.0331901 -0.0372703 -0.0403831 -0.0421598 -0.0427406 -0.0426138 -0.0423614 -0.0423796 -0.0427149 -0.0430923 -0.0430215 -0.0419881 -0.0396143 -0.0357577 -0.0305479 -0.0243004 -0.0174015 -0.0102427 -0.00305688 0.00409895 0.0112406 0.0184254 0.0255942 0.0325873 0.039087 0.0447681 0.0492454 0.0522949 0.0536885 0.0534284 0.0514854 0.0479043 0.0427253 0.0359568 0.0276307 0.0178354 0.00679224 -0.00518235 -0.0175706 -0.0298548 -0.0415873 -0.0525092 -0.062598 -0.0719598 -0.0806255 -0.0884637 -0.0951462 -0.100299 -0.103664 -0.105122 -0.104809 -0.102898 -0.0995903 -0.095016 -0.0894122 -0.0830393 -0.0762009 -0.0691801 -0.0622477 -0.0556071 -0.0494325 -0.0438964 -0.0391055 -0.0351416 -0.0319879 -0.0296691 -0.0280719 -0.027137 -0.026807 -0.0270851 -0.0279296 -0.0293289 -0.0310794 -0.0329141 -0.0343636 -0.0350757 -0.0348049 -0.0337027 -0.0321761 -0.030863 -0.030333 -0.0310119 -0.0329578 -0.0360744 -0.0401295 -0.0449889 -0.0505675 -0.0567668 -0.0634435 -0.0703546 -0.0772136 -0.0837519 -0.0897341 -0.0949745 -0.0992324 -0.102268 -0.103865 -0.10383 -0.102156 -0.0988751 -0.094175 -0.0881649 -0.080928 -0.0724588 -0.0627719 -0.0519757 -0.0402979 -0.0281179 -0.0158726 -0.00400212 0.00722017 0.0175599 0.0269162 0.0351771 0.042199 0.0478456 0.0519096 0.0542191 0.0546161 0.0531057 0.0497859 0.0450112 0.0391983 0.0327899 0.0261138 0.0193313 0.0124581 0.00545023 -0.00170819 -0.00894561 -0.0161162 -0.0230142 -0.0293424 -0.034822 -0.0391641 -0.0421688 -0.0438332 -0.0444089 -0.0443304 -0.0440873 -0.0439611 -0.043936 -0.0436609 -0.0426574 -0.0405749 -0.0374184 -0.0336054 -0.0298846 -0.0268855 -0.0249089 -0.0236855 -0.0225484 -0.0208227 -0.01829 -0.0153733 -0.0128112 -0.011152 -0.0103168 -0.00963758 -0.00842166 -0.00651471 -0.00438101 -0.00268166 -0.00174066 -0.00133571 -0.00101981 -0.000544984 -4.22327e-06 0.000366554 0.000461573 0.000265563 0 0 
0 0 9.91811e-05 0.000228968 0.000257794 0.000179515 -0.000160745 -0.000822441 -0.00163539 -0.00232645 -0.00282397 -0.00345232 -0.00474379 -0.00689965 -0.00953425 -0.0118944 -0.0133607 -0.0139866 -0.0144132 -0.0153311 -0.0169808 -0.0191042 -0.0211435 -0.022812 -0.0242518 -0.0259497 -0.0283903 -0.0316856 -0.0355426 -0.0392585 -0.0422025 -0.0439386 -0.0444743 -0.0440987 -0.043365 -0.0426641 -0.0422029 -0.041802 -0.0410034 -0.0392452 -0.0360407 -0.0311624 -0.0247405 -0.0171477 -0.00890599 -0.000536219 0.00763632 0.015417 0.0227397 0.0295928 0.0359396 0.0416554 0.0465986 0.0506195 0.0535354 0.0551804 0.0554416 0.0542144 0.0514231 0.0469781 0.0408394 0.0329854 0.0235159 0.0126837 0.000868876 -0.0113453 -0.023368 -0.0346781 -0.0449708 -0.054222 -0.0625359 -0.0700306 -0.0766359 -0.0820745 -0.0860352 -0.0882675 -0.088704 -0.0874847 -0.0848115 -0.0809315 -0.0759976 -0.0702553 -0.0639163 -0.0572845 -0.0506043 -0.0441255 -0.0380199 -0.0324491 -0.027555 -0.0234222 -0.020123 -0.0176368 -0.015914 -0.0148263 -0.0142582 -0.014135 -0.0144465 -0.015208 -0.0164565 -0.01809 -0.0199005 -0.0214817 -0.0223939 -0.0223632 -0.0213951 -0.0197987 -0.0181836 -0.0171506 -0.017183 -0.0184627 -0.020926 -0.0243789 -0.0286568 -0.0336416 -0.0392576 -0.0454033 -0.0518968 -0.0584536 -0.0648299 -0.0708099 -0.0761806 -0.0807863 -0.0843491 -0.0866359 -0.0874309 -0.0867258 -0.0845571 -0.0810752 -0.0763389 -0.0703473 -0.0630189 -0.0543201 -0.0443157 -0.0332618 -0.0215278 -0.00958449 0.00208174 0.0131221 0.0232356 0.0322701 0.0400495 0.0464627 0.0513813 0.0546851 0.0563024 0.0562125 0.0544661 0.0512677 0.0469017 0.0417343 0.0360161 0.0299233 0.0234501 0.0164893 0.00892138 0.000796451 -0.00759786 -0.0158567 -0.0234271 -0.0298813 -0.0349414 -0.0385673 -0.0409196 -0.0423712 -0.0433188 -0.0441415 -0.0449821 -0.0456562 -0.0457845 -0.0448895 -0.0427456 -0.0395217 -0.0357759 -0.032234 -0.0294904 -0.0276487 -0.0263302 -0.0249027 -0.0228184 -0.0200517 -0.017091 -0.0147183 -0.0133503 -0.0127699 -0.0122457 -0.0110222 -0.00893703 -0.00653598 -0.0045431 -0.0033518 -0.00278284 -0.00231453 -0.00162551 -0.000796685 -0.00011762 0.000221518 0.000266261 0.000141357 0 0 
0 0 1.82431e-05 4.246e-05 -3.27469e-05 -0.00011066 -0.000337231 -0.000922395 -0.00190343 -0.00303381 -0.00396451 -0.00461514 -0.0053824 -0.00684506 -0.00920339 -0.0120178 -0.0144147 -0.0156882 -0.0158709 -0.0156625 -0.0159397 -0.0172365 -0.0194525 -0.0220762 -0.0246 -0.0267984 -0.0288767 -0.0311495 -0.0338855 -0.0370347 -0.0402569 -0.0430358 -0.0448891 -0.0455794 -0.0451759 -0.0440293 -0.0425277 -0.0409599 -0.0392883 -0.0372012 -0.0342317 -0.0299727 -0.0242098 -0.0170143 -0.00870558 0.000237722 0.00936402 0.0182366 0.0265164 0.0339367 0.0403354 0.0456127 0.0497518 0.0527848 0.0547744 0.0557262 0.0556385 0.0544284 0.0519857 0.048163 0.0428077 0.0358022 0.0271246 0.0169656 0.00568787 -0.00613767 -0.0178833 -0.0289634 -0.0390009 -0.0478924 -0.0557375 -0.0626345 -0.0685624 -0.0732522 -0.0763893 -0.0777526 -0.0772808 -0.0751426 -0.0716024 -0.06694 -0.0613604 -0.0550746 -0.0483632 -0.0414847 -0.034686 -0.0281972 -0.0221549 -0.0167273 -0.0120345 -0.00818064 -0.00520683 -0.00304877 -0.00160465 -0.000739266 -0.000282838 -0.000140447 -0.000317425 -0.000848844 -0.00184762 -0.00328052 -0.0050075 -0.00667346 -0.00784855 -0.00816987 -0.00752642 -0.00611075 -0.00445939 -0.00319104 -0.00286869 -0.00376426 -0.00588614 -0.00908302 -0.0131444 -0.0179532 -0.0234422 -0.0295218 -0.0360443 -0.0427905 -0.0494554 -0.0558425 -0.0617736 -0.0670239 -0.0713338 -0.0744215 -0.0760655 -0.0762126 -0.074903 -0.0722515 -0.0682847 -0.0629641 -0.0561864 -0.0478894 -0.0381984 -0.0273927 -0.0159186 -0.00430415 0.00692692 0.0174156 0.0268517 0.0350829 0.0420219 0.04765 0.0519551 0.0549219 0.0565574 0.0568421 0.0558277 0.0535524 0.0501421 0.0456924 0.0403237 0.0341004 0.0270392 0.0191502 0.0105555 0.00153749 -0.00740279 -0.0157247 -0.0228939 -0.0286478 -0.0330269 -0.0363344 -0.0389655 -0.041274 -0.0434204 -0.0453316 -0.0466743 -0.0470587 -0.0461754 -0.0439868 -0.0408424 -0.0373565 -0.0342197 -0.0318226 -0.0301376 -0.0286614 -0.0268229 -0.0242638 -0.0211558 -0.0181551 -0.0159843 -0.014972 -0.0147244 -0.0144087 -0.0132563 -0.0111241 -0.00860089 -0.00648417 -0.00518232 -0.00450746 -0.00391107 -0.00301376 -0.00189975 -0.000914978 -0.000310116 -6.70165e-05 -3.98613e-06 -1.13993e-05 0 0 
0 0 -2.91772e-05 -0.000106737 -0.000316933 -0.000493697 -0.000677011 -0.00108529 -0.00195628 -0.00328655 -0.00472648 -0.00584345 -0.00657268 -0.0073485 -0.00879289 -0.0111535 -0.0139376 -0.0161957 -0.0171706 -0.0168645 -0.0160473 -0.0158246 -0.0169345 -0.0194461 -0.022817 -0.0262629 -0.02922 -0.031553 -0.0335219 -0.0355229 -0.0378661 -0.0405207 -0.0431097 -0.0450783 -0.045977 -0.0456057 -0.0440755 -0.0416742 -0.0386944 -0.0352955 -0.0314069 -0.0268735 -0.0214767 -0.0150743 -0.0076228 0.000735821 0.00975881 0.0190457 0.0281231 0.036496 0.0437322 0.0495031 0.0536558 0.0562502 0.0574182 0.05737 0.0562273 0.0541406 0.0510866 0.0470016 0.0417701 0.0352213 0.0272753 0.0180041 0.00766857 -0.00324489 -0.0141647 -0.0245049 -0.0339039 -0.0422407 -0.0495595 -0.0560212 -0.0615318 -0.0658745 -0.0686692 -0.0696733 -0.068826 -0.0662828 -0.0623292 -0.0572681 -0.0513363 -0.0447692 -0.0378177 -0.0307431 -0.0238225 -0.0172202 -0.0111289 -0.00567774 -0.0010252 0.00276256 0.0056301 0.00769167 0.00905252 0.0099215 0.0104541 0.010785 0.0108866 0.010707 0.0100749 0.00893734 0.00735203 0.00561297 0.00414124 0.00336559 0.00352712 0.00455424 0.00598267 0.00724728 0.00770837 0.0070242 0.00505383 0.00194207 -0.00212085 -0.00693824 -0.0124629 -0.0185912 -0.0252285 -0.0321232 -0.0390408 -0.0457293 -0.0519842 -0.0575838 -0.0622669 -0.0657134 -0.0677173 -0.0681986 -0.0672212 -0.0649133 -0.0612924 -0.0563522 -0.0499504 -0.042106 -0.0329194 -0.0227479 -0.0120457 -0.00133098 0.00893986 0.0184642 0.0270015 0.0345087 0.0409914 0.0464843 0.0510432 0.0546338 0.0571749 0.0585566 0.0585893 0.0571552 0.0541597 0.0496297 0.0436851 0.0365288 0.0284664 0.0197887 0.0108408 0.00198986 -0.00632178 -0.0137782 -0.0201558 -0.0255301 -0.0301286 -0.0342819 -0.0381561 -0.0417462 -0.044734 -0.0467171 -0.0473349 -0.0464696 -0.0443548 -0.0414849 -0.0385089 -0.035943 -0.033988 -0.0323935 -0.0306689 -0.0283112 -0.0252092 -0.0217393 -0.018677 -0.0167112 -0.016018 -0.0160855 -0.0159531 -0.0148654 -0.0127509 -0.0102453 -0.00818656 -0.00698896 -0.00637462 -0.00573472 -0.00466586 -0.00325873 -0.00195179 -0.00109077 -0.000673589 -0.000468628 -0.00028453 -0.00014266 0 0 
0 0 -5.18117e-05 -0.000203101 -0.00051201 -0.000855398 -0.00114986 -0.00146928 -0.00207515 -0.00322431 -0.00486292 -0.006542 -0.00776985 -0.00846362 -0.0090777 -0.0103075 -0.0124404 -0.0149911 -0.0169979 -0.0176641 -0.0169708 -0.0157584 -0.015252 -0.0163867 -0.0193202 -0.0234394 -0.0277595 -0.0313675 -0.0338855 -0.0355163 -0.0368203 -0.0383512 -0.0403334 -0.0425306 -0.0443997 -0.045356 -0.0449298 -0.0429785 -0.0395861 -0.0350588 -0.0297062 -0.0238581 -0.0176707 -0.0111935 -0.00432502 0.00304254 0.0110231 0.0195123 0.0282288 0.03673 0.0444677 0.0509798 0.0558631 0.0589529 0.0602528 0.0599317 0.0581578 0.0551464 0.0510745 0.0459972 0.0399912 0.0329773 0.0249399 0.0159305 0.0061832 -0.00388461 -0.0137837 -0.0229935 -0.0312139 -0.0383688 -0.044585 -0.0500352 -0.0547284 -0.0584325 -0.06077 -0.0614696 -0.0604073 -0.0577488 -0.0537703 -0.048777 -0.0429934 -0.0366383 -0.0299604 -0.0231757 -0.0165427 -0.0102364 -0.00441022 0.000773891 0.00515189 0.00868159 0.011318 0.013175 0.0144211 0.0152534 0.0158764 0.0163858 0.016795 0.0169705 0.0167145 0.0158724 0.0144742 0.012709 0.01099 0.00976649 0.00940806 0.00994239 0.0110897 0.0122862 0.0128923 0.0124687 0.0107945 0.00794212 0.00410349 -0.000506117 -0.00578695 -0.0116379 -0.0179773 -0.0245993 -0.0312757 -0.0377493 -0.0438438 -0.0493234 -0.053913 -0.0573577 -0.0594334 -0.060092 -0.0594231 -0.0575709 -0.0545664 -0.0503942 -0.0449174 -0.038089 -0.0300213 -0.021014 -0.011493 -0.00185769 0.0075069 0.0164025 0.0246742 0.0322787 0.0392251 0.0454772 0.0510031 0.0556064 0.0590966 0.0611522 0.0615174 0.0599879 0.0565012 0.0511986 0.0444245 0.0366757 0.0284216 0.0200953 0.0119748 0.00423581 -0.0030398 -0.00989797 -0.0163579 -0.0225157 -0.0283991 -0.0339362 -0.0388697 -0.0428094 -0.0453491 -0.0462473 -0.0455896 -0.0438048 -0.041521 -0.0393138 -0.0375225 -0.0360536 -0.0345171 -0.0324053 -0.0294262 -0.0257091 -0.0218976 -0.0187976 -0.0170275 -0.0165998 -0.0168544 -0.0167952 -0.0157113 -0.0136223 -0.0112376 -0.00938993 -0.00846255 -0.00809943 -0.00757483 -0.00644059 -0.00480657 -0.00319185 -0.00206245 -0.00147584 -0.00116596 -0.000863448 -0.000503073 -0.000218663 0 0 
0 0 -7.9806e-05 -0.000274068 -0.000598084 -0.00108519 -0.00160627 -0.0020407 -0.00247264 -0.00321895 -0.00456333 -0.00641247 -0.00825295 -0.00951182 -0.0100528 -0.0103585 -0.011176 -0.0128631 -0.0150067 -0.0166901 -0.017124 -0.0163026 -0.0150402 -0.0146028 -0.0159694 -0.0193284 -0.0240318 -0.0289616 -0.0330439 -0.035735 -0.037165 -0.037927 -0.038679 -0.0398117 -0.0412878 -0.0426648 -0.0433222 -0.0426042 -0.0401137 -0.0357684 -0.0298242 -0.0227859 -0.0152106 -0.0075797 -0.000100139 0.00719182 0.0144564 0.0217961 0.0292305 0.0365997 0.0436078 0.0498549 0.0549639 0.0586236 0.0606285 0.0609379 0.0595615 0.0566108 0.0522376 0.0465649 0.0397624 0.0319006 0.0231077 0.0135464 0.00351916 -0.00650572 -0.0160204 -0.0245273 -0.0317471 -0.0376711 -0.0424969 -0.046526 -0.0498302 -0.0523069 -0.0536108 -0.0534651 -0.0517852 -0.0486855 -0.0444879 -0.0394783 -0.0338909 -0.0279173 -0.0217391 -0.0155397 -0.00953954 -0.00388948 0.00126121 0.00577888 0.00950575 0.0124171 0.0144933 0.0158599 0.0167366 0.0173277 0.0178318 0.0183968 0.0189435 0.0193601 0.0194024 0.018852 0.0176635 0.0159281 0.0140376 0.0124772 0.0116753 0.0118207 0.0127324 0.0139848 0.0149192 0.0150156 0.0139619 0.0117412 0.00851162 0.00451509 -0.000135564 -0.00532551 -0.010989 -0.0169728 -0.0230891 -0.029142 -0.0349265 -0.0402367 -0.0448333 -0.0484581 -0.0509645 -0.0522389 -0.052415 -0.0515906 -0.0497829 -0.0469247 -0.0427692 -0.0372438 -0.0303438 -0.0223307 -0.0135435 -0.00436021 0.00490777 0.0140532 0.0228675 0.0312397 0.0390345 0.0460561 0.0521439 0.0570178 0.0604483 0.0621535 0.0619555 0.0597837 0.0557473 0.0501967 0.0436168 0.0364963 0.02929 0.0222165 0.0152704 0.00830751 0.00115636 -0.0062829 -0.0139079 -0.0214573 -0.0285098 -0.0345776 -0.0392407 -0.0422148 -0.0434889 -0.0433192 -0.0422762 -0.0409348 -0.0397677 -0.03885 -0.0379063 -0.0363916 -0.0338686 -0.0302333 -0.0259598 -0.021835 -0.0187303 -0.0171161 -0.0168302 -0.0170872 -0.0169108 -0.0157251 -0.0136569 -0.0114612 -0.00996003 -0.00943489 -0.00943168 -0.00914337 -0.00806113 -0.00632215 -0.00451808 -0.00318885 -0.00245169 -0.00203809 -0.00162902 -0.00112524 -0.000631239 -0.000247088 0 0 
0 0 -0.000141494 -0.000369328 -0.000636586 -0.00115909 -0.00187802 -0.00258161 -0.00310223 -0.00355567 -0.00432897 -0.00574643 -0.00771112 -0.00964094 -0.0108662 -0.0111813 -0.011049 -0.0112666 -0.0122907 -0.0138792 -0.0152367 -0.0156698 -0.0151175 -0.014301 -0.0143079 -0.0160164 -0.0196497 -0.0245724 -0.0297358 -0.0340823 -0.036979 -0.0384059 -0.0388264 -0.038842 -0.0389662 -0.039344 -0.0397367 -0.0395651 -0.0381608 -0.035011 -0.0299257 -0.0231059 -0.0150323 -0.00636498 0.00234055 0.0106684 0.0184564 0.0256349 0.0322475 0.0382888 0.0437483 0.0485922 0.0526584 0.0557977 0.0578254 0.0585937 0.0579562 0.0558202 0.0521749 0.0470206 0.0404454 0.0325437 0.0234488 0.0134287 0.00285904 -0.0076672 -0.0175412 -0.0261986 -0.0332496 -0.0387081 -0.0427398 -0.0457322 -0.0478465 -0.0490761 -0.0491693 -0.0479066 -0.0451969 -0.0412546 -0.0363807 -0.0309338 -0.0251491 -0.0191951 -0.0132507 -0.00744184 -0.00193931 0.0031237 0.00759607 0.0113902 0.0143719 0.0165342 0.0179228 0.018696 0.0190712 0.0192993 0.0196069 0.0200639 0.0206682 0.0212448 0.021484 0.021194 0.0201957 0.0185691 0.0166237 0.0148328 0.0136823 0.0134817 0.0142192 0.0155386 0.0168501 0.0175853 0.0173205 0.0158999 0.0134414 0.0101543 0.00618136 0.00165699 -0.00338819 -0.00884752 -0.0146104 -0.0204896 -0.0263294 -0.0318775 -0.0369082 -0.0411975 -0.0445261 -0.0468399 -0.0481551 -0.0485616 -0.0479531 -0.0461997 -0.0429676 -0.0381335 -0.0316413 -0.0237841 -0.0148958 -0.00539967 0.0043255 0.0139745 0.0232542 0.031939 0.0397739 0.0465481 0.0520791 0.0561837 0.0587737 0.0597648 0.0591659 0.057043 0.0535847 0.0490858 0.0438446 0.0381834 0.0322089 0.025906 0.0191235 0.0116888 0.00356494 -0.00507288 -0.0137334 -0.0218067 -0.0286299 -0.0337945 -0.0371684 -0.0389718 -0.0396397 -0.0397315 -0.0397168 -0.0397815 -0.0397795 -0.0392674 -0.0377291 -0.0348473 -0.0307539 -0.0261049 -0.0218474 -0.0187645 -0.0172352 -0.0168886 -0.016899 -0.0163832 -0.0149265 -0.0128224 -0.0108732 -0.00983038 -0.00982223 -0.0102557 -0.0102452 -0.00927293 -0.00752238 -0.00566419 -0.00429584 -0.00353412 -0.00308052 -0.00257049 -0.00189564 -0.00121462 -0.00070752 -0.000272329 0 0 
0 0 -0.000240259 -0.000520046 -0.000722122 -0.00116291 -0.00191381 -0.00284409 -0.00366383 -0.00417718 -0.00454024 -0.00521012 -0.00658377 -0.00856879 -0.0105243 -0.0116796 -0.0117147 -0.0110518 -0.0104979 -0.0106967 -0.0116484 -0.0128288 -0.0136255 -0.0138525 -0.0139418 -0.014639 -0.0166599 -0.0202206 -0.0249221 -0.0299452 -0.0343764 -0.0375076 -0.0391251 -0.0393793 -0.0387603 -0.0377485 -0.0366928 -0.0355549 -0.0339999 -0.0315309 -0.0276977 -0.0222708 -0.0152558 -0.00701246 0.00199825 0.0111965 0.020092 0.0282223 0.0353048 0.0411901 0.0458353 0.0493519 0.0518851 0.0535651 0.0544307 0.0545033 0.053686 0.0518694 0.0489322 0.0447411 0.0392174 0.0323216 0.024079 0.0146752 0.00445015 -0.00601106 -0.0160256 -0.0249374 -0.0322434 -0.0378323 -0.0418546 -0.0446485 -0.0464029 -0.0471577 -0.0466845 -0.0448158 -0.0415013 -0.0369223 -0.0314999 -0.0255861 -0.0194892 -0.0133852 -0.00741813 -0.00169353 0.00360518 0.008362 0.0124294 0.0157413 0.0182089 0.0198476 0.0207286 0.0210564 0.0210915 0.0210807 0.0212512 0.0217035 0.0223716 0.0230894 0.0235712 0.0235369 0.0227585 0.0212875 0.019314 0.0173318 0.0158308 0.0152314 0.0156447 0.0168644 0.0183835 0.0195583 0.0199228 0.0191914 0.0173409 0.014569 0.0110305 0.00687627 0.00215108 -0.0030775 -0.0087446 -0.0147052 -0.0207736 -0.0266879 -0.0322025 -0.0370195 -0.0409654 -0.0439265 -0.0458885 -0.0468552 -0.0466912 -0.0451901 -0.0420431 -0.0371225 -0.0304521 -0.0223545 -0.0132479 -0.00365415 0.00597342 0.0152731 0.0239458 0.0318011 0.0386342 0.0443392 0.0488662 0.0522105 0.0544493 0.0556184 0.0557586 0.0548777 0.0529487 0.0500082 0.0460612 0.0411165 0.0351914 0.0283362 0.0205882 0.0120868 0.00316099 -0.0057341 -0.0139635 -0.020994 -0.0264354 -0.0303179 -0.0329308 -0.0347803 -0.0363322 -0.0378444 -0.0392387 -0.0400983 -0.0399129 -0.0382597 -0.0350955 -0.0307812 -0.0261143 -0.0220058 -0.0191272 -0.0176115 -0.0170087 -0.0164899 -0.015377 -0.0134647 -0.0112427 -0.00954804 -0.00900823 -0.00957256 -0.010472 -0.0107603 -0.00991944 -0.00821159 -0.00639885 -0.00513037 -0.00451371 -0.00416768 -0.00365323 -0.00283529 -0.00192401 -0.00121425 -0.000806764 -0.000340669 0 0 
0 0 -0.000348546 -0.000710158 -0.000908377 -0.00122567 -0.00182126 -0.00275179 -0.00382997 -0.00469453 -0.00511915 -0.00527826 -0.0057171 -0.0069175 -0.00882221 -0.0107542 -0.0118057 -0.0115512 -0.0102943 -0.00891112 -0.00824382 -0.0086353 -0.00986895 -0.0114014 -0.0128239 -0.0140928 -0.015606 -0.0177904 -0.0209658 -0.0250565 -0.0296128 -0.0339007 -0.0372367 -0.0390964 -0.0393491 -0.0381747 -0.0360184 -0.0332938 -0.0302662 -0.0269763 -0.0232538 -0.0188188 -0.0133521 -0.00673549 0.00101419 0.009618 0.0186169 0.0274477 0.0355003 0.0422972 0.0475229 0.0511139 0.0531377 0.0538224 0.0534137 0.0521138 0.0500912 0.0473882 0.0440163 0.0399156 0.0349695 0.0290687 0.0220924 0.0140635 0.00517141 -0.00411392 -0.0131935 -0.0214401 -0.0283208 -0.0336704 -0.037552 -0.0403026 -0.0420731 -0.042933 -0.0426405 -0.0409645 -0.0378609 -0.0335099 -0.028295 -0.0226158 -0.0167882 -0.0109723 -0.0053263 4.86957e-05 0.00499029 0.00936029 0.0130222 0.0158931 0.0179218 0.0191436 0.0196798 0.0197408 0.0196151 0.0195521 0.0197349 0.0202686 0.021098 0.0220144 0.0227299 0.0229453 0.0224301 0.0211114 0.0191859 0.0170319 0.0151625 0.0140681 0.0139969 0.0148874 0.0163396 0.0177588 0.018575 0.018378 0.0170756 0.0147837 0.0116457 0.00787614 0.00354598 -0.00130422 -0.00661902 -0.0122811 -0.018122 -0.0238347 -0.0291384 -0.0337427 -0.0374768 -0.0402426 -0.0420626 -0.0428757 -0.0425589 -0.0409238 -0.0376813 -0.0328112 -0.0263547 -0.0187136 -0.0103304 -0.0017213 0.0067077 0.0146782 0.0220114 0.0286276 0.0344887 0.0396126 0.0440135 0.0477424 0.0508207 0.0531842 0.0547193 0.0551857 0.0543324 0.0519567 0.0479242 0.0423228 0.0353698 0.0274283 0.0189333 0.0103347 0.00206926 -0.00550494 -0.0120747 -0.0175756 -0.0220474 -0.025807 -0.0291647 -0.0323815 -0.0354146 -0.0379705 -0.0395297 -0.0395636 -0.0378341 -0.0345339 -0.0302927 -0.025953 -0.0223254 -0.0198278 -0.0183429 -0.0172947 -0.0160324 -0.0140801 -0.0115817 -0.00918727 -0.00773473 -0.00766633 -0.00873417 -0.0100323 -0.0105545 -0.00985334 -0.00824245 -0.00658127 -0.005541 -0.00519646 -0.00509237 -0.00469511 -0.00383867 -0.00275985 -0.00183373 -0.00126453 -0.000979565 -0.000462413 0 0 
0 0 -0.000426636 -0.000882402 -0.00115687 -0.0014157 -0.00178806 -0.00246972 -0.00351888 -0.00468939 -0.00554466 -0.00579853 -0.00564838 -0.00573329 -0.00663219 -0.00836005 -0.0101999 -0.0111608 -0.010637 -0.00884194 -0.00669387 -0.00527144 -0.00529379 -0.0067864 -0.00928904 -0.0120698 -0.0146638 -0.0169882 -0.01926 -0.0218886 -0.0251454 -0.0289309 -0.0328171 -0.0361093 -0.0381011 -0.0383301 -0.036704 -0.0335197 -0.0292308 -0.0243843 -0.019385 -0.0144107 -0.00932189 -0.00387719 0.0021971 0.00907511 0.0166636 0.0246805 0.0326139 0.0399316 0.0460787 0.0507134 0.0536355 0.0548185 0.05441 0.0525781 0.0495937 0.0457032 0.0411095 0.0359732 0.0303726 0.0242812 0.0176433 0.0104299 0.00271743 -0.00518046 -0.0127515 -0.0195123 -0.0249926 -0.0290631 -0.0318649 -0.033729 -0.0349025 -0.0354461 -0.035142 -0.0337439 -0.0311348 -0.0274252 -0.022996 -0.0182045 -0.0133333 -0.0085512 -0.00392408 0.000447576 0.00441433 0.00783568 0.0106011 0.0126152 0.0138679 0.0144179 0.0144028 0.0140731 0.0136887 0.0134839 0.0136229 0.0142049 0.0150922 0.0161631 0.0170563 0.0175052 0.0172243 0.0161173 0.0142746 0.0120542 0.00991549 0.00841484 0.00787361 0.00844467 0.00981667 0.0114921 0.0128596 0.0134368 0.0130049 0.0115631 0.00929944 0.00638618 0.0029714 -0.00088722 -0.00517432 -0.00982691 -0.0146795 -0.0194891 -0.0239538 -0.0277782 -0.0308735 -0.0331986 -0.0347796 -0.035629 -0.0355832 -0.0344277 -0.0319326 -0.0280508 -0.0228613 -0.0166684 -0.00984696 -0.0028069 0.00422059 0.0110302 0.0175935 0.0239105 0.0299898 0.035772 0.0411854 0.0460945 0.0503165 0.0536156 0.0556994 0.0562248 0.0549635 0.0517529 0.0467064 0.0401232 0.0325342 0.0245788 0.0168002 0.00959111 0.00308876 -0.0027359 -0.00809273 -0.0132104 -0.018248 -0.0232841 -0.0281634 -0.0325254 -0.0358998 -0.0378274 -0.037967 -0.0362928 -0.0332103 -0.0294394 -0.025801 -0.0228626 -0.0208029 -0.0192864 -0.0176897 -0.0155172 -0.012656 -0.00951309 -0.00696392 -0.00572765 -0.00607582 -0.00750533 -0.00901484 -0.00961426 -0.0089514 -0.00748364 -0.00608527 -0.00542535 -0.00548545 -0.0057175 -0.00551568 -0.00469533 -0.00354562 -0.00250223 -0.00181768 -0.00145143 -0.00120507 -0.000599288 0 0 
0 0 -0.000451617 -0.000979337 -0.0013606 -0.00167483 -0.00192466 -0.00227905 -0.00298038 -0.00408435 -0.00529108 -0.0060743 -0.00609152 -0.00555972 -0.00519729 -0.0057031 -0.00714493 -0.00883926 -0.0097013 -0.00898458 -0.0068107 -0.00409325 -0.00216185 -0.00201182 -0.00393068 -0.00743182 -0.0115881 -0.0154891 -0.018618 -0.0209916 -0.0230848 -0.0254011 -0.0281994 -0.0313153 -0.0341379 -0.0358943 -0.0359337 -0.0339618 -0.0300773 -0.02474 -0.0185758 -0.0122145 -0.0060061 -8.98668e-05 0.00563858 0.0113977 0.0173413 0.0235451 0.0299008 0.0361723 0.041999 0.0470213 0.0508538 0.0532291 0.0539659 0.0530348 0.0504858 0.0465244 0.0413963 0.0353949 0.028763 0.0216966 0.0142957 0.00664692 -0.00107866 -0.008579 -0.0153983 -0.0210703 -0.0252227 -0.0277884 -0.0289468 -0.0291863 -0.0288594 -0.0281635 -0.0269613 -0.025016 -0.0222328 -0.0186718 -0.0146605 -0.0105545 -0.0066085 -0.00291141 0.000493157 0.00354354 0.00618138 0.00824315 0.00967189 0.0104087 0.0104648 0.00996164 0.00906203 0.00803282 0.00710525 0.00651631 0.00640692 0.00678806 0.00758482 0.0086036 0.00955058 0.0101091 0.0100332 0.00916875 0.00756076 0.00544072 0.00326448 0.001564 0.000793978 0.00120223 0.00266567 0.00478204 0.0069653 0.00864074 0.00948069 0.00939269 0.00844761 0.00685932 0.00476631 0.00223002 -0.000729221 -0.00414458 -0.00793006 -0.0118667 -0.0156752 -0.0191146 -0.0221022 -0.0246439 -0.0268118 -0.0285755 -0.0297141 -0.029925 -0.0289323 -0.0266061 -0.0229198 -0.0181307 -0.0124988 -0.0062861 0.000317116 0.00717912 0.0142313 0.0213728 0.0284602 0.0352836 0.0415482 0.0469702 0.0512256 0.0540566 0.055241 0.054667 0.0522926 0.0482659 0.0428792 0.0366049 0.0299662 0.023458 0.0173588 0.011729 0.0063506 0.000928325 -0.00484884 -0.0110678 -0.0175158 -0.023737 -0.0290797 -0.0329533 -0.0349917 -0.0351399 -0.0336895 -0.0311935 -0.0283595 -0.0257805 -0.0237292 -0.0220722 -0.020371 -0.0180746 -0.014926 -0.0111581 -0.00747081 -0.00479359 -0.00377779 -0.00443669 -0.00607388 -0.00756314 -0.00803427 -0.0072873 -0.00591777 -0.00485758 -0.00468377 -0.00527858 -0.0059464 -0.00600243 -0.00526312 -0.00409051 -0.00301528 -0.00233184 -0.00198126 -0.00172753 -0.00140033 -0.000691241 0 0 
0 0 -0.000435616 -0.000986767 -0.00142156 -0.00185546 -0.00216702 -0.00234763 -0.00260413 -0.00322836 -0.00429622 -0.00547017 -0.0061501 -0.00593063 -0.00501426 -0.00417102 -0.00417828 -0.00522021 -0.00666394 -0.00739776 -0.00660846 -0.00428597 -0.00137071 0.000734698 0.000792504 -0.00162247 -0.00603663 -0.0113913 -0.0164319 -0.0203442 -0.0229459 -0.024644 -0.0260589 -0.0276741 -0.0295548 -0.031314 -0.0323046 -0.031933 -0.0297353 -0.0256604 -0.0199575 -0.0131792 -0.0058582 0.00144314 0.00836952 0.0147077 0.0204535 0.025625 0.0303923 0.0348186 0.0389588 0.0427513 0.0460339 0.0485301 0.0499855 0.0501366 0.0488132 0.0459956 0.0417163 0.0361856 0.0296217 0.0222509 0.0143095 0.00600093 -0.00239712 -0.0104653 -0.0176418 -0.0234133 -0.027321 -0.0292836 -0.0295088 -0.0284991 -0.0267676 -0.0246463 -0.0221301 -0.0190764 -0.0154074 -0.0112285 -0.00685979 -0.00266764 0.00110471 0.00435632 0.00710044 0.00934008 0.0109888 0.0119802 0.0122556 0.0118249 0.0107802 0.00924649 0.00747895 0.00570921 0.00421691 0.00317448 0.00270129 0.00278374 0.00335169 0.00421191 0.0051034 0.00572953 0.00581902 0.00522287 0.00389625 0.00201797 -3.55856e-05 -0.00175385 -0.00261579 -0.00229157 -0.00072335 0.00177572 0.00471992 0.00746586 0.00957697 0.0107937 0.0111185 0.0106768 0.00962311 0.00805006 0.00590255 0.00315227 -0.000186875 -0.00395927 -0.00788101 -0.0117274 -0.0153907 -0.0188635 -0.0221965 -0.0252678 -0.0277572 -0.029253 -0.0293818 -0.0279155 -0.0248407 -0.0203942 -0.0147707 -0.00828896 -0.00114739 0.00640972 0.0141813 0.0219221 0.0293622 0.0361276 0.0419213 0.0464688 0.0495608 0.0511439 0.0512509 0.0499875 0.0475667 0.0441823 0.0401053 0.0355424 0.030691 0.0256531 0.0204418 0.0149069 0.0089051 0.00231213 -0.00479902 -0.0120876 -0.0189565 -0.0247287 -0.0288186 -0.0309455 -0.0312787 -0.0303494 -0.028815 -0.0272409 -0.025965 -0.0248745 -0.0235823 -0.0215492 -0.0184368 -0.0142987 -0.0097215 -0.00563753 -0.002932 -0.00208996 -0.00291712 -0.00450449 -0.00575263 -0.00590348 -0.00497587 -0.00368694 -0.00298081 -0.00335753 -0.00452547 -0.00567094 -0.00602541 -0.00541518 -0.00427702 -0.00323417 -0.00263657 -0.00240766 -0.00224736 -0.00194053 -0.00148049 -0.00070158 0 0 
0 0 -0.000416887 -0.000946723 -0.00133019 -0.00183338 -0.00231393 -0.00257831 -0.00260275 -0.00263976 -0.00305961 -0.00399536 -0.00510305 -0.00571381 -0.00533909 -0.00411136 -0.00276401 -0.00215794 -0.00260846 -0.00361729 -0.00419476 -0.00347614 -0.00140394 0.00119091 0.00296376 0.00262925 -0.000277075 -0.00536909 -0.0115286 -0.0174058 -0.0220363 -0.0250122 -0.0265397 -0.0271538 -0.0274034 -0.0275869 -0.027673 -0.0273936 -0.026316 -0.0239692 -0.0200606 -0.0145872 -0.00775366 -4.19502e-05 0.00798315 0.0157167 0.0226713 0.0285221 0.0331975 0.0367823 0.039473 0.0414967 0.0430123 0.0440571 0.0445523 0.044383 0.0433431 0.0413258 0.0382003 0.033975 0.0286877 0.0224337 0.0153302 0.00754787 -0.00063307 -0.00879021 -0.0162867 -0.0224976 -0.0268614 -0.0291323 -0.0294695 -0.0283077 -0.0261968 -0.0235188 -0.0203956 -0.0167313 -0.0124809 -0.00778711 -0.00297982 0.0015666 0.00554647 0.00888429 0.0115491 0.0135436 0.0148319 0.0153324 0.0150409 0.0139907 0.0123367 0.0102846 0.00807019 0.00595606 0.00419372 0.00294698 0.00230248 0.00224273 0.00267671 0.00341203 0.00426128 0.00492535 0.00518183 0.00480954 0.00378997 0.00215261 0.000253096 -0.00149162 -0.0025437 -0.00248636 -0.00113868 0.00135655 0.0045723 0.00790591 0.0107946 0.012859 0.0139503 0.0141357 0.013555 0.012293 0.0103659 0.00770284 0.00429045 0.000316409 -0.00397494 -0.00831516 -0.012567 -0.0166927 -0.0206795 -0.0243208 -0.0272646 -0.0290149 -0.029186 -0.0275594 -0.0242105 -0.0194013 -0.013463 -0.00676499 0.000428261 0.00779157 0.0150975 0.0220702 0.0284414 0.0339507 0.038434 0.0418078 0.0440699 0.0453519 0.0457701 0.0454982 0.0445899 0.0430732 0.0408523 0.0378086 0.0337842 0.0287647 0.0227357 0.01587 0.00839321 0.000692594 -0.00679133 -0.0135497 -0.0190847 -0.0230771 -0.0254347 -0.0264208 -0.0265787 -0.0264556 -0.0263861 -0.0264043 -0.0261511 -0.0250572 -0.0226295 -0.0187358 -0.0137852 -0.00860893 -0.00429591 -0.00165307 -0.000904917 -0.00164608 -0.00286602 -0.00356516 -0.0032305 -0.00205979 -0.000913933 -0.000648817 -0.00160144 -0.00332477 -0.00486828 -0.00547044 -0.0049971 -0.00396122 -0.00305625 -0.00264926 -0.00262882 -0.00263333 -0.00240393 -0.00194913 -0.00142702 -0.000647417 0 0 
0 0 -0.000430032 -0.000925205 -0.00117658 -0.00161304 -0.00219288 -0.00267878 -0.00281114 -0.0025625 -0.00225414 -0.00236396 -0.00311161 -0.00416519 -0.00479158 -0.00437219 -0.00289735 -0.00103631 0.000317828 0.000675048 0.000262451 -0.000134617 0.000242982 0.00155053 0.00318462 0.0040426 0.0030504 -0.000266495 -0.00562061 -0.0120706 -0.0183973 -0.0235604 -0.0269365 -0.0283911 -0.0282453 -0.027014 -0.0252372 -0.0233212 -0.021413 -0.0193313 -0.0166489 -0.0129564 -0.0079499 -0.00159554 0.00579791 0.01373 0.0215487 0.0286011 0.0344478 0.0388058 0.0416538 0.0431237 0.0434402 0.0428469 0.0415367 0.039652 0.0372781 0.0344634 0.031193 0.027437 0.0231779 0.018353 0.012928 0.0068848 0.000335884 -0.00644008 -0.0129205 -0.0184707 -0.0225236 -0.0247222 -0.0251497 -0.0241334 -0.0222118 -0.0197669 -0.016939 -0.0136406 -0.00983149 -0.00555841 -0.00116578 0.00300367 0.00665107 0.00963154 0.0119621 0.0136042 0.0145067 0.0145975 0.0138918 0.0124548 0.0105066 0.00823809 0.00595182 0.00381654 0.00213328 0.000956499 0.000386016 0.000355781 0.00078481 0.0015002 0.00233771 0.00306657 0.00344124 0.0033095 0.00251532 0.00111165 -0.000688571 -0.00251132 -0.00384507 -0.0042643 -0.00342437 -0.00135097 0.00171297 0.00516923 0.00849325 0.0111043 0.0127919 0.0134933 0.0133289 0.0124198 0.0108084 0.00846068 0.00542879 0.00182561 -0.00208682 -0.00606655 -0.00999688 -0.0137958 -0.0174591 -0.0207447 -0.0233252 -0.0247352 -0.0246424 -0.0229033 -0.0196876 -0.0153093 -0.010159 -0.00456538 0.00119549 0.00694378 0.0125594 0.0179167 0.022903 0.0274122 0.0314246 0.0349287 0.0379558 0.0405496 0.0426742 0.044227 0.0450081 0.0447767 0.0432096 0.0400905 0.0353264 0.0290922 0.0217668 0.0139075 0.00613338 -0.000982939 -0.00709295 -0.011976 -0.0156792 -0.0184239 -0.0205126 -0.0223098 -0.024056 -0.0257026 -0.0269622 -0.0273109 -0.0262267 -0.0233695 -0.0189123 -0.0134895 -0.00812057 -0.00382606 -0.00127922 -0.000465734 -0.00079321 -0.00128433 -0.00113455 -0.000109333 0.00132926 0.00229217 0.00202999 0.000461997 -0.00176189 -0.00361068 -0.00433801 -0.00393436 -0.00302015 -0.00234701 -0.00226777 -0.00258331 -0.00283835 -0.00272631 -0.00227759 -0.00174104 -0.00130548 -0.000587296 0 0 
0 0 -0.000477607 -0.000959612 -0.00108362 -0.00133293 -0.00180677 -0.00240472 -0.00282229 -0.00274444 -0.00214211 -0.00140775 -0.00114025 -0.0016575 -0.00266917 -0.00338278 -0.00301067 -0.00136506 0.00101674 0.00321613 0.00450066 0.0047674 0.00443501 0.00410544 0.00408505 0.00411873 0.00358133 0.00173134 -0.00182444 -0.00697002 -0.0131319 -0.0193399 -0.0245934 -0.0280662 -0.0293241 -0.0284303 -0.0258325 -0.0222521 -0.018394 -0.0147523 -0.0113618 -0.00799187 -0.00425372 0.000222409 0.00563761 0.0118844 0.0186724 0.0254912 0.0318226 0.0371746 0.0411528 0.0435721 0.0443542 0.0435963 0.0414835 0.0382713 0.0342568 0.0297466 0.0250196 0.020249 0.0155714 0.0109895 0.00645188 0.00184656 -0.00286515 -0.00759642 -0.0120195 -0.0156651 -0.0180354 -0.0188607 -0.0181658 -0.0163423 -0.0138934 -0.0112593 -0.00861342 -0.00584616 -0.00284509 0.000379981 0.00363416 0.00662139 0.00907647 0.0108988 0.0120572 0.0125713 0.0123918 0.0114542 0.00983756 0.00762168 0.00506612 0.00237345 -0.00017219 -0.0024106 -0.00413392 -0.0052916 -0.00585424 -0.00591821 -0.00553544 -0.0048835 -0.00409177 -0.00337646 -0.00288838 -0.0028647 -0.00336993 -0.00450853 -0.00608867 -0.00786875 -0.0093646 -0.0101143 -0.0097104 -0.00801261 -0.0051035 -0.00144053 0.00244222 0.00591966 0.00863788 0.0104146 0.0113309 0.0114701 0.0109309 0.00972203 0.00787973 0.00552313 0.00282104 -7.17329e-05 -0.00307547 -0.00618656 -0.00936787 -0.0124141 -0.0150309 -0.0167917 -0.0173944 -0.016759 -0.0150069 -0.0124352 -0.00932324 -0.00588226 -0.00220542 0.00171638 0.00594204 0.0104596 0.0152499 0.0202058 0.0252397 0.0301749 0.0348649 0.0390578 0.0424896 0.0448513 0.0458468 0.0452211 0.0428119 0.0386568 0.0329712 0.026245 0.0190986 0.0121519 0.00595416 0.000733671 -0.00350834 -0.00708435 -0.0104069 -0.0138052 -0.0174187 -0.0211413 -0.0245098 -0.0269207 -0.0277582 -0.0266383 -0.0235259 -0.0188687 -0.0135098 -0.00843602 -0.00451594 -0.00210039 -0.000996693 -0.000554078 5.42263e-05 0.00131999 0.00317396 0.00492963 0.00568934 0.00491789 0.00277089 0.000133176 -0.00189713 -0.00265223 -0.00224458 -0.0014441 -0.0010596 -0.0013999 -0.00216845 -0.00278213 -0.00286304 -0.0024544 -0.00188175 -0.00145072 -0.00121718 -0.000576078 0 0 
0 0 -0.000526115 -0.00102571 -0.00110857 -0.00116317 -0.00135125 -0.00177657 -0.00232504 -0.00263708 -0.00233086 -0.00135226 -0.000152682 0.000561988 0.000341126 -0.000601111 -0.00142924 -0.00120391 0.000491936 0.00331821 0.00632669 0.00853247 0.00939883 0.00892442 0.0075435 0.00571693 0.00370403 0.00144939 -0.00134795 -0.0049309 -0.00942627 -0.0146131 -0.0198998 -0.0244436 -0.0274182 -0.0282288 -0.0267237 -0.0232466 -0.0184507 -0.0131446 -0.00792587 -0.00311929 0.00123604 0.00527418 0.0092598 0.0134388 0.0179232 0.0226883 0.027567 0.0322808 0.0364063 0.0395963 0.0414758 0.0418243 0.0405576 0.0377141 0.0335372 0.0283522 0.0225761 0.0166063 0.0107747 0.00530772 0.000306877 -0.00422439 -0.00833741 -0.0119633 -0.0149051 -0.0168063 -0.0172787 -0.016151 -0.0135354 -0.0098786 -0.00580798 -0.00187221 0.00165964 0.00477816 0.00768566 0.0104162 0.0128771 0.0148355 0.016095 0.0165623 0.0162672 0.0152476 0.0135127 0.0110868 0.00804913 0.0045907 0.0009759 -0.00256324 -0.00575801 -0.008487 -0.0105881 -0.0120658 -0.0129195 -0.0132516 -0.0131529 -0.0127336 -0.0121529 -0.0115117 -0.0110065 -0.0107971 -0.0110168 -0.0117273 -0.0128966 -0.0143129 -0.0156051 -0.0163196 -0.015976 -0.0143143 -0.0112656 -0.00711729 -0.0023611 0.00237879 0.00661943 0.0100331 0.0125631 0.0142606 0.0151992 0.0153957 0.0149266 0.0138279 0.0121756 0.0100457 0.00741559 0.00426318 0.000663434 -0.00320325 -0.00694664 -0.0101367 -0.012451 -0.0137418 -0.0140487 -0.0135174 -0.0122822 -0.0104037 -0.00786233 -0.00452543 -0.000339141 0.00468443 0.0103925 0.0165364 0.0227828 0.0287505 0.0340775 0.0383859 0.0414033 0.0428977 0.042812 0.04115 0.0380677 0.0338665 0.0289069 0.0236751 0.0185563 0.0138319 0.0095888 0.00570713 0.00185615 -0.00232296 -0.00702 -0.0121721 -0.0173862 -0.0219988 -0.0252267 -0.0264908 -0.02555 -0.0226527 -0.0184486 -0.0138253 -0.00962815 -0.0063971 -0.00418753 -0.00260601 -0.00108067 0.000923187 0.00350355 0.0062271 0.00827884 0.00884896 0.00764638 0.00511204 0.0022939 0.000299826 -0.000342902 8.59864e-05 0.000728093 0.00075039 -8.08866e-05 -0.00134722 -0.00236485 -0.00269213 -0.00238945 -0.00184356 -0.00142484 -0.0012603 -0.00121788 -0.000619603 0 0 
0 0 -0.000531513 -0.00105455 -0.0011935 -0.00116658 -0.00106397 -0.00109 -0.00139901 -0.00187332 -0.00209008 -0.00157783 -0.000236922 0.00145678 0.0026803 0.00282487 0.00200255 0.00104963 0.00103501 0.00263175 0.00569668 0.00929923 0.0122074 0.0134288 0.0125941 0.00992411 0.00611679 0.00191598 -0.00211945 -0.00575867 -0.00911971 -0.0124774 -0.0159648 -0.0194279 -0.0223948 -0.0242628 -0.0244414 -0.0226505 -0.0189696 -0.0138374 -0.00784314 -0.00159718 0.00434977 0.00961886 0.0140536 0.0176591 0.0206638 0.023273 0.0257356 0.0281889 0.0305976 0.0328011 0.034505 0.0353785 0.0351471 0.0336213 0.0307379 0.0266486 0.0215893 0.0159453 0.0100392 0.00421731 -0.00129836 -0.00634413 -0.0108374 -0.0146339 -0.0174747 -0.0190029 -0.0188248 -0.0167398 -0.0128848 -0.00775801 -0.00209184 0.00341606 0.00832632 0.012548 0.0161666 0.0192871 0.0218533 0.0236747 0.0245774 0.0244405 0.0233288 0.0212981 0.0184247 0.0148267 0.0106518 0.00615619 0.0016071 -0.00270678 -0.00655526 -0.00981436 -0.0123905 -0.0143089 -0.015594 -0.0163282 -0.0166299 -0.0165695 -0.0162549 -0.0158001 -0.0153132 -0.0149552 -0.0148292 -0.015073 -0.0156856 -0.0165662 -0.0174305 -0.0178525 -0.0173753 -0.0156282 -0.0124435 -0.00792374 -0.00247802 0.00330249 0.00882953 0.0136441 0.0175329 0.0204267 0.0223289 0.0233169 0.0234505 0.0227571 0.0212896 0.0190152 0.0158773 0.0118619 0.0070969 0.00191113 -0.00322483 -0.00781401 -0.0114801 -0.014001 -0.0153785 -0.0156519 -0.0149251 -0.0132235 -0.0105176 -0.00678051 -0.00204764 0.00351783 0.00961197 0.015845 0.0217835 0.0270196 0.0312206 0.0341796 0.0358332 0.036254 0.0356301 0.0341812 0.0321582 0.0297846 0.0271803 0.0244338 0.021477 0.0181747 0.0144058 0.0099782 0.00482668 -0.000950982 -0.00704069 -0.0128826 -0.0178415 -0.0212767 -0.0227684 -0.0222977 -0.0202421 -0.0172866 -0.0141447 -0.0113696 -0.00913235 -0.00720718 -0.00509288 -0.00234076 0.00114747 0.00503771 0.00858494 0.0108628 0.0112767 0.00979882 0.00716278 0.00451717 0.00286959 0.00254049 0.00304472 0.00345948 0.00301855 0.00161431 -0.000179561 -0.00157823 -0.00212913 -0.00194194 -0.00148697 -0.00118268 -0.00115111 -0.00125219 -0.00126947 -0.000667974 0 0 
0 0 -0.000474875 -0.000987692 -0.00120865 -0.00124223 -0.00102951 -0.000683514 -0.000477749 -0.000623905 -0.00100916 -0.00114832 -0.000480262 0.00116979 0.00331727 0.00504569 0.00560025 0.0049559 0.00389361 0.00359492 0.00494029 0.00794144 0.0117531 0.014932 0.01619 0.014791 0.0108679 0.00526365 -0.000853018 -0.00634883 -0.0105554 -0.0133898 -0.0152087 -0.0164708 -0.0175021 -0.0183323 -0.0187089 -0.0182065 -0.0164242 -0.0131822 -0.00853968 -0.00277885 0.00359653 0.00993206 0.015663 0.0203371 0.0237724 0.0260044 0.0272341 0.0277969 0.0279536 0.0279175 0.0277394 0.027343 0.0266135 0.025362 0.0234515 0.0208101 0.0174773 0.013595 0.00932251 0.00484908 0.000333036 -0.00410658 -0.00833333 -0.0121489 -0.015253 -0.0171796 -0.0174512 -0.0157403 -0.0120868 -0.00690063 -0.000929965 0.0050606 0.0105284 0.0152482 0.0192963 0.0227636 0.0256137 0.0276642 0.0287251 0.0286143 0.027386 0.0251012 0.0218856 0.0179145 0.0133687 0.00856378 0.0037736 -0.000685297 -0.00466792 -0.00802245 -0.0107175 -0.0127825 -0.014265 -0.0152452 -0.0158142 -0.0160147 -0.0159156 -0.0156133 -0.0151684 -0.0147024 -0.014328 -0.0141879 -0.0143395 -0.0147606 -0.0152594 -0.0155153 -0.0151006 -0.0135888 -0.0107161 -0.00642984 -0.00103544 0.00498685 0.010998 0.0164558 0.0209483 0.0243121 0.0264909 0.0275753 0.0276776 0.0268501 0.0251807 0.0225837 0.0189891 0.0144139 0.0090889 0.00341764 -0.00204166 -0.00674602 -0.0103569 -0.0126913 -0.0138028 -0.0137839 -0.0127888 -0.0108871 -0.00815515 -0.00464049 -0.000473576 0.0041195 0.0088726 0.013481 0.0176516 0.0211601 0.0238841 0.025841 0.0271589 0.0280227 0.0286309 0.0290642 0.0293281 0.0292896 0.0286814 0.0272548 0.0247085 0.0209541 0.0160319 0.0102041 0.00390061 -0.00233562 -0.00790026 -0.0123086 -0.0152796 -0.0167347 -0.0168853 -0.0161741 -0.0150977 -0.0140193 -0.0130506 -0.0119787 -0.0103834 -0.00777556 -0.00395182 0.000814044 0.0057206 0.00983312 0.0122358 0.0125363 0.0110308 0.00862866 0.00652993 0.00552622 0.00571665 0.0063968 0.00658253 0.00562388 0.00361197 0.00129321 -0.000447624 -0.00116392 -0.00105704 -0.000700867 -0.000579195 -0.000797469 -0.00113985 -0.00133675 -0.00126798 -0.000654707 0 0 
0 0 -0.000380104 -0.000827977 -0.00105789 -0.00120357 -0.00110117 -0.000654929 -3.16303e-06 0.000510323 0.000595215 0.000329512 0.000227914 0.000943013 0.00274129 0.00518357 0.00733484 0.00832951 0.00796641 0.00690423 0.00634998 0.0072706 0.00985099 0.0133234 0.0162589 0.0171738 0.0151824 0.0103218 0.00351857 -0.00376506 -0.0100624 -0.0144105 -0.0165215 -0.0167702 -0.0158295 -0.0144339 -0.0130444 -0.0118109 -0.0105277 -0.0088269 -0.00632884 -0.00275706 0.00189436 0.00733793 0.0130708 0.0184968 0.0230887 0.0264667 0.0284546 0.0290857 0.0285621 0.0271246 0.0250868 0.022649 0.0200163 0.0173265 0.0146285 0.0119769 0.00936675 0.00686978 0.00445482 0.00213328 -0.0001541 -0.00244487 -0.00481642 -0.00717259 -0.00929107 -0.0107484 -0.0110207 -0.00966611 -0.00658834 -0.00208007 0.00321657 0.00853352 0.0133048 0.0173 0.0205823 0.0232885 0.0254928 0.0270087 0.0276532 0.0272118 0.0256663 0.0231138 0.0196804 0.0155862 0.0110511 0.00635591 0.00180422 -0.00238287 -0.00600072 -0.00906063 -0.0114853 -0.0133697 -0.0147395 -0.015706 -0.0163265 -0.0166313 -0.0166668 -0.0164546 -0.0160551 -0.0155301 -0.015026 -0.0146371 -0.0144928 -0.0146331 -0.0149556 -0.0152485 -0.0151011 -0.0141402 -0.0119486 -0.00842492 -0.00362949 0.00203184 0.00799848 0.0136677 0.0185452 0.0223266 0.0248796 0.0263034 0.0267447 0.0263456 0.0252018 0.023184 0.0202378 0.0163153 0.0116769 0.00676905 0.00214965 -0.00171568 -0.00454986 -0.00632205 -0.00719207 -0.00732653 -0.00692569 -0.00606139 -0.00477123 -0.00304892 -0.000970497 0.00142312 0.00404084 0.00678663 0.00955412 0.0123145 0.0150339 0.0177399 0.0204496 0.0231542 0.0257492 0.0280176 0.0296917 0.0303987 0.029821 0.0277292 0.0241024 0.0191833 0.0134507 0.00751176 0.00200147 -0.00256641 -0.00592488 -0.00811473 -0.00943919 -0.0103079 -0.0111236 -0.0121285 -0.0132347 -0.014084 -0.0141064 -0.0127745 -0.00976318 -0.00520089 0.000281918 0.00567339 0.00987013 0.0121537 0.012383 0.0111051 0.00933284 0.00812151 0.00801975 0.00883758 0.00973287 0.00969794 0.00825146 0.00571172 0.00299358 0.001029 0.00022538 0.000284371 0.000529876 0.000427788 -0.000105287 -0.000775131 -0.00122985 -0.00132204 -0.00112949 -0.000551794 0 0 
0 0 -0.000297808 -0.000643643 -0.000763955 -0.000933432 -0.00101722 -0.000767894 -4.56558e-05 0.000989641 0.00190698 0.00229686 0.00215078 0.00198839 0.00253903 0.00421366 0.00671573 0.00917372 0.0106475 0.0107422 0.00992285 0.00921188 0.00960909 0.0113746 0.0139477 0.0160496 0.0162956 0.0138008 0.00856171 0.00149117 -0.00593464 -0.0122073 -0.0162687 -0.0177149 -0.016815 -0.0142905 -0.0110116 -0.00774144 -0.00495327 -0.00274997 -0.00092904 0.000902765 0.00319956 0.00618376 0.00989546 0.0141164 0.018438 0.0224144 0.025572 0.0275516 0.0281479 0.0273314 0.0252113 0.022014 0.0180584 0.0137004 0.00930107 0.00519417 0.00158951 -0.00126195 -0.00329895 -0.00456296 -0.00517965 -0.00536416 -0.00535067 -0.00529245 -0.00517962 -0.0047327 -0.00356407 -0.00125661 0.00234578 0.00699037 0.01209 0.0169158 0.0208936 0.0237656 0.0256888 0.0268891 0.0275437 0.0275757 0.0268271 0.0251136 0.0224118 0.0188226 0.0145397 0.00979619 0.00482823 -7.67507e-05 -0.00466844 -0.00873902 -0.0121964 -0.0150111 -0.0172714 -0.0190021 -0.0203214 -0.0212654 -0.021938 -0.0223404 -0.0224873 -0.0223694 -0.0220153 -0.0214888 -0.0208656 -0.0203031 -0.0199196 -0.0197699 -0.0198581 -0.0200344 -0.0200407 -0.0194047 -0.017783 -0.0148287 -0.0105245 -0.00508993 0.00102744 0.00725774 0.0130219 0.0178977 0.0216698 0.0243544 0.0261185 0.0271185 0.0274181 0.0268616 0.0252996 0.0226295 0.0190995 0.0150824 0.0110863 0.00755648 0.00465699 0.0023285 0.000394675 -0.00132299 -0.00292423 -0.00433647 -0.00542546 -0.00603038 -0.00598567 -0.00521701 -0.00363788 -0.00127169 0.00182635 0.00556359 0.00971495 0.0141021 0.0184322 0.0224042 0.0256845 0.027983 0.0290101 0.0286291 0.0267695 0.0236054 0.019458 0.0148407 0.0102761 0.00627049 0.00311032 0.000830202 -0.000798986 -0.00224962 -0.00398406 -0.00625211 -0.00903335 -0.0118815 -0.0140876 -0.0148685 -0.0136941 -0.0104411 -0.00558053 6.11817e-06 0.00517839 0.00896651 0.0108398 0.0110016 0.0101587 0.00931932 0.00926201 0.0101824 0.0116283 0.0126401 0.0123339 0.0104555 0.00755875 0.00468701 0.00275034 0.00203358 0.0021069 0.0022155 0.00181652 0.000899 -0.00014118 -0.000878273 -0.00114752 -0.00107206 -0.000864953 -0.000396982 0 0 
0 0 -0.000266122 -0.000517998 -0.00046066 -0.0004941 -0.000624252 -0.000642039 -0.000223848 0.000815949 0.00229204 0.00366787 0.00438165 0.00431083 0.00393969 0.00407689 0.00533544 0.00765509 0.0103031 0.0123066 0.0131108 0.0128301 0.0121911 0.0120181 0.0126407 0.0137518 0.0144592 0.0137315 0.0108934 0.00597168 -0.000336558 -0.00684679 -0.0123091 -0.0158049 -0.0168344 -0.0154857 -0.0122628 -0.00793678 -0.00336328 0.000733305 0.00394317 0.0061965 0.00772226 0.00895077 0.0102531 0.0119462 0.0141252 0.0166706 0.0193293 0.021679 0.0233148 0.0238699 0.0231363 0.0210302 0.0176636 0.0133106 0.00834572 0.00325813 -0.00153666 -0.00560886 -0.00861321 -0.0104285 -0.0110486 -0.0106411 -0.00950174 -0.00786376 -0.0058571 -0.00341938 -0.000286583 0.00381745 0.00899477 0.0149789 0.0211283 0.0266415 0.0309119 0.0336141 0.0348998 0.0351034 0.0344895 0.033119 0.0308854 0.0276553 0.0234366 0.0184064 0.0127975 0.0069291 0.00104386 -0.00456109 -0.00966724 -0.0141279 -0.0178903 -0.0209674 -0.0234408 -0.0254168 -0.0269631 -0.0281797 -0.0290964 -0.0297353 -0.030087 -0.0301193 -0.029858 -0.029318 -0.02859 -0.0277876 -0.0270162 -0.0264037 -0.0259812 -0.0256887 -0.0253084 -0.0245093 -0.0228588 -0.0199868 -0.0157269 -0.0101181 -0.0034853 0.00366299 0.0107248 0.0171722 0.0226367 0.0270241 0.0304111 0.0329297 0.0345643 0.0351478 0.0344383 0.0323374 0.0289878 0.024773 0.020232 0.0157569 0.011549 0.00757833 0.00373663 -6.64463e-05 -0.00373501 -0.00704975 -0.00968958 -0.011353 -0.0118388 -0.0109991 -0.00884385 -0.00551255 -0.00122154 0.00368728 0.00879943 0.0137311 0.0180255 0.0213631 0.0234913 0.024331 0.023938 0.0225037 0.0203233 0.0177306 0.0150993 0.0126778 0.010638 0.00896853 0.0074708 0.00587097 0.00378574 0.000970532 -0.00256501 -0.00652025 -0.0102664 -0.013 -0.0139955 -0.0128538 -0.00965284 -0.00505223 -2.1764e-05 0.00436985 0.00735281 0.00873392 0.00891433 0.0087049 0.00894707 0.0100993 0.0119755 0.0138761 0.0148322 0.0141537 0.0119034 0.00884157 0.00609366 0.00448422 0.00409666 0.00431261 0.00430047 0.00355383 0.00217649 0.000713701 -0.000315596 -0.000737392 -0.000738607 -0.000630736 -0.000581274 -0.000267555 0 0 
0 0 -0.000279639 -0.000483224 -0.000291174 -9.13617e-05 -2.55754e-05 -8.48149e-05 -2.20134e-05 0.000555728 0.0018857 0.00377149 0.00557888 0.0065935 0.0065466 0.00585218 0.00538924 0.00600708 0.00794822 0.0106976 0.0133473 0.0151164 0.0157183 0.0153698 0.0146012 0.0137599 0.0129042 0.011723 0.0097886 0.00681519 0.00282923 -0.00183678 -0.00654617 -0.0105796 -0.0132676 -0.0140909 -0.0128739 -0.00977809 -0.00530739 -0.000243142 0.00462754 0.00866431 0.0115317 0.0132038 0.0139117 0.0140389 0.0139882 0.0140698 0.014443 0.01509 0.0157874 0.016293 0.0162449 0.0154112 0.0136152 0.0108414 0.00723001 0.00308656 -0.00122692 -0.0052764 -0.00865268 -0.0110448 -0.0123079 -0.0124343 -0.0115851 -0.00996324 -0.00767621 -0.00467112 -0.000765858 0.00430473 0.0105669 0.0177346 0.0251289 0.0318686 0.0371803 0.0406689 0.0423841 0.0426717 0.0418397 0.0400488 0.0372246 0.0332999 0.0282894 0.0224133 0.0159893 0.00936937 0.00284424 -0.00329303 -0.00886554 -0.0137346 -0.0178747 -0.021342 -0.0241996 -0.0265701 -0.0285397 -0.0301503 -0.031444 -0.0324041 -0.0330166 -0.0332591 -0.0331036 -0.0325652 -0.0317063 -0.0306286 -0.0294349 -0.0282592 -0.0271757 -0.0261985 -0.0252116 -0.0239388 -0.0220261 -0.0190803 -0.0148322 -0.00919338 -0.00232915 0.00533519 0.0132216 0.0206983 0.0272711 0.0327234 0.0369974 0.0401681 0.042155 0.0427983 0.0418527 0.0392406 0.0351482 0.0300148 0.0243885 0.0187447 0.0133266 0.00816851 0.00322852 -0.00144069 -0.00571773 -0.00929181 -0.0118685 -0.0131771 -0.0130657 -0.0115356 -0.00877235 -0.00506958 -0.000804785 0.00360706 0.00775349 0.0113198 0.0140121 0.0157409 0.016547 0.0166275 0.016225 0.0156829 0.0152127 0.014954 0.0148651 0.0147392 0.0142911 0.0131891 0.0111718 0.0081424 0.00420659 -0.000266089 -0.00472299 -0.00848034 -0.0109046 -0.0115506 -0.010344 -0.00754579 -0.00386236 -9.19678e-05 0.00300846 0.00502878 0.00605171 0.00658121 0.00729533 0.00874327 0.0109967 0.0135657 0.0155922 0.0162139 0.0150584 0.0124837 0.00945601 0.0070848 0.00604435 0.00617144 0.006641 0.00655486 0.00547387 0.00364084 0.0017545 0.000438868 -0.000121009 -0.000172629 -0.000116774 -0.000200863 -0.000400713 -0.000219743 0 0 
0 0 -0.000292109 -0.000490547 -0.000291971 8.51718e-05 0.000483924 0.00071718 0.000752795 0.000857855 0.00149559 0.00298402 0.00515972 0.00732971 0.0086319 0.00861846 0.00759271 0.00648056 0.00636856 0.00782444 0.0106638 0.0140303 0.0169298 0.0185553 0.0185542 0.017075 0.0145164 0.0113806 0.00809133 0.00494591 0.00204993 -0.000603995 -0.00310412 -0.0054929 -0.00763399 -0.00920752 -0.00975357 -0.00889743 -0.00647367 -0.00270899 0.00190352 0.00669396 0.0109896 0.0143072 0.0163609 0.0171201 0.0167789 0.0156227 0.0140127 0.0122641 0.0105773 0.00905764 0.00769683 0.0063797 0.00497991 0.00339007 0.00151448 -0.00058659 -0.00281247 -0.00495225 -0.00676494 -0.00803727 -0.00863075 -0.00850651 -0.00776136 -0.00647923 -0.00472936 -0.00236303 0.000861689 0.00527552 0.011024 0.0178893 0.0252248 0.0321255 0.0377782 0.0416426 0.0437016 0.0442336 0.0435905 0.0419504 0.0392601 0.0354599 0.0305688 0.0248124 0.0185249 0.0120929 0.00580377 -8.74368e-05 -0.00544023 -0.010129 -0.0141727 -0.0176204 -0.0205278 -0.023034 -0.025169 -0.0269925 -0.0285046 -0.0296749 -0.0304676 -0.0308521 -0.0307818 -0.0302821 -0.0293796 -0.0281335 -0.0266645 -0.0251218 -0.0235931 -0.0221634 -0.0207692 -0.0192662 -0.0173693 -0.0147259 -0.0110209 -0.00604142 0.000170893 0.00735307 0.0149784 0.0224442 0.0291578 0.0348105 0.0392289 0.042378 0.0441841 0.0444744 0.0431027 0.0400682 0.0356534 0.0303279 0.0246867 0.0191574 0.0139712 0.00918825 0.00474779 0.000677172 -0.00297034 -0.00596654 -0.00813263 -0.00926446 -0.00934819 -0.00844756 -0.006788 -0.00464405 -0.00228377 2.75536e-05 0.00212805 0.00394111 0.00544364 0.00675602 0.00801271 0.0093442 0.0109016 0.0126949 0.0145884 0.0163295 0.0175191 0.0177488 0.0167148 0.0142767 0.0105773 0.00605162 0.00130178 -0.00295597 -0.0060971 -0.0077555 -0.00784724 -0.00664785 -0.00462172 -0.00238004 -0.000398894 0.00105129 0.00204444 0.00291204 0.00413441 0.00610054 0.00888256 0.0121172 0.01507 0.016869 0.0168948 0.0151605 0.0123527 0.00954138 0.00777149 0.00744258 0.00813316 0.00884528 0.00866244 0.00726074 0.00504757 0.00285345 0.00136053 0.000728358 0.000638266 0.000623298 0.000407889 1.29431e-05 -0.000360087 -0.000241674 0 0 
0 0 -0.000254255 -0.000453641 -0.000358073 2.2246e-05 0.000655605 0.00132862 0.0017603 0.00186064 0.00190745 0.00244413 0.00390431 0.0062051 0.00864754 0.0102476 0.0103717 0.00917721 0.0075929 0.00686177 0.00787767 0.0107426 0.0146973 0.0185114 0.020914 0.0210459 0.0187403 0.0144763 0.00920201 0.00406723 -3.67549e-05 -0.00267284 -0.0038988 -0.00418989 -0.00413894 -0.00413263 -0.00423886 -0.00419297 -0.00359504 -0.00213225 0.000282304 0.00352172 0.00722597 0.010913 0.0141039 0.0163594 0.0174059 0.017133 0.0156117 0.0130763 0.0098368 0.00626823 0.00270063 -0.000586424 -0.00341821 -0.00569797 -0.00738917 -0.00848805 -0.00900806 -0.00893892 -0.00829392 -0.00706084 -0.00534672 -0.00325777 -0.000993677 0.00127052 0.003454 0.00568712 0.00828377 0.0116535 0.0160749 0.0215003 0.0274479 0.0330836 0.0376048 0.0404828 0.0416355 0.0413578 0.0400307 0.0378696 0.0349085 0.0310519 0.0262958 0.0208454 0.0150256 0.00918148 0.00360441 -0.00155201 -0.00616852 -0.0101913 -0.013653 -0.0166126 -0.0191644 -0.0214083 -0.0233772 -0.0250978 -0.0265484 -0.0277158 -0.0285275 -0.0289637 -0.0289663 -0.0285404 -0.027673 -0.0264529 -0.0249631 -0.0233515 -0.0217203 -0.0201898 -0.0187645 -0.017383 -0.0158515 -0.0138655 -0.0110941 -0.00726156 -0.00222009 0.00390452 0.0107262 0.0177134 0.0243217 0.0301478 0.0349583 0.0385798 0.0408971 0.0417394 0.0410034 0.0387931 0.0354196 0.0313628 0.0271273 0.0230189 0.0191911 0.0155632 0.0120135 0.00848067 0.00497828 0.00162361 -0.00142777 -0.00400133 -0.00599888 -0.00739671 -0.00824102 -0.00855167 -0.00839895 -0.00778396 -0.00669599 -0.0050626 -0.00288598 -0.000145062 0.00305176 0.00656263 0.0101158 0.0134083 0.0160456 0.0176766 0.0179962 0.0168828 0.0144045 0.0108734 0.00681399 0.0028543 -0.000401424 -0.00251197 -0.00338406 -0.00320311 -0.00243339 -0.00158259 -0.00107622 -0.000996801 -0.00116968 -0.00108782 -0.00022967 0.00179823 0.00503085 0.00909364 0.0131213 0.0162133 0.0175989 0.0169848 0.0147613 0.0118985 0.00952346 0.00848162 0.0088783 0.0100154 0.0108059 0.010394 0.00863095 0.00611799 0.00379134 0.00232118 0.00177766 0.00172689 0.00163241 0.00122065 0.000578502 -2.57886e-05 -0.000382357 -0.00026161 0 0 
0 0 -0.000153741 -0.000311598 -0.000326411 -0.000101146 0.000496433 0.00142379 0.00239206 0.00301847 0.00313441 0.00300981 0.00327561 0.00450536 0.00675242 0.00937917 0.0113373 0.0118185 0.0107936 0.00907967 0.00798342 0.00857905 0.0112172 0.015265 0.0193763 0.0220033 0.0219764 0.0189499 0.01346 0.00679032 0.000514085 -0.00409763 -0.00637784 -0.00642065 -0.00488868 -0.00270027 -0.000615421 0.000915543 0.00185401 0.00238338 0.00285264 0.00358548 0.00481376 0.00658891 0.00874392 0.0109692 0.0128386 0.013924 0.0138974 0.0125951 0.0100295 0.0064278 0.00213023 -0.00244674 -0.00685843 -0.0107046 -0.0136904 -0.0155597 -0.0161842 -0.0155056 -0.013573 -0.0105151 -0.00655522 -0.00201445 0.00268436 0.00721465 0.0112796 0.0148826 0.0182282 0.0217049 0.0256701 0.0301582 0.0348488 0.0390363 0.0419846 0.0431952 0.0426009 0.0405385 0.0375013 0.0338052 0.0295605 0.0247259 0.0193101 0.0134936 0.00755778 0.00184706 -0.00343673 -0.00816709 -0.0123012 -0.0158627 -0.0188624 -0.0214361 -0.0236771 -0.025638 -0.0274046 -0.0289594 -0.0302949 -0.0313888 -0.0321778 -0.0326289 -0.0326641 -0.0323229 -0.0315405 -0.0304269 -0.0290171 -0.0274361 -0.0258082 -0.0242265 -0.0227852 -0.0214478 -0.0200966 -0.0185128 -0.0163645 -0.0133191 -0.00912651 -0.003747 0.00261983 0.00957332 0.0166398 0.0233997 0.0295012 0.0346654 0.0386014 0.0410722 0.041996 0.04145 0.0397859 0.037431 0.0347542 0.0319132 0.0289089 0.025567 0.021752 0.0173974 0.0125384 0.0073835 0.00218557 -0.00273022 -0.00713302 -0.0107621 -0.0134446 -0.0150524 -0.0155115 -0.0147853 -0.0129115 -0.00998296 -0.00623479 -0.00193024 0.00254436 0.00675063 0.0103117 0.0128858 0.0142494 0.0143441 0.0132944 0.0113705 0.00897036 0.00652329 0.00442175 0.00294924 0.00218621 0.00196859 0.00197938 0.00177965 0.00108296 -0.000213273 -0.0018125 -0.00318792 -0.00363245 -0.00258406 0.00016434 0.00431865 0.00912538 0.0135151 0.01645 0.01738 0.0163129 0.0139536 0.0114018 0.00974939 0.00954825 0.0105759 0.011944 0.012545 0.0116934 0.00947831 0.00671078 0.0044044 0.00315759 0.00288966 0.00301169 0.00289171 0.00226514 0.00130744 0.000407169 -0.000149757 -0.000329217 -0.000205085 0 0 
0 0 -3.12151e-05 -9.37091e-05 -0.000110596 -5.1542e-05 0.00028025 0.00106764 0.00227004 0.00353539 0.00436782 0.0044866 0.00412662 0.00398709 0.00480936 0.00683631 0.00956738 0.0119612 0.0130589 0.0125792 0.0111239 0.00989245 0.00999986 0.0119678 0.0153707 0.0189508 0.021189 0.0208327 0.0174927 0.0116987 0.00479794 -0.00161988 -0.00616607 -0.00813135 -0.00752141 -0.00497633 -0.0014408 0.0021403 0.00505871 0.00689647 0.00755885 0.00730762 0.00652475 0.0057126 0.00522418 0.00525086 0.00573854 0.00643422 0.00696681 0.00696493 0.00608679 0.00422704 0.00138769 -0.00221562 -0.00627607 -0.0103504 -0.0140153 -0.0168392 -0.0184726 -0.0186481 -0.017216 -0.0142062 -0.00981656 -0.00434376 0.0017481 0.00795856 0.0138791 0.0192847 0.0242111 0.0289127 0.0336626 0.0385264 0.043235 0.0471322 0.0495048 0.0498404 0.0480969 0.0446326 0.0400285 0.03476 0.0290449 0.0229341 0.016461 0.00978683 0.00322595 -0.00294347 -0.00853567 -0.0134635 -0.0177219 -0.0213749 -0.0244727 -0.0271448 -0.0294745 -0.0315406 -0.0333728 -0.0350069 -0.0363963 -0.0375439 -0.0383898 -0.038887 -0.0389951 -0.0386898 -0.0379692 -0.0368764 -0.0354369 -0.033764 -0.0319279 -0.0300757 -0.0282649 -0.0265368 -0.0248363 -0.0230026 -0.0207663 -0.0177993 -0.0137709 -0.00854247 -0.00213479 0.0051829 0.013037 0.0210163 0.0286874 0.0355774 0.0412319 0.0452815 0.0475455 0.0481286 0.0473825 0.0457015 0.0433712 0.0404735 0.0369715 0.0326761 0.0275032 0.0214904 0.0148576 0.00795107 0.00118863 -0.00502139 -0.0103115 -0.014368 -0.0170264 -0.0181503 -0.0177683 -0.0160282 -0.0131795 -0.0095508 -0.00556713 -0.00161311 0.00186795 0.00459825 0.00638812 0.00724775 0.00727158 0.00676858 0.00608119 0.0055304 0.00535515 0.0056038 0.00615808 0.00675048 0.0069945 0.00655848 0.00520053 0.00296203 0.000176679 -0.00254948 -0.00447355 -0.0049 -0.00343908 -0.000165709 0.0043347 0.0091093 0.0130971 0.0154592 0.0158745 0.0146495 0.0126463 0.0109203 0.0103205 0.0110616 0.0125913 0.0139379 0.0140802 0.0125987 0.00987331 0.00691036 0.00475149 0.00387006 0.00399413 0.00435923 0.00425083 0.00342543 0.00216131 0.0009594 0.000182535 -0.000118798 -0.000125574 -5.98848e-05 0 0 
0 0 4.87707e-05 9.81883e-05 0.00021573 0.00025805 0.000326147 0.000690163 0.00160435 0.00305199 0.00463009 0.00571692 0.00589958 0.0053251 0.0047264 0.00500896 0.0066382 0.0093361 0.0121441 0.0140094 0.0143714 0.0134958 0.0123297 0.0118673 0.0127625 0.014819 0.0171347 0.0184841 0.0178054 0.0147454 0.00971573 0.00379057 -0.00173267 -0.00571323 -0.00748647 -0.00693044 -0.0044365 -0.000734858 0.00332075 0.00691397 0.00935719 0.0103363 0.00984433 0.0082268 0.00595936 0.00356468 0.0014493 -0.00013687 -0.00120911 -0.00185825 -0.00237432 -0.00301576 -0.00397875 -0.00538913 -0.00723941 -0.00940057 -0.0116215 -0.0135981 -0.0149613 -0.0154114 -0.0146365 -0.0125136 -0.00899397 -0.00429794 0.00128277 0.00730598 0.0133658 0.0191947 0.0247165 0.030081 0.0354937 0.0409686 0.0462311 0.0506649 0.0534983 0.0541679 0.0525345 0.0489458 0.0440032 0.03827 0.0320758 0.0255297 0.0187174 0.0117779 0.00498017 -0.00138988 -0.00717381 -0.0123037 -0.0168032 -0.020731 -0.0241369 -0.0271163 -0.0297668 -0.0321311 -0.0342332 -0.036092 -0.0376901 -0.0389869 -0.0399449 -0.0405207 -0.0406919 -0.0404302 -0.0397149 -0.0385877 -0.0370502 -0.0351572 -0.0330225 -0.0307377 -0.0283976 -0.026066 -0.0237544 -0.021392 -0.0187887 -0.015655 -0.0116808 -0.00664519 -0.000496787 0.00666587 0.014603 0.0229532 0.031228 0.0388171 0.0451129 0.049596 0.052039 0.0525777 0.0515744 0.0494792 0.0466027 0.0430601 0.0388019 0.0336857 0.0277327 0.0210942 0.0140748 0.00712483 0.000661715 -0.00494655 -0.00940629 -0.0125838 -0.014376 -0.0148756 -0.0142422 -0.0127767 -0.0107567 -0.00854795 -0.00644799 -0.00470165 -0.00341599 -0.00258291 -0.00203082 -0.00156733 -0.000934602 0.000123945 0.00168513 0.003723 0.00597615 0.00804993 0.00947269 0.00985554 0.00891496 0.00671101 0.00355307 0.000107111 -0.00285247 -0.00456433 -0.0045083 -0.00255512 0.000915198 0.00513903 0.00914933 0.01209 0.0134478 0.0132846 0.0121385 0.0109094 0.0104115 0.0110913 0.012777 0.0146525 0.015734 0.015229 0.0130422 0.00989101 0.00689854 0.00506297 0.00465714 0.00519412 0.00575075 0.00557946 0.00451639 0.00296017 0.00152312 0.000606594 0.000236517 0.000175266 0.00016998 0.000107356 0 0 
0 0 4.81716e-05 0.000166901 0.000465581 0.000677302 0.000719667 0.000727893 0.0010475 0.0020199 0.00368012 0.00559065 0.00702038 0.00739341 0.00671432 0.00569038 0.00532679 0.00634557 0.00874205 0.0117609 0.0143647 0.0157254 0.0157233 0.0148631 0.0139168 0.0135476 0.0138347 0.0143874 0.0145086 0.0135696 0.0112985 0.00786527 0.0038308 -6.96116e-05 -0.00315746 -0.00489385 -0.0050216 -0.00355955 -0.000865256 0.00251598 0.00583101 0.008399 0.00967584 0.00945215 0.00782122 0.00507556 0.00166795 -0.00193265 -0.00529066 -0.00814356 -0.0102995 -0.0117823 -0.0126312 -0.0129952 -0.0129975 -0.0127861 -0.0123915 -0.0118254 -0.0109679 -0.00970846 -0.00787503 -0.00533833 -0.00204397 0.00199327 0.00655132 0.011389 0.0162041 0.0208115 0.0252126 0.0295283 0.0340238 0.0387612 0.0435066 0.0477018 0.0505762 0.0515224 0.0502893 0.0471481 0.0426395 0.0373761 0.0317417 0.0258746 0.0198268 0.0136935 0.00767288 0.00199263 -0.00317964 -0.00782244 -0.0119618 -0.0156457 -0.0189378 -0.0218768 -0.0245222 -0.0269226 -0.0290832 -0.0309922 -0.0326251 -0.0339792 -0.0349761 -0.0356072 -0.0358105 -0.0355911 -0.0349243 -0.0338227 -0.0322735 -0.0303622 -0.0281369 -0.0257018 -0.0231366 -0.0205427 -0.018003 -0.0154853 -0.0129209 -0.0100872 -0.00672702 -0.0026274 0.00240132 0.00836739 0.0152079 0.0226596 0.0302783 0.0374323 0.0433971 0.0476085 0.049798 0.0501093 0.0489549 0.0468549 0.0441353 0.0409521 0.037238 0.032893 0.0279073 0.0224001 0.0166771 0.0110753 0.0058929 0.00137523 -0.00238603 -0.00533438 -0.00755582 -0.00914999 -0.0102486 -0.0110103 -0.0115261 -0.0119128 -0.0121526 -0.0122298 -0.0119819 -0.0112661 -0.00989821 -0.00782549 -0.00503367 -0.0017285 0.00180456 0.0051135 0.00771964 0.00919333 0.00929424 0.00798824 0.00552618 0.0024671 -0.000509318 -0.00265109 -0.00343483 -0.00258569 -0.000280633 0.00295585 0.00631795 0.00905034 0.0106115 0.0108904 0.0102808 0.0094729 0.00923993 0.0100697 0.0119465 0.0143446 0.0162869 0.0168695 0.0156334 0.012856 0.0095266 0.0068163 0.00553667 0.00571984 0.00663322 0.00725492 0.0068674 0.00545208 0.00356925 0.00193904 0.000987752 0.000673529 0.000656291 0.000602052 0.000400594 0.000199907 0 0 
0 0 -1.15512e-05 0.000100239 0.000484775 0.000923719 0.00121566 0.0012448 0.00115206 0.0013514 0.00229586 0.00410436 0.00635421 0.00822006 0.00893267 0.00831074 0.00692885 0.00584594 0.00602341 0.00779341 0.01073 0.0139055 0.0163321 0.0174423 0.0172119 0.0160361 0.0144669 0.0128861 0.0114604 0.0101891 0.00894601 0.00761813 0.0060653 0.0042655 0.00226123 0.000245581 -0.00147926 -0.00253304 -0.00263016 -0.00168509 8.63751e-05 0.0022552 0.00425516 0.00553018 0.00571935 0.0046353 0.00232337 -0.0010032 -0.00496765 -0.00912441 -0.0130489 -0.0163533 -0.0187514 -0.0200667 -0.0202469 -0.0193339 -0.0174692 -0.0147938 -0.0114616 -0.00759229 -0.00330342 0.00134319 0.00623876 0.0112406 0.0161668 0.0207576 0.0248278 0.0282307 0.0310484 0.0335146 0.0359446 0.0385616 0.0412864 0.0436936 0.0451535 0.0450598 0.0431629 0.0396395 0.0350422 0.0299365 0.0247522 0.0196183 0.0145554 0.00957281 0.00475902 0.000269416 -0.00380105 -0.00742506 -0.0106729 -0.0136011 -0.0162475 -0.0186386 -0.0208269 -0.0228187 -0.0246469 -0.0262691 -0.0276737 -0.028823 -0.0296954 -0.0302595 -0.0304675 -0.0303166 -0.0297826 -0.0288661 -0.0275651 -0.0259233 -0.0239871 -0.0218143 -0.0195269 -0.0171917 -0.0149337 -0.0127938 -0.0107415 -0.00862924 -0.00627967 -0.0034673 3.69811e-05 0.00439046 0.00970357 0.0159014 0.022634 0.029313 0.0352168 0.0397232 0.0425707 0.0438253 0.0439111 0.0432649 0.0422023 0.0408176 0.0389963 0.0365559 0.0333737 0.0295064 0.0250953 0.020342 0.0154912 0.0106569 0.00595755 0.00140809 -0.00293415 -0.00700685 -0.0107449 -0.014003 -0.0166382 -0.0184727 -0.0193887 -0.0192574 -0.0180368 -0.0157569 -0.0125655 -0.00875781 -0.00470444 -0.000848753 0.00236828 0.00454719 0.00549386 0.00518127 0.0038553 0.00190124 -0.000101146 -0.00159197 -0.00214698 -0.00155024 0.000113613 0.00248664 0.00499837 0.00708577 0.00830947 0.00857532 0.00811163 0.00751765 0.00742551 0.00834098 0.0103313 0.013014 0.01561 0.0171643 0.0170014 0.0150429 0.0119231 0.00877953 0.00669792 0.00622362 0.00707165 0.00830325 0.00884107 0.00809132 0.00621886 0.00397808 0.0021894 0.00127114 0.00109751 0.00120868 0.00118449 0.000882339 0.000434503 0.000168722 0 0 
0 0 -6.35524e-05 -1.2956e-05 0.000284416 0.000815904 0.00142659 0.00184272 0.00187695 0.00165278 0.00165129 0.00244821 0.00429111 0.00682429 0.0091497 0.0103221 0.00991216 0.00829955 0.0065201 0.00574093 0.00667699 0.00927371 0.0128254 0.0162294 0.018525 0.0191492 0.0180137 0.015512 0.0122561 0.00897857 0.00631343 0.00462263 0.00394939 0.00393631 0.0040615 0.00382007 0.00294706 0.00149285 -0.000219138 -0.00173299 -0.00269958 -0.00297312 -0.00262641 -0.00193785 -0.00128401 -0.00103531 -0.00151264 -0.00290456 -0.00523224 -0.00835039 -0.011938 -0.0156191 -0.0189504 -0.0214977 -0.0229188 -0.0230002 -0.021629 -0.0188725 -0.0148119 -0.00966183 -0.00363331 0.00297011 0.00991482 0.016837 0.0234307 0.0292985 0.0341606 0.037838 0.0403648 0.0419452 0.0429634 0.0437111 0.0442852 0.0444658 0.0437701 0.0417648 0.0382004 0.0333196 0.0275902 0.0216818 0.0160088 0.010754 0.00588268 0.00132923 -0.00288316 -0.00668545 -0.0100553 -0.0129848 -0.0155631 -0.0178599 -0.0199311 -0.0217845 -0.0234654 -0.0249993 -0.0263971 -0.0276424 -0.0287174 -0.0295965 -0.0302792 -0.0307157 -0.0309088 -0.0308293 -0.0304611 -0.0297864 -0.0288117 -0.0275343 -0.025995 -0.024236 -0.0223287 -0.0203597 -0.0184392 -0.0166231 -0.0149135 -0.0132355 -0.0114709 -0.00940064 -0.00679143 -0.00335185 0.00114685 0.00677964 0.0133307 0.0203001 0.0269835 0.0328047 0.0373509 0.040653 0.0429235 0.0444973 0.0455151 0.0460186 0.0457906 0.0445959 0.0422916 0.0388046 0.0342629 0.028838 0.0227799 0.0163006 0.00967404 0.00306355 -0.00325045 -0.00907298 -0.0141059 -0.0181046 -0.0208258 -0.0221687 -0.0220812 -0.0206841 -0.0181987 -0.0149564 -0.0113824 -0.00792627 -0.00494992 -0.00278056 -0.00154792 -0.00124078 -0.00162702 -0.00237013 -0.00304083 -0.00327311 -0.00277198 -0.0015012 0.000383822 0.00254518 0.00454068 0.0059681 0.00660758 0.00648064 0.00587873 0.0052983 0.00532381 0.00634747 0.0084872 0.0114104 0.0143949 0.0166096 0.017298 0.0161861 0.0135908 0.0104025 0.00779193 0.00661575 0.00707993 0.00857574 0.00998205 0.0102797 0.00905597 0.00671768 0.00418531 0.00234597 0.00155463 0.00156774 0.00181273 0.00180625 0.00141625 0.000816663 0.000278871 5.69673e-05 0 0 
0 0 -4.85772e-05 -5.06283e-05 4.39361e-05 0.000438071 0.00115702 0.00199452 0.00258529 0.00265186 0.0022817 0.00199853 0.00249879 0.00419195 0.00682972 0.00952835 0.0112047 0.0111872 0.0096122 0.00738902 0.00581406 0.00589681 0.00797897 0.0115882 0.0156088 0.0188287 0.0202352 0.0193278 0.0163043 0.0118961 0.00722635 0.00337351 0.00106297 0.000479302 0.00120876 0.00249537 0.00353687 0.00374995 0.00291529 0.00114857 -0.00117294 -0.00363141 -0.00583912 -0.0075586 -0.00869031 -0.00931966 -0.00962229 -0.00987879 -0.010362 -0.0112468 -0.012628 -0.0143829 -0.0163639 -0.0182253 -0.0196104 -0.0201846 -0.0196689 -0.0178808 -0.0147524 -0.0102951 -0.00462436 0.0020405 0.00939985 0.0170906 0.0246929 0.0317477 0.0378403 0.0426441 0.0460585 0.048178 0.0492557 0.0496093 0.0493592 0.0484397 0.0465203 0.0432759 0.0385364 0.032534 0.0257863 0.018918 0.0124357 0.00654517 0.00124675 -0.00356969 -0.00794203 -0.0118531 -0.0152881 -0.0182611 -0.0208573 -0.0231388 -0.0251681 -0.026968 -0.0285645 -0.0299853 -0.0312397 -0.0323396 -0.0332543 -0.0339954 -0.0345552 -0.0349484 -0.0351279 -0.0350976 -0.03482 -0.0342865 -0.0334784 -0.0324039 -0.0310467 -0.0294463 -0.0276282 -0.0256821 -0.0236765 -0.0216648 -0.0197006 -0.0177454 -0.015738 -0.0135188 -0.0108627 -0.0074708 -0.00302195 0.00262565 0.00938691 0.0168173 0.0243282 0.031289 0.0372818 0.0421712 0.046001 0.048895 0.0508886 0.0519436 0.0518384 0.0504223 0.0475695 0.0433035 0.0377928 0.0312822 0.0241088 0.0166352 0.00921256 0.00214815 -0.00424951 -0.00972694 -0.0140709 -0.0171406 -0.0188929 -0.01939 -0.0188091 -0.0174372 -0.0156005 -0.0136764 -0.0120058 -0.0107543 -0.0100388 -0.00975921 -0.00971528 -0.00961792 -0.00913798 -0.0080602 -0.00627224 -0.00387843 -0.00114089 0.00150104 0.00362373 0.00486304 0.00510649 0.00451196 0.00350603 0.0026763 0.00261101 0.00372839 0.00608932 0.00936038 0.0128787 0.0157408 0.0171975 0.016812 0.0147721 0.0117583 0.00880763 0.00697214 0.00681743 0.00813487 0.0100569 0.0113723 0.0112217 0.00946435 0.00674104 0.00410898 0.00242274 0.00192181 0.00219876 0.00256693 0.00251014 0.00194547 0.00114584 0.000462581 8.36825e-05 -3.06765e-05 0 0 
0 0 3.6014e-05 4.30796e-05 -2.75176e-05 8.98573e-05 0.000588946 0.00150463 0.002595 0.00340651 0.00355503 0.00305066 0.00241477 0.00245245 0.00374094 0.00621968 0.00911889 0.0113048 0.0119165 0.0107952 0.00863076 0.00664771 0.00601728 0.00738015 0.0105169 0.0144812 0.0180024 0.0198509 0.0192734 0.0162693 0.0115204 0.00622418 0.0016188 -0.00139421 -0.00249513 -0.00197348 -0.000505593 0.00107271 0.00205314 0.00197744 0.000691112 -0.0016934 -0.00484156 -0.00833766 -0.0117165 -0.0145989 -0.0167388 -0.0180223 -0.0185367 -0.018444 -0.0179826 -0.0173321 -0.0166276 -0.0159412 -0.0151727 -0.0142004 -0.0128457 -0.0109299 -0.00829827 -0.00484084 -0.000491318 0.00470645 0.010639 0.0170696 0.0236958 0.0301332 0.0359827 0.0409081 0.0446757 0.0472752 0.0488112 0.0495103 0.049481 0.0486881 0.046893 0.0438377 0.0393699 0.0336536 0.0271656 0.0204711 0.0140806 0.00824262 0.0029577 -0.00184314 -0.00626443 -0.0102839 -0.0139024 -0.0171114 -0.0199576 -0.0225028 -0.0247876 -0.0268264 -0.0286217 -0.0301951 -0.0315454 -0.0327018 -0.0336555 -0.0344191 -0.0349835 -0.0353641 -0.0355574 -0.0355358 -0.0352786 -0.034766 -0.0339713 -0.0328893 -0.031508 -0.029837 -0.0278912 -0.0257337 -0.0234051 -0.0209844 -0.0185267 -0.016053 -0.0135645 -0.0109843 -0.00813528 -0.00475489 -0.000546148 0.00469919 0.0109204 0.0178226 0.0249046 0.0316338 0.0376129 0.0426155 0.0465676 0.0494462 0.0512262 0.0518292 0.051139 0.0491276 0.0457931 0.0412884 0.0358151 0.029675 0.0231969 0.0167085 0.0105034 0.00481651 -0.0001512 -0.00432566 -0.00766525 -0.0102245 -0.0120945 -0.0134374 -0.0144072 -0.0151871 -0.0158845 -0.0166158 -0.0173222 -0.0178962 -0.0181601 -0.0178709 -0.0168452 -0.0149424 -0.0122251 -0.00888101 -0.00527987 -0.00189407 0.000804788 0.00243338 0.00285877 0.00223958 0.00103857 -0.000103673 -0.000477248 0.00040994 0.00274406 0.00624357 0.0102565 0.0138876 0.0162668 0.0168518 0.0155999 0.0130185 0.010058 0.00772862 0.00685057 0.0076172 0.00948896 0.0114055 0.0122619 0.0114336 0.00911449 0.00615284 0.00366121 0.00238044 0.00235129 0.00298926 0.00348937 0.00333476 0.00252289 0.0014458 0.000560206 0.000105141 2.51834e-05 -1.18019e-05 0 0 
0 0 0.000132556 0.000209844 0.000138062 4.76091e-05 0.00015262 0.000703283 0.00177872 0.00312337 0.00420096 0.00449987 0.00390496 0.00289254 0.00233531 0.00299137 0.0050603 0.00797188 0.010658 0.0121072 0.0118617 0.0102714 0.00831248 0.00713775 0.00753678 0.00960198 0.0127073 0.0157753 0.0176238 0.0174297 0.0149963 0.0107921 0.00575786 0.000997663 -0.00262291 -0.00466195 -0.0051543 -0.00447079 -0.00324566 -0.00212334 -0.00166511 -0.00227414 -0.00409807 -0.00703282 -0.0107529 -0.0147745 -0.0185952 -0.0217367 -0.0238565 -0.0247738 -0.0244934 -0.0231281 -0.0208724 -0.0179713 -0.014649 -0.0110582 -0.00733286 -0.00351281 0.000369776 0.00434327 0.00846233 0.0127503 0.0172175 0.0218027 0.0263934 0.0307917 0.034758 0.0380733 0.0405602 0.042172 0.0429844 0.0431581 0.0428223 0.0419736 0.04045 0.0380176 0.0345328 0.0300361 0.0248649 0.0194815 0.0143086 0.00959227 0.00534212 0.00145975 -0.00216101 -0.00554547 -0.00868125 -0.0115502 -0.0141669 -0.0165602 -0.018758 -0.0207484 -0.0225108 -0.0240556 -0.0253657 -0.0264874 -0.0274015 -0.0281336 -0.0286744 -0.0290405 -0.0292217 -0.0292109 -0.0289687 -0.0284938 -0.0277524 -0.0267395 -0.0254311 -0.0238439 -0.0219717 -0.0198634 -0.0175552 -0.0151344 -0.0126606 -0.0101964 -0.00779757 -0.00544595 -0.00304922 -0.000395009 0.00279022 0.00669987 0.0113383 0.0165552 0.0220017 0.0273322 0.0322565 0.0365632 0.0401325 0.0428601 0.0446427 0.0453904 0.0450553 0.0436746 0.0413422 0.0382206 0.0344953 0.0303604 0.0259883 0.0215468 0.0171474 0.0128702 0.00875777 0.00478413 0.000924559 -0.00286616 -0.00662831 -0.0103328 -0.0139272 -0.017257 -0.0201645 -0.0224337 -0.0238391 -0.0242081 -0.0234482 -0.0215523 -0.0186793 -0.0151101 -0.0112594 -0.00757504 -0.00452458 -0.00244579 -0.00150592 -0.0016101 -0.00238918 -0.00328033 -0.00366207 -0.0029593 -0.000911171 0.00238378 0.00643625 0.0104683 0.0136178 0.0152294 0.0150647 0.0133869 0.0109399 0.00866523 0.00740501 0.00760091 0.00908593 0.0110905 0.0125505 0.0125846 0.010926 0.00807279 0.00505533 0.00293283 0.00225701 0.00281479 0.00383716 0.00444391 0.00415297 0.00307697 0.0017289 0.000650329 0.000106755 2.96799e-05 0.000161232 0.000105809 0 0 
0 0 0.000169665 0.000324036 0.000409608 0.000333947 0.000169389 0.00018222 0.000702024 0.00187019 0.0034385 0.00480585 0.00533133 0.00475377 0.00345428 0.00231142 0.0022456 0.00372356 0.00644179 0.00949281 0.0117891 0.0126098 0.0119067 0.010309 0.00876274 0.00810839 0.00871429 0.0103697 0.0123709 0.0138274 0.0139615 0.0124444 0.00939251 0.00532685 0.000975026 -0.00297271 -0.00602866 -0.00793883 -0.00870785 -0.00861728 -0.00808398 -0.00761176 -0.00768537 -0.00863438 -0.0105851 -0.0133944 -0.0167484 -0.0201847 -0.0232214 -0.0254038 -0.0264099 -0.0260564 -0.0243048 -0.021265 -0.017138 -0.012165 -0.00664183 -0.000830915 0.00501932 0.0106993 0.0160717 0.0210469 0.0255642 0.0295875 0.0330575 0.0359231 0.0380676 0.0394139 0.039895 0.0395446 0.0384905 0.0369267 0.035059 0.0329988 0.0307057 0.0280206 0.0248138 0.0210578 0.0169401 0.0127818 0.00889634 0.00546994 0.00250636 -0.00010488 -0.00251847 -0.00478448 -0.00692239 -0.00890932 -0.0107559 -0.0124708 -0.0140555 -0.0155121 -0.0168046 -0.0179299 -0.0188908 -0.0196947 -0.0203468 -0.020866 -0.0212552 -0.021523 -0.0216714 -0.021678 -0.0215329 -0.0212079 -0.0206837 -0.0199571 -0.0190053 -0.0178233 -0.0164246 -0.0148249 -0.0130655 -0.0112167 -0.0093232 -0.00747482 -0.00573087 -0.00411707 -0.00259705 -0.000967542 0.000961155 0.0033887 0.006373 0.00988427 0.013785 0.0179118 0.0221244 0.0262821 0.0302392 0.0337947 0.0367557 0.0389462 0.0402801 0.0407549 0.040425 0.0393996 0.0377452 0.0355214 0.0327397 0.0294234 0.0255616 0.0211857 0.0163293 0.0110603 0.00548143 -0.00027312 -0.00601425 -0.0115003 -0.0164618 -0.020591 -0.0236416 -0.0254072 -0.0257935 -0.0248621 -0.0228145 -0.0199769 -0.0167821 -0.0136612 -0.0110134 -0.00910024 -0.00804501 -0.00773732 -0.00789938 -0.00809595 -0.00785343 -0.00677631 -0.00462645 -0.00145688 0.00237562 0.00630439 0.00964638 0.0118056 0.0124885 0.0118087 0.0102394 0.00855006 0.00750911 0.00760558 0.00887122 0.0108164 0.0125839 0.0132668 0.0123187 0.00985539 0.00665024 0.00380798 0.00224929 0.00226107 0.0033754 0.00466842 0.00525587 0.00475073 0.00340532 0.00185106 0.000683278 0.000151242 0.000123122 0.00028595 0.000383183 0.000230474 0 0 
0 0 0.00012046 0.00029658 0.000565165 0.000697528 0.000579764 0.000289884 0.000138118 0.000529277 0.00168465 0.00340163 0.00505881 0.00591626 0.00555836 0.00420962 0.00266458 0.00192555 0.00266984 0.00489953 0.00795183 0.0107974 0.0125519 0.0128252 0.0118351 0.0102178 0.00872557 0.00790259 0.00790975 0.00850951 0.00920184 0.00940087 0.0087068 0.00691707 0.00411145 0.000573862 -0.00327965 -0.00699863 -0.0101563 -0.0124654 -0.0138416 -0.0143988 -0.0144377 -0.0143382 -0.0144667 -0.0150691 -0.0162171 -0.017821 -0.0196296 -0.0213196 -0.0225276 -0.0229329 -0.0222629 -0.0203856 -0.0172709 -0.0129942 -0.00772298 -0.00171401 0.00475263 0.0113658 0.0178358 0.0239101 0.0293908 0.0341185 0.0379682 0.0408398 0.0426379 0.0432982 0.0427994 0.0412059 0.0386902 0.0355135 0.0319646 0.0282785 0.0245719 0.0208267 0.0169599 0.0129557 0.00889119 0.00499428 0.00148938 -0.00147342 -0.00390381 -0.00591363 -0.00765851 -0.00923663 -0.0106848 -0.0120024 -0.0132025 -0.0142774 -0.0152526 -0.0161206 -0.0168749 -0.0175106 -0.0180247 -0.0184348 -0.0187591 -0.0190107 -0.0192115 -0.0193485 -0.0194422 -0.019469 -0.0194347 -0.0193013 -0.0190605 -0.0186806 -0.0181542 -0.017467 -0.0166094 -0.0156011 -0.0144712 -0.0132366 -0.0119378 -0.0106357 -0.00939555 -0.00824056 -0.00714031 -0.00594994 -0.00452915 -0.00272034 -0.000416745 0.00241626 0.00577996 0.00967841 0.0140641 0.0188594 0.0238616 0.0287922 0.0333274 0.0371805 0.040153 0.0421472 0.043152 0.0431971 0.0423048 0.0404771 0.0377202 0.0340304 0.0294446 0.0240703 0.0180689 0.0116628 0.0051262 -0.00125929 -0.00719664 -0.012412 -0.0166554 -0.0197602 -0.0216462 -0.0223359 -0.021972 -0.0208404 -0.019272 -0.0176291 -0.0162198 -0.0152543 -0.0147747 -0.0146696 -0.0146793 -0.0144456 -0.0136284 -0.0119548 -0.0093469 -0.00591645 -0.00200752 0.0018848 0.00521992 0.00754773 0.00862892 0.00854926 0.00771277 0.00670656 0.00618081 0.00658005 0.00798003 0.0100531 0.0121148 0.0133573 0.0131495 0.0113325 0.00836009 0.00517366 0.00282593 0.00199289 0.00266713 0.0041636 0.00548571 0.00583484 0.00498623 0.0033512 0.00166003 0.000524913 0.00014174 0.000285287 0.000553659 0.000647427 0.000507016 0.000262694 0 0 
0 0 2.35982e-05 0.000147572 0.000474517 0.00082367 0.000995961 0.00083791 0.000404131 2.55505e-05 0.000180447 0.00119619 0.00296594 0.00490819 0.00621972 0.00632477 0.00522239 0.00353041 0.00221776 0.00210093 0.00349652 0.00605955 0.00897136 0.0113348 0.0125218 0.012344 0.0110691 0.0092102 0.00733762 0.00585757 0.00494818 0.00452288 0.00430182 0.00392839 0.00304324 0.00139705 -0.0011054 -0.00434992 -0.00803076 -0.0117328 -0.0150311 -0.0175993 -0.0192754 -0.0200868 -0.0201977 -0.0198486 -0.0192842 -0.0186938 -0.0181842 -0.0177549 -0.0173153 -0.0167323 -0.015797 -0.0143177 -0.0121396 -0.00916231 -0.00535292 -0.000772181 0.00444885 0.0101083 0.0159773 0.0218024 0.0273501 0.0323891 0.0367191 0.0401518 0.0425152 0.043685 0.0435715 0.0422017 0.0396874 0.036286 0.0322949 0.0280149 0.0236527 0.0192979 0.0149511 0.0106028 0.00631188 0.00221991 -0.00148933 -0.00468245 -0.00733731 -0.00954087 -0.0114192 -0.0130679 -0.0145416 -0.0158478 -0.0169848 -0.0179655 -0.0187994 -0.0195033 -0.0200772 -0.0205249 -0.020863 -0.0211025 -0.0212796 -0.0214013 -0.0214904 -0.0215646 -0.0216146 -0.0216516 -0.021657 -0.0216193 -0.0215133 -0.0213059 -0.0209797 -0.0205088 -0.0198932 -0.0191294 -0.0182072 -0.0171357 -0.0159335 -0.014642 -0.0133063 -0.0119462 -0.0105352 -0.00899641 -0.00723916 -0.00517209 -0.00272339 0.000157825 0.00355103 0.0075283 0.012114 0.0172385 0.022683 0.028124 0.0331727 0.0374724 0.0407596 0.0428811 0.0438023 0.0435619 0.0422092 0.0398404 0.0365223 0.0323467 0.0274391 0.0219828 0.0162069 0.0103729 0.00475412 -0.00041599 -0.00493907 -0.00868611 -0.0116138 -0.013759 -0.0152283 -0.0161849 -0.0168214 -0.0173454 -0.017894 -0.0185457 -0.0192827 -0.0199693 -0.0203872 -0.0202717 -0.0193767 -0.0175471 -0.01478 -0.01125 -0.00730638 -0.00340479 -2.29556e-05 0.00246238 0.00386589 0.00426935 0.00399949 0.00357923 0.00354672 0.00431237 0.00598372 0.00829611 0.0106787 0.0124247 0.012927 0.0118887 0.00952168 0.00651167 0.0038185 0.00229936 0.0023183 0.00356334 0.00520878 0.00628304 0.00616456 0.00484935 0.00291378 0.00115665 0.000156457 1.83453e-05 0.000410463 0.000849247 0.000998791 0.000802346 0.000426267 0.000176187 0 0 
0 0 -4.91267e-05 -1.25319e-05 0.000200557 0.000592517 0.00103429 0.00127766 0.00110705 0.00053636 -9.74049e-05 -0.000248516 0.000524885 0.00224666 0.00441829 0.00621677 0.00691766 0.00626757 0.00465268 0.00290508 0.00192054 0.00227733 0.00398194 0.00651652 0.00911103 0.0110043 0.0117034 0.0110794 0.00933402 0.0069099 0.0043187 0.00201454 0.000289412 -0.00080812 -0.00145558 -0.0019929 -0.002814 -0.00425355 -0.00645403 -0.00934397 -0.0126629 -0.0160305 -0.0190493 -0.0213943 -0.022861 -0.0233728 -0.022968 -0.0217828 -0.0199906 -0.0177928 -0.0153427 -0.0127814 -0.0101729 -0.00752228 -0.00479306 -0.00192449 0.00115247 0.00448141 0.00808754 0.0119297 0.015948 0.0200372 0.0240787 0.0279272 0.0314198 0.034387 0.0366418 0.0380202 0.0383938 0.0377029 0.0359958 0.0334215 0.0302246 0.0266657 0.02296 0.0192182 0.0154717 0.0117016 0.00793547 0.00424879 0.000779223 -0.00235249 -0.0050954 -0.00747763 -0.0095777 -0.011469 -0.0131862 -0.0147338 -0.016105 -0.0172993 -0.0183195 -0.0191705 -0.0198679 -0.0204166 -0.0208405 -0.0211492 -0.0213748 -0.021527 -0.0216335 -0.0217019 -0.0217488 -0.0217654 -0.0217469 -0.021672 -0.0215294 -0.0212857 -0.0209213 -0.0204082 -0.019743 -0.0189015 -0.0178785 -0.0166645 -0.015278 -0.0137438 -0.012098 -0.0103666 -0.00853548 -0.00658933 -0.00450466 -0.00226075 0.000152913 0.00279106 0.00574028 0.0091074 0.0129605 0.0172513 0.0218168 0.0263593 0.0305511 0.0340512 0.0366156 0.0381092 0.038519 0.0379077 0.0363989 0.0341421 0.031264 0.0278969 0.0241669 0.0202128 0.016173 0.012179 0.00835205 0.00476417 0.00146973 -0.00155834 -0.00436924 -0.00704811 -0.00967069 -0.0122876 -0.0148981 -0.0174355 -0.0197477 -0.0216654 -0.022961 -0.0234389 -0.0229476 -0.0214457 -0.0190155 -0.0158764 -0.0123651 -0.00888414 -0.00582226 -0.00347233 -0.00195815 -0.00119971 -0.000917359 -0.00070907 -0.000146895 0.0010917 0.00309889 0.00567037 0.00833818 0.0105033 0.0115795 0.0112622 0.00960194 0.00708419 0.00449553 0.00267057 0.00217308 0.0030354 0.00469591 0.00626065 0.00688865 0.00618485 0.00439003 0.00222227 0.000501621 -0.000274272 -0.000123675 0.000515629 0.00109921 0.00128707 0.00105611 0.000610157 0.000195481 3.57626e-05 0 0 
0 0 -4.97904e-05 -7.36767e-05 -6.08112e-05 0.000164776 0.000628675 0.00117983 0.00152453 0.00139157 0.00074572 -9.5142e-05 -0.000555872 -0.000105412 0.00141246 0.00362046 0.00574725 0.00697898 0.00686506 0.00553783 0.00363333 0.00202173 0.00143203 0.00216038 0.00400683 0.00640203 0.0085988 0.00993604 0.00997656 0.00862401 0.0061244 0.00295015 -0.00031869 -0.00315284 -0.0052342 -0.00651004 -0.00717953 -0.00760624 -0.00819143 -0.00924208 -0.0108937 -0.0131053 -0.0156574 -0.0182414 -0.020509 -0.0221515 -0.0229205 -0.0226817 -0.0214061 -0.0191714 -0.0161401 -0.0125119 -0.00852879 -0.00439301 -0.000291289 0.00365103 0.00735437 0.010774 0.0139086 0.0167706 0.019377 0.02175 0.0238928 0.0258131 0.027468 0.0288051 0.0297346 0.0301562 0.0299861 0.0291645 0.0277062 0.0256994 0.0233078 0.0207215 0.0181032 0.0155472 0.013057 0.0105842 0.0080864 0.00557452 0.00311392 0.00079376 -0.00132005 -0.0032284 -0.00496795 -0.00659025 -0.00811121 -0.0095301 -0.0108249 -0.0119828 -0.0129985 -0.0138679 -0.0145963 -0.0151908 -0.0156615 -0.016026 -0.016298 -0.0164913 -0.0166221 -0.0167005 -0.0167392 -0.0167342 -0.0166812 -0.0165655 -0.0163766 -0.0160961 -0.0157008 -0.0151735 -0.0145011 -0.0136688 -0.0126758 -0.011515 -0.0101985 -0.00875924 -0.00722036 -0.00560693 -0.00392813 -0.00220725 -0.000465981 0.00126434 0.00297383 0.00470291 0.00654855 0.00863234 0.0110612 0.0138493 0.01692 0.0200936 0.0231272 0.0257848 0.0278685 0.0292752 0.0299846 0.0300465 0.0295623 0.0286337 0.0273489 0.0257785 0.0239528 0.0218902 0.019575 0.0169995 0.0141477 0.0110126 0.0076008 0.00392264 2.4076e-05 -0.00402879 -0.00812421 -0.0120962 -0.0157536 -0.0188556 -0.0211889 -0.0225696 -0.0228917 -0.0221634 -0.0205111 -0.0181899 -0.0155224 -0.0128721 -0.0105573 -0.0087997 -0.00764707 -0.00698996 -0.00655454 -0.00599343 -0.00496753 -0.00325712 -0.000826316 0.00211499 0.00513936 0.0077067 0.00931669 0.00963632 0.00867411 0.00677063 0.00453237 0.00270652 0.00189708 0.00235471 0.00382458 0.00561557 0.00686865 0.00695009 0.00571588 0.00360289 0.00140939 -0.000100979 -0.0005558 -0.000107654 0.00072021 0.00136009 0.00149963 0.0011741 0.000648284 0.000204162 -2.22696e-05 -5.93021e-05 0 0 
0 0 1.18757e-05 -1.01743e-05 -0.000142756 -0.000165365 6.25084e-05 0.000579231 0.00123768 0.00172444 0.00171923 0.00111639 0.000165678 -0.000587269 -0.000563845 0.000518368 0.00245928 0.00462418 0.00621977 0.00667647 0.00588185 0.00422387 0.0024123 0.00117904 0.000990038 0.00192126 0.00364915 0.00558975 0.00707712 0.00754402 0.00668908 0.00455097 0.00145447 -0.00206652 -0.00543617 -0.00820061 -0.0101233 -0.0112174 -0.0116887 -0.0118559 -0.0120429 -0.0124948 -0.0133388 -0.0145481 -0.0159827 -0.0174052 -0.0185382 -0.0191036 -0.0188811 -0.017729 -0.0156081 -0.0125804 -0.00879747 -0.00447637 0.000141833 0.00480274 0.00929012 0.0134196 0.0170568 0.0201252 0.022583 0.0244402 0.0257204 0.0264784 0.0267581 0.0266048 0.026042 0.0250768 0.0237169 0.0219874 0.0199346 0.017655 0.0152742 0.0129462 0.0107974 0.00889571 0.00723234 0.00573542 0.00431729 0.00292646 0.00155677 0.000249743 -0.000954056 -0.00204089 -0.0030334 -0.00397166 -0.00487032 -0.00573501 -0.00653753 -0.00727014 -0.00792066 -0.0084867 -0.00896425 -0.00935663 -0.00966741 -0.00990664 -0.0100824 -0.0102097 -0.0102896 -0.0103395 -0.0103565 -0.0103466 -0.0103029 -0.0102264 -0.0100998 -0.00991751 -0.00966061 -0.00932063 -0.0088818 -0.00833764 -0.00768544 -0.0069285 -0.00607765 -0.00515767 -0.00417756 -0.00315639 -0.00210409 -0.00105361 -3.81538e-05 0.000899811 0.00174798 0.00255261 0.00341614 0.00446902 0.0058344 0.00758496 0.00971503 0.0121431 0.0147217 0.0172891 0.0196906 0.0218107 0.0235729 0.0249452 0.0259202 0.0264986 0.026677 0.0264386 0.0257395 0.0245249 0.0227275 0.0203138 0.0172638 0.0136254 0.00949125 0.005007 0.000363834 -0.00422311 -0.00851038 -0.0122741 -0.0153093 -0.0174695 -0.0186885 -0.0189814 -0.018469 -0.0173535 -0.0159097 -0.0144193 -0.0131349 -0.0122126 -0.0116849 -0.0114336 -0.0112197 -0.0107381 -0.00969543 -0.00791736 -0.00539117 -0.00231779 0.000922932 0.00383407 0.00594053 0.00692217 0.00670219 0.00550718 0.00385411 0.00232905 0.00148717 0.00165875 0.00280295 0.00448965 0.00602782 0.00672938 0.00621686 0.00460077 0.00244006 0.000513996 -0.000554301 -0.000572112 0.000175436 0.00111335 0.0017013 0.00169547 0.00120648 0.000557621 6.29494e-05 -0.000134569 -9.09732e-05 -5.44575e-05 0 0 
0 0 8.26538e-05 0.00010962 -3.0089e-05 -0.000209681 -0.000286697 -9.32195e-05 0.000447559 0.00121361 0.00188441 0.00208749 0.00162442 0.000638106 -0.000395353 -0.000882401 -0.000413911 0.0010188 0.00297859 0.00477983 0.00579272 0.00569568 0.00459561 0.00295549 0.00138696 0.000417889 0.000324401 0.00105208 0.002267 0.00345237 0.00407266 0.0037359 0.00229872 -0.000119701 -0.00316972 -0.00639199 -0.00933986 -0.0116865 -0.0132721 -0.0140964 -0.0143049 -0.0141065 -0.0137387 -0.0133941 -0.0131938 -0.0131692 -0.0132518 -0.0133032 -0.0131353 -0.0125614 -0.0114187 -0.00960978 -0.00710942 -0.00397547 -0.000330373 0.00364635 0.00775045 0.0117817 0.0155452 0.0188858 0.0216739 0.0238285 0.0253069 0.0260993 0.0262333 0.0257475 0.0247056 0.0231624 0.0211885 0.018862 0.0162843 0.0135688 0.0108551 0.00827769 0.00596695 0.00398897 0.00235343 0.0010048 -0.000139866 -0.00115704 -0.00208623 -0.00292882 -0.00366845 -0.00429388 -0.00481671 -0.00527156 -0.0056847 -0.00606345 -0.00640733 -0.0067041 -0.00695468 -0.00715782 -0.00731786 -0.00743367 -0.00751286 -0.00755973 -0.00758363 -0.00759109 -0.0075933 -0.00758655 -0.00758174 -0.0075761 -0.00757363 -0.00756783 -0.00755635 -0.00752449 -0.00746969 -0.00737728 -0.00723602 -0.00703752 -0.00677727 -0.00645479 -0.00607976 -0.00564885 -0.00516694 -0.00463055 -0.00404849 -0.0034402 -0.0028332 -0.0022598 -0.0017177 -0.00116268 -0.000509604 0.000354567 0.00153612 0.00311111 0.00509997 0.0074599 0.0101073 0.0129101 0.0157385 0.0184443 0.020897 0.0229764 0.0245954 0.0256789 0.0261819 0.0260605 0.0252913 0.0238538 0.0217503 0.0190106 0.0157026 0.0119537 0.00792387 0.0038137 -0.000165593 -0.00380338 -0.00692559 -0.00941379 -0.0112207 -0.0123781 -0.0129798 -0.0131761 -0.0131422 -0.0130564 -0.0130543 -0.0132078 -0.0134947 -0.0138049 -0.0139516 -0.0137067 -0.0128715 -0.0113155 -0.00905891 -0.00626987 -0.00326333 -0.000439717 0.00179812 0.00315593 0.00353625 0.00307067 0.00210542 0.00111844 0.000587522 0.000802027 0.0018057 0.00333918 0.00489969 0.00590575 0.00591753 0.0048396 0.00299925 0.00102219 -0.000413746 -0.000879175 -0.000388031 0.000647034 0.00163158 0.00208987 0.00187944 0.00119957 0.000424713 -0.000120216 -0.000307108 -0.000208203 -1.26207e-06 2.50285e-05 0 0 
0 0 0.000110779 0.000187049 0.000152069 -1.08049e-05 -0.000247684 -0.000398243 -0.000261226 0.000275241 0.00111531 0.00194137 0.00234583 0.00205187 0.00109973 -0.000120998 -0.00103659 -0.00115171 -0.000287811 0.00131728 0.00311912 0.00449594 0.00499404 0.00448833 0.00319548 0.00155693 7.04511e-05 -0.000880521 -0.00113159 -0.000770807 -0.000102361 0.000463497 0.000539573 -0.000130187 -0.00161557 -0.00378558 -0.0063669 -0.00901703 -0.0114067 -0.0132722 -0.0144497 -0.0148999 -0.0146793 -0.0139324 -0.0128328 -0.0115631 -0.010267 -0.0090297 -0.00786868 -0.00674129 -0.0055679 -0.004249 -0.00269854 -0.000854183 0.00130305 0.00375063 0.00642072 0.00922027 0.0120306 0.0147283 0.0171884 0.0192945 0.0209504 0.0220826 0.0226529 0.0226435 0.0220735 0.020978 0.0194154 0.0174552 0.0151915 0.0127302 0.0101933 0.00770529 0.00537687 0.00329409 0.00148906 -5.29006e-05 -0.00138266 -0.00255534 -0.0036085 -0.00455478 -0.00538473 -0.00608653 -0.00666127 -0.00712593 -0.00750837 -0.00782292 -0.00807974 -0.00827685 -0.00841773 -0.00851192 -0.00856484 -0.00858452 -0.008579 -0.00855428 -0.00852034 -0.0084826 -0.00844927 -0.00842142 -0.00840402 -0.00840057 -0.00841191 -0.00843442 -0.00846377 -0.0084919 -0.00851197 -0.00850983 -0.00847848 -0.00840554 -0.00827907 -0.008096 -0.00784881 -0.00752937 -0.00713098 -0.00664297 -0.00606753 -0.00541322 -0.00470457 -0.00396111 -0.00317977 -0.00233444 -0.0013747 -0.000232207 0.00115217 0.00282101 0.0047792 0.00700017 0.0094211 0.0119554 0.0144866 0.0168812 0.0190023 0.020721 0.0219366 0.0225773 0.0226135 0.0220464 0.0209146 0.0192716 0.0171963 0.014776 0.0121191 0.00934169 0.00655907 0.00389146 0.00143744 -0.000729 -0.00258164 -0.00413643 -0.00545846 -0.00663467 -0.0077607 -0.00891568 -0.0101388 -0.0114122 -0.0126506 -0.0137137 -0.0144231 -0.0146088 -0.0141315 -0.0129403 -0.0110861 -0.00874612 -0.00619607 -0.00376399 -0.0017696 -0.000445946 0.000120953 3.05757e-05 -0.000455552 -0.000973014 -0.00115279 -0.000734923 0.000336458 0.00188065 0.00352253 0.00477945 0.00522974 0.00467337 0.00324477 0.00140213 -0.000232501 -0.00111848 -0.00102012 -0.000116348 0.00109787 0.00204881 0.00234572 0.0019458 0.00112202 0.000278566 -0.000267576 -0.000417483 -0.000276279 -3.66246e-05 0.000142289 0.000105402 0 0 
0 0 8.24241e-05 0.000169933 0.000255174 0.000230675 5.22219e-05 -0.000227498 -0.000446395 -0.000394977 6.04489e-05 0.000861349 0.00173081 0.00227874 0.00219633 0.00143664 0.000271751 -0.00081378 -0.00133376 -0.00101978 5.87599e-05 0.0015315 0.00288362 0.00365479 0.00359953 0.00274495 0.00134741 -0.000212987 -0.00156419 -0.00244536 -0.00277878 -0.00267428 -0.00237753 -0.00218408 -0.00235571 -0.00305594 -0.00431026 -0.00601589 -0.00797121 -0.00992416 -0.0116106 -0.0128091 -0.0133722 -0.0132427 -0.0124566 -0.0111204 -0.00939228 -0.00744121 -0.00542379 -0.00345695 -0.0016154 7.41279e-05 0.00162066 0.00305743 0.00443167 0.00578909 0.00716332 0.00856975 0.0100051 0.0114408 0.0128331 0.0141211 0.0152361 0.0161114 0.0166907 0.0169348 0.0168224 0.0163539 0.0155445 0.0144255 0.0130403 0.0114494 0.00972211 0.00793942 0.00617804 0.00450718 0.00296663 0.00156854 0.000291689 -0.000891534 -0.00200355 -0.00304891 -0.00401628 -0.00488767 -0.00565226 -0.00630796 -0.00686694 -0.00734306 -0.00774396 -0.00807536 -0.00833782 -0.00853999 -0.00868994 -0.00879758 -0.00886878 -0.00891181 -0.00893341 -0.00894117 -0.00893776 -0.00893038 -0.00891811 -0.00890617 -0.00889384 -0.00888151 -0.00886348 -0.00883544 -0.00878746 -0.00871337 -0.00860187 -0.00844241 -0.00822461 -0.0079403 -0.00757912 -0.00713419 -0.00659502 -0.00595697 -0.00521994 -0.00439618 -0.00350827 -0.00257077 -0.00159305 -0.000568533 0.000519584 0.00169353 0.00296793 0.00435291 0.00584124 0.00741787 0.00905434 0.0107088 0.0123152 0.0137966 0.0150635 0.0160344 0.0166403 0.0168447 0.0166453 0.0160745 0.0151911 0.0140686 0.0127867 0.0114166 0.0100163 0.00862046 0.00724615 0.00589221 0.00453984 0.00315685 0.00170413 0.000140378 -0.00156149 -0.00340435 -0.00535913 -0.00735218 -0.00926987 -0.0109609 -0.0122617 -0.0130177 -0.0131253 -0.0125483 -0.0113454 -0.00966685 -0.00774205 -0.00584377 -0.00422994 -0.00309571 -0.00251998 -0.00244709 -0.00268507 -0.00295792 -0.00297569 -0.00251641 -0.00150232 -3.9084e-05 0.00158605 0.00300529 0.00385134 0.00387977 0.00307596 0.00169144 0.00018909 -0.000916678 -0.00125747 -0.000764701 0.000295797 0.00144106 0.00218932 0.00226914 0.00172605 0.000865128 7.14767e-05 -0.000381977 -0.000438749 -0.000232113 3.17817e-05 0.000197148 0.000219043 0.000127174 0 0 
0 0 2.3803e-05 8.10561e-05 0.000219798 0.000334529 0.00033905 0.000175267 -0.000129217 -0.000435516 -0.000537808 -0.000270429 0.00037788 0.00121586 0.00191207 0.00214607 0.00177036 0.000895754 -0.000148407 -0.000955468 -0.00121455 -0.00083811 1.6666e-05 0.00102267 0.00181281 0.00210889 0.0017978 0.000941938 -0.00026127 -0.00155329 -0.00268972 -0.00351162 -0.00397457 -0.00414572 -0.00416465 -0.0042032 -0.00441412 -0.00489276 -0.0056614 -0.00666175 -0.00777294 -0.00882506 -0.00964367 -0.0100732 -0.0100101 -0.00941006 -0.00829662 -0.00674691 -0.00487906 -0.00282647 -0.000722258 0.00131888 0.00320846 0.00488853 0.00633214 0.00754033 0.00853156 0.00933467 0.00998297 0.0105041 0.0109188 0.0112352 0.011453 0.0115627 0.0115533 0.0114173 0.0111503 0.0107554 0.0102354 0.00959885 0.00885416 0.00801556 0.00710504 0.00614793 0.00517767 0.00422526 0.00331487 0.00245645 0.0016419 0.000852073 7.24709e-05 -0.000701561 -0.00145891 -0.00218352 -0.00285693 -0.00346885 -0.00401763 -0.00450693 -0.0049409 -0.00532166 -0.00564963 -0.00592564 -0.00615486 -0.00634238 -0.00649175 -0.00660843 -0.00669444 -0.00675469 -0.00679116 -0.00680717 -0.00680438 -0.00678386 -0.00674709 -0.00669351 -0.00662176 -0.00652836 -0.0064079 -0.00625727 -0.00606784 -0.00583557 -0.00555372 -0.00521604 -0.00481845 -0.00435568 -0.00382379 -0.00322218 -0.00255808 -0.00184604 -0.00110258 -0.0003426 0.000423866 0.00119181 0.00196323 0.00273552 0.00350919 0.00428032 0.00505017 0.00582433 0.00661059 0.00740988 0.00821593 0.00900637 0.00974746 0.0103997 0.0109223 0.0112885 0.0114851 0.0115177 0.0114045 0.0111724 0.0108443 0.010432 0.00992992 0.00931364 0.00854742 0.0075886 0.00640035 0.00496094 0.00327187 0.00136554 -0.000690607 -0.00279898 -0.00484038 -0.00668137 -0.00819333 -0.0092653 -0.00982796 -0.00986441 -0.0094214 -0.0086028 -0.00756288 -0.00647736 -0.00551793 -0.00480904 -0.00440757 -0.0042811 -0.00431691 -0.00434242 -0.00417233 -0.0036645 -0.00276365 -0.00153394 -0.000154996 0.00111269 0.00199968 0.00231732 0.00201081 0.00120257 0.000176434 -0.000698227 -0.00109476 -0.000857352 -7.44896e-05 0.000944749 0.00179662 0.00215464 0.00190979 0.00120982 0.000373931 -0.000269113 -0.000530625 -0.000424058 -0.000117073 0.000182758 0.000335322 0.000313697 0.000183374 8.48278e-05 0 0 
0 0 -2.52809e-05 -1.34919e-05 9.72324e-05 0.000263111 0.000419253 0.000464319 0.000313418 -3.30337e-05 -0.000451648 -0.000727245 -0.000651546 -0.000142424 0.000684747 0.00154347 0.00209314 0.00209111 0.001505 0.000526603 -0.000509559 -0.00126327 -0.00151872 -0.00124989 -0.0006111 0.00013419 0.000709465 0.00090416 0.00062193 -0.000109339 -0.00115913 -0.00233832 -0.00345512 -0.00435911 -0.00496884 -0.00527544 -0.0053383 -0.0052573 -0.00514636 -0.00510185 -0.00518236 -0.00539351 -0.00568714 -0.00597664 -0.00615498 -0.00611763 -0.00578259 -0.00510274 -0.00407306 -0.00272969 -0.00114029 0.000604926 0.00240704 0.00416836 0.00580098 0.00723595 0.00842512 0.00934058 0.00997358 0.0103318 0.0104354 0.0103118 0.00999474 0.00951986 0.00892474 0.008247 0.00752287 0.00678597 0.00606262 0.00537034 0.00471728 0.00410494 0.00353162 0.00299777 0.00250377 0.0020532 0.00164973 0.00128983 0.000964765 0.000655449 0.00034399 1.91111e-05 -0.000319547 -0.000663793 -0.0010018 -0.00132468 -0.00162713 -0.0019086 -0.00216947 -0.00240902 -0.00262721 -0.00282186 -0.00299284 -0.00314068 -0.00326604 -0.00336934 -0.00345032 -0.00350978 -0.00354809 -0.00356648 -0.00356561 -0.0035463 -0.00350904 -0.00345454 -0.00338253 -0.00329359 -0.00318636 -0.00305958 -0.00291164 -0.00274087 -0.00254502 -0.00232301 -0.00207391 -0.00179563 -0.00148869 -0.00115528 -0.000803185 -0.00044188 -7.93589e-05 0.000276954 0.000625132 0.000963958 0.00129331 0.001611 0.00191822 0.00221585 0.0025172 0.00284356 0.00322053 0.00367545 0.00422646 0.00487938 0.00562432 0.00643361 0.0072682 0.00808119 0.00882492 0.00945713 0.00994152 0.0102497 0.0103569 0.0102419 0.00988507 0.009268 0.00838045 0.00722295 0.00581557 0.0042002 0.00244376 0.000636532 -0.00111642 -0.00270849 -0.00404341 -0.00505192 -0.00570036 -0.00599944 -0.00600344 -0.0058017 -0.00550235 -0.00521408 -0.0050229 -0.00497674 -0.00506828 -0.00523689 -0.00537935 -0.00537095 -0.00509975 -0.00449619 -0.00356571 -0.00239617 -0.0011505 -3.59222e-05 0.000746337 0.0010583 0.000877271 0.000301659 -0.000453957 -0.00110752 -0.00139255 -0.0011535 -0.000416408 0.000602643 0.00156388 0.00213403 0.00212225 0.00156151 0.000694457 -0.000138524 -0.000651361 -0.000728678 -0.000452202 -3.0271e-05 0.000320914 0.000475395 0.000428778 0.000262092 7.95084e-05 1.8112e-05 0 0 
0 0 -4.06892e-05 -5.93925e-05 -1.58182e-05 0.000105841 0.000288255 0.000458511 0.000509351 0.000355201 -3.21794e-06 -0.000446579 -0.000768066 -0.000763943 -0.000342055 0.0004116 0.00125002 0.00185987 0.00199292 0.00157082 0.000713447 -0.000311851 -0.00119761 -0.0017069 -0.00174464 -0.00137255 -0.000771593 -0.000175792 0.000195053 0.000192779 -0.000231726 -0.00102439 -0.00205129 -0.00313681 -0.00410827 -0.00482978 -0.00522604 -0.00529075 -0.00507765 -0.00468361 -0.00421813 -0.00378176 -0.0034409 -0.00321902 -0.00309489 -0.003014 -0.00290097 -0.00267924 -0.0022821 -0.00166774 -0.000822574 0.00023623 0.001466 0.00280391 0.00417438 0.00549721 0.00669761 0.00771097 0.00848757 0.00899589 0.00922283 0.00917517 0.00887458 0.00835734 0.00766863 0.00685919 0.00598109 0.00508312 0.00420903 0.00339079 0.0026487 0.00199212 0.0014209 0.000932209 0.000522083 0.000185714 -8.00919e-05 -0.000281865 -0.000428575 -0.000534649 -0.000618419 -0.000694088 -0.000771893 -0.000853511 -0.00093772 -0.00102097 -0.00110125 -0.00117839 -0.00125319 -0.00132617 -0.00139706 -0.0014651 -0.00152938 -0.0015883 -0.00164131 -0.00168669 -0.00172369 -0.0017509 -0.00176844 -0.00177582 -0.00177282 -0.00175979 -0.00173662 -0.00170485 -0.00166547 -0.00161997 -0.00156998 -0.0015154 -0.0014571 -0.00139358 -0.00132588 -0.00125355 -0.00117588 -0.00109183 -0.0010011 -0.000905752 -0.000808058 -0.000710028 -0.000611809 -0.000510026 -0.000400336 -0.000277781 -0.00014066 1.32259e-05 0.000184249 0.000378703 0.000609803 0.000896176 0.00126199 0.00172997 0.00231688 0.0030292 0.00385675 0.00477123 0.00572878 0.0066728 0.00754138 0.00827301 0.00881264 0.00911628 0.00915446 0.00891341 0.00839559 0.00761902 0.00661693 0.00543628 0.00413666 0.0027874 0.00146462 0.000243717 -0.000809949 -0.00164964 -0.00225431 -0.00263534 -0.00283481 -0.0029223 -0.00297933 -0.003086 -0.00330112 -0.00364801 -0.00410461 -0.00460334 -0.0050415 -0.00530346 -0.00528434 -0.00492037 -0.00420958 -0.00322343 -0.00210103 -0.00102373 -0.000178717 0.000289398 0.000319449 -4.0083e-05 -0.000633214 -0.00123993 -0.0016237 -0.00160034 -0.00110607 -0.000234504 0.000778281 0.0016252 0.00203897 0.00189931 0.00128375 0.000439421 -0.000321169 -0.000751191 -0.000763808 -0.000449373 -9.80343e-06 0.000349277 0.0005084 0.00046479 0.000300119 0.000116743 -1.38321e-05 -2.72297e-05 0 0 
0 0 -2.56725e-05 -4.8502e-05 -5.94564e-05 -2.34194e-05 7.68579e-05 0.000226262 0.000370452 0.000431836 0.000347696 0.00011321 -0.000197018 -0.000447947 -0.000501051 -0.000283455 0.000167614 0.000709324 0.00114645 0.00131008 0.00112355 0.000629033 -3.37549e-05 -0.000683805 -0.00116229 -0.00138019 -0.00133736 -0.00111075 -0.0008234 -0.000607169 -0.000568149 -0.000763322 -0.00119058 -0.00179434 -0.00248227 -0.00314808 -0.00369304 -0.00404517 -0.00416905 -0.0040693 -0.00378289 -0.00336789 -0.00288818 -0.00239966 -0.00194027 -0.00152643 -0.00115309 -0.000799813 -0.000436675 -3.22993e-05 0.000439412 0.000994286 0.00163511 0.0023508 0.00311764 0.00390087 0.00465961 0.00535109 0.00593497 0.00637743 0.00665427 0.00675357 0.00667559 0.00643255 0.00604624 0.00554562 0.00496342 0.00433293 0.00368544 0.00304716 0.00243749 0.00186825 0.00134517 0.000869505 0.000442178 6.38306e-05 -0.000264156 -0.000540254 -0.000765402 -0.000943657 -0.00108377 -0.00119626 -0.00129077 -0.00137338 -0.00144668 -0.00151075 -0.00156539 -0.00161134 -0.00165058 -0.00168546 -0.00171741 -0.00174747 -0.00177571 -0.0018019 -0.00182571 -0.00184634 -0.0018633 -0.00187563 -0.00188302 -0.00188488 -0.00188126 -0.00187212 -0.0018578 -0.00183891 -0.0018167 -0.0017922 -0.0017668 -0.00174068 -0.00171404 -0.00168624 -0.00165686 -0.0016245 -0.00158723 -0.00154347 -0.0014918 -0.00143177 -0.00136218 -0.00128062 -0.00118305 -0.00106377 -0.000917883 -0.000742142 -0.000536595 -0.000303265 -4.5325e-05 0.000237641 0.000548816 0.000895252 0.00128699 0.00173323 0.00224102 0.00281036 0.00343197 0.00408606 0.00474257 0.00536382 0.0059079 0.00633355 0.00660547 0.00669858 0.00660161 0.00631784 0.00586468 0.00527183 0.00457681 0.00382175 0.00304858 0.0022961 0.00159643 0.0009717 0.000432122 -2.49422e-05 -0.000414692 -0.000762514 -0.00109977 -0.00145736 -0.00185759 -0.00230752 -0.00279333 -0.0032792 -0.0037107 -0.00402352 -0.00415708 -0.00406857 -0.00374593 -0.00321701 -0.0025489 -0.00184012 -0.00120178 -0.000734089 -0.000501404 -0.000512587 -0.000714031 -0.000995707 -0.00122861 -0.00128151 -0.00107588 -0.000610254 2.81086e-05 0.00068159 0.0011696 0.00135221 0.00118645 0.000747703 0.000203507 -0.000252048 -0.000476555 -0.000432317 -0.000190889 0.000110942 0.000339766 0.000422098 0.000362991 0.000224298 8.15976e-05 -1.38321e-05 -4.97769e-05 -3.3261e-05 0 0 
0 0 -1.39934e-05 -2.94453e-05 -4.69119e-05 -3.93648e-05 1.04771e-05 0.000103221 0.000212985 0.000290049 0.000280541 0.000156712 -5.81715e-05 -0.000287427 -0.000427642 -0.00039493 -0.000168271 0.000193332 0.000568888 0.000821874 0.000853724 0.000640275 0.000238263 -0.000239345 -0.000665283 -0.00093909 -0.00101435 -0.000904946 -0.00067406 -0.00041321 -0.000215557 -0.000153228 -0.00026161 -0.000533831 -0.000925093 -0.00136564 -0.00177708 -0.00208919 -0.0022528 -0.00224718 -0.0020815 -0.00178881 -0.00141747 -0.00102017 -0.000643933 -0.000322323 -7.20199e-05 0.000107551 0.000230907 0.000322344 0.000410373 0.000522255 0.000679335 0.000893941 0.00116824 0.0014939 0.00185324 0.00222231 0.00257416 0.00288215 0.00312331 0.00328013 0.00334275 0.00330886 0.00318353 0.00297777 0.00270664 0.00238742 0.00203763 0.00167399 0.0013108 0.000958651 0.00062536 0.000315632 3.28563e-05 -0.000219795 -0.000439914 -0.000624944 -0.000774264 -0.00088898 -0.000972732 -0.00103167 -0.00107166 -0.00109771 -0.00111291 -0.00111912 -0.00111752 -0.00110968 -0.00109765 -0.00108352 -0.00106891 -0.00105481 -0.00104175 -0.00103029 -0.0010205 -0.00101237 -0.0010058 -0.00100046 -0.000995926 -0.00099184 -0.00098842 -0.000985605 -0.000983774 -0.000982843 -0.000983539 -0.000986385 -0.000991971 -0.00100042 -0.00101141 -0.00102464 -0.00103918 -0.00105385 -0.00106712 -0.00107754 -0.00108373 -0.00108402 -0.00107638 -0.00105773 -0.00102406 -0.000971166 -0.000895135 -0.000793416 -0.000665096 -0.000511211 -0.00033314 -0.00013188 9.19744e-05 0.000339352 0.00061118 0.000908073 0.00122893 0.001569 0.00191959 0.00226755 0.00259566 0.00288375 0.00311052 0.00325639 0.00330647 0.0032534 0.00309889 0.0028543 0.00253951 0.00218081 0.00180743 0.00144795 0.00112651 0.000859941 0.000655207 0.000508669 0.000406827 0.000327694 0.000244018 0.000127668 -4.53291e-05 -0.00028952 -0.000605758 -0.00097808 -0.00137401 -0.00174801 -0.00204829 -0.00222661 -0.00224842 -0.00210175 -0.00180325 -0.00139852 -0.000955524 -0.000553058 -0.000263341 -0.000135243 -0.000179799 -0.000364736 -0.000619058 -0.000848782 -0.000961508 -0.000892175 -0.000625378 -0.000206621 0.000264744 0.000662202 0.000873079 0.000840449 0.000587891 0.000213027 -0.000148708 -0.000377134 -0.000413462 -0.000278275 -5.45639e-05 0.00015531 0.000275654 0.00028388 0.000207939 0.000101372 1.30146e-05 -3.27313e-05 -3.83958e-05 -2.2725e-05 0 0 
0 0 0 0 0 0 0 0 0 0 0 0 0 0 0 0 0 0 0 0 0 0 0 0 0 0 0 0 0 0 0 0 0 0 0 0 0 0 0 0 0 0 0 0 0 0 0 0 0 0 0 0 0 0 0 0 0 0 0 0 0 0 0 0 0 0 0 0 0 0 0 0 0 0 0 0 0 0 0 0 0 0 0 0 0 0 0 0 0 0 0 0 0 0 0 0 0 0 0 0 0 0 0 0 0 0 0 0 0 0 0 0 0 0 0 0 0 0 0 0 0 0 0 0 0 0 0 0 0 0 0 0 0 0 0 0 0 0 0 0 0 0 0 0 0 0 0 0 0 0 0 0 0 0 0 0 0 0 0 0 0 0 0 0 0 0 0 0 0 0 0 0 0 0 0 0 0 0 0 0 0 0 0 0 0 0 0 0 0 0 0 0 0 0 0 0 0 0 0 0 
0 0 0 0 0 0 0 0 0 0 0 0 0 0 0 0 0 0 0 0 0 0 0 0 0 0 0 0 0 0 0 0 0 0 0 0 0 0 0 0 0 0 0 0 0 0 0 0 0 0 0 0 0 0 0 0 0 0 0 0 0 0 0 0 0 0 0 0 0 0 0 0 0 0 0 0 0 0 0 0 0 0 0 0 0 0 0 0 0 0 0 0 0 0 0 0 0 0 0 0 0 0 0 0 0 0 0 0 0 0 0 0 0 0 0 0 0 0 0 0 0 0 0 0 0 0 0 0 0 0 0 0 0 0 0 0 0 0 0 0 0 0 0 0 0 0 0 0 0 0 0 0 0 0 0 0 0 0 0 0 0 0 0 0 0 0 0 0 0 0 0 0 0 0 0 0 0 0 0 0 0 0 0 0 0 0 0 0 0 0 0 0 0 0 0 0 0 0 0 0 
</DataArray>
</PointData>
</Piece>
</ImageData>
</VTKFile>
