<?xml version="1.0"?>
<VTKFile type="ImageData" version="0.1" byte_order="LittleEndian">
<ImageData WholeExtent="0 199 0 199 0 0" Origin="0 0 0" Spacing="15 15 0">
<Piece Extent="0 199 0 199 0 0">
<PointData Scalars="Amplitude">
<DataArray type="Float32" Name="Amplitude" format="ascii">
0 0 0 0 0 0 0 0 0 0 0 0 0 0 0 0 0 0 0 0 0 0 0 0 0 0 0 0 0 0 0 0 0 0 0 0 0 0 0 0 0 0 0 0 0 0 0 0 0 0 0 0 0 0 0 0 0 0 0 0 0 0 0 0 0 0 0 0 0 0 0 0 0 0 0 0 0 0 0 0 0 0 0 0 0 0 0 0 0 0 0 0 0 0 0 0 0 0 0 0 0 0 0 0 0 0 0 0 0 0 0 0 0 0 0 0 0 0 0 0 0 0 0 0 0 0 0 0 0 0 0 0 0 0 0 0 0 0 0 0 0 0 0 0 0 0 0 0 0 0 0 0 0 0 0 0 0 0 0 0 0 0 0 0 0 0 0 0 0 0 0 0 0 0 0 0 0 0 0 0 0 0 0 0 0 0 0 0 0 0 0 0 0 0 0 0 0 0 0 0 
0 0 0 0 0 0 0 0 0 0 0 0 0 0 0 0 0 0 0 0 0 0 0 0 0 0 0 0 0 0 0 0 0 0 0 0 0 0 0 0 0 0 0 0 0 0 0 0 0 0 0 0 0 0 0 0 0 0 0 0 0 0 0 0 0 0 0 0 0 0 0 0 0 0 0 0 0 0 0 0 0 0 0 0 0 0 0 0 0 0 0 0 0 0 0 0 0 0 0 0 0 0 0 0 0 0 0 0 0 0 0 0 0 0 0 0 0 0 0 0 0 0 0 0 0 0 0 0 0 0 0 0 0 0 0 0 0 0 0 0 0 0 0 0 0 0 0 0 0 0 0 0 0 0 0 0 0 0 0 0 0 0 0 0 0 0 0 0 0 0 0 0 0 0 0 0 0 0 0 0 0 0 0 0 0 0 0 0 0 0 0 0 0 0 0 0 0 0 0 0 
0 0 3.81977e-09 -2.73758e-08 -1.12138e-07 -1.43205e-07 7.44623e-08 3.36942e-07 -2.17476e-07 -1.87943e-06 -2.85288e-06 -1.063e-06 1.45865e-06 -8.71079e-07 -9.19897e-06 -1.591e-05 -1.34929e-05 -6.1831e-06 -6.4923e-06 -1.92322e-05 -3.44658e-05 -3.91618e-05 -3.24004e-05 -2.55685e-05 -2.89188e-05 -4.10733e-05 -5.18536e-05 -5.29618e-05 -4.5111e-05 -3.61328e-05 -3.32563e-05 -3.70262e-05 -4.1484e-05 -3.94305e-05 -2.78639e-05 -9.4446e-06 1.03039e-05 2.7337e-05 4.1691e-05 5.68701e-05 7.68823e-05 0.000103237 0.000133699 0.000163292 0.000186625 0.000200087 0.00020288 0.00019667 0.000184367 0.000168735 0.000151603 0.000133852 0.00011604 9.9261e-05 8.57158e-05 7.87087e-05 8.21597e-05 9.98672e-05 0.000134936 0.000189503 0.000264528 0.000359577 0.000472517 0.000599321 0.000734314 0.000870937 0.00100286 0.00112498 0.00123393 0.00132799 0.00140672 0.00147025 0.00151889 0.00155285 0.00157219 0.00157697 0.00156734 0.00154367 0.0015066 0.00145704 0.00139618 0.00132538 0.0012462 0.0011603 0.00106938 0.000975154 0.000879305 0.000783451 0.000689107 0.000597652 0.000510332 0.000428266 0.000352451 0.000283727 0.000222815 0.000170311 0.000126721 9.24418e-05 6.7766e-05 5.28872e-05 4.79126e-05 5.28866e-05 6.77613e-05 9.24342e-05 0.000126715 0.000170303 0.000222805 0.000283718 0.000352439 0.000428259 0.000510333 0.000597658 0.000689111 0.000783451 0.000879303 0.000975154 0.00106939 0.00116035 0.00124631 0.00132551 0.0013961 0.00145621 0.00150393 0.00153751 0.0015559 0.00155933 0.00154977 0.0015306 0.00150508 0.00147396 0.00143339 0.00137516 0.00129009 0.00117354 0.00102978 0.000871749 0.000715896 0.000574942 0.00045365 0.000350269 0.000261778 0.000188113 0.000132091 9.60019e-05 7.8701e-05 7.58587e-05 8.24411e-05 9.4796e-05 0.000110797 0.000128844 0.00014735 0.000164954 0.000180609 0.000192923 0.00019949 0.000197272 0.000184245 0.000161085 0.000131609 0.00010145 7.55665e-05 5.59855e-05 4.10615e-05 2.68478e-05 1.0003e-05 -9.44778e-06 -2.75426e-05 -3.88798e-05 -4.08283e-05 -3.63085e-05 -3.24105e-05 -3.50622e-05 -4.37579e-05 -5.1322e-05 -5.0323e-05 -3.98146e-05 -2.78812e-05 -2.462e-05 -3.14178e-05 -3.81529e-05 -3.35706e-05 -1.85731e-05 -6.03755e-06 -5.78918e-06 -1.30706e-05 -1.55132e-05 -8.93028e-06 -7.47335e-07 1.50924e-06 -1.01987e-06 -2.80958e-06 -1.85384e-06 -2.13113e-07 3.27958e-07 5.81336e-08 -1.53704e-07 -9.09812e-08 -3.04146e-08 0 0 
0 0 -3.00906e-08 -7.36954e-08 -9.28692e-08 7.50759e-08 8.28209e-08 -8.2371e-07 -2.32507e-06 -2.24111e-06 1.00294e-07 -1.33226e-08 -7.78349e-06 -1.85004e-05 -2.00361e-05 -1.11093e-05 -8.53355e-06 -2.65201e-05 -5.4518e-05 -6.77255e-05 -5.85834e-05 -4.68601e-05 -5.53733e-05 -8.32278e-05 -0.000108194 -0.000111788 -9.71371e-05 -8.30837e-05 -8.46898e-05 -0.000100139 -0.000114155 -0.000112201 -9.19613e-05 -6.34142e-05 -3.91842e-05 -2.42322e-05 -1.26785e-05 7.14235e-06 4.41843e-05 9.88975e-05 0.000163527 0.000227182 0.000281779 0.000325331 0.000361173 0.000394393 0.000428044 0.000461343 0.000490491 0.000511349 0.000522459 0.000526859 0.000532004 0.000548128 0.000585895 0.000654166 0.000758375 0.000899799 0.00107609 0.0012825 0.00151346 0.00176364 0.0020278 0.00229972 0.0025709 0.00283021 0.00306485 0.00326234 0.00341243 0.00350851 0.00354772 0.00353017 0.00345801 0.00333454 0.00316366 0.00294974 0.00269761 0.00241249 0.00209998 0.00176583 0.00141594 0.00105599 0.000691413 0.000327265 -3.19208e-05 -0.00038207 -0.000719715 -0.00104188 -0.00134607 -0.00163028 -0.00189286 -0.00213256 -0.00234841 -0.00253975 -0.00270609 -0.00284715 -0.00296271 -0.00305262 -0.00311682 -0.00315532 -0.00316816 -0.00315533 -0.00311684 -0.00305265 -0.00296276 -0.00284721 -0.00270614 -0.00253979 -0.00234845 -0.00213258 -0.00189287 -0.00163029 -0.00134609 -0.00104189 -0.000719719 -0.000382043 -3.17979e-05 0.000327509 0.000691713 0.00105593 0.00141436 0.00176043 0.0020871 0.00238799 0.00265894 0.00289931 0.00311165 0.00329888 0.00345928 0.00358194 0.00364682 0.00363181 0.0035245 0.0033317 0.00307939 0.00280173 0.00252543 0.00226086 0.00200497 0.00175255 0.00150543 0.00127298 0.00106598 0.000891199 0.000751044 0.000646125 0.000576134 0.000537626 0.000522189 0.000517922 0.000513534 0.000501883 0.000480946 0.000452483 0.000420085 0.000387024 0.000354233 0.000319147 0.000276829 0.000223584 0.000160981 9.71013e-05 4.31246e-05 6.99838e-06 -1.18631e-05 -2.26873e-05 -3.72273e-05 -6.11823e-05 -8.93596e-05 -0.000109068 -0.000110473 -9.6082e-05 -8.04712e-05 -7.84444e-05 -9.27892e-05 -0.000107612 -0.00010432 -7.98861e-05 -5.25649e-05 -4.43483e-05 -5.61529e-05 -6.54424e-05 -5.26551e-05 -2.52351e-05 -7.68263e-06 -1.04212e-05 -1.94086e-05 -1.80237e-05 -7.53264e-06 7.49175e-08 1.41558e-07 -2.20005e-06 -2.30324e-06 -8.33226e-07 6.87947e-08 9.37103e-08 -5.33545e-08 -6.66443e-08 0 0 
0 0 -8.70931e-08 -9.28692e-08 9.77104e-08 3.57664e-07 -5.92653e-07 -3.13808e-06 -3.78179e-06 8.75804e-07 4.23181e-06 -6.61316e-06 -2.78365e-05 -3.30493e-05 -1.02476e-05 7.65445e-06 -2.04985e-05 -8.06117e-05 -0.000111025 -8.21233e-05 -3.88327e-05 -4.60679e-05 -0.000109698 -0.000172027 -0.00017949 -0.000137616 -9.79916e-05 -0.000103225 -0.000148812 -0.000192804 -0.000196574 -0.000156669 -0.000103264 -7.19089e-05 -7.4712e-05 -9.34604e-05 -9.5729e-05 -5.88847e-05 1.60229e-05 0.000107812 0.000191446 0.000253945 0.000300596 0.000349422 0.000419014 0.000517933 0.000641141 0.000774201 0.00090173 0.00101577 0.00111986 0.00122786 0.00135868 0.00152966 0.00175161 0.00202703 0.00235063 0.00271154 0.00309626 0.00349089 0.00388368 0.00426622 0.00463289 0.0049785 0.00529462 0.0055671 0.00577612 0.00589926 0.00591614 0.00581284 0.00558396 0.00523239 0.00476745 0.00420243 0.00355242 0.00283321 0.00206037 0.00124889 0.000413022 -0.00043399 -0.00127998 -0.00211419 -0.00292725 -0.00371131 -0.00446001 -0.00516824 -0.00583224 -0.00644947 -0.00701826 -0.00753773 -0.00800764 -0.00842827 -0.00880032 -0.0091248 -0.00940279 -0.00963551 -0.00982415 -0.00996965 -0.0100729 -0.0101345 -0.010155 -0.0101345 -0.0100729 -0.00996972 -0.00982428 -0.00963566 -0.0094029 -0.00912489 -0.0088004 -0.00842831 -0.00800769 -0.00753779 -0.00701831 -0.00644951 -0.00583224 -0.00516812 -0.00445965 -0.00371075 -0.00292689 -0.00211548 -0.00128615 -0.00045069 0.00037848 0.00119059 0.0019792 0.00274297 0.00348173 0.00418824 0.00483896 0.00539148 0.00579513 0.00601286 0.00604291 0.00592424 0.00571812 0.00547712 0.00522198 0.00494339 0.00462426 0.00426176 0.00387118 0.00347317 0.00308097 0.00270045 0.00233934 0.00201209 0.00173464 0.0015144 0.00134609 0.00121555 0.0011057 0.00100038 0.000887204 0.000761393 0.000629268 0.000506269 0.000408206 0.00034077 0.000294621 0.000249948 0.000188552 0.000105947 1.57142e-05 -5.73434e-05 -9.28263e-05 -8.99911e-05 -7.10585e-05 -6.77903e-05 -9.8208e-05 -0.000150569 -0.000189867 -0.000186058 -0.000142256 -9.6579e-05 -9.17836e-05 -0.000131293 -0.000173028 -0.000166023 -0.000104778 -4.22218e-05 -3.54103e-05 -7.85847e-05 -0.00010758 -7.79355e-05 -1.89074e-05 8.57756e-06 -9.41503e-06 -3.21929e-05 -2.72069e-05 -6.34069e-06 4.29631e-06 9.09218e-07 -3.7498e-06 -3.12927e-06 -5.70011e-07 4.21434e-07 9.35882e-08 -6.34577e-08 0 0 
0 0 -1.1677e-08 6.19868e-08 6.87554e-08 -1.08383e-06 -2.66475e-06 -1.31157e-06 2.79776e-06 -5.28941e-07 -1.83092e-05 -3.21369e-05 -1.55249e-05 1.34648e-05 -4.13192e-06 -8.00587e-05 -0.000135832 -0.000100551 -2.31717e-05 -2.27274e-05 -0.000131845 -0.000248688 -0.000260717 -0.000176101 -0.000105538 -0.00013441 -0.000239284 -0.000323482 -0.000315321 -0.00023061 -0.00014888 -0.000138312 -0.000200587 -0.000276506 -0.000298862 -0.000244028 -0.000143535 -5.4081e-05 -1.32369e-05 -1.31635e-05 -6.94492e-06 6.17771e-05 0.000228242 0.000492373 0.000826567 0.00119724 0.00158568 0.00199694 0.00245432 0.00298491 0.00360398 0.00430569 0.00506344 0.00583732 0.00658462 0.00726903 0.00786523 0.00835962 0.00874542 0.00901724 0.00916627 0.00917939 0.00904153 0.00873946 0.00826383 0.00760853 0.00676844 0.00573915 0.00452018 0.00311856 0.00155248 -0.000147608 -0.00194233 -0.00378858 -0.00564452 -0.00747323 -0.00924476 -0.0109362 -0.0125306 -0.0140161 -0.0153854 -0.0166346 -0.0177624 -0.0187703 -0.0196617 -0.0204418 -0.0211168 -0.0216943 -0.0221825 -0.02259 -0.0229257 -0.0231984 -0.0234165 -0.0235881 -0.0237205 -0.0238207 -0.0238942 -0.0239461 -0.0239805 -0.0240002 -0.0240065 -0.0240002 -0.0239807 -0.0239463 -0.0238944 -0.0238209 -0.0237207 -0.0235882 -0.0234167 -0.0231985 -0.0229258 -0.0225902 -0.0221827 -0.0216943 -0.0211166 -0.0204413 -0.0196609 -0.01877 -0.0177654 -0.0166467 -0.0154165 -0.0140784 -0.0126329 -0.0110745 -0.00939198 -0.00757809 -0.00564524 -0.00364219 -0.00165653 0.000206764 0.00186499 0.00329247 0.00452424 0.0056213 0.00661961 0.007503 0.00822041 0.00872983 0.00902987 0.00915357 0.00913691 0.00899605 0.00873099 0.00834296 0.00784269 0.00724515 0.00656401 0.00581829 0.00504126 0.0042793 0.00357705 0.00296103 0.00243332 0.00197704 0.00156695 0.00118188 0.000816057 0.000485806 0.00022362 5.8322e-05 -8.34375e-06 -1.1761e-05 -9.70582e-06 -4.99503e-05 -0.000139643 -0.000239801 -0.000293279 -0.000269349 -0.000192683 -0.000130698 -0.00014186 -0.000223534 -0.000307375 -0.000314481 -0.000231533 -0.000128427 -0.000100083 -0.000169856 -0.000253588 -0.000241935 -0.00012676 -1.91849e-05 -1.99053e-05 -9.67054e-05 -0.000131966 -7.72887e-05 -2.68703e-06 1.42932e-05 -1.46936e-05 -3.13545e-05 -1.78694e-05 -4.27296e-07 2.79756e-06 -1.2613e-06 -2.60186e-06 -1.15268e-06 -1.70938e-07 9.50697e-08 0 0 
0 0 5.50068e-08 -2.46769e-07 -1.16612e-06 -2.06253e-06 -1.84739e-07 2.51605e-06 -4.70495e-06 -2.34466e-05 -2.78443e-05 5.03436e-07 1.7454e-05 -4.02334e-05 -0.000136072 -0.000146633 -4.57933e-05 1.57492e-05 -9.67068e-05 -0.000297123 -0.000373311 -0.000259748 -0.000119626 -0.000141376 -0.000322055 -0.000487981 -0.00049197 -0.000353768 -0.000223183 -0.000229002 -0.000366477 -0.000517535 -0.000562853 -0.00047945 -0.00034781 -0.000275458 -0.000309109 -0.000399185 -0.000434681 -0.000311412 1.39957e-05 0.00051925 0.00115245 0.00187893 0.0027097 0.0036954 0.00489371 0.00633176 0.00798277 0.00976536 0.0115631 0.0132522 0.0147257 0.0159066 0.0167469 0.0172173 0.017295 0.0169576 0.0161799 0.0149402 0.0132249 0.0110359 0.00839731 0.00536068 0.00200555 -0.00156835 -0.00525523 -0.00895985 -0.0126074 -0.0161461 -0.0195387 -0.0227538 -0.0257592 -0.0285204 -0.0310047 -0.0331853 -0.0350446 -0.0365767 -0.0377854 -0.0386829 -0.0392884 -0.039625 -0.0397196 -0.0396009 -0.0392989 -0.0388445 -0.0382683 -0.0376001 -0.0368679 -0.0360986 -0.0353169 -0.0345454 -0.0338039 -0.0331104 -0.0324799 -0.0319253 -0.0314574 -0.0310846 -0.0308143 -0.0306504 -0.0305953 -0.0306503 -0.0308145 -0.0310848 -0.0314575 -0.0319254 -0.0324801 -0.0331104 -0.0338039 -0.0345456 -0.0353172 -0.0360989 -0.036868 -0.0375998 -0.0382675 -0.0388432 -0.0392987 -0.039607 -0.0397423 -0.0396818 -0.0393995 -0.0388616 -0.0380206 -0.0368171 -0.0351984 -0.0331484 -0.0307143 -0.0280077 -0.0251625 -0.0222674 -0.019314 -0.0162074 -0.0128446 -0.0092085 -0.00540361 -0.00161119 0.00200152 0.00533546 0.00834432 0.010985 0.0131962 0.0149243 0.0161573 0.0169236 0.0172595 0.0171868 0.0167161 0.0158676 0.0146802 0.0132086 0.0115265 0.00973359 0.00795245 0.00630439 0.00487305 0.00368217 0.00270067 0.00187112 0.00114614 0.000516554 1.52297e-05 -0.0003085 -0.000432076 -0.000396683 -0.00030475 -0.000268194 -0.000338651 -0.000470269 -0.000554396 -0.0005089 -0.000356313 -0.000217048 -0.000210565 -0.000341703 -0.000479163 -0.000476004 -0.000312642 -0.000134509 -0.000113287 -0.000252026 -0.00036459 -0.000289656 -9.19061e-05 1.88643e-05 -4.23332e-05 -0.000142416 -0.000132397 -3.80898e-05 1.84628e-05 1.26767e-06 -2.70852e-05 -2.29316e-05 -4.49084e-06 2.56327e-06 -2.71523e-07 -2.24572e-06 -1.11464e-06 -2.3958e-07 0 0 
0 0 -2.69743e-07 -8.78494e-07 -1.3344e-06 4.68696e-07 7.58014e-07 -9.24523e-06 -2.36019e-05 -1.48763e-05 1.51712e-05 -6.80845e-07 -9.84071e-05 -0.000170392 -9.09682e-05 4.19153e-05 -1.92212e-05 -0.000298202 -0.000494395 -0.000375868 -0.000116739 -8.54334e-05 -0.000376609 -0.000702853 -0.000748297 -0.000515887 -0.000289425 -0.000321761 -0.000599897 -0.000885815 -0.000957187 -0.000800766 -0.000597525 -0.000546342 -0.000690048 -0.000881556 -0.000891977 -0.000557365 0.00014315 0.0011213 0.00228188 0.0036129 0.00520207 0.00718206 0.0096438 0.0125673 0.0158078 0.0191313 0.0222785 0.0250196 0.0271811 0.0286438 0.0293204 0.0291318 0.0279953 0.0258326 0.0225892 0.0182553 0.0128875 0.00661343 -0.000373046 -0.00783383 -0.0155112 -0.0231514 -0.030517 -0.0373956 -0.0436064 -0.0490119 -0.0535302 -0.0571378 -0.0598597 -0.0617523 -0.0628789 -0.0632967 -0.0630525 -0.0621868 -0.0607429 -0.0587732 -0.0563411 -0.0535207 -0.0503903 -0.0470297 -0.0435177 -0.0399255 -0.0363206 -0.0327613 -0.0292985 -0.0259742 -0.022824 -0.0198755 -0.0171497 -0.0146626 -0.0124257 -0.0104462 -0.00872882 -0.00727576 -0.00608835 -0.00516568 -0.00450785 -0.00411339 -0.00398201 -0.00411343 -0.00450796 -0.00516578 -0.0060882 -0.00727546 -0.00872845 -0.0104459 -0.0124257 -0.0146629 -0.01715 -0.0198756 -0.0228236 -0.0259729 -0.0292969 -0.0327619 -0.0363322 -0.0399657 -0.0436147 -0.0472177 -0.0506875 -0.0539037 -0.0567197 -0.0589925 -0.060636 -0.0616642 -0.0621877 -0.0623366 -0.0621445 -0.0614707 -0.0600344 -0.0575583 -0.0539236 -0.0492203 -0.0436521 -0.0374006 -0.0305684 -0.0232408 -0.0155835 -0.00786528 -0.00038985 0.00657878 0.0128335 0.0182013 0.0225419 0.0257806 0.0279295 0.0290608 0.0292588 0.0285943 0.0271359 0.0249744 0.0222386 0.0191021 0.0157871 0.012549 0.00962586 0.00716837 0.00519578 0.0036121 0.00228218 0.00112163 0.000146504 -0.00054836 -0.000878109 -0.000866381 -0.000675489 -0.000531126 -0.00057917 -0.000778793 -0.000933775 -0.000863976 -0.000580241 -0.000302369 -0.000271013 -0.000495119 -0.000725535 -0.000681946 -0.000361069 -7.4722e-05 -0.000106805 -0.000364032 -0.000482254 -0.000289434 -1.46934e-05 4.49442e-05 -8.70755e-05 -0.000166123 -9.54833e-05 5.90503e-07 1.58326e-05 -1.41742e-05 -2.30626e-05 -9.12852e-06 6.50421e-07 6.09148e-07 -8.57357e-07 -8.18102e-07 0 0 
0 0 -5.3909e-07 -4.75163e-07 4.95266e-07 -1.11853e-06 -1.04758e-05 -1.79604e-05 -3.19828e-06 1.29398e-05 -3.59869e-05 -0.000135724 -0.000138456 3.85771e-06 5.34263e-05 -0.000203291 -0.000537251 -0.000514136 -0.000153941 1.11437e-05 -0.000350758 -0.000902195 -0.00106018 -0.000717276 -0.000341331 -0.000408648 -0.000904787 -0.00139766 -0.00149893 -0.00121986 -0.000913908 -0.000906636 -0.00119112 -0.00142719 -0.00120295 -0.000310052 0.00118189 0.00306307 0.00520074 0.00765915 0.010657 0.0143989 0.0189091 0.0239691 0.0291695 0.034037 0.0381595 0.0412427 0.043101 0.0435968 0.042587 0.0399045 0.0353822 0.0289082 0.0204847 0.0102719 -0.00141 -0.0141103 -0.0273004 -0.0404372 -0.0530091 -0.0645718 -0.0747719 -0.0833543 -0.0901516 -0.0950681 -0.0980537 -0.0990967 -0.0982303 -0.0955469 -0.0912189 -0.0854843 -0.0786227 -0.0709169 -0.0626244 -0.0539679 -0.0451317 -0.0362755 -0.0275362 -0.0190384 -0.0108863 -0.00316805 0.00405084 0.0107261 0.016831 0.0223599 0.02732 0.0317291 0.0356143 0.039008 0.0419471 0.0444689 0.0466093 0.0484061 0.0498913 0.0510942 0.0520418 0.0527558 0.0532536 0.0535466 0.0536435 0.0535467 0.053254 0.0527561 0.0520422 0.0510947 0.0498914 0.0484059 0.046609 0.0444688 0.0419474 0.0390091 0.0356163 0.0317318 0.0273184 0.0223397 0.016764 0.0105677 0.00374984 -0.00363849 -0.0114824 -0.0196097 -0.0278362 -0.036048 -0.0442584 -0.0525923 -0.0611559 -0.0698554 -0.0782914 -0.0858383 -0.0918953 -0.0961273 -0.098508 -0.0991489 -0.0980765 -0.0951704 -0.0902917 -0.0834435 -0.074795 -0.0645877 -0.0530662 -0.0405246 -0.0273823 -0.0141815 -0.00149196 0.0101712 0.0203843 0.0288269 0.0353151 0.039837 0.0425169 0.0435363 0.0430561 0.0412062 0.038124 0.0340058 0.0291501 0.0239627 0.0189089 0.0143996 0.0106609 0.00767164 0.00522188 0.00308771 0.00120542 -0.000286629 -0.00117509 -0.00139346 -0.00115487 -0.000873231 -0.000884772 -0.00119166 -0.00146634 -0.00135895 -0.000871153 -0.000382604 -0.000317263 -0.000689814 -0.00102996 -0.000875534 -0.000332384 2.34352e-05 -0.000141551 -0.000499122 -0.000523518 -0.000194878 5.74907e-05 7.24933e-06 -0.000134317 -0.000132243 -3.41906e-05 1.36401e-05 -2.79663e-06 -1.7621e-05 -1.01154e-05 -8.62305e-07 -4.05583e-08 -2.56159e-07 0 0 
0 0 -1.334e-07 -4.04884e-07 -2.09762e-06 -9.01324e-06 -1.09485e-05 2.46603e-06 -2.9276e-07 -6.56787e-05 -0.000132794 -6.65397e-05 6.01982e-05 -5.63989e-05 -0.000442362 -0.00061714 -0.000275867 9.27478e-05 -0.000197384 -0.000984258 -0.00138632 -0.00098208 -0.000373486 -0.000421776 -0.00121613 -0.00203754 -0.00220623 -0.00175422 -0.00128975 -0.00132121 -0.00173234 -0.00186344 -0.00104327 0.000954358 0.00387345 0.00733007 0.0111921 0.0156795 0.0211554 0.027779 0.0352802 0.0429802 0.0500232 0.0556446 0.0593252 0.0607941 0.0599044 0.0565116 0.0504191 0.0414212 0.0294231 0.0145573 -0.00275484 -0.0218136 -0.0417255 -0.0615251 -0.0802954 -0.0972468 -0.111767 -0.123421 -0.131934 -0.137155 -0.139039 -0.13762 -0.133029 -0.125491 -0.115302 -0.102823 -0.0884469 -0.0726021 -0.0557705 -0.0384724 -0.0212568 -0.00464118 0.0109426 0.0251843 0.0379029 0.0490344 0.0585975 0.0666639 0.0733322 0.0787168 0.0829432 0.0861392 0.0884341 0.0899571 0.0908339 0.0911804 0.0911057 0.0907122 0.0900843 0.0893021 0.0884349 0.0875414 0.0866721 0.0858702 0.0851701 0.0845973 0.0841751 0.0839159 0.0838282 0.0839168 0.0841761 0.084598 0.0851704 0.0858702 0.0866716 0.0875409 0.0884344 0.0893029 0.090086 0.0907153 0.0911104 0.0911777 0.0908026 0.0898534 0.0881897 0.0856798 0.0822342 0.077831 0.0725045 0.0662693 0.0590104 0.050407 0.0399823 0.0273314 0.012415 -0.00427733 -0.0218732 -0.0394899 -0.0565809 -0.0729581 -0.0885069 -0.102882 -0.11548 -0.125691 -0.133129 -0.137628 -0.13906 -0.137252 -0.132066 -0.123535 -0.111866 -0.0973655 -0.0804379 -0.0616595 -0.0418328 -0.0219113 -0.00286303 0.0144477 0.029333 0.0413542 0.0503616 0.0564584 0.0598653 0.0607775 0.0593245 0.055647 0.0500261 0.0429915 0.0353042 0.0278098 0.0211841 0.0157062 0.0112228 0.00737031 0.00391883 0.000996517 -0.00100808 -0.00183073 -0.0016943 -0.00127424 -0.00123733 -0.00170164 -0.00215117 -0.00198811 -0.00117969 -0.000397109 -0.000350687 -0.000953059 -0.00135382 -0.000957863 -0.000181966 0.000103127 -0.00026264 -0.000601422 -0.000430146 -5.01924e-05 6.36088e-05 -6.28349e-05 -0.00012928 -6.37045e-05 4.61516e-07 2.99611e-06 -1.05917e-05 -9.50785e-06 -3.12431e-06 -1.25687e-07 0 0 
0 0 -4.13734e-07 -2.79541e-06 -6.83264e-06 -5.71649e-06 1.53928e-06 -1.49402e-05 -7.35878e-05 -9.47108e-05 -4.08983e-06 2.80081e-05 -0.000236349 -0.000567686 -0.000433173 5.01208e-05 1.61215e-05 -0.000847759 -0.0015994 -0.0012947 -0.00042135 -0.000320338 -0.00142514 -0.00273082 -0.00305142 -0.00235538 -0.00162193 -0.00163296 -0.00208634 -0.00183648 0.000147373 0.00404163 0.00928331 0.0152545 0.0218806 0.0296205 0.03892 0.0496303 0.0608145 0.0710311 0.0788435 0.0832356 0.0837084 0.0800952 0.0723051 0.0601841 0.0435729 0.0225298 -0.00246316 -0.030395 -0.0597955 -0.0889556 -0.116182 -0.140024 -0.159408 -0.17366 -0.182455 -0.185731 -0.183608 -0.176337 -0.164291 -0.147979 -0.128042 -0.105235 -0.0804168 -0.0545059 -0.0284377 -0.00307978 0.0208389 0.0427696 0.0623476 0.0793469 0.0936142 0.105052 0.113627 0.119404 0.122565 0.123398 0.122259 0.119539 0.115595 0.110759 0.1053 0.0994489 0.0933943 0.0872901 0.0812642 0.075425 0.0698506 0.0646086 0.0597457 0.0552978 0.0512932 0.0477439 0.0446656 0.0420627 0.0399338 0.0382803 0.0371013 0.0363962 0.0361631 0.0363979 0.0371021 0.0382812 0.0399335 0.0420616 0.0446646 0.0477435 0.0512933 0.0552998 0.0597499 0.0646144 0.0698474 0.0753793 0.0811115 0.0869326 0.0927265 0.0984264 0.104038 0.109605 0.115091 0.120211 0.124297 0.126395 0.125578 0.121382 0.114004 0.104085 0.092166 0.0782581 0.0619027 0.0426895 0.0207196 -0.00335489 -0.028701 -0.0546044 -0.0804073 -0.10528 -0.128199 -0.148166 -0.164434 -0.17646 -0.183772 -0.185927 -0.182634 -0.17381 -0.159559 -0.140193 -0.11634 -0.0890758 -0.0598844 -0.0304743 -0.00253146 0.0224891 0.0435606 0.0601821 0.0723005 0.0800944 0.0837237 0.0832649 0.0788742 0.0710571 0.0608452 0.0496762 0.0389784 0.0296797 0.0219313 0.0153025 0.00933848 0.00410992 0.000222386 -0.00176292 -0.00201836 -0.00156556 -0.0015585 -0.00228553 -0.00297687 -0.00266388 -0.00137857 -0.000290943 -0.000394581 -0.00126034 -0.00156353 -0.000823028 2.83968e-05 5.9887e-05 -0.000419491 -0.000553807 -0.000227712 3.20261e-05 -1.12047e-06 -9.16615e-05 -7.13954e-05 -1.41204e-05 1.28854e-06 -6.05249e-06 -5.78674e-06 -2.4936e-06 0 0 
0 0 -1.80985e-06 -3.66804e-06 -3.23515e-06 -2.10564e-06 -2.21682e-05 -6.17628e-05 -5.21739e-05 1.26623e-05 -6.0538e-05 -0.000357389 -0.000487798 -0.000133131 0.000128641 -0.000496244 -0.00151924 -0.00158268 -0.000589315 -0.000157351 -0.0013974 -0.00326695 -0.00390445 -0.00294216 -0.00175991 -0.00157128 -0.00185631 -0.000780136 0.00315931 0.0100137 0.0187414 0.0284339 0.0391407 0.0515544 0.0660058 0.081614 0.0963125 0.107633 0.113591 0.113132 0.105968 0.0921261 0.0715905 0.0443204 0.0105984 -0.0285706 -0.0712519 -0.11474 -0.155987 -0.192121 -0.220868 -0.240763 -0.251129 -0.251936 -0.2436 -0.226848 -0.202635 -0.172141 -0.136764 -0.0981137 -0.0579351 -0.0180121 0.019961 0.0545166 0.0845278 0.109262 0.128369 0.141847 0.14999 0.153332 0.1526 0.1486 0.142106 0.13374 0.123949 0.113036 0.101261 0.0888762 0.0761891 0.0635193 0.0511827 0.0394339 0.028461 0.0183887 0.00927727 0.00113988 -0.00603975 -0.0122991 -0.0176972 -0.0223023 -0.0261837 -0.0294202 -0.0320846 -0.034247 -0.0359735 -0.0373289 -0.0383657 -0.0391227 -0.0396408 -0.0399385 -0.0400331 -0.0399367 -0.039638 -0.0391213 -0.0383647 -0.0373283 -0.0359729 -0.0342464 -0.0320821 -0.0294137 -0.0261764 -0.0223088 -0.0177642 -0.0125151 -0.00654069 0.000212263 0.00786627 0.0166633 0.0269081 0.0388023 0.0521864 0.0663837 0.0803163 0.0929435 0.10384 0.113416 0.122555 0.131782 0.140694 0.148048 0.152483 0.153129 0.149599 0.141523 0.128282 0.10928 0.084437 0.054281 0.0197192 -0.018177 -0.0580886 -0.0983377 -0.137029 -0.172378 -0.202844 -0.227072 -0.243839 -0.252142 -0.251276 -0.240878 -0.220977 -0.192211 -0.156039 -0.114763 -0.0712738 -0.0285938 0.0105934 0.0443418 0.0716262 0.0921583 0.106005 0.113189 0.113673 0.107723 0.0963962 0.0816919 0.0660929 0.0516576 0.0392519 0.0285404 0.0188368 0.0101037 0.00324439 -0.000710598 -0.00177631 -0.00149412 -0.00168247 -0.00285354 -0.00380883 -0.00318476 -0.00134346 -0.000124533 -0.000556409 -0.00154208 -0.00148299 -0.00047535 0.000139171 -0.000122225 -0.000474903 -0.000347622 -5.55641e-05 1.55169e-05 -4.98644e-05 -6.04686e-05 -2.16235e-05 -1.23552e-06 -3.01449e-06 -3.02064e-06 0 0 
0 0 -1.74969e-06 -2.5464e-06 -4.09684e-06 -2.1186e-05 -4.23484e-05 -2.52216e-05 -7.48239e-06 -0.000137328 -0.000355933 -0.000288685 4.0065e-05 -0.000142463 -0.00109585 -0.00165062 -0.000902003 -8.78585e-05 -0.00106779 -0.00337316 -0.00453623 -0.00341102 -0.00154925 -0.000783211 -0.000506372 0.00199068 0.00885682 0.0199755 0.0336292 0.048498 0.0647321 0.0831893 0.103695 0.124086 0.140726 0.150003 0.149613 0.138827 0.117844 0.087022 0.0466279 -0.00274281 -0.059467 -0.120474 -0.181413 -0.23739 -0.283883 -0.317516 -0.336342 -0.339787 -0.328315 -0.303064 -0.265678 -0.218183 -0.163032 -0.103096 -0.0415586 0.0182906 0.0733451 0.120973 0.15927 0.187184 0.204508 0.211767 0.210029 0.200756 0.185567 0.166084 0.1438 0.12001 0.0958581 0.0723408 0.0502994 0.0303406 0.0127812 -0.00233577 -0.0151806 -0.025984 -0.0349422 -0.0421976 -0.0478077 -0.0518282 -0.0543331 -0.0554531 -0.0553497 -0.054224 -0.0522927 -0.0497676 -0.0468274 -0.0436515 -0.0403828 -0.0371394 -0.0340307 -0.0311325 -0.0285211 -0.0262419 -0.024335 -0.0228275 -0.0217355 -0.0210708 -0.0208508 -0.0210692 -0.0217316 -0.0228232 -0.0243303 -0.0262388 -0.0285185 -0.031128 -0.0340225 -0.0371293 -0.0403927 -0.0437426 -0.047122 -0.05044 -0.0535294 -0.0560926 -0.0576194 -0.0574711 -0.0551147 -0.0504409 -0.0439785 -0.0367505 -0.0296468 -0.0227028 -0.0147899 -0.00420684 0.0102592 0.028573 0.0496198 0.0721613 0.0955398 0.11949 0.143419 0.166007 0.185581 0.200591 0.209707 0.211479 0.204328 0.186984 0.15896 0.12062 0.0730392 0.0180129 -0.0418641 -0.103407 -0.163284 -0.218363 -0.26584 -0.303226 -0.328442 -0.339862 -0.336394 -0.317568 -0.283919 -0.237383 -0.181372 -0.120425 -0.0594176 -0.00267596 0.0467295 0.0871414 0.11796 0.138932 0.149727 0.150135 0.140869 0.124217 0.103805 0.0832816 0.0648072 0.0485267 0.0335583 0.0197526 0.00874831 0.00199212 -0.000458156 -0.000727518 -0.00148301 -0.00332432 -0.00443823 -0.00329311 -0.00102075 -5.79923e-05 -0.000867164 -0.00161068 -0.00106598 -0.000127243 4.97478e-05 -0.000277857 -0.000346263 -0.000131954 -5.15061e-06 -2.35021e-05 -4.07941e-05 -2.13865e-05 -7.18762e-06 -1.41919e-06 0 0 
0 0 -1.46726e-06 -6.55149e-06 -1.65255e-05 -2.54634e-05 -1.56774e-05 -3.38527e-05 -0.000159104 -0.000266388 -0.000124899 -1.29591e-05 -0.00053672 -0.0013282 -0.00117117 -0.000262786 -0.000606169 -0.00285257 -0.00463196 -0.00368218 -0.001043 0.000816274 0.00225933 0.00690406 0.0178752 0.0348371 0.0551071 0.0767403 0.0998756 0.125302 0.15191 0.17566 0.190967 0.1932 0.180192 0.152019 0.109717 0.0543138 -0.0130361 -0.0900357 -0.172377 -0.25373 -0.326801 -0.384868 -0.423071 -0.438979 -0.432395 -0.404727 -0.358348 -0.29627 -0.22204 -0.139832 -0.05441 0.0291224 0.105746 0.171106 0.222012 0.256702 0.274915 0.277701 0.267089 0.245687 0.216308 0.18169 0.144301 0.106244 0.069255 0.0347397 0.00377026 -0.0229115 -0.0448041 -0.0616199 -0.0732129 -0.079588 -0.0809848 -0.0779282 -0.0712709 -0.0620056 -0.0511274 -0.0394654 -0.0276363 -0.0160269 -0.00486803 0.00566218 0.0154783 0.0244866 0.0326232 0.0398634 0.0462053 0.051674 0.0563239 0.0602351 0.0634705 0.0661026 0.0682059 0.0698635 0.0711258 0.0720512 0.0726809 0.0730492 0.0731671 0.0730516 0.0726858 0.0720567 0.0711319 0.0698694 0.0682128 0.0661151 0.0634841 0.0602207 0.0562042 0.0512949 0.0453396 0.0382791 0.0302415 0.0216078 0.0129353 0.00470915 -0.003066 -0.011141 -0.0207388 -0.0328085 -0.0470492 -0.0615662 -0.0736229 -0.0810316 -0.0831226 -0.0804131 -0.073484 -0.0620869 -0.0454749 -0.0233559 0.00369776 0.0347251 0.0689996 0.105828 0.143975 0.181484 0.216038 0.245262 0.266634 0.277323 0.274562 0.256313 0.221631 0.170809 0.105509 0.0288887 -0.0546401 -0.14 -0.222144 -0.296348 -0.358414 -0.404754 -0.432365 -0.438918 -0.423015 -0.3848 -0.326699 -0.253594 -0.172239 -0.0899103 -0.012904 0.0544687 0.10989 0.152176 0.180315 0.193292 0.191021 0.175636 0.151731 0.124872 0.0991186 0.0756163 0.0542205 0.0342996 0.0176187 0.00682566 0.00226128 0.000846068 -0.000988647 -0.0035972 -0.00453841 -0.00278398 -0.000569652 -0.000235241 -0.00113731 -0.00129592 -0.000516664 -2.3869e-06 -0.000116198 -0.00025845 -0.000153878 -3.12742e-05 -1.52529e-05 -2.68281e-05 -1.66803e-05 -5.17467e-06 0 0 
0 0 -3.90439e-06 -1.08223e-05 -1.58592e-05 -1.48549e-05 -4.58203e-05 -0.000134841 -0.000165902 -6.64114e-05 -0.000176374 -0.000755639 -0.00111353 -0.000589492 -0.000325139 -0.00186604 -0.00398423 -0.00368825 -0.00063742 0.00266012 0.00584554 0.0131071 0.0290195 0.0535569 0.0827303 0.113144 0.144493 0.177252 0.208934 0.233166 0.242289 0.230951 0.197786 0.144323 0.0729605 -0.0139623 -0.113314 -0.219624 -0.324515 -0.417779 -0.489683 -0.533173 -0.545051 -0.525735 -0.478171 -0.406757 -0.31666 -0.213617 -0.104161 0.00460407 0.105414 0.191639 0.258268 0.30247 0.32383 0.324135 0.306716 0.275742 0.235554 0.190176 0.142983 0.0967144 0.0534829 0.0148627 -0.017942 -0.0441732 -0.0633878 -0.0754564 -0.0806243 -0.0793835 -0.0725834 -0.0612589 -0.0465021 -0.0293544 -0.0107148 0.00854986 0.0275394 0.045329 0.0610354 0.0740089 0.0839079 0.0907606 0.0948466 0.0966215 0.0965616 0.0951166 0.0926657 0.0895323 0.0859571 0.0821532 0.0782988 0.0745129 0.070933 0.0676132 0.0646504 0.0620704 0.0599236 0.0582315 0.0570127 0.0562693 0.0560241 0.0562743 0.0570162 0.0582342 0.0599282 0.0620801 0.0646674 0.0676295 0.0709169 0.0743648 0.0778278 0.0810827 0.084008 0.0866088 0.089138 0.0920063 0.0953951 0.0988195 0.100802 0.0991624 0.0920039 0.0789656 0.0615987 0.0425505 0.0238916 0.00605719 -0.0116884 -0.0297372 -0.0471388 -0.0620935 -0.0731041 -0.0794731 -0.0806879 -0.0758118 -0.0638904 -0.044534 -0.0181861 0.0144983 0.0529327 0.0961626 0.14254 0.189748 0.23507 0.27528 0.306348 0.323818 0.323508 0.302174 0.258071 0.191519 0.105309 0.00452312 -0.104173 -0.213574 -0.31661 -0.40672 -0.478098 -0.525609 -0.544901 -0.533018 -0.489523 -0.417585 -0.324293 -0.219416 -0.113155 -0.0138642 0.0729898 0.144233 0.197471 0.230292 0.241188 0.231549 0.206734 0.174441 0.142065 0.111313 0.0814429 0.0527548 0.0286066 0.0129464 0.00580371 0.00267036 -0.000586787 -0.00360271 -0.00389997 -0.00181268 -0.000295623 -0.000562489 -0.00108432 -0.000734223 -0.000164908 -5.88102e-05 -0.000159574 -0.000131326 -4.50728e-05 -1.41457e-05 -1.47955e-05 -8.99641e-06 0 0 
0 0 -5.21162e-06 -9.85153e-06 -1.38065e-05 -4.23162e-05 -9.45033e-05 -9.90649e-05 -8.03427e-05 -0.000294667 -0.000716609 -0.000730298 -0.000362938 -0.000945923 -0.00273623 -0.00329956 -0.00069113 0.00368133 0.00867084 0.0181714 0.0383355 0.0705931 0.110272 0.151993 0.193719 0.234532 0.270021 0.291256 0.2886 0.256615 0.19555 0.109255 0.00231162 -0.120534 -0.252764 -0.384308 -0.501953 -0.592101 -0.644341 -0.653814 -0.621327 -0.551874 -0.452689 -0.331965 -0.19849 -0.0617678 0.0682383 0.181821 0.270867 0.330231 0.358407 0.357625 0.332966 0.29107 0.238918 0.182769 0.127609 0.0770454 0.0334976 -0.00158299 -0.0274819 -0.0439969 -0.0514332 -0.0505468 -0.042529 -0.0288981 -0.0114159 0.00802488 0.027631 0.0458608 0.0615261 0.0738201 0.0823098 0.0870075 0.0883414 0.0869935 0.0837233 0.0791154 0.0734248 0.0667153 0.0590131 0.0504247 0.0412096 0.0317727 0.0224991 0.0137305 0.00572032 -0.00144756 -0.00773091 -0.0131426 -0.0177606 -0.0216643 -0.0249101 -0.027592 -0.0297607 -0.0314939 -0.0328287 -0.0338404 -0.0345224 -0.034936 -0.035067 -0.0349329 -0.0345243 -0.0338394 -0.0328196 -0.0314753 -0.0297382 -0.0276129 -0.0250877 -0.0222249 -0.0190332 -0.0154567 -0.0111958 -0.00562695 0.00202753 0.0123202 0.025039 0.0387244 0.051054 0.0599528 0.0649069 0.0675075 0.0703425 0.0750192 0.0809283 0.0858783 0.0878362 0.0861909 0.0813069 0.0732158 0.0613974 0.0457229 0.0271643 0.00744464 -0.0118114 -0.0291947 -0.0430049 -0.0512176 -0.052069 -0.0445021 -0.0279993 -0.00218107 0.0329314 0.0765854 0.127194 0.182352 0.238572 0.290847 0.332816 0.357488 0.358313 0.330205 0.270884 0.181842 0.068277 -0.0616642 -0.198319 -0.331775 -0.452488 -0.551641 -0.621052 -0.653543 -0.644144 -0.592002 -0.50198 -0.384516 -0.253281 -0.12151 0.000763797 0.107056 0.192658 0.252994 0.284272 0.286348 0.265409 0.230635 0.190585 0.149602 0.108579 0.0695375 0.0377802 0.0179348 0.00858793 0.00367432 -0.000642036 -0.00322354 -0.00267085 -0.000908373 -0.000338268 -0.000706103 -0.000696763 -0.000282979 -7.42892e-05 -9.51628e-05 -9.16738e-05 -4.20538e-05 -1.89244e-05 -7.12549e-06 0 0 
0 0 -4.76972e-06 -1.45062e-05 -3.14439e-05 -5.86985e-05 -6.50842e-05 -0.000102266 -0.000307846 -0.000541088 -0.000459768 -0.000478909 -0.00144422 -0.00243808 -0.00105762 0.00317992 0.00919984 0.0195757 0.0412161 0.0781271 0.126548 0.179421 0.232351 0.282205 0.321572 0.337965 0.319642 0.261649 0.166901 0.0426508 -0.103088 -0.261835 -0.422245 -0.568727 -0.683534 -0.751465 -0.764218 -0.721952 -0.631681 -0.504248 -0.351873 -0.187157 -0.0230945 0.127172 0.251305 0.33974 0.387514 0.395127 0.368259 0.316068 0.249049 0.177228 0.108646 0.0490045 0.00182638 -0.0311528 -0.0495142 -0.0537813 -0.04535 -0.0264194 0.00016446 0.031068 0.0627325 0.0918099 0.11546 0.131712 0.13954 0.138806 0.130268 0.115257 0.0955743 0.0730889 0.0495443 0.0264856 0.00518044 -0.0133655 -0.0283562 -0.0394444 -0.0467471 -0.0508574 -0.0526562 -0.0530618 -0.0527326 -0.0520678 -0.0512125 -0.0501506 -0.0488211 -0.0472146 -0.0453673 -0.0433022 -0.0411418 -0.0389369 -0.036816 -0.0347898 -0.0329653 -0.0313322 -0.02995 -0.0288598 -0.0280779 -0.0276064 -0.0274482 -0.0276108 -0.0280828 -0.0288576 -0.0299342 -0.0313104 -0.0329907 -0.0349978 -0.0374639 -0.0403994 -0.0437971 -0.0472738 -0.0501607 -0.0514694 -0.0505008 -0.0473612 -0.0434139 -0.0409462 -0.0418792 -0.0462219 -0.0515186 -0.0540716 -0.051143 -0.0424491 -0.0295759 -0.0139839 0.00419119 0.02532 0.0488513 0.0729047 0.0953433 0.114677 0.129605 0.138365 0.139165 0.131115 0.114677 0.0911033 0.062149 0.0304271 -0.000571951 -0.0271089 -0.0459119 -0.0542954 -0.0500187 -0.0315587 0.00156624 0.048797 0.108446 0.177099 0.249011 0.316065 0.36826 0.395185 0.387669 0.339959 0.251546 0.127431 -0.0227914 -0.186852 -0.35165 -0.504171 -0.631784 -0.722312 -0.764983 -0.752799 -0.685584 -0.571566 -0.425895 -0.266265 -0.108181 0.0371558 0.16143 0.256627 0.314158 0.332377 0.31636 0.277708 0.228709 0.176664 0.12464 0.0769694 0.0406247 0.019317 0.00910797 0.00317294 -0.00101159 -0.00237867 -0.00140243 -0.000453323 -0.00043998 -0.000525102 -0.000297755 -9.69212e-05 -6.32139e-05 -6.10711e-05 -3.48845e-05 -1.10334e-05 0 0 
0 0 -7.39256e-06 -2.1664e-05 -3.62799e-05 -4.73316e-05 -0.000100393 -0.000248669 -0.000364519 -0.000349693 -0.000632664 -0.00138859 -0.00119191 0.00165784 0.00720519 0.0166862 0.0360439 0.071641 0.122719 0.182029 0.242624 0.298842 0.340377 0.350793 0.315284 0.229357 0.0995237 -0.0624893 -0.244186 -0.432127 -0.609298 -0.754642 -0.847283 -0.87315 -0.829206 -0.723201 -0.569809 -0.386352 -0.190241 0.00146331 0.17227 0.307186 0.39511 0.431315 0.418576 0.366516 0.288806 0.20009 0.113154 0.0373795 -0.0214159 -0.060453 -0.0792368 -0.0786796 -0.060955 -0.0293237 0.0118822 0.057607 0.102478 0.141458 0.17052 0.187056 0.190165 0.180496 0.160046 0.131601 0.0983248 0.0632811 0.0290913 -0.00215001 -0.0291034 -0.0509307 -0.0673507 -0.0784558 -0.0846689 -0.0865208 -0.0844071 -0.0787518 -0.0699698 -0.0587657 -0.0461157 -0.033054 -0.0205381 -0.00918653 0.000704336 0.0091907 0.0164849 0.0227972 0.0283412 0.0332344 0.0375776 0.0413629 0.0446405 0.047466 0.0498259 0.0517522 0.0532798 0.0544689 0.055271 0.0557448 0.0558815 0.055742 0.05527 0.0544771 0.0532926 0.0517167 0.0495873 0.0467359 0.0430055 0.0384021 0.0331554 0.0278979 0.0235795 0.0208371 0.0194061 0.0176169 0.0128341 0.00278252 -0.012804 -0.0314438 -0.0492505 -0.0632585 -0.0730618 -0.0800092 -0.0851025 -0.0876452 -0.0859762 -0.0792438 -0.0676074 -0.0512587 -0.0297942 -0.00289346 0.0285797 0.0628041 0.097597 0.13072 0.159269 0.179821 0.189376 0.186169 0.169716 0.14079 0.10185 0.0570049 0.0113974 -0.0296666 -0.0612583 -0.078965 -0.0794054 -0.060511 -0.0214282 0.0373976 0.113259 0.200288 0.289051 0.366771 0.418876 0.431629 0.395358 0.307259 0.172094 0.00095912 -0.191237 -0.388031 -0.572344 -0.726655 -0.833556 -0.87831 -0.853032 -0.760562 -0.614778 -0.436462 -0.246649 -0.0626982 0.0978311 0.22568 0.310307 0.34531 0.335104 0.294249 0.238948 0.179314 0.120925 0.0706098 0.035546 0.0164801 0.00713824 0.00166649 -0.00115149 -0.00134985 -0.000608068 -0.000333492 -0.000352059 -0.000241584 -9.88687e-05 -4.79367e-05 -3.68833e-05 -1.76748e-05 0 0 
0 0 -9.63423e-06 -2.19558e-05 -3.4222e-05 -7.95996e-05 -0.000171778 -0.000239957 -0.000304717 -0.000612092 -0.000872183 0.000286872 0.00403349 0.011221 0.0256242 0.0540257 0.0994388 0.156872 0.217906 0.274276 0.313337 0.315199 0.260965 0.145246 -0.0210763 -0.218828 -0.429041 -0.633266 -0.809421 -0.932566 -0.981558 -0.946667 -0.833181 -0.658373 -0.445209 -0.217222 0.00360148 0.197066 0.34556 0.436299 0.464508 0.43496 0.361201 0.261822 0.155825 0.0589016 -0.0186031 -0.0714938 -0.0986278 -0.101416 -0.082884 -0.047375 -0.000345502 0.051881 0.102592 0.14554 0.175941 0.191073 0.190629 0.176406 0.151722 0.120666 0.0872514 0.0549073 0.0260522 0.00214845 -0.0163268 -0.0295415 -0.0380332 -0.0425811 -0.0438731 -0.0426012 -0.0392113 -0.0340417 -0.0274614 -0.0196862 -0.0109281 -0.00124827 0.0093563 0.0207131 0.0324497 0.0438786 0.0541231 0.0624314 0.0684289 0.0720486 0.0736292 0.0735722 0.0724082 0.0704759 0.0681114 0.0655364 0.0629201 0.0603666 0.0579819 0.0558376 0.0539995 0.0525373 0.051464 0.0507842 0.0505664 0.0507909 0.0514729 0.0525451 0.0539515 0.055565 0.0571768 0.0585811 0.0597004 0.0607418 0.062333 0.0652889 0.0701741 0.076505 0.0824215 0.0848613 0.0812211 0.0709308 0.0562758 0.0410299 0.0280779 0.017682 0.00813287 -0.00194648 -0.0121182 -0.0210811 -0.0283253 -0.0343672 -0.0396271 -0.0434035 -0.0447028 -0.0431658 -0.0386183 -0.0304032 -0.0173146 0.00128928 0.0252528 0.0539602 0.0862202 0.119765 0.150954 0.175657 0.189897 0.190481 0.175475 0.145125 0.102232 0.0516762 -0.000434445 -0.0474232 -0.0828714 -0.101286 -0.0983995 -0.0712484 -0.0183147 0.0592295 0.156119 0.261923 0.360997 0.434337 0.463306 0.434301 0.342576 0.193053 -0.00139202 -0.223002 -0.451448 -0.664504 -0.838444 -0.950188 -0.9825 -0.930279 -0.803476 -0.623752 -0.421487 -0.214836 -0.0203819 0.143235 0.257124 0.310492 0.308653 0.270192 0.214701 0.154604 0.0980264 0.0532806 0.0252897 0.0110969 0.00400698 0.000305739 -0.000842587 -0.000590803 -0.000292067 -0.000232409 -0.000167874 -8.00048e-05 -4.22122e-05 -1.71588e-05 0 0 
0 0 -9.32173e-06 -2.64748e-05 -5.31985e-05 -0.000106449 -0.00015836 -0.000247793 -0.000432412 -0.000240744 0.00145886 0.00577542 0.0147483 0.0333498 0.0667304 0.114025 0.167765 0.217919 0.250544 0.243552 0.173429 0.0307917 -0.171969 -0.407897 -0.647054 -0.861116 -1.02274 -1.10609 -1.09339 -0.983424 -0.792719 -0.549636 -0.285743 -0.0299954 0.192773 0.362043 0.463174 0.490729 0.450755 0.360315 0.242989 0.12277 0.0187226 -0.0576253 -0.102063 -0.115602 -0.102377 -0.0681948 -0.0199222 0.0346804 0.0875166 0.130983 0.159377 0.169741 0.16255 0.14113 0.110925 0.0779392 0.0476014 0.0237366 0.00831373 0.00143564 0.00181293 0.00746865 0.0161356 0.0258679 0.0350542 0.0427735 0.0485172 0.052196 0.0539388 0.0539133 0.0523707 0.049573 0.0457584 0.0411858 0.035963 0.0303636 0.0247605 0.0196049 0.0151999 0.0116576 0.00856764 0.00542863 0.00170027 -0.00277834 -0.00802912 -0.0136922 -0.0193825 -0.0247797 -0.0296284 -0.033781 -0.0372766 -0.040121 -0.0423979 -0.0441312 -0.0454723 -0.0464297 -0.0470696 -0.0474563 -0.0475612 -0.0474475 -0.0470625 -0.0464866 -0.0457675 -0.0449984 -0.0443125 -0.0435469 -0.0423587 -0.0398976 -0.0351317 -0.0272451 -0.0165326 -0.00478926 0.00509129 0.0104919 0.0107651 0.00813336 0.00616574 0.00759718 0.0123821 0.0185216 0.0241331 0.0291967 0.0345608 0.0403002 0.0453876 0.0490839 0.0514856 0.0530019 0.0532697 0.0515005 0.0475244 0.0416703 0.0340824 0.0249209 0.0150261 0.00629858 0.00081065 0.000555921 0.00741478 0.0228616 0.0468849 0.0773648 0.110405 0.140718 0.162298 0.169605 0.159281 0.130983 0.0876345 0.0349053 -0.0196587 -0.0678742 -0.10205 -0.115437 -0.10225 -0.0583377 0.0173301 0.120482 0.239626 0.355815 0.445255 0.484496 0.456682 0.355979 0.188029 -0.0323851 -0.284906 -0.544942 -0.783878 -0.970505 -1.07694 -1.08702 -1.00457 -0.846006 -0.635761 -0.400699 -0.168697 0.0307687 0.171104 0.240093 0.246929 0.21478 0.165372 0.112428 0.0658164 0.0329121 0.0145733 0.00572229 0.00146 -0.000223035 -0.000417086 -0.000238597 -0.000154856 -0.00011008 -6.1604e-05 -2.09298e-05 0 0 
0 0 -1.1265e-05 -3.39994e-05 -6.19428e-05 -9.89281e-05 -0.000166666 -0.000209575 0.000245187 0.0021306 0.00673568 0.016785 0.0368254 0.0693229 0.110395 0.150704 0.17628 0.165354 0.0911326 -0.0627911 -0.288066 -0.554169 -0.821397 -1.04977 -1.2019 -1.24822 -1.17586 -0.994302 -0.733391 -0.433539 -0.134649 0.129805 0.334161 0.460826 0.502384 0.46456 0.366495 0.236489 0.104185 -0.00657209 -0.0821324 -0.118781 -0.119954 -0.0929083 -0.0465405 0.00968469 0.0660137 0.113173 0.143595 0.152972 0.141252 0.112577 0.0741303 0.034347 0.000785682 -0.021328 -0.0296483 -0.0247521 -0.00917028 0.0133732 0.0391269 0.0647033 0.0876097 0.106108 0.119289 0.126664 0.128114 0.123858 0.114293 0.09999 0.0817715 0.0605972 0.0375908 0.0139192 -0.0092122 -0.0306898 -0.0495973 -0.06522 -0.077099 -0.0848244 -0.0882279 -0.0873729 -0.0828824 -0.0756743 -0.0670209 -0.0579461 -0.0492373 -0.0413351 -0.0343144 -0.0280867 -0.0224763 -0.0174242 -0.0128394 -0.00870847 -0.00509604 -0.00202433 0.000529378 0.00252693 0.00395672 0.00482883 0.00511544 0.00482881 0.00388842 0.00220731 -0.000382899 -0.00401819 -0.00865855 -0.0139803 -0.019177 -0.0231412 -0.0251159 -0.0253847 -0.0255291 -0.0282599 -0.0358632 -0.048586 -0.0638348 -0.0775145 -0.0864564 -0.0898502 -0.0890838 -0.085285 -0.0781425 -0.0665263 -0.0504318 -0.0310495 -0.00973568 0.0129947 0.0366318 0.0598611 0.0809782 0.0988799 0.113062 0.122768 0.127022 0.125399 0.118007 0.104987 0.086582 0.0636432 0.0381176 0.0125516 -0.00985043 -0.0253679 -0.0301496 -0.021659 0.000549807 0.0341775 0.0741007 0.112699 0.14147 0.153248 0.143874 0.113353 0.0658393 0.00894528 -0.048046 -0.0953888 -0.123583 -0.12362 -0.087988 -0.0130685 0.0976445 0.230703 0.3625 0.463468 0.50511 0.467918 0.345723 0.145456 -0.115812 -0.412823 -0.712441 -0.974392 -1.15448 -1.22632 -1.18123 -1.03195 -0.807554 -0.544811 -0.283057 -0.0613923 0.0900867 0.163115 0.173824 0.148605 0.108876 0.0683879 0.0363455 0.016581 0.00666695 0.00211899 0.000253146 -0.000200771 -0.000164089 -0.000101658 -6.73685e-05 -2.82379e-05 0 0 
0 0 -1.29542e-05 -3.33929e-05 -5.49181e-05 -8.62521e-05 -3.2544e-05 0.000507207 0.00232609 0.00680096 0.0165874 0.0348638 0.0615997 0.0908339 0.110933 0.10309 0.0409501 -0.0982154 -0.315652 -0.584861 -0.861611 -1.09673 -1.24358 -1.26686 -1.15533 -0.928356 -0.628327 -0.305514 -0.00548941 0.237094 0.399069 0.469103 0.449715 0.358869 0.226931 0.0886566 -0.0265664 -0.101266 -0.131119 -0.121536 -0.0830943 -0.0277407 0.0327375 0.0872725 0.126252 0.142898 0.135002 0.105477 0.0620421 0.0148653 -0.0259767 -0.0530588 -0.062843 -0.0557434 -0.0351257 -0.00586365 0.0270896 0.059664 0.0889555 0.113178 0.131347 0.142948 0.147719 0.145571 0.136667 0.121466 0.100935 0.076362 0.0494338 0.0219317 -0.00437175 -0.0279155 -0.0474136 -0.062145 -0.0717466 -0.0761778 -0.0758369 -0.0713192 -0.0633568 -0.0527937 -0.040193 -0.0261027 -0.0110465 0.00427596 0.0190009 0.0321981 0.0431455 0.0515097 0.0573602 0.0610413 0.0630592 0.0638925 0.0640048 0.0636925 0.0631238 0.0624938 0.0618531 0.0612973 0.0608856 0.0606237 0.0605502 0.0605365 0.0605405 0.0603499 0.0598026 0.0588496 0.0577584 0.0572499 0.0581821 0.0611329 0.0655948 0.0695529 0.0700895 0.064616 0.0525075 0.0357278 0.0177454 0.00130121 -0.0130951 -0.026691 -0.0404321 -0.0536102 -0.0644675 -0.0720097 -0.0761142 -0.0766457 -0.0726482 -0.0631038 -0.0481844 -0.028777 -0.00555856 0.0206086 0.048231 0.075142 0.0995325 0.120052 0.135414 0.144388 0.146505 0.141817 0.130412 0.112374 0.0882008 0.0590383 0.0266343 -0.0062072 -0.035366 -0.0558175 -0.0627351 -0.0528818 -0.0257727 0.0150065 0.0618923 0.104761 0.133452 0.140333 0.122477 0.0822421 0.0266831 -0.0343534 -0.089553 -0.126941 -0.134348 -0.10118 -0.0222192 0.0977161 0.240604 0.37645 0.469952 0.490342 0.419422 0.254772 0.00821927 -0.296027 -0.616188 -0.911849 -1.13556 -1.24571 -1.22316 -1.07891 -0.847725 -0.575454 -0.310508 -0.0964446 0.0405718 0.101739 0.109435 0.089611 0.060785 0.034415 0.0163858 0.00672828 0.00230764 0.000506979 -3.0442e-05 -8.79913e-05 -6.24525e-05 -2.73518e-05 0 0 
0 0 -1.01252e-05 -2.34444e-05 -2.62652e-05 6.88728e-05 0.000575606 0.00215414 0.00604812 0.0143318 0.0286677 0.0472281 0.0626673 0.0612703 0.0216032 -0.0807562 -0.257414 -0.493029 -0.747353 -0.967769 -1.101 -1.10577 -0.969234 -0.717048 -0.404563 -0.0937588 0.166725 0.346863 0.432382 0.423643 0.336302 0.200436 0.0538836 -0.0683479 -0.143972 -0.167041 -0.145181 -0.0929348 -0.0264219 0.0399419 0.0940065 0.126662 0.132651 0.112104 0.0710586 0.0201243 -0.0283899 -0.0639428 -0.0802728 -0.0765862 -0.0565116 -0.0262051 0.00781011 0.0403316 0.0679615 0.0891961 0.103795 0.112122 0.114694 0.112038 0.1048 0.0937065 0.0799532 0.0648546 0.0499022 0.0363821 0.0254721 0.0177009 0.0132155 0.0117434 0.0124725 0.0146284 0.0173415 0.0198432 0.0215776 0.0221804 0.0216083 0.019945 0.0174589 0.014473 0.011355 0.0085701 0.00656566 0.00570679 0.00581858 0.00657837 0.00730257 0.00751133 0.0068349 0.00528516 0.00305413 0.000471743 -0.00212343 -0.00453284 -0.00662046 -0.00834932 -0.00971659 -0.0107243 -0.0114243 -0.0118276 -0.0120365 -0.0121761 -0.0123972 -0.0128033 -0.0133957 -0.0137457 -0.0130695 -0.0103557 -0.00491804 0.00284663 0.011204 0.0174592 0.0193865 0.0165948 0.0109941 0.0058418 0.0034626 0.00413512 0.00627064 0.00858455 0.0108312 0.0136449 0.0170012 0.0198413 0.0212681 0.0213999 0.0206853 0.0190898 0.0164783 0.0134125 0.0111 0.0104365 0.0118754 0.0161806 0.0239337 0.0349841 0.0485512 0.0634749 0.0786864 0.0926308 0.103826 0.111129 0.113932 0.111546 0.103333 0.08886 0.0678175 0.0403511 0.00786401 -0.0262086 -0.056679 -0.0772434 -0.0817601 -0.0665063 -0.0322044 0.0150253 0.0648857 0.105425 0.12629 0.121619 0.0914147 0.040972 -0.0208724 -0.0825201 -0.130248 -0.148552 -0.123486 -0.0477743 0.0724887 0.215342 0.346346 0.428422 0.432302 0.343055 0.164266 -0.0920275 -0.397837 -0.705434 -0.953788 -1.08834 -1.08379 -0.952756 -0.735834 -0.485458 -0.253423 -0.0794177 0.021413 0.0604801 0.0618445 0.0466152 0.0283051 0.0141589 0.00598109 0.00213401 0.000571513 6.82458e-05 -1.76833e-05 -1.74703e-05 0 0 
0 0 5.56785e-07 2.25922e-05 0.000109561 0.000520376 0.0017586 0.00478218 0.010939 0.0206913 0.0311909 0.034476 0.0162746 -0.0434596 -0.161733 -0.336848 -0.540583 -0.724952 -0.83529 -0.825035 -0.675347 -0.410836 -0.0940023 0.201364 0.417818 0.526425 0.524128 0.426756 0.265719 0.0832469 -0.0773499 -0.184324 -0.225318 -0.207153 -0.148583 -0.0715978 0.00446492 0.0648224 0.0996302 0.104322 0.0806359 0.0367983 -0.0143651 -0.0587589 -0.0856278 -0.0902497 -0.0743538 -0.0445726 -0.00940287 0.0237112 0.0497684 0.0668781 0.0751797 0.0761151 0.0714246 0.0629126 0.0521883 0.0410011 0.0310854 0.0242958 0.0220433 0.0252972 0.0340091 0.0472212 0.0632395 0.0797431 0.0944434 0.105099 0.110334 0.109247 0.101895 0.0889065 0.0714453 0.0510189 0.0291899 0.00748413 -0.0128781 -0.0308648 -0.0457695 -0.0572361 -0.0651387 -0.0696342 -0.0708193 -0.068926 -0.0643295 -0.0577465 -0.0499748 -0.0420425 -0.0347245 -0.0285939 -0.0237944 -0.020241 -0.017651 -0.0157338 -0.0142729 -0.0131485 -0.012224 -0.0115216 -0.0110364 -0.0107797 -0.0109831 -0.0116633 -0.0131159 -0.015195 -0.0176028 -0.019549 -0.0200205 -0.0184929 -0.0153855 -0.0124555 -0.0122692 -0.0168157 -0.0261972 -0.0384114 -0.0503109 -0.0595313 -0.0654396 -0.0689384 -0.0705748 -0.0698457 -0.0656073 -0.0574028 -0.0456354 -0.030991 -0.0134681 0.00675494 0.0285359 0.0502326 0.0702866 0.0875464 0.100571 0.107828 0.108723 0.103448 0.0929 0.0782219 0.061688 0.0458038 0.0327749 0.0241537 0.0209807 0.0234069 0.0303851 0.0404217 0.0517309 0.062653 0.0712795 0.0759645 0.0748774 0.0662142 0.0483896 0.021223 -0.0131873 -0.0497009 -0.080593 -0.0970192 -0.0920005 -0.0636302 -0.0165459 0.0384264 0.0869036 0.11546 0.1151 0.0833878 0.0243254 -0.0525426 -0.13243 -0.195539 -0.219112 -0.183539 -0.0811908 0.0760782 0.25678 0.417344 0.513695 0.516438 0.409975 0.197288 -0.0931921 -0.404942 -0.665303 -0.812676 -0.822789 -0.71416 -0.532572 -0.331872 -0.159324 -0.0427716 0.0160993 0.0340373 0.0307935 0.0204339 0.0108084 0.00472938 0.00174422 0.000532126 0.00016071 2.50321e-05 0 0 
0 0 3.4476e-05 0.000152704 0.000424133 0.00129393 0.00339667 0.00745678 0.0131916 0.0174403 0.0125897 -0.0141591 -0.0781639 -0.187064 -0.328241 -0.466511 -0.553 -0.539673 -0.399438 -0.146565 0.160142 0.441424 0.631591 0.69818 0.642529 0.491649 0.288829 0.0839025 -0.0789889 -0.173871 -0.198382 -0.169048 -0.110523 -0.0462354 0.00640335 0.036601 0.0397784 0.0177552 -0.0213089 -0.0644988 -0.0978537 -0.111282 -0.101661 -0.0731266 -0.034825 0.0032919 0.0334505 0.0516536 0.0578147 0.0540511 0.0434301 0.0290332 0.0135182 -0.000658512 -0.011181 -0.0158907 -0.0132124 -0.002348 0.0161013 0.0402681 0.0672676 0.0937527 0.116397 0.13253 0.140522 0.139847 0.131056 0.115514 0.0950424 0.0717431 0.0474715 0.0238589 0.00219137 -0.0167646 -0.0323999 -0.0446224 -0.0534509 -0.0591693 -0.0619751 -0.0622188 -0.0602445 -0.05643 -0.0509984 -0.0442696 -0.0363054 -0.0273007 -0.0177043 -0.00811921 0.000796413 0.00845184 0.0144955 0.0189117 0.0219177 0.0238782 0.025087 0.0258634 0.0263778 0.0267284 0.0268577 0.0267742 0.0261978 0.0250618 0.0233137 0.0214253 0.0200589 0.0202161 0.0223988 0.0260774 0.0293744 0.0298047 0.0254415 0.0162448 0.00412801 -0.00821701 -0.0189911 -0.0279916 -0.0360901 -0.043861 -0.0509538 -0.0565466 -0.0600867 -0.0618321 -0.0618275 -0.0594683 -0.0539251 -0.0450674 -0.0330318 -0.0177723 0.000941916 0.0225858 0.0460628 0.0700799 0.0933224 0.113859 0.129394 0.138132 0.138938 0.131146 0.115087 0.0925285 0.0662248 0.0394245 0.0153629 -0.0029511 -0.013662 -0.0162817 -0.0116826 -0.00143821 0.0121717 0.0266869 0.0397663 0.0490005 0.0515557 0.044773 0.026917 -0.00160138 -0.036881 -0.0712636 -0.0950886 -0.0999106 -0.0823874 -0.0464127 -0.00256822 0.0349271 0.0533699 0.0451297 0.00930779 -0.0485629 -0.116913 -0.177921 -0.208088 -0.182954 -0.086577 0.0778312 0.281126 0.48138 0.630439 0.685734 0.620641 0.433779 0.157094 -0.144788 -0.393744 -0.531867 -0.544984 -0.459772 -0.323529 -0.184387 -0.0770397 -0.0139362 0.0124394 0.0172235 0.0130314 0.00737345 0.00337577 0.00133158 0.000539295 0.000141972 0 0 
0 0 0.000109924 0.00039045 0.000905041 0.00220609 0.00459387 0.00744817 0.00784418 -0.000631761 -0.0278652 -0.0833792 -0.166846 -0.259561 -0.325765 -0.322858 -0.218175 -0.0109206 0.25552 0.507752 0.676481 0.724661 0.653973 0.496557 0.302345 0.123661 -0.00106194 -0.0575266 -0.0559935 -0.0217781 0.0179169 0.043457 0.0450874 0.0213981 -0.0227445 -0.0771342 -0.127904 -0.161169 -0.167671 -0.146348 -0.104444 -0.0545488 -0.00933307 0.0224283 0.0374956 0.037514 0.0268554 0.0104895 -0.00730321 -0.0232548 -0.0346955 -0.0395152 -0.0362101 -0.0242919 -0.00459809 0.0205256 0.0476427 0.0730742 0.0934933 0.106675 0.111918 0.109905 0.102284 0.0912055 0.078808 0.0668461 0.0564084 0.0478231 0.0409988 0.0354899 0.0306225 0.0258218 0.0207172 0.0150591 0.00895381 0.00262478 -0.00362021 -0.00943599 -0.0144377 -0.0183889 -0.0210329 -0.0222862 -0.0221706 -0.0206657 -0.0179153 -0.0138239 -0.00870868 -0.00280201 0.00330497 0.00902011 0.0137634 0.0171916 0.0193503 0.0203785 0.0205937 0.0203559 0.0199082 0.0193849 0.0187745 0.0179701 0.0168115 0.0153454 0.0139066 0.0132884 0.0143997 0.0177557 0.0227673 0.0275727 0.0296748 0.0273344 0.0207557 0.0118711 0.00321998 -0.00371867 -0.00902108 -0.0134239 -0.0174378 -0.0204645 -0.0219984 -0.0218262 -0.0203892 -0.0179673 -0.0144057 -0.00958714 -0.00380855 0.00224036 0.00818599 0.014025 0.0195812 0.0245069 0.0290229 0.0337486 0.0392954 0.0460617 0.0545787 0.0651093 0.077251 0.0897262 0.100876 0.108689 0.110899 0.105746 0.09266 0.0723643 0.0468675 0.0195117 -0.00606172 -0.0265733 -0.0397146 -0.0444547 -0.0408878 -0.0302182 -0.0140405 0.00531265 0.0246032 0.0393305 0.0439959 0.0336637 0.00578349 -0.0371848 -0.0869196 -0.130895 -0.156262 -0.155038 -0.127315 -0.0813139 -0.0302013 0.012446 0.0363361 0.0361114 0.012564 -0.0252733 -0.0583131 -0.0596517 -0.00327738 0.120055 0.296468 0.488052 0.64339 0.713278 0.666049 0.500019 0.251636 -0.0108354 -0.215051 -0.318228 -0.321124 -0.255895 -0.164511 -0.0822192 -0.027474 -0.000611343 0.00775472 0.00737435 0.0045819 0.00228129 0.00109434 0.000347077 0 0 
0 0 0.000226475 0.000694241 0.00138163 0.00261442 0.00373373 0.00237522 -0.00625783 -0.0287928 -0.0697207 -0.123891 -0.171561 -0.181932 -0.124203 0.0148519 0.213182 0.41423 0.553249 0.589458 0.521079 0.380413 0.219257 0.0900028 0.0259399 0.029647 0.077112 0.133917 0.170763 0.172194 0.136355 0.0709755 -0.0102625 -0.0902033 -0.151697 -0.182229 -0.178543 -0.147539 -0.103056 -0.0600649 -0.0292793 -0.0146623 -0.0142983 -0.0231003 -0.0356291 -0.0474363 -0.0554365 -0.0575439 -0.0523952 -0.039622 -0.0201473 0.00360099 0.0279925 0.0491766 0.0639107 0.0704867 0.0692436 0.0621367 0.0522356 0.0427752 0.0365161 0.0349666 0.0385014 0.0461599 0.0564286 0.0673169 0.0769266 0.0838158 0.0870344 0.0862168 0.0815058 0.0732884 0.0624453 0.0496886 0.0359131 0.0219327 0.00828951 -0.00440561 -0.0158093 -0.0256998 -0.0338484 -0.0401822 -0.0447343 -0.047582 -0.0487518 -0.0483605 -0.0465066 -0.0432877 -0.039059 -0.0342569 -0.0295207 -0.0254424 -0.0223089 -0.020291 -0.0191746 -0.0187524 -0.0187837 -0.0191336 -0.0198919 -0.0210229 -0.0226043 -0.0241464 -0.0250248 -0.0241807 -0.0211918 -0.0165725 -0.0121755 -0.0104228 -0.0128768 -0.0192355 -0.0272638 -0.0345202 -0.0397535 -0.0432809 -0.0459626 -0.0478909 -0.0485245 -0.0472446 -0.0440271 -0.0393192 -0.033192 -0.0253603 -0.0156173 -0.00427273 0.00821254 0.0214739 0.035168 0.0487951 0.0613295 0.0718627 0.0798703 0.0845427 0.0852659 0.081915 0.0750895 0.0655958 0.054776 0.0445941 0.037127 0.0337623 0.0353681 0.0416688 0.0511505 0.060879 0.0675304 0.0681128 0.0605146 0.0444479 0.0219315 -0.00336011 -0.0271043 -0.0452608 -0.055159 -0.0561763 -0.0492924 -0.0365899 -0.0210206 -0.00645954 0.00218122 -0.000568986 -0.0193946 -0.0554704 -0.103711 -0.152405 -0.185883 -0.190123 -0.158535 -0.0950217 -0.0128029 0.0701926 0.136441 0.172033 0.169573 0.131393 0.0753704 0.0289961 0.0257414 0.0891045 0.216597 0.375436 0.514017 0.581358 0.545644 0.408576 0.210369 0.0148125 -0.122333 -0.179307 -0.169141 -0.122171 -0.0687633 -0.0283957 -0.00615645 0.00238158 0.00376165 0.00272856 0.00159577 0.000591907 0 0 
0 0 0.000345625 0.000903321 0.00145516 0.00169679 -4.37565e-05 -0.00698181 -0.0230085 -0.0493162 -0.0791483 -0.0955135 -0.0758425 -0.00290377 0.119927 0.259072 0.362828 0.390233 0.332796 0.216689 0.0900036 0.00280495 -0.0146472 0.0341372 0.116989 0.193544 0.23516 0.231829 0.18874 0.119467 0.0411817 -0.0286765 -0.0761363 -0.095124 -0.0895587 -0.0714885 -0.0548902 -0.0494581 -0.0574432 -0.074628 -0.0936396 -0.108108 -0.114134 -0.110628 -0.0981644 -0.0782196 -0.052751 -0.0246343 0.00250079 0.0246781 0.0386137 0.0427624 0.0378493 0.0268067 0.0138998 0.00340785 -0.00134948 0.00123998 0.0109392 0.0261068 0.0441746 0.0626497 0.0792127 0.0923235 0.101168 0.105526 0.105647 0.10194 0.0949766 0.0852936 0.0733589 0.0596273 0.0446086 0.0287312 0.0126228 -0.00322305 -0.0182237 -0.0318064 -0.0435862 -0.0532273 -0.0604995 -0.0653033 -0.067653 -0.0676914 -0.0656005 -0.0615991 -0.0560214 -0.0490513 -0.0409661 -0.0321299 -0.0231311 -0.0145549 -0.00699203 -0.000814204 0.00389398 0.00713531 0.00913231 0.00999508 0.00982731 0.0088518 0.00742409 0.00633937 0.00649847 0.00848898 0.0116534 0.0141104 0.0134465 0.00805663 -0.00150145 -0.0129373 -0.0237201 -0.0327629 -0.0407108 -0.0483583 -0.0556059 -0.0614599 -0.0652357 -0.0668515 -0.0666348 -0.0644792 -0.0599142 -0.0527153 -0.0431274 -0.031575 -0.0183414 -0.0036306 0.0120389 0.0279116 0.0434425 0.0582052 0.0718234 0.0836024 0.0931189 0.100063 0.103841 0.103752 0.0994601 0.0907926 0.0777835 0.0612306 0.0427359 0.0245216 0.00898676 -0.00133842 -0.00482758 -0.00119813 0.00803539 0.0199505 0.0307617 0.0366748 0.0351072 0.0252298 0.00794489 -0.0143536 -0.0386822 -0.0621517 -0.0824343 -0.0974575 -0.105237 -0.10436 -0.0948337 -0.0795059 -0.0641422 -0.0560158 -0.059831 -0.0740939 -0.0899142 -0.0939879 -0.0746213 -0.0278148 0.0407027 0.117564 0.185777 0.228396 0.23169 0.190905 0.115728 0.034365 -0.0134739 0.0038912 0.0898632 0.214673 0.328994 0.385465 0.358306 0.255878 0.118572 -0.00264499 -0.0746611 -0.0941309 -0.0780365 -0.0486296 -0.0226727 -0.00683652 5.17386e-05 0.001819 0.00157768 0.000727286 0 0 
0 0 0.000380936 0.000774555 0.000746364 -0.000695756 -0.00545643 -0.0155351 -0.0305214 -0.0443007 -0.0444745 -0.0171326 0.0437552 0.125633 0.195976 0.219548 0.181608 0.0972212 0.00433032 -0.053454 -0.0486447 0.0144497 0.102467 0.174777 0.206254 0.194679 0.152918 0.0988501 0.0493511 0.0173291 0.008665 0.0197591 0.0383262 0.0489765 0.0403529 0.0103389 -0.0341568 -0.0815799 -0.121174 -0.146185 -0.154413 -0.147037 -0.126949 -0.0983225 -0.0661675 -0.0360694 -0.0130612 -0.000542684 0.00108896 -0.00553096 -0.015701 -0.0241991 -0.0269533 -0.0219781 -0.00964585 0.00776266 0.0271444 0.0455339 0.0607654 0.0718175 0.0786356 0.0819434 0.0827082 0.0817001 0.0795564 0.0765654 0.072649 0.0677322 0.0615913 0.0543015 0.0459059 0.0366107 0.0268929 0.0170753 0.00763119 -0.00104337 -0.00868168 -0.0150528 -0.0200731 -0.0237179 -0.0259294 -0.0268877 -0.0267468 -0.0255725 -0.0235229 -0.0206988 -0.0172445 -0.0132125 -0.00870944 -0.00370758 0.00160389 0.006978 0.0119488 0.0160572 0.0189838 0.0206357 0.0209568 0.0202437 0.0187302 0.017034 0.0160497 0.0167714 0.0197357 0.0243417 0.0286598 0.0302994 0.0275389 0.0209727 0.0129339 0.00595768 0.000891894 -0.00326448 -0.007856 -0.0128434 -0.0172849 -0.0204354 -0.0226652 -0.0244926 -0.0258558 -0.0261617 -0.0251668 -0.0229833 -0.0195681 -0.0148679 -0.00873823 -0.00129067 0.0071348 0.0162517 0.0257811 0.0353222 0.0444179 0.0525903 0.0597984 0.0659232 0.0708308 0.0747714 0.0778698 0.0800635 0.080962 0.0800513 0.0764148 0.0689903 0.0571089 0.0408913 0.0214001 0.00106269 -0.0167171 -0.0283568 -0.0311943 -0.0247258 -0.0113425 0.00387317 0.0145515 0.0150432 0.0022187 -0.0234264 -0.0578584 -0.0949945 -0.128281 -0.151644 -0.160385 -0.151582 -0.124685 -0.0826968 -0.0332855 0.0122755 0.0421854 0.0497375 0.0375659 0.0175902 0.00564684 0.0141584 0.0466556 0.0968642 0.150417 0.191468 0.202874 0.171968 0.100932 0.0144683 -0.0474417 -0.0519594 0.00511697 0.0966821 0.17982 0.217114 0.193746 0.124261 0.0434036 -0.0167377 -0.0437737 -0.0436434 -0.0300624 -0.0152657 -0.00530449 -0.000625939 0.000662441 0.000549601 0 0 
0 0 0.000243436 0.000186549 -0.000653369 -0.00348948 -0.0091852 -0.0168577 -0.0220219 -0.0168819 0.00558724 0.0447636 0.0866315 0.107675 0.0912086 0.0413254 -0.0177344 -0.0529979 -0.0408196 0.0163229 0.0890093 0.139885 0.148249 0.118917 0.0724909 0.0309015 0.0092688 0.0139906 0.0421516 0.0816591 0.114945 0.126483 0.109883 0.0699181 0.0187799 -0.030547 -0.0692265 -0.0940428 -0.105786 -0.106903 -0.100523 -0.0901227 -0.0794494 -0.0719985 -0.0696391 -0.0718688 -0.0758162 -0.0773911 -0.0728579 -0.0604592 -0.041038 -0.0174713 0.0061901 0.0264701 0.0409658 0.0491002 0.0518244 0.0509838 0.0485286 0.0460175 0.0444342 0.0442197 0.0452421 0.0472057 0.0498173 0.0527633 0.0557534 0.0586016 0.0609805 0.0626519 0.0632141 0.0623574 0.0597211 0.05514 0.0486365 0.0403174 0.0303996 0.0193323 0.00764032 -0.0042061 -0.0156354 -0.0262315 -0.0356155 -0.0435171 -0.0497441 -0.0541961 -0.0568336 -0.0578426 -0.0573444 -0.0554324 -0.0522273 -0.0479631 -0.0430384 -0.038127 -0.0338921 -0.0308837 -0.0293763 -0.029206 -0.0299048 -0.0304418 -0.0296832 -0.0270452 -0.022918 -0.0191645 -0.0183079 -0.0218124 -0.0291177 -0.0376246 -0.0445363 -0.0488787 -0.0516787 -0.0543748 -0.0569539 -0.0580684 -0.0567749 -0.053426 -0.0486801 -0.0426494 -0.0348674 -0.0253592 -0.0147032 -0.00349098 0.00807332 0.0195939 0.0304986 0.0401611 0.0481726 0.0544084 0.0587626 0.0611499 0.0617625 0.0610548 0.0593071 0.0568377 0.0539339 0.0509572 0.0479488 0.0450964 0.0427605 0.0412047 0.0406078 0.0411985 0.0427571 0.0444015 0.044839 0.0425825 0.0362241 0.0249468 0.00919188 -0.00937163 -0.0285381 -0.0454234 -0.0578553 -0.064977 -0.0677685 -0.0687897 -0.070971 -0.0763233 -0.0848523 -0.0947407 -0.103176 -0.107285 -0.104455 -0.0920669 -0.067735 -0.030374 0.017403 0.067316 0.106697 0.123423 0.112486 0.0799595 0.0411176 0.0132861 0.00863136 0.0297676 0.0705759 0.116225 0.145142 0.137062 0.087157 0.015819 -0.0402046 -0.0519622 -0.017041 0.041241 0.090408 0.106586 0.0857519 0.0443791 0.00566986 -0.0165467 -0.0216496 -0.0165744 -0.00903971 -0.00352701 -0.000969281 -9.98927e-06 0 0 
0 0 -6.27099e-05 -0.000658432 -0.00202713 -0.00488233 -0.00843566 -0.00986006 -0.00487879 0.0092638 0.0295703 0.0453175 0.0436654 0.0214669 -0.00928607 -0.0277048 -0.0158275 0.0272416 0.0792755 0.108753 0.0981453 0.0553776 0.00499482 -0.0292984 -0.0345001 -0.0097587 0.0353264 0.0842102 0.118953 0.128044 0.111536 0.0796679 0.0459648 0.0201943 0.00517029 -0.00171818 -0.00523405 -0.00963009 -0.0178761 -0.0317663 -0.0518267 -0.0765687 -0.102184 -0.123001 -0.133399 -0.129922 -0.112716 -0.0856294 -0.0546859 -0.0259968 -0.00385348 0.0100513 0.0165571 0.0179055 0.0167248 0.0152878 0.015012 0.0164638 0.019706 0.0245095 0.0306175 0.0378136 0.0459377 0.0546404 0.0634728 0.0718236 0.0788297 0.0837083 0.085666 0.0842838 0.0792863 0.070801 0.0592748 0.0454114 0.0300323 0.0140012 -0.00183868 -0.0166845 -0.0299655 -0.0412581 -0.0502925 -0.0568874 -0.0611561 -0.0632018 -0.0632274 -0.0614532 -0.0580843 -0.0534489 -0.0478368 -0.0415608 -0.034726 -0.0273838 -0.0197716 -0.0123034 -0.00568645 -0.000528804 0.00288221 0.00480314 0.00602597 0.00780815 0.0108603 0.0149623 0.0183475 0.0186742 0.0141777 0.00545711 -0.00490506 -0.0140433 -0.0209535 -0.0268113 -0.0334396 -0.0410256 -0.048177 -0.0536481 -0.0575037 -0.0604817 -0.0624445 -0.0625417 -0.0602847 -0.0558773 -0.0494507 -0.0406634 -0.0294736 -0.0162904 -0.00168989 0.0138561 0.0296582 0.0448293 0.0584231 0.0696805 0.0779936 0.0828393 0.0840622 0.0819729 0.0769717 0.0697382 0.0609418 0.0514948 0.0419775 0.0328834 0.0246969 0.0178469 0.0127774 0.00999223 0.0100225 0.0130902 0.0185138 0.0244169 0.0276256 0.0241763 0.0108124 -0.0135271 -0.046527 -0.0825396 -0.114065 -0.134066 -0.138458 -0.127209 -0.104433 -0.0766956 -0.0504724 -0.0300221 -0.0168184 -0.00992102 -0.00693561 -0.00434499 0.0023166 0.0177077 0.0441859 0.0785332 0.110804 0.127326 0.117999 0.082937 0.0344397 -0.0101242 -0.0346168 -0.0295912 0.00410118 0.0537188 0.0959057 0.106485 0.0776368 0.0265693 -0.0156535 -0.0271903 -0.00892485 0.0214431 0.0433242 0.0449213 0.0293471 0.00927092 -0.00472625 -0.0096942 -0.00837618 -0.00503515 -0.00246288 -0.000726432 0 0 
0 0 -0.000393017 -0.00128587 -0.00249478 -0.00393227 -0.00406833 -0.00082847 0.00651626 0.0151836 0.0189455 0.012992 0.000571281 -0.00720559 0.00107555 0.0281943 0.0612063 0.0764012 0.0586993 0.0153123 -0.0301536 -0.0550021 -0.0496682 -0.01851 0.0249973 0.0634704 0.082977 0.0794609 0.0603948 0.0398497 0.0298183 0.0341387 0.0484328 0.0644438 0.0746073 0.0743451 0.0617849 0.0374151 0.00377972 -0.0340444 -0.0693968 -0.0957542 -0.109027 -0.109094 -0.0993048 -0.0851025 -0.0713312 -0.0609155 -0.0542224 -0.049797 -0.0455396 -0.0396354 -0.0313805 -0.0208991 -0.00924682 0.00266956 0.0140415 0.0246161 0.0344112 0.0434052 0.0515062 0.0583796 0.063639 0.066701 0.0674569 0.0658526 0.062198 0.0570019 0.0509552 0.0445878 0.0383726 0.032699 0.0275656 0.0229698 0.0187789 0.0147803 0.0107587 0.00667053 0.00240424 -0.00206533 -0.00661002 -0.0110469 -0.0152636 -0.0190904 -0.0223556 -0.0249322 -0.026678 -0.0275502 -0.0274959 -0.0266725 -0.0251736 -0.022893 -0.0199503 -0.0165157 -0.0131126 -0.0101499 -0.00785409 -0.00580382 -0.003284 0.000511742 0.00524882 0.00947663 0.0108334 0.00783086 0.000841142 -0.00740214 -0.0139208 -0.0174477 -0.0192595 -0.0213372 -0.024357 -0.0269783 -0.0279105 -0.0272132 -0.0258533 -0.0242648 -0.0218501 -0.01835 -0.0142835 -0.0101795 -0.00594794 -0.00144846 0.00298522 0.00705141 0.0108745 0.0147155 0.0185293 0.0224818 0.0268157 0.0317486 0.0372581 0.0432556 0.0493829 0.0551463 0.0598727 0.0628345 0.0635401 0.0617481 0.0576032 0.0515508 0.0444399 0.0368615 0.0293461 0.0221021 0.0150221 0.00783144 0.000168757 -0.00820378 -0.0174368 -0.0271908 -0.0369644 -0.0463091 -0.0554335 -0.0650783 -0.076352 -0.0891719 -0.101446 -0.109214 -0.107848 -0.0942928 -0.068634 -0.0345088 0.0021472 0.0351627 0.0595913 0.072689 0.073597 0.0638952 0.0479947 0.0334891 0.0287875 0.0385073 0.0590119 0.0783227 0.0816829 0.0622807 0.024248 -0.0186941 -0.0494387 -0.0547061 -0.0302387 0.0145857 0.0574125 0.0749613 0.0601149 0.0277001 0.00107714 -0.00699855 0.000712495 0.0129705 0.0188303 0.0150903 0.00649368 -0.000822018 -0.00412532 -0.00414408 -0.00286578 -0.00117224 0 0 
0 0 -0.000549886 -0.00131894 -0.00183344 -0.00165107 8.14632e-05 0.00340097 0.00660671 0.00696856 0.00387802 0.00153595 0.00632443 0.0207485 0.039024 0.0467866 0.0314726 -0.00285449 -0.0367954 -0.0510146 -0.0387633 -0.00778683 0.0262568 0.0475437 0.0469483 0.0274869 0.00267934 -0.0117284 -0.00666642 0.0159405 0.0466636 0.0747587 0.0929369 0.0980077 0.0902103 0.0717068 0.0466525 0.0206273 -0.000836795 -0.0146168 -0.0214018 -0.0249675 -0.0303921 -0.0409468 -0.0567602 -0.0748484 -0.0903997 -0.099284 -0.0992023 -0.0904413 -0.0750808 -0.0560077 -0.0357475 -0.0161993 0.00143449 0.0163901 0.0281629 0.0362951 0.0407446 0.0416805 0.0398212 0.0362448 0.0322507 0.0290339 0.0276793 0.0287384 0.032344 0.0380674 0.0450296 0.0521616 0.0583857 0.0626896 0.0642126 0.062711 0.0580293 0.0504094 0.04027 0.0283744 0.0153874 0.00203265 -0.0110542 -0.0232085 -0.0340923 -0.0433648 -0.0508242 -0.056423 -0.0601742 -0.0621138 -0.0623967 -0.0612676 -0.059119 -0.0561629 -0.0526573 -0.0487147 -0.0445736 -0.0402235 -0.035581 -0.0302712 -0.0240872 -0.0175267 -0.0121896 -0.0103536 -0.0135129 -0.0211673 -0.0306409 -0.0386838 -0.0438067 -0.0469658 -0.0503612 -0.0547865 -0.0591552 -0.0617644 -0.0622962 -0.0614541 -0.0596108 -0.0560868 -0.0502985 -0.0425186 -0.0332723 -0.0225802 -0.0104318 0.00269126 0.0158973 0.0286703 0.0404447 0.0504433 0.0578466 0.0623231 0.0636384 0.0619093 0.0573568 0.0507754 0.0431389 0.0354705 0.0287674 0.0240001 0.02175 0.0221269 0.0249298 0.0294485 0.0345811 0.0389716 0.0414075 0.0407464 0.0362787 0.0275118 0.0140868 -0.00426217 -0.0268567 -0.0518023 -0.0757249 -0.0945107 -0.104395 -0.103546 -0.0926773 -0.0750902 -0.0557886 -0.0397589 -0.0298381 -0.0254501 -0.0227525 -0.0163811 -0.00236428 0.0196546 0.0461782 0.0714298 0.0897325 0.0971453 0.0916095 0.0732357 0.0452424 0.0149942 -0.00700493 -0.0115266 0.00267795 0.0269212 0.0459042 0.0463669 0.0253019 -0.00824509 -0.038727 -0.0507217 -0.0366304 -0.00309876 0.0308343 0.0460156 0.0384354 0.020487 0.00631022 0.00160456 0.00391213 0.00693966 0.00654133 0.00331591 -4.23649e-05 -0.00183603 -0.00202639 -0.00107005 0 0 
0 0 -0.000454779 -0.000837127 -0.000722729 9.41576e-05 0.00150659 0.00274751 0.00301619 0.00303835 0.00554274 0.0124971 0.0216345 0.0259753 0.0173528 -0.00439792 -0.0261073 -0.0322349 -0.0183297 0.00754502 0.0302806 0.0364861 0.0217078 -0.00680192 -0.0328346 -0.0415899 -0.0290342 -0.00218892 0.0270245 0.0491351 0.0608316 0.0632889 0.0597385 0.0538112 0.049228 0.0489392 0.0537077 0.0610792 0.0657203 0.0619666 0.0467547 0.0212258 -0.00983838 -0.0400839 -0.0642705 -0.0797625 -0.0865134 -0.0861046 -0.080529 -0.0714877 -0.0602502 -0.047883 -0.035343 -0.0236422 -0.013683 -0.0060099 -0.000799637 0.0024934 0.00477281 0.00737223 0.0113166 0.0172999 0.0253059 0.0346463 0.0443358 0.0532672 0.0603653 0.064977 0.0666355 0.0654072 0.0615266 0.0555112 0.0478363 0.0391126 0.0297204 0.0201959 0.0106877 0.00163803 -0.0069088 -0.0147936 -0.0218709 -0.0280829 -0.0333229 -0.0376058 -0.0407984 -0.0429909 -0.0441325 -0.0442976 -0.0434725 -0.0417319 -0.0394423 -0.0368889 -0.0342274 -0.0314649 -0.0282836 -0.0240194 -0.0181758 -0.0106102 -0.00220109 0.00513265 0.00875756 0.00705359 0.000345787 -0.008591 -0.0164487 -0.0214159 -0.0242803 -0.0271366 -0.0312838 -0.0359767 -0.0396221 -0.041732 -0.0429822 -0.0438259 -0.0439122 -0.0426751 -0.0401673 -0.0369074 -0.0327843 -0.027555 -0.0212348 -0.014232 -0.0065478 0.0019222 0.0109296 0.0202565 0.029598 0.0388447 0.0473641 0.0547013 0.0602603 0.0634464 0.0637007 0.0607968 0.0548269 0.0465365 0.0369287 0.0275086 0.0196456 0.0143229 0.0118307 0.0116127 0.012395 0.0125783 0.0104601 0.00485643 -0.00507438 -0.0188598 -0.0350201 -0.0513382 -0.065467 -0.0761696 -0.0832064 -0.0866286 -0.0857237 -0.078768 -0.063884 -0.0405247 -0.0109466 0.0199049 0.0456937 0.0613866 0.0654791 0.0608216 0.053061 0.047769 0.0476762 0.0521865 0.0584143 0.0625151 0.0606751 0.0494324 0.0274846 -0.00174536 -0.0284005 -0.0409083 -0.0324491 -0.00696186 0.0209822 0.0354125 0.0292453 0.006849 -0.0185703 -0.0321742 -0.0260115 -0.00451247 0.017028 0.0256004 0.0213647 0.0123759 0.00551466 0.00302415 0.00296825 0.0026607 0.00139679 -9.40238e-06 -0.000751499 -0.000571423 0 0 
0 0 -0.00022093 -0.000267956 3.63191e-05 0.000641593 0.00130779 0.00198564 0.00337637 0.00656647 0.0111511 0.0140443 0.0110593 0.000688959 -0.0112071 -0.0135784 -0.00221014 0.015585 0.0278302 0.0245287 0.00402284 -0.0242288 -0.0449522 -0.0465408 -0.02952 -0.0054088 0.0132953 0.0206683 0.0184214 0.0122459 0.00797202 0.00975822 0.0200296 0.0386172 0.062245 0.0844539 0.0981679 0.09881 0.0865409 0.0658623 0.0429574 0.022795 0.00744465 -0.00386726 -0.0132832 -0.0227054 -0.0328513 -0.0432172 -0.0526728 -0.0600189 -0.0646588 -0.0663369 -0.0651079 -0.060816 -0.0531458 -0.0419441 -0.0276646 -0.0114134 0.00503167 0.0199354 0.0316954 0.039471 0.0431704 0.043187 0.0406621 0.0368237 0.0328993 0.0298649 0.0282929 0.0282912 0.0296917 0.0319184 0.0342496 0.0360729 0.0367215 0.0358762 0.0332401 0.0288895 0.0229871 0.0158205 0.00782789 -0.000518205 -0.00886833 -0.0167997 -0.0240001 -0.030199 -0.0352736 -0.0391455 -0.0418113 -0.0432936 -0.0438935 -0.0439159 -0.0436237 -0.0427937 -0.0407919 -0.036673 -0.029902 -0.0211314 -0.0124303 -0.00679027 -0.00638432 -0.0112175 -0.0188686 -0.0260051 -0.0304614 -0.0326416 -0.034407 -0.0370997 -0.0403243 -0.0426352 -0.0433389 -0.0427377 -0.0413652 -0.0389679 -0.0351008 -0.0297785 -0.0234764 -0.0164037 -0.00848117 -8.06973e-06 0.008341 0.016176 0.0232876 0.0292255 0.0334671 0.0359142 0.0366462 0.0357907 0.0335524 0.0306159 0.0275217 0.0249018 0.0234323 0.0236153 0.0256819 0.0294937 0.0345387 0.0396815 0.043326 0.0436942 0.0394138 0.0299011 0.0156685 -0.00162969 -0.0199579 -0.0373057 -0.0521375 -0.0632048 -0.0696968 -0.0711841 -0.0679613 -0.0611081 -0.0521406 -0.0423048 -0.032515 -0.0231708 -0.0142703 -0.00491009 0.00666973 0.0224042 0.0427684 0.0654917 0.0857342 0.0975053 0.0965886 0.0829646 0.0611815 0.0381869 0.0201118 0.0102011 0.00844329 0.0126553 0.018695 0.0209659 0.0135514 -0.00494769 -0.0288162 -0.0456785 -0.0442526 -0.02399 0.00370274 0.0238043 0.0269934 0.0149347 -0.00254764 -0.0136763 -0.0112368 0.000581444 0.0108735 0.0138554 0.0110143 0.00648443 0.00331764 0.00192604 0.00125212 0.000621911 0.000104721 -8.65864e-05 0 0 
0 0 -2.13129e-05 8.75102e-05 0.000338538 0.000785276 0.00155826 0.00302314 0.00533414 0.00751549 0.00755348 0.00425486 -0.000615834 -0.00173853 0.00509924 0.0156905 0.0204443 0.0132721 -0.00568557 -0.0281194 -0.0407926 -0.0359547 -0.0175893 0.0011611 0.00830041 0.00194991 -0.0115665 -0.02385 -0.0287389 -0.0236382 -0.00855531 0.0138129 0.0382706 0.0585718 0.0702149 0.07284 0.0702186 0.0675229 0.0682767 0.0722623 0.0763325 0.0764023 0.0698063 0.0562097 0.0373279 0.0156232 -0.00653265 -0.0274498 -0.0457786 -0.0601135 -0.0691691 -0.0719064 -0.0683343 -0.0593663 -0.0468983 -0.0330253 -0.0199977 -0.00944224 -0.00232126 0.00150834 0.00272609 0.00280443 0.00313317 0.00487703 0.00861427 0.0144151 0.0218037 0.029942 0.0379974 0.0450596 0.0505376 0.0538738 0.0549011 0.05356 0.0500335 0.0446054 0.0375063 0.0292372 0.0201264 0.0105214 0.0008547 -0.0085617 -0.0175012 -0.0256893 -0.032878 -0.0390203 -0.0440055 -0.0478457 -0.0506323 -0.0524651 -0.0535167 -0.0540932 -0.0540553 -0.0530576 -0.0502225 -0.0448855 -0.037109 -0.0286112 -0.022019 -0.0197693 -0.0224495 -0.0282053 -0.0340643 -0.037914 -0.0398307 -0.0414705 -0.0439454 -0.0471505 -0.0499008 -0.0514763 -0.0518856 -0.0515517 -0.0502497 -0.0476531 -0.0437329 -0.0386701 -0.032604 -0.0254458 -0.0171678 -0.00819538 0.00114749 0.0107776 0.0204289 0.0294986 0.0376238 0.0445751 0.0498026 0.0528128 0.0533481 0.051265 0.0465228 0.0395034 0.031212 0.0227022 0.0153166 0.0102484 0.00818372 0.00880439 0.0110909 0.0133735 0.0138264 0.0111588 0.00464002 -0.00559596 -0.0191115 -0.0346616 -0.0503335 -0.0635399 -0.0718744 -0.0737589 -0.0692678 -0.0593998 -0.0453393 -0.0278627 -0.00754149 0.0146262 0.0366743 0.0558931 0.0695257 0.0758651 0.0753168 0.0708216 0.066672 0.0661271 0.069278 0.0724649 0.0702551 0.0587953 0.0384499 0.013914 -0.00846872 -0.0233641 -0.0281755 -0.0229849 -0.0108643 0.00236527 0.00854383 0.00142686 -0.0171122 -0.0353107 -0.0401725 -0.0278029 -0.00577755 0.0128262 0.0198679 0.0151886 0.00479379 -0.00188355 -0.000714015 0.00414184 0.00742705 0.00740327 0.005254 0.00297621 0.001546 0.000825798 0.000459605 0.00016046 0 0 
0 0 8.58564e-05 0.000274299 0.000551053 0.00115461 0.00222707 0.00363732 0.00468496 0.00456081 0.00355784 0.00356546 0.00679315 0.0122992 0.0141325 0.0073508 -0.00637368 -0.0208724 -0.0272362 -0.0196636 -0.00377312 0.00777008 0.00567975 -0.00914711 -0.0269324 -0.0385423 -0.0402834 -0.0327215 -0.0188681 -0.00300186 0.0103793 0.0177439 0.0193835 0.0193375 0.0234837 0.0357053 0.0553328 0.0777163 0.0967568 0.107939 0.109745 0.103235 0.0907202 0.0743767 0.0559685 0.0368908 0.0186272 0.00250634 -0.010695 -0.0207085 -0.0281703 -0.0340633 -0.0394826 -0.0452034 -0.0509653 -0.0556264 -0.0575928 -0.0554751 -0.0486916 -0.0378078 -0.0242885 -0.00980628 0.00388193 0.0155379 0.0244601 0.030563 0.0342627 0.036113 0.0367496 0.0367786 0.0365858 0.0362664 0.0357808 0.0348911 0.0334387 0.0311231 0.0277989 0.0233498 0.0178702 0.011444 0.00435097 -0.00311287 -0.0106325 -0.0179937 -0.0248401 -0.0309297 -0.0361773 -0.0405374 -0.0440567 -0.0468311 -0.0488979 -0.0501678 -0.050216 -0.0484608 -0.0443301 -0.0380934 -0.0309621 -0.0252366 -0.0228605 -0.0244485 -0.0284657 -0.0324916 -0.0347931 -0.0356063 -0.0363018 -0.0380691 -0.0406577 -0.0432544 -0.0450818 -0.0460673 -0.0462008 -0.045352 -0.0433105 -0.0401241 -0.0359186 -0.0307575 -0.0246851 -0.0178017 -0.0104259 -0.00294788 0.00450004 0.0116446 0.0180586 0.0234345 0.0276915 0.0307201 0.0324137 0.0328494 0.0324717 0.0314869 0.0303527 0.0297578 0.0300912 0.0313265 0.0329716 0.0338768 0.0323952 0.0268029 0.0162002 0.000972838 -0.0169531 -0.0344685 -0.0485915 -0.0573619 -0.0603809 -0.0586493 -0.0537771 -0.0472593 -0.0403667 -0.0339422 -0.027845 -0.0209471 -0.0116047 0.00137468 0.0178366 0.0364719 0.0555305 0.0735637 0.0893891 0.10151 0.107942 0.106359 0.0955604 0.076948 0.0548137 0.03524 0.0229384 0.0187932 0.0189384 0.0176437 0.0106152 -0.00241723 -0.0181007 -0.0319039 -0.0393911 -0.0376819 -0.0263159 -0.0088304 0.00570014 0.00769556 -0.00373737 -0.0194495 -0.0269497 -0.0207263 -0.00647148 0.00703304 0.0137318 0.0119522 0.00656241 0.00342421 0.00345465 0.00447204 0.00461494 0.00360159 0.00223945 0.00123096 0.000700357 0.00026849 0 0 
0 0 0.000151167 0.000427797 0.000792639 0.00145446 0.0023115 0.00305613 0.00354726 0.00429354 0.00611698 0.00888497 0.0102235 0.00666433 -0.00150579 -0.00922051 -0.0114227 -0.00537091 0.00547347 0.0102431 0.0019326 -0.0154803 -0.031904 -0.0387457 -0.0351456 -0.025677 -0.0152641 -0.00820389 -0.00715586 -0.0119322 -0.018836 -0.0215334 -0.014816 0.00214981 0.0255843 0.0492415 0.0683722 0.0812936 0.089219 0.0942819 0.0978066 0.0998898 0.0999172 0.0973348 0.091979 0.083731 0.0726602 0.0583906 0.0406986 0.0198587 -0.00284644 -0.0250637 -0.0440617 -0.0577015 -0.0648534 -0.0657279 -0.0613559 -0.0533354 -0.0432968 -0.0329 -0.023399 -0.0155178 -0.00941624 -0.00472522 -0.000909745 0.00268338 0.00661451 0.0109929 0.0158957 0.0211271 0.0263173 0.0310631 0.0349628 0.0376391 0.0389499 0.0387207 0.0368941 0.0335916 0.0289531 0.0232115 0.0166624 0.00954587 0.00219513 -0.00517895 -0.0122626 -0.0189197 -0.0250225 -0.03052 -0.0355357 -0.0399835 -0.0436519 -0.0460556 -0.0463748 -0.044215 -0.0398094 -0.0346241 -0.0307537 -0.0300568 -0.0326481 -0.0368137 -0.0400455 -0.0408922 -0.0398347 -0.0385658 -0.0383209 -0.0391106 -0.0401291 -0.0409453 -0.0413559 -0.0411591 -0.0398388 -0.0373935 -0.03401 -0.0298015 -0.0247609 -0.0187758 -0.0121324 -0.00510757 0.00222121 0.0095801 0.0167164 0.0232404 0.0288618 0.0332762 0.0361219 0.0371258 0.0361786 0.033429 0.0292914 0.0243227 0.0195118 0.0157803 0.0136875 0.0133239 0.0140059 0.0143024 0.0127008 0.00793751 -0.000364974 -0.0114005 -0.0236984 -0.0357683 -0.046629 -0.0558932 -0.0629971 -0.0668686 -0.0657573 -0.058287 -0.0443698 -0.0253977 -0.00357091 0.0187513 0.0395916 0.0575901 0.0719048 0.0825775 0.0902303 0.0951417 0.0976397 0.0978018 0.0960329 0.0927611 0.0878254 0.0798905 0.0669246 0.0478751 0.0244905 0.00149029 -0.0150735 -0.0214754 -0.0186485 -0.0117251 -0.00700351 -0.00806361 -0.0150437 -0.0252328 -0.0345413 -0.0380561 -0.0313498 -0.0152156 0.00188627 0.0100034 0.00525653 -0.00547108 -0.0114642 -0.00929792 -0.00167799 0.00639459 0.00993953 0.00866024 0.00596702 0.0042014 0.00349377 0.00303913 0.00234196 0.00154685 0.00094413 0.000371606 0 0 
0 0 0.000205783 0.000539054 0.000903377 0.00143839 0.00209044 0.00293029 0.00422586 0.00598787 0.00736367 0.00678962 0.00359048 0.00013755 6.70083e-05 0.00394425 0.00909882 0.00955296 -0.000327337 -0.0163812 -0.0282313 -0.0299445 -0.0228655 -0.0137242 -0.00853137 -0.0095285 -0.0166189 -0.0270392 -0.0353158 -0.0363729 -0.0279766 -0.0128804 0.00320611 0.0157547 0.0237305 0.0298836 0.0378948 0.0498816 0.0657149 0.0834003 0.100511 0.114986 0.125195 0.12977 0.127448 0.117679 0.101164 0.0799602 0.057076 0.035401 0.0169085 0.00225915 -0.00900366 -0.0182183 -0.0268102 -0.0357447 -0.0451353 -0.0538566 -0.060334 -0.0630323 -0.0612063 -0.0549594 -0.0452808 -0.0334822 -0.0210566 -0.00901342 0.00185438 0.0111381 0.0188332 0.0251754 0.0302959 0.034426 0.0376419 0.0397697 0.0408529 0.0406138 0.0389614 0.0357612 0.0311587 0.0251639 0.0180514 0.0100732 0.00156875 -0.00712618 -0.0157213 -0.0240186 -0.0318559 -0.0392348 -0.0459811 -0.0518911 -0.0563695 -0.0586754 -0.0582359 -0.0551876 -0.0510662 -0.0481604 -0.0484941 -0.0522832 -0.0576696 -0.0618536 -0.0629788 -0.0614611 -0.0589924 -0.0571309 -0.056145 -0.0556211 -0.0553988 -0.0554328 -0.0553 -0.0541045 -0.0515571 -0.0479497 -0.043477 -0.0379958 -0.0312869 -0.0237288 -0.0156507 -0.00720434 0.00149909 0.0100079 0.0178701 0.0247876 0.030447 0.0344213 0.0365628 0.0368313 0.0356121 0.0332779 0.0306873 0.0284583 0.0270428 0.0262743 0.0251985 0.0224258 0.0162692 0.00555923 -0.00949816 -0.027189 -0.0446427 -0.0583144 -0.0657788 -0.0664669 -0.061696 -0.053793 -0.0449292 -0.0361628 -0.027745 -0.019192 -0.00990545 0.00128665 0.0157199 0.0340919 0.0557245 0.0783293 0.098964 0.114954 0.124499 0.126975 0.122626 0.112528 0.0980724 0.080934 0.0632919 0.047645 0.0360505 0.0285012 0.0227815 0.0150582 0.0026275 -0.0134354 -0.0284799 -0.0367643 -0.0354969 -0.0270006 -0.0166267 -0.00958384 -0.00856143 -0.0136091 -0.0225614 -0.0295093 -0.0278195 -0.0161754 -0.000384575 0.00929358 0.00879215 0.00368112 -0.000144141 -5.48192e-05 0.00338646 0.00658187 0.00718935 0.00587075 0.0041661 0.00292146 0.00213066 0.00153288 0.00104323 0.000445387 0 0 
0 0 0.000231557 0.000566338 0.000889289 0.00140125 0.00219929 0.00335594 0.0046472 0.00545256 0.00529385 0.00470712 0.00537909 0.00800885 0.0102676 0.00880202 0.00134833 -0.0103278 -0.0179549 -0.0161629 -0.00903559 -0.00326472 -0.00371969 -0.0110786 -0.0217356 -0.031707 -0.0365905 -0.0335497 -0.0243027 -0.0139437 -0.0076819 -0.00729637 -0.00972851 -0.00996158 -0.00416371 0.00849294 0.0262567 0.0464826 0.0670272 0.0863406 0.103114 0.115825 0.123509 0.126068 0.124482 0.120341 0.11485 0.108294 0.100004 0.0885653 0.0729004 0.05277 0.0293091 0.0048792 -0.0179586 -0.0372413 -0.0519218 -0.061747 -0.0668859 -0.0677694 -0.0649675 -0.0591571 -0.0511514 -0.0416239 -0.0314076 -0.0210224 -0.0110136 -0.00174498 0.00652094 0.0136358 0.019494 0.0241525 0.0275858 0.0297612 0.0307683 0.0306251 0.0292047 0.0267608 0.0232231 0.018804 0.013699 0.00802427 0.00204077 -0.00410277 -0.0102969 -0.0164229 -0.0224828 -0.0284134 -0.0339465 -0.0384976 -0.0412184 -0.0414499 -0.0392713 -0.0359259 -0.0336565 -0.0344866 -0.0389245 -0.0453608 -0.0509329 -0.0535404 -0.0531236 -0.050993 -0.0485247 -0.0461025 -0.0437212 -0.0417718 -0.0407731 -0.0405173 -0.0400223 -0.0385574 -0.0363138 -0.0336654 -0.0304062 -0.0262121 -0.0212321 -0.0158836 -0.0102454 -0.00422482 0.0018898 0.00767506 0.0129789 0.0175585 0.0211088 0.0233565 0.0242903 0.0243169 0.0237061 0.0231334 0.0231319 0.0237505 0.0244006 0.0239825 0.0209944 0.0141461 0.00296361 -0.01185 -0.0284213 -0.0440703 -0.0564558 -0.0641821 -0.0674914 -0.0676064 -0.0654666 -0.0608671 -0.0524408 -0.0387413 -0.0195578 0.00361503 0.0281448 0.0513164 0.0710088 0.0862823 0.0973069 0.105104 0.111307 0.116759 0.121069 0.122736 0.120101 0.112348 0.099754 0.0832832 0.0643832 0.0443291 0.0244878 0.00696402 -0.00558006 -0.0112908 -0.0108944 -0.00821418 -0.00828332 -0.0142772 -0.0243945 -0.0335372 -0.0364414 -0.0315777 -0.0216854 -0.0111246 -0.00386278 -0.0033403 -0.00900791 -0.0159999 -0.0177743 -0.0102815 0.00119762 0.00851551 0.00994592 0.00771961 0.00514906 0.00451914 0.00513844 0.00533723 0.00458041 0.00334181 0.00223727 0.00149239 0.00102243 0.000449531 0 0 
0 0 0.000228577 0.000555667 0.000886203 0.00145552 0.00228651 0.0032338 0.00407475 0.00485895 0.00605909 0.00803749 0.00983795 0.00918126 0.00505276 -0.000982349 -0.00498905 -0.00279889 0.00282332 0.00422228 -0.00114094 -0.0113196 -0.0222674 -0.029048 -0.0294346 -0.0239774 -0.0161648 -0.0117519 -0.0137148 -0.0203426 -0.0266495 -0.0276225 -0.0218245 -0.0110273 0.00190595 0.0149173 0.0275534 0.0399458 0.0523823 0.0649754 0.0778371 0.0914872 0.106192 0.121388 0.135243 0.14507 0.148217 0.143164 0.130187 0.111288 0.0892776 0.0667692 0.0456209 0.0266931 0.0100629 -0.00471793 -0.0184001 -0.0314659 -0.0438426 -0.0546947 -0.063006 -0.0677084 -0.0682535 -0.0646364 -0.0576043 -0.0480286 -0.0370091 -0.0255484 -0.0145412 -0.00437561 0.00461799 0.012422 0.0191339 0.0247058 0.0293415 0.0328256 0.0350791 0.0359532 0.0353461 0.0331912 0.0295672 0.0245879 0.0184278 0.0112888 0.00341074 -0.00510089 -0.0139369 -0.0227882 -0.0308973 -0.0373387 -0.0413049 -0.0426763 -0.0425939 -0.0430863 -0.0462135 -0.0525353 -0.0606575 -0.0679681 -0.0724304 -0.0738742 -0.0733779 -0.0718955 -0.069336 -0.0655181 -0.0609823 -0.0569268 -0.0538261 -0.0509094 -0.0473053 -0.0428763 -0.0380515 -0.0327274 -0.0264827 -0.0193237 -0.011744 -0.00410188 0.0036748 0.011188 0.0179416 0.0235071 0.0276863 0.0301807 0.0308255 0.0298632 0.0278916 0.0255831 0.0237044 0.0225859 0.0221724 0.0212522 0.0184076 0.0120713 0.00126887 -0.0136425 -0.0310831 -0.0482855 -0.0622689 -0.0706728 -0.072674 -0.0689977 -0.0616281 -0.0525932 -0.0429283 -0.0323911 -0.0204158 -0.00673545 0.00851742 0.0252532 0.0436388 0.0640378 0.0859691 0.10763 0.126248 0.139043 0.14406 0.140971 0.131105 0.11716 0.102081 0.0876967 0.074505 0.0621101 0.0498862 0.0377123 0.0255131 0.0131168 0.000435952 -0.0121106 -0.0225111 -0.0279861 -0.0268197 -0.0204199 -0.0137779 -0.011751 -0.0160773 -0.0237044 -0.0290331 -0.0286207 -0.0219401 -0.0111576 -0.00117312 0.00408888 0.00269417 -0.00286636 -0.00504591 -0.00111105 0.00482516 0.00889875 0.00956204 0.00781154 0.00589372 0.00474723 0.00401035 0.00321637 0.00231892 0.00154117 0.00101267 0.000432374 0 0 
0 0 0.000219404 0.000541783 0.000873152 0.00139845 0.00210156 0.00298645 0.0041928 0.00583258 0.00757938 0.00845511 0.00755064 0.00564451 0.00489826 0.00670346 0.00989626 0.0093838 0.00202036 -0.00801749 -0.0160775 -0.0196627 -0.0174978 -0.012529 -0.00914029 -0.0107823 -0.0181618 -0.0268131 -0.0313342 -0.0293388 -0.0222475 -0.0140339 -0.00775651 -0.0036946 -0.000696501 0.00309424 0.00892764 0.0176348 0.0301186 0.0466746 0.0667462 0.0882349 0.108193 0.123869 0.133679 0.137762 0.13765 0.135016 0.130968 0.125444 0.117729 0.106657 0.0914307 0.0721977 0.050079 0.0268886 0.0043279 -0.0162815 -0.0343382 -0.0495245 -0.0615975 -0.0702063 -0.0749561 -0.07567 -0.0722447 -0.0649839 -0.0545115 -0.0417128 -0.0277419 -0.0137021 -0.000735113 0.0104791 0.0194037 0.0258088 0.0299013 0.0317615 0.0316549 0.0298992 0.0266822 0.0222977 0.0169796 0.010923 0.00428854 -0.00277204 -0.0102127 -0.0179076 -0.0255356 -0.0325735 -0.038144 -0.04148 -0.042388 -0.0419898 -0.0422073 -0.0450102 -0.0511059 -0.0591315 -0.066607 -0.0716053 -0.073935 -0.0747513 -0.0750131 -0.0742504 -0.0718295 -0.0678283 -0.0634495 -0.0597415 -0.0565786 -0.0532471 -0.0496366 -0.0460555 -0.0424975 -0.0384966 -0.0336162 -0.0281457 -0.0223191 -0.0161121 -0.00954582 -0.00307959 0.00291982 0.00836295 0.0130088 0.0166631 0.0195663 0.022211 0.0249078 0.0278795 0.0308149 0.0326626 0.0318766 0.0267042 0.0161508 0.000389393 -0.0190664 -0.0393481 -0.0574772 -0.0708232 -0.0779733 -0.0790003 -0.0751577 -0.0682965 -0.0595173 -0.0489628 -0.0356747 -0.0186091 0.00209827 0.0250629 0.0481527 0.0695432 0.087894 0.102608 0.113521 0.121146 0.126512 0.13043 0.132999 0.133164 0.129165 0.119661 0.104459 0.0850074 0.0638667 0.0441189 0.0278649 0.0157719 0.00754565 0.00220981 -0.00116091 -0.00383322 -0.00769327 -0.013884 -0.0219864 -0.0289621 -0.0307425 -0.0260124 -0.0173905 -0.01013 -0.00853028 -0.0119015 -0.0168508 -0.019033 -0.0155955 -0.00772625 0.00207826 0.00925761 0.00969878 0.00650354 0.0046987 0.00543145 0.00732037 0.00823238 0.0073981 0.00570836 0.00412384 0.00296678 0.00212907 0.00147483 0.000985716 0.000420793 0 0 
0 0 0.000205268 0.000501754 0.000795283 0.00127005 0.00200476 0.00309446 0.00449271 0.00586818 0.00681314 0.00738266 0.00845086 0.0106216 0.01268 0.0121444 0.00703888 -0.000538132 -0.00511149 -0.00552534 -0.00367141 -0.00140313 -0.00289518 -0.00972632 -0.0191133 -0.0266012 -0.027791 -0.0229493 -0.0165472 -0.0123642 -0.0120466 -0.0141368 -0.0158263 -0.0155688 -0.0124247 -0.00612358 0.00342449 0.0160072 0.0303325 0.0447079 0.0577009 0.0689452 0.0796508 0.0913536 0.10495 0.119883 0.134085 0.144877 0.14994 0.148042 0.139489 0.125628 0.1083 0.0889495 0.0687081 0.0483468 0.0284354 0.00930537 -0.00875736 -0.0254872 -0.0405533 -0.0532538 -0.0629345 -0.0690286 -0.0713866 -0.070079 -0.06538 -0.0579495 -0.0484009 -0.0377122 -0.0266559 -0.0160841 -0.00648082 0.00179723 0.00871788 0.0142296 0.0184792 0.0215615 0.0234298 0.0241602 0.0237058 0.0219904 0.0189332 0.0145895 0.00899074 0.00240634 -0.00442466 -0.0106928 -0.0154278 -0.018343 -0.0202298 -0.0228655 -0.0280711 -0.0363789 -0.0466132 -0.056161 -0.06312 -0.0672406 -0.0697161 -0.0714952 -0.0724189 -0.0714728 -0.0684337 -0.0639827 -0.0591159 -0.0539918 -0.0483284 -0.0420802 -0.0358975 -0.0300228 -0.0242896 -0.0183784 -0.0122936 -0.00628487 -0.000456664 0.00501464 0.00986007 0.0135404 0.0159422 0.0171295 0.017106 0.0163807 0.0158451 0.0161042 0.0171816 0.0186973 0.0193406 0.0171771 0.0107726 -0.000435806 -0.0156845 -0.0329413 -0.0494015 -0.0627291 -0.0713536 -0.0748922 -0.0736584 -0.0687344 -0.0611809 -0.0517023 -0.040464 -0.0270485 -0.0111541 0.00693325 0.0262505 0.0458738 0.0654651 0.0849648 0.104009 0.121316 0.135147 0.143515 0.145263 0.14024 0.129657 0.115758 0.101243 0.088126 0.0768573 0.0665191 0.0556334 0.0431355 0.0293094 0.0155072 0.00335856 -0.00585745 -0.011962 -0.0149508 -0.015078 -0.0131764 -0.0108912 -0.0109841 -0.0150451 -0.0213822 -0.0261832 -0.025066 -0.0177849 -0.00867066 -0.00207046 -0.000724579 -0.00308565 -0.00503256 -0.00473428 -0.000344127 0.00702631 0.0119824 0.0124518 0.0103857 0.00823388 0.00718945 0.00664805 0.00574383 0.00441729 0.00306788 0.00202437 0.00133559 0.000896393 0.000387525 0 0 
0 0 0.000179757 0.000440442 0.000710203 0.00119094 0.00194911 0.00296034 0.00412192 0.00543288 0.00711688 0.00939001 0.0116831 0.012407 0.0106542 0.00754398 0.00587423 0.0073088 0.00895976 0.00781706 0.00328215 -0.00524645 -0.0143424 -0.0188394 -0.0175943 -0.0128084 -0.00931834 -0.0104827 -0.0147445 -0.0191361 -0.0211212 -0.0198094 -0.016186 -0.0108887 -0.00467985 0.00154985 0.00705802 0.0112279 0.0149564 0.0202382 0.0292214 0.0430999 0.0610176 0.0805215 0.0988009 0.113444 0.123603 0.129746 0.132838 0.133629 0.13223 0.128443 0.121595 0.111279 0.0974785 0.0805993 0.0616163 0.0416823 0.0216696 0.00209883 -0.0166794 -0.0343535 -0.0503129 -0.0639345 -0.074253 -0.0806396 -0.0824946 -0.0795905 -0.0721026 -0.0606406 -0.0463431 -0.0305872 -0.0148823 -0.000577241 0.0114491 0.0206065 0.0267657 0.0301252 0.0309478 0.0296417 0.0265496 0.0218904 0.0159138 0.00881043 0.000912041 -0.00717282 -0.014474 -0.0202323 -0.0240749 -0.0267399 -0.029966 -0.0357505 -0.0446073 -0.0553651 -0.0655859 -0.0732571 -0.0781194 -0.0814279 -0.0842043 -0.0863621 -0.0869513 -0.0856245 -0.0828846 -0.0794728 -0.0753703 -0.0702512 -0.0640146 -0.0571681 -0.0502998 -0.0436057 -0.0370066 -0.030547 -0.024021 -0.0174154 -0.0108341 -0.004564 0.00126523 0.00639844 0.0108545 0.0148364 0.018732 0.022964 0.0276636 0.0321812 0.035096 0.0345396 0.0285527 0.0161282 -0.00200875 -0.0236758 -0.045543 -0.0642873 -0.0777305 -0.0849636 -0.0862216 -0.082281 -0.0741422 -0.0629096 -0.0494672 -0.0345836 -0.0181966 -0.000221949 0.0191558 0.0391383 0.0587772 0.0771732 0.0935801 0.107275 0.117641 0.124469 0.128104 0.129451 0.128845 0.126156 0.120417 0.110634 0.0963674 0.0785222 0.0593596 0.0419417 0.0285817 0.0200972 0.0152005 0.0117134 0.00776032 0.00244055 -0.00361459 -0.00960888 -0.0147463 -0.0182124 -0.0194678 -0.0174354 -0.0130394 -0.00873503 -0.00766121 -0.0111936 -0.0160348 -0.0173834 -0.0130922 -0.00428688 0.00396601 0.00828398 0.00927702 0.00753267 0.00600435 0.00755071 0.010544 0.0122163 0.0114719 0.00920031 0.00696245 0.00531867 0.00404921 0.0029291 0.00196041 0.00124691 0.000802758 0.000338598 0 0 
0 0 0.000151511 0.000380551 0.000630549 0.00106719 0.00172655 0.0026571 0.00398114 0.00579476 0.00792224 0.0097337 0.0105628 0.0108697 0.0119768 0.0142717 0.0161411 0.0146305 0.00944405 0.00291825 -0.00314204 -0.00530307 -0.00282241 -0.000432593 -0.0015529 -0.00682833 -0.0136324 -0.0175438 -0.0175574 -0.0147918 -0.0108433 -0.00755186 -0.00517661 -0.00416705 -0.00476622 -0.005795 -0.00575812 -0.00247601 0.00495093 0.0156648 0.0278162 0.0392443 0.0489633 0.0576629 0.0666882 0.0773598 0.0898341 0.103179 0.11567 0.12548 0.131249 0.132463 0.12917 0.121905 0.111229 0.097443 0.0810173 0.0625143 0.0426817 0.0224924 0.00268358 -0.015917 -0.0326025 -0.0467187 -0.0576719 -0.0653286 -0.0696257 -0.0707421 -0.0687429 -0.0637686 -0.05616 -0.046446 -0.0354657 -0.024103 -0.0133373 -0.0038614 0.00390913 0.00979938 0.0139078 0.0163394 0.0172705 0.0167813 0.0148794 0.011793 0.00800717 0.00426197 0.00139009 -0.000303168 -0.00147467 -0.00376893 -0.00898234 -0.0177904 -0.0290576 -0.0401072 -0.0488788 -0.0548821 -0.0593127 -0.0632801 -0.0667865 -0.0688504 -0.0688998 -0.0674024 -0.0650935 -0.0621063 -0.0580683 -0.05268 -0.0461414 -0.0387367 -0.0310667 -0.0235908 -0.0168399 -0.0108284 -0.00552165 -0.000999433 0.00255956 0.00512622 0.00684097 0.00787552 0.00874484 0.0101703 0.0126413 0.0161671 0.0198297 0.0218947 0.0203451 0.0135556 0.0012369 -0.0151635 -0.0329437 -0.049113 -0.0615439 -0.0694063 -0.0732098 -0.0736738 -0.0712276 -0.0659411 -0.0576198 -0.046495 -0.0329156 -0.0172418 0.000488754 0.0199051 0.0400093 0.0596981 0.0779308 0.0941712 0.107935 0.118706 0.125949 0.129203 0.128093 0.122619 0.113217 0.101043 0.087929 0.0757477 0.0654304 0.0567881 0.0484939 0.0391465 0.0280271 0.0160539 0.0055051 -0.00172434 -0.00484471 -0.00473232 -0.00361836 -0.00299456 -0.00400927 -0.00637933 -0.00961802 -0.0134271 -0.0160815 -0.0159846 -0.0121826 -0.00558501 -0.000483676 0.00052355 -0.00190769 -0.00441945 -0.0023729 0.00350027 0.00981859 0.0148092 0.0161993 0.0142592 0.01192 0.0107611 0.010415 0.0095751 0.00777912 0.00568671 0.00391222 0.00262539 0.00173237 0.00111305 0.000709894 0.000294324 0 0 
0 0 0.000123712 0.000313195 0.000520806 0.000894578 0.00152288 0.00251599 0.00390294 0.00554191 0.00723123 0.00900912 0.0113812 0.0144475 0.0168765 0.0170709 0.0146584 0.0114394 0.00976879 0.0099539 0.0116805 0.0120641 0.0074533 -1.50692e-05 -0.00610652 -0.00823219 -0.00620096 -0.00319423 -0.00149214 -0.00129569 -0.00268278 -0.00474582 -0.00683678 -0.00803569 -0.00686051 -0.00314483 0.00213337 0.00713039 0.0100259 0.0110095 0.0115911 0.0141331 0.0204793 0.0308805 0.0441754 0.0584746 0.0720679 0.084063 0.0940555 0.102257 0.108686 0.113104 0.115036 0.114012 0.109996 0.102913 0.0931797 0.0812037 0.0675388 0.052682 0.0368065 0.0200699 0.00250416 -0.0153965 -0.0327615 -0.0486326 -0.0619823 -0.0719613 -0.0779555 -0.0793865 -0.0760615 -0.0681439 -0.0562472 -0.0415712 -0.0256486 -0.0100553 0.00389091 0.0152584 0.0235377 0.0286122 0.0305675 0.029836 0.0268075 0.0223148 0.0174085 0.0130143 0.00963904 0.006793 0.00285964 -0.00382724 -0.0140764 -0.02683 -0.0395751 -0.0500509 -0.0577146 -0.0635748 -0.0688704 -0.0737313 -0.0773154 -0.0789214 -0.0788435 -0.0776084 -0.0755551 -0.0724455 -0.0681923 -0.062716 -0.0558127 -0.0474547 -0.0382882 -0.0291058 -0.0204012 -0.0123684 -0.00522017 0.000857506 0.00583623 0.0101762 0.0142369 0.0184013 0.0232948 0.0290225 0.0347246 0.038808 0.0389238 0.0330077 0.0200832 0.00111328 -0.021174 -0.043162 -0.0614737 -0.0742518 -0.0811882 -0.0830179 -0.0805769 -0.0740257 -0.0635014 -0.0494196 -0.0329223 -0.015612 0.00146019 0.0180621 0.0343462 0.0502555 0.065259 0.0788995 0.0907954 0.100571 0.107767 0.111837 0.112882 0.11109 0.106931 0.100751 0.0927183 0.0828156 0.0710482 0.0577293 0.0436857 0.0305935 0.0203578 0.0141376 0.0117299 0.0112609 0.0104153 0.00759219 0.0025681 -0.0027774 -0.00657233 -0.00776539 -0.00646394 -0.00420649 -0.00197306 -0.000488879 -0.000653033 -0.00238661 -0.00540541 -0.00743872 -0.00539615 0.000560235 0.00788335 0.0123861 0.0119629 0.0102356 0.0100234 0.0116215 0.0147413 0.0170516 0.0167951 0.014337 0.0112622 0.00889073 0.0071197 0.00544968 0.00383937 0.00248439 0.00152381 0.000929995 0.000587432 0.000243283 0 0 
0 0 9.26357e-05 0.000238463 0.000409097 0.000747403 0.00133203 0.00220662 0.00339036 0.00497237 0.00712897 0.00992515 0.0128124 0.0146974 0.0154279 0.0160623 0.0176279 0.0201267 0.0217849 0.0209295 0.0165458 0.0100186 0.00634426 0.00701579 0.00944294 0.0110558 0.00985338 0.00680805 0.00381988 0.00143293 0.00043011 0.00119744 0.00343498 0.00654103 0.00837258 0.00768118 0.00456646 0.000594098 -0.00164597 -0.000716936 0.00344837 0.00953938 0.0158514 0.0217034 0.0270815 0.0330378 0.0403806 0.0493986 0.0597777 0.0706345 0.0810311 0.0903868 0.0980564 0.103779 0.107078 0.107602 0.104797 0.0982726 0.0878955 0.074182 0.0579825 0.0402439 0.0219804 0.00397921 -0.0127833 -0.0276271 -0.039927 -0.0494772 -0.0562613 -0.0604213 -0.0619035 -0.0605847 -0.0563412 -0.0492386 -0.0398844 -0.0291353 -0.0180976 -0.00784351 0.000651089 0.00678192 0.0103582 0.0115704 0.0110246 0.00964642 0.0085025 0.00803907 0.0078473 0.00640927 0.00192214 -0.00650249 -0.017865 -0.0298132 -0.040056 -0.0478355 -0.0540642 -0.0598082 -0.0653431 -0.0698413 -0.0726754 -0.0739992 -0.0741431 -0.0732818 -0.0712381 -0.0682532 -0.0645017 -0.0597284 -0.0535173 -0.0458489 -0.0375537 -0.029299 -0.0214927 -0.0145956 -0.00913922 -0.0051747 -0.0020513 0.000998627 0.00468017 0.00950355 0.0155377 0.0215405 0.025447 0.0249771 0.0184845 0.00581509 -0.0111643 -0.029093 -0.0447166 -0.0559302 -0.0623372 -0.0649156 -0.0650229 -0.0631977 -0.0590356 -0.0518111 -0.0412396 -0.0279316 -0.0128531 0.00323624 0.0203106 0.0381744 0.0561926 0.072793 0.0865816 0.096815 0.103354 0.106316 0.105894 0.102632 0.0969522 0.0893542 0.0800931 0.0697059 0.0588793 0.0486487 0.0397787 0.032565 0.0266262 0.0213056 0.0155523 0.00933828 0.00333027 -0.000840904 -0.00180605 0.000301591 0.00420196 0.00732398 0.00813652 0.00648612 0.00356108 0.00143955 0.000714409 0.00172856 0.00415583 0.00719047 0.0102241 0.0113902 0.0097802 0.0073727 0.00667411 0.0102628 0.016666 0.0209675 0.0217748 0.0201038 0.0176045 0.0160244 0.0153625 0.0146001 0.012701 0.00981878 0.00703854 0.00490082 0.00333838 0.00217771 0.0013293 0.000774131 0.000464788 0.000185929 0 0 
0 0 6.2469e-05 0.000168866 0.000304488 0.000576002 0.00104425 0.00180531 0.00301095 0.00476529 0.00697094 0.00929274 0.0115159 0.0141545 0.017695 0.0214734 0.0241887 0.0245034 0.022543 0.0201629 0.019712 0.0224066 0.0249264 0.0240814 0.0208108 0.0168007 0.0141639 0.0137168 0.0143982 0.0161173 0.0179422 0.0184168 0.016901 0.0130935 0.00866501 0.00572695 0.0051405 0.00664351 0.00819457 0.00822701 0.00637864 0.00342883 0.00139092 0.00156473 0.00467185 0.0104345 0.0180629 0.027006 0.036792 0.0471276 0.0577765 0.0681868 0.0777698 0.0857101 0.0914134 0.094649 0.0955391 0.0941727 0.090745 0.085276 0.0777676 0.0681915 0.0564351 0.0423234 0.0259954 0.00810219 -0.0102976 -0.0279821 -0.0438904 -0.057158 -0.0671806 -0.0734546 -0.0755848 -0.0733296 -0.066898 -0.0569718 -0.0446378 -0.0314079 -0.0188917 -0.00837055 -0.000664108 0.00422877 0.00688891 0.00830731 0.00929491 0.00963816 0.00820614 0.00342964 -0.00548996 -0.0176238 -0.0306605 -0.042194 -0.0514799 -0.0591151 -0.0663525 -0.0732709 -0.0792268 -0.0835782 -0.0863769 -0.0880187 -0.0885639 -0.087533 -0.0852991 -0.0822131 -0.0782958 -0.0731354 -0.0664853 -0.0586058 -0.0501611 -0.0413053 -0.0325725 -0.0245382 -0.0176769 -0.0115761 -0.00551862 0.00110448 0.00849258 0.0160877 0.022226 0.0243059 0.0201295 0.00891814 -0.0083879 -0.0287748 -0.0483632 -0.0639163 -0.0739249 -0.0786455 -0.079157 -0.0763801 -0.0703532 -0.0605332 -0.0467054 -0.0295157 -0.0106003 0.00818541 0.0255438 0.0411449 0.0550761 0.0672465 0.0772713 0.0847798 0.090006 0.0933538 0.0949035 0.0941723 0.0908661 0.0850446 0.0770513 0.0674864 0.0570667 0.0464445 0.0361668 0.026457 0.0175539 0.00993191 0.0042229 0.00122554 0.00112285 0.00313819 0.00601568 0.00774046 0.00761914 0.0060432 0.00461631 0.00532178 0.00840908 0.012934 0.0168126 0.0183838 0.0179897 0.0162711 0.0146507 0.0140673 0.0145302 0.0170872 0.0210138 0.0241645 0.0249721 0.0224539 0.0197685 0.0201889 0.0224977 0.0243962 0.024048 0.0213424 0.0175901 0.0140638 0.0114285 0.0092076 0.00689683 0.00470675 0.00296912 0.00178165 0.00104007 0.000594319 0.000346469 0.000133715 0 0 
0 0 3.47854e-05 9.96946e-05 0.000189614 0.000388986 0.000783024 0.00148489 0.00256784 0.00403932 0.00594507 0.00848758 0.011944 0.0159549 0.0194076 0.0218014 0.0233474 0.0250242 0.0281687 0.0321384 0.034638 0.0333965 0.0296916 0.0272307 0.0269057 0.0282245 0.0300937 0.030969 0.0309039 0.0293182 0.0260493 0.0227278 0.0204673 0.0202867 0.0215233 0.0219588 0.0201047 0.015484 0.0093887 0.00389419 0.000138239 -0.00134719 -0.00132092 -0.000509812 0.000769941 0.00266952 0.00567053 0.0100512 0.0158849 0.0229827 0.0308914 0.0395575 0.0488407 0.0587143 0.0688222 0.0785592 0.0870285 0.0931472 0.0960134 0.0946962 0.0890794 0.0794256 0.0665627 0.0512735 0.0344327 0.0167416 -0.000967157 -0.0177692 -0.0330284 -0.0462714 -0.0573748 -0.0662513 -0.0728746 -0.0769329 -0.078052 -0.0761015 -0.0712286 -0.0640123 -0.0555946 -0.047087 -0.0393058 -0.0326818 -0.0269169 -0.0219325 -0.0179397 -0.0161683 -0.0181776 -0.0246536 -0.0347222 -0.0461858 -0.0565597 -0.0649121 -0.0719946 -0.0788381 -0.0857254 -0.0919156 -0.0967558 -0.100331 -0.103018 -0.104674 -0.105026 -0.103949 -0.102099 -0.099601 -0.0962039 -0.0915883 -0.0859844 -0.0798368 -0.0733189 -0.0663832 -0.0593272 -0.0523247 -0.0452471 -0.0377469 -0.0294007 -0.0204702 -0.0121096 -0.00627887 -0.00532821 -0.011038 -0.0230444 -0.0392775 -0.056139 -0.0700433 -0.0788852 -0.0825553 -0.0823999 -0.0799344 -0.075832 -0.0697675 -0.0610089 -0.049099 -0.0344644 -0.0180059 -0.000778362 0.0166018 0.0338529 0.0506514 0.0662866 0.0794765 0.0890548 0.094306 0.0954861 0.0928075 0.0868149 0.0782301 0.0683232 0.0581632 0.048355 0.0391354 0.0304826 0.0226 0.0155603 0.0097529 0.00541385 0.00248917 0.000675775 -0.000646809 -0.00154686 -0.0017332 -0.00034529 0.00330115 0.00877856 0.0148944 0.0195793 0.0214849 0.0211218 0.0199606 0.0202066 0.0225405 0.0259318 0.0292638 0.0308962 0.0310206 0.0301343 0.0282533 0.0269162 0.0271958 0.0295917 0.0332147 0.03441 0.0319314 0.0280068 0.0248889 0.0232091 0.0216576 0.0192749 0.0158427 0.0118552 0.00842051 0.00589143 0.00399555 0.00253606 0.00146599 0.000777263 0.000399051 0.000218769 8.07386e-05 0 0 
0 0 7.94404e-06 3.32722e-05 8.44955e-05 0.000225796 0.000521939 0.00104663 0.00191116 0.00330661 0.00542196 0.00825557 0.011433 0.0145653 0.0180413 0.0223438 0.0273847 0.0325321 0.0358016 0.0361597 0.0352026 0.0356295 0.0383891 0.041158 0.0425354 0.0424291 0.0407728 0.0386409 0.0365827 0.0353286 0.035942 0.0373226 0.0379446 0.0362514 0.0317011 0.0259815 0.0208335 0.0174225 0.0155656 0.0137956 0.0112673 0.00749676 0.00310045 -0.000952057 -0.00403137 -0.00557166 -0.0056987 -0.00428079 -0.0012052 0.00361502 0.0103878 0.0186625 0.0279132 0.0373637 0.046171 0.0537926 0.0598058 0.064439 0.0676112 0.0694305 0.0695141 0.0675258 0.0630938 0.0558957 0.0456784 0.0323694 0.0161319 -0.00217548 -0.0215262 -0.0406492 -0.0583708 -0.0740333 -0.087061 -0.0970725 -0.103768 -0.106923 -0.106377 -0.102315 -0.0953798 -0.086172 -0.075496 -0.063953 -0.052372 -0.0419506 -0.0343742 -0.0315233 -0.0342109 -0.0415784 -0.051202 -0.0605329 -0.0683401 -0.0751053 -0.0819079 -0.0889942 -0.0956118 -0.101089 -0.105428 -0.109054 -0.11186 -0.11333 -0.113416 -0.112492 -0.111022 -0.108802 -0.105552 -0.10134 -0.0965511 -0.0915172 -0.0861707 -0.0803058 -0.0735942 -0.0656341 -0.0562793 -0.0458359 -0.0353484 -0.0268404 -0.0228449 -0.0255753 -0.035679 -0.0518279 -0.0707162 -0.0882532 -0.101399 -0.108839 -0.111301 -0.11015 -0.10639 -0.100099 -0.0906445 -0.0774449 -0.0607611 -0.0417151 -0.0216309 -0.00195172 0.0161833 0.0321866 0.0455211 0.0559153 0.0632207 0.067505 0.0691861 0.0689696 0.0672995 0.0642873 0.0596133 0.0534677 0.0458979 0.0372823 0.0278994 0.0186606 0.0103841 0.00368232 -0.00107729 -0.00410504 -0.00552827 -0.00542625 -0.0040019 -0.00110062 0.00277195 0.00700391 0.0106225 0.0130582 0.0147891 0.0166858 0.0201462 0.0253473 0.0311195 0.0356728 0.0373809 0.0367575 0.0354477 0.0348894 0.0362427 0.0383805 0.0404933 0.0420849 0.0421608 0.0407854 0.0380501 0.0353084 0.0348934 0.0358257 0.0354677 0.032236 0.0271494 0.0221659 0.0179104 0.0144665 0.0113521 0.00819618 0.00538041 0.00327652 0.00189044 0.00103311 0.000515158 0.000228688 0.000101646 2.94281e-05 0 0 
0 0 -1.5257e-05 -2.41798e-05 -1.05566e-05 5.60174e-05 0.000231682 0.000627292 0.00140212 0.00267233 0.0044661 0.00680433 0.00988394 0.0141018 0.0192619 0.0244527 0.0288662 0.031884 0.0345441 0.0387174 0.043883 0.0479025 0.0491143 0.0484558 0.0476896 0.0470493 0.0474593 0.0487185 0.050354 0.0515884 0.0505715 0.0473347 0.0431952 0.0395921 0.037878 0.0371262 0.0358246 0.0328143 0.0275363 0.0211375 0.0145588 0.00857966 0.00354498 -0.00100279 -0.00491323 -0.00818214 -0.0105043 -0.0116669 -0.0118957 -0.0113235 -0.0102331 -0.00860384 -0.00616174 -0.00236842 0.00322046 0.0106434 0.0195586 0.0289633 0.0378721 0.045116 0.0496032 0.0506747 0.0479549 0.0417962 0.032564 0.0208401 0.00712312 -0.00805254 -0.02407 -0.0401141 -0.0554158 -0.0694722 -0.0819875 -0.0927975 -0.101864 -0.108986 -0.113869 -0.116101 -0.115212 -0.110716 -0.102543 -0.0912482 -0.0784569 -0.066608 -0.0584758 -0.0558197 -0.0584237 -0.0642077 -0.070627 -0.0762736 -0.0814 -0.0869248 -0.0931534 -0.0992628 -0.104514 -0.108912 -0.112781 -0.116127 -0.118479 -0.11946 -0.1195 -0.11896 -0.117948 -0.116197 -0.113779 -0.110807 -0.107431 -0.103797 -0.0996905 -0.0944184 -0.0872225 -0.077713 -0.066501 -0.0552544 -0.046641 -0.043616 -0.0480939 -0.0597995 -0.0761545 -0.0931836 -0.107109 -0.115673 -0.118931 -0.118293 -0.115369 -0.110881 -0.104638 -0.096023 -0.0847738 -0.0711885 -0.0560185 -0.0400304 -0.0238639 -0.00803044 0.00699692 0.0206947 0.032461 0.0416895 0.047733 0.0502464 0.0491287 0.0448238 0.0377757 0.02896 0.0195553 0.0107597 0.00351483 -0.0019942 -0.0057834 -0.00823126 -0.00980618 -0.0108444 -0.0114417 -0.0112805 -0.0102174 -0.00806105 -0.00499603 -0.00131322 0.00301923 0.00786813 0.0137403 0.0203088 0.0267698 0.0320828 0.03511 0.0363605 0.0370536 0.0387636 0.0423926 0.0466309 0.0499253 0.0510252 0.049834 0.0482558 0.0470109 0.0465911 0.047174 0.0479281 0.0485304 0.047337 0.0433731 0.038282 0.0341741 0.0315517 0.0285766 0.0242207 0.0190988 0.0139952 0.00981772 0.00676174 0.00443686 0.0026539 0.00139058 0.000618622 0.000224397 5.19284e-05 -6.34905e-06 -1.47814e-05 0 0 
0 0 -3.48278e-05 -7.57665e-05 -0.000100043 -9.68485e-05 -8.05056e-06 0.000255364 0.000787517 0.00172627 0.00331422 0.00580274 0.0092719 0.0133487 0.0175464 0.0220407 0.0271367 0.0333313 0.0401444 0.0451209 0.0475373 0.0487774 0.0504937 0.053187 0.0560189 0.0587756 0.0607363 0.0609851 0.0596956 0.0572864 0.0555205 0.0553107 0.0557397 0.0555148 0.0529016 0.0478058 0.0414098 0.0348135 0.0289678 0.0234902 0.0179134 0.0118193 0.0050611 -0.00185681 -0.00886117 -0.0157148 -0.0223547 -0.0287366 -0.0342463 -0.0384646 -0.0406242 -0.0404686 -0.0380871 -0.0339201 -0.028689 -0.0228408 -0.0168726 -0.0108095 -0.00473799 0.00145411 0.00764839 0.0133693 0.018075 0.0208791 0.0212805 0.018736 0.013028 0.0038937 -0.00830437 -0.0228675 -0.0388041 -0.0550591 -0.0707516 -0.0852556 -0.0982208 -0.109485 -0.118699 -0.125373 -0.128609 -0.127519 -0.121679 -0.111783 -0.0999084 -0.089069 -0.0817414 -0.0788067 -0.0790847 -0.0807825 -0.0826254 -0.0848907 -0.0884031 -0.0932288 -0.0985315 -0.10347 -0.107762 -0.111813 -0.115545 -0.118512 -0.120323 -0.121203 -0.121474 -0.121255 -0.120542 -0.119455 -0.117984 -0.116017 -0.113376 -0.110016 -0.105311 -0.0985664 -0.0894151 -0.0786977 -0.068456 -0.0614671 -0.0604821 -0.0670672 -0.0800639 -0.096265 -0.111566 -0.122794 -0.128628 -0.129857 -0.128103 -0.124399 -0.118793 -0.110936 -0.100322 -0.0870879 -0.0717961 -0.055344 -0.0386682 -0.022714 -0.00843391 0.00348795 0.0125346 0.0182908 0.0208821 0.0204485 0.0175988 0.0129437 0.00740731 0.00145402 -0.00454096 -0.0104876 -0.0164469 -0.0222945 -0.0280911 -0.0333377 -0.0374902 -0.0397826 -0.0399248 -0.0378232 -0.0336812 -0.0282732 -0.0220435 -0.0156595 -0.00905453 -0.00226062 0.00448924 0.0112278 0.0173314 0.0229463 0.0283733 0.0341063 0.040581 0.0469032 0.0520408 0.0547201 0.0550072 0.0545817 0.0547707 0.0565506 0.0589758 0.0603201 0.0600819 0.0581214 0.0553836 0.0525708 0.0499052 0.0481965 0.0469526 0.0445703 0.0396612 0.0329468 0.0268483 0.0218226 0.0173878 0.0132373 0.00920627 0.00577004 0.00329824 0.00172081 0.000784796 0.000250298 -1.62506e-05 -0.000107019 -0.000106849 -5.5468e-05 0 0 
0 0 -5.09886e-05 -0.000117605 -0.000170875 -0.000224086 -0.000242421 -0.000153757 0.000185661 0.000986018 0.00240308 0.00448094 0.00722552 0.0107971 0.0156338 0.0216595 0.0280902 0.0338798 0.0381371 0.0422459 0.0476434 0.0534497 0.0586062 0.0622912 0.0645474 0.0655583 0.0656184 0.0659835 0.0671449 0.0688502 0.0696132 0.0677015 0.0633624 0.0575665 0.0517834 0.0468846 0.0420255 0.0365933 0.0296229 0.0212016 0.0119963 0.00233351 -0.00724911 -0.0167169 -0.0259811 -0.034459 -0.041987 -0.0479906 -0.0527146 -0.0563612 -0.0593484 -0.0620608 -0.0641411 -0.0652266 -0.0644408 -0.0613288 -0.0554143 -0.0469829 -0.0366713 -0.0253795 -0.0142166 -0.0040671 0.00406671 0.00965848 0.012287 0.0120183 0.00893178 0.0031287 -0.00517888 -0.0158152 -0.028158 -0.0416906 -0.0557059 -0.0697623 -0.0835315 -0.0967567 -0.108877 -0.119139 -0.126473 -0.130003 -0.129485 -0.125833 -0.120882 -0.11648 -0.113486 -0.111387 -0.109062 -0.106305 -0.104005 -0.103443 -0.105058 -0.108049 -0.111351 -0.114649 -0.118068 -0.121556 -0.124584 -0.12675 -0.128182 -0.129065 -0.129585 -0.1297 -0.129725 -0.129639 -0.129172 -0.127818 -0.12522 -0.120945 -0.114444 -0.105846 -0.0964214 -0.0885228 -0.0847187 -0.0868647 -0.0952502 -0.107959 -0.121256 -0.131692 -0.137295 -0.138068 -0.135388 -0.130724 -0.124728 -0.117207 -0.107781 -0.0965738 -0.0838035 -0.0700214 -0.0557475 -0.0415688 -0.0281566 -0.0162202 -0.0059817 0.00222712 0.00821485 0.0115049 0.0118061 0.00912557 0.00362626 -0.00426148 -0.0141304 -0.0250686 -0.036233 -0.0464725 -0.0547983 -0.0606193 -0.063729 -0.0644796 -0.0633138 -0.0612125 -0.058529 -0.0555613 -0.0520014 -0.0474864 -0.041708 -0.034454 -0.0261501 -0.0169847 -0.00753668 0.0020518 0.0116701 0.0207487 0.029008 0.0358517 0.0412331 0.0461006 0.0510087 0.0567471 0.0624885 0.0667482 0.0686532 0.0679099 0.0662794 0.065149 0.0648091 0.0647135 0.0637077 0.0614559 0.0578337 0.0527384 0.0470331 0.0417148 0.0376711 0.033467 0.0277673 0.0214227 0.0154836 0.0107101 0.00717556 0.00445921 0.00239849 0.000990383 0.000190151 -0.000155051 -0.00025089 -0.000239358 -0.000187989 -8.86987e-05 0 0 
0 0 -6.22184e-05 -0.000148732 -0.000229135 -0.000338767 -0.00044717 -0.000476201 -0.000313246 0.000153972 0.00108861 0.00276174 0.00546416 0.00932682 0.0139774 0.0188844 0.0240701 0.0300073 0.0374407 0.045442 0.0519095 0.0568646 0.0607813 0.0641113 0.0673415 0.0705307 0.0737343 0.0755968 0.0750755 0.0720159 0.0672334 0.0625639 0.0584812 0.0542747 0.0489703 0.0415869 0.0326161 0.0227033 0.0126326 0.00291285 -0.00672676 -0.016029 -0.0250331 -0.0333706 -0.0408743 -0.0479058 -0.0545213 -0.0611115 -0.0675234 -0.0732827 -0.0777432 -0.080324 -0.0807952 -0.0791426 -0.0758935 -0.0714967 -0.0663347 -0.0605786 -0.0540521 -0.046819 -0.0387135 -0.0299155 -0.0207726 -0.0119115 -0.00431287 0.00129474 0.00421706 0.00413484 0.000645956 -0.00622926 -0.0163182 -0.0290734 -0.0436862 -0.0594621 -0.0756279 -0.0915234 -0.106139 -0.118733 -0.128202 -0.134561 -0.138454 -0.141295 -0.143992 -0.146558 -0.147711 -0.145965 -0.14118 -0.134849 -0.129165 -0.125515 -0.123744 -0.123139 -0.123387 -0.124618 -0.1266 -0.128752 -0.130486 -0.131789 -0.132929 -0.133794 -0.134478 -0.135247 -0.136273 -0.137065 -0.136973 -0.135324 -0.131687 -0.125903 -0.118407 -0.111039 -0.106509 -0.107241 -0.114151 -0.126043 -0.139704 -0.151305 -0.158067 -0.159352 -0.156459 -0.151203 -0.144635 -0.136956 -0.127633 -0.116498 -0.103568 -0.0895401 -0.0744105 -0.0587525 -0.0433046 -0.0291054 -0.0169853 -0.0074157 -0.000552012 0.00334294 0.00379261 0.000877871 -0.00489335 -0.012442 -0.0210137 -0.0298464 -0.0384675 -0.0464767 -0.0535838 -0.0599512 -0.065591 -0.0706922 -0.0750362 -0.078197 -0.0797706 -0.0792902 -0.0767558 -0.0723897 -0.0668321 -0.0606827 -0.0543135 -0.0478361 -0.0408453 -0.0333315 -0.0250157 -0.0161215 -0.00699796 0.00246067 0.0120429 0.0220371 0.0319006 0.040813 0.0481269 0.0533325 0.0574758 0.0615044 0.0661897 0.0709446 0.0740279 0.0745579 0.0727062 0.0695543 0.0664013 0.0632047 0.0599362 0.056072 0.051191 0.0448155 0.0369393 0.0296187 0.0237871 0.0186774 0.0138348 0.00924595 0.0054294 0.00275703 0.00109825 0.00016717 -0.000303209 -0.000474216 -0.000455783 -0.000358531 -0.00025526 -0.000113906 0 0 
0 0 -6.94678e-05 -0.000170484 -0.000271093 -0.000421033 -0.000605419 -0.000781066 -0.000861505 -0.000668878 3.45892e-05 0.00140927 0.00353574 0.00642545 0.0102866 0.0156421 0.0224105 0.0298991 0.0369051 0.0428093 0.0489158 0.0553285 0.0612552 0.0664965 0.0701346 0.0716079 0.0706055 0.0676643 0.0644278 0.0613446 0.0581072 0.0533433 0.0463038 0.037542 0.0279276 0.0187301 0.0101825 0.00191201 -0.00616873 -0.0144344 -0.0224774 -0.0302687 -0.0378656 -0.0451542 -0.052324 -0.0588061 -0.0643442 -0.0684136 -0.0710466 -0.0726531 -0.0737312 -0.0750036 -0.0766489 -0.078587 -0.0801952 -0.0807744 -0.0798009 -0.0765991 -0.0712856 -0.064052 -0.0555506 -0.0463235 -0.0371383 -0.0285936 -0.0212944 -0.0158361 -0.0124144 -0.0113405 -0.0125759 -0.0163384 -0.0226923 -0.0316734 -0.0429361 -0.0559438 -0.0700302 -0.0840847 -0.0971901 -0.108442 -0.117502 -0.125079 -0.132469 -0.140716 -0.149475 -0.156833 -0.160439 -0.158915 -0.153103 -0.145122 -0.13684 -0.129123 -0.122105 -0.116248 -0.112038 -0.109644 -0.108482 -0.10786 -0.107589 -0.107758 -0.108175 -0.108818 -0.109712 -0.111295 -0.11299 -0.114051 -0.113515 -0.111043 -0.106741 -0.101679 -0.0979732 -0.0982707 -0.104553 -0.117046 -0.133335 -0.149409 -0.161274 -0.166878 -0.166515 -0.162058 -0.155636 -0.14817 -0.139683 -0.129933 -0.118986 -0.107169 -0.0945866 -0.0813552 -0.067732 -0.0543162 -0.0422598 -0.0321322 -0.0239806 -0.0176984 -0.0133983 -0.0116495 -0.0126799 -0.0163815 -0.0219292 -0.0289478 -0.0371613 -0.0462182 -0.0553838 -0.0637041 -0.070708 -0.075824 -0.0789481 -0.0798448 -0.0791534 -0.0774139 -0.0754843 -0.0739261 -0.0728054 -0.071927 -0.0705544 -0.0680818 -0.0640606 -0.0585064 -0.0520284 -0.044901 -0.0377161 -0.0303065 -0.022697 -0.0147957 -0.00663919 0.0013959 0.00958153 0.0180484 0.0271239 0.0366298 0.0453087 0.0523033 0.057041 0.0602917 0.0634355 0.0667467 0.0696542 0.0706249 0.069131 0.0655492 0.0603849 0.0545503 0.0482231 0.042206 0.036401 0.0295028 0.022124 0.0154572 0.0101769 0.00637157 0.00352114 0.00141805 5.48362e-05 -0.000647492 -0.000845986 -0.000776255 -0.000613893 -0.000443734 -0.000304038 -0.000132326 0 0 
0 0 -7.23388e-05 -0.000180816 -0.000295273 -0.000482959 -0.000743453 -0.00103892 -0.00127629 -0.00132902 -0.0010826 -0.00032979 0.00126653 0.00404403 0.00820885 0.0132938 0.018708 0.0245949 0.0312594 0.0388156 0.0458186 0.0510377 0.0545761 0.0558606 0.0554091 0.0541196 0.0525701 0.0507789 0.0474948 0.0419499 0.0346034 0.0265859 0.0193097 0.0127972 0.0067534 0.000391007 -0.00648375 -0.0134976 -0.0205072 -0.0270891 -0.0333541 -0.0392551 -0.0444997 -0.0489879 -0.0523799 -0.0550623 -0.0574693 -0.0600432 -0.0633072 -0.0670258 -0.0710275 -0.0745539 -0.0773439 -0.079221 -0.080205 -0.0807134 -0.080744 -0.0805715 -0.0798177 -0.0782356 -0.075421 -0.0711113 -0.0653853 -0.058225 -0.0502538 -0.0420223 -0.0344731 -0.0281929 -0.0237298 -0.0214737 -0.0217428 -0.0248576 -0.0306435 -0.038707 -0.0479816 -0.0572769 -0.0655044 -0.0725804 -0.0788244 -0.0857631 -0.094374 -0.10468 -0.114947 -0.122678 -0.126128 -0.124854 -0.120084 -0.112768 -0.103471 -0.092599 -0.0811934 -0.0706795 -0.0620032 -0.0552438 -0.0500836 -0.046345 -0.0439952 -0.0427569 -0.0423685 -0.0425965 -0.0437904 -0.0452942 -0.0465754 -0.0464652 -0.0447185 -0.0416916 -0.0389449 -0.0389402 -0.0442011 -0.0558734 -0.0730131 -0.0926059 -0.110457 -0.123089 -0.129325 -0.130068 -0.127283 -0.122374 -0.116294 -0.10906 -0.100863 -0.0922249 -0.0833488 -0.0742782 -0.064518 -0.0544802 -0.044706 -0.0362919 -0.0298311 -0.0254209 -0.0228307 -0.0222728 -0.0240508 -0.0283874 -0.034912 -0.0426417 -0.050697 -0.0583509 -0.0653677 -0.0710363 -0.0751996 -0.0777369 -0.0791024 -0.0797546 -0.0798194 -0.0796492 -0.0790413 -0.0780744 -0.07629 -0.0736535 -0.070328 -0.0664913 -0.0628616 -0.0595987 -0.0569457 -0.0545026 -0.0518204 -0.0485652 -0.0442843 -0.0392256 -0.0334705 -0.0272513 -0.0207404 -0.0137917 -0.00692108 -0.000194707 0.00603322 0.0119718 0.0184265 0.0256974 0.0337397 0.0411649 0.0467853 0.0501657 0.0519274 0.0534032 0.054629 0.0550621 0.0537709 0.0502887 0.0451506 0.038275 0.0308355 0.0242672 0.0184657 0.0131354 0.0081205 0.0040138 0.00127489 -0.000303921 -0.00105199 -0.00130151 -0.00125667 -0.00103146 -0.00075105 -0.000507551 -0.000333885 -0.000141786 0 0 
0 0 -7.11542e-05 -0.000182349 -0.000306634 -0.000519142 -0.000829521 -0.00122313 -0.00165247 -0.00201181 -0.00208301 -0.00159536 -0.000376299 0.00165392 0.00443726 0.00814236 0.0131484 0.0189226 0.0243581 0.0283249 0.0306919 0.0321592 0.0325171 0.0322914 0.031749 0.0299746 0.0266492 0.0217327 0.0163927 0.0118604 0.00827061 0.00508727 0.00125634 -0.00344411 -0.00858692 -0.0136771 -0.018169 -0.0223257 -0.0262213 -0.0298573 -0.0332427 -0.0362351 -0.0392427 -0.0424508 -0.0462252 -0.0503505 -0.0543906 -0.0580424 -0.0607546 -0.0629674 -0.064913 -0.0673517 -0.0707139 -0.075098 -0.0803098 -0.0855612 -0.0902298 -0.0934803 -0.0948899 -0.0941282 -0.0910181 -0.0858848 -0.0787505 -0.0701548 -0.0602256 -0.0494365 -0.0382432 -0.0272105 -0.0168734 -0.00760113 2.24031e-05 0.00571653 0.00902448 0.0102868 0.0101682 0.0096688 0.00905346 0.00787478 0.0048946 -0.0011056 -0.010141 -0.0205322 -0.0298296 -0.0361821 -0.0392185 -0.0395527 -0.0375798 -0.0328865 -0.0248481 -0.0138306 -0.0011259 0.0116072 0.023669 0.0343681 0.0432631 0.04984 0.0543718 0.057173 0.058634 0.0589624 0.0586241 0.0583715 0.0590293 0.0608458 0.0631304 0.063991 0.06093 0.0516509 0.0359484 0.0157316 -0.00513257 -0.0228742 -0.0347527 -0.0407513 -0.0424517 -0.0414932 -0.0386694 -0.034165 -0.0281711 -0.021318 -0.0145023 -0.00824557 -0.00248548 0.00295723 0.00787488 0.0116103 0.0133913 0.0129232 0.0102544 0.00584614 -0.000225157 -0.00778136 -0.0169909 -0.0274954 -0.0387359 -0.0498733 -0.0603832 -0.0701325 -0.0787069 -0.0857379 -0.0906617 -0.0935506 -0.0941695 -0.0926525 -0.0892448 -0.0844835 -0.0792624 -0.0741496 -0.0698917 -0.0667141 -0.0643736 -0.0624746 -0.0601784 -0.0573378 -0.053612 -0.0496099 -0.0456207 -0.0420548 -0.0389998 -0.0360574 -0.0331019 -0.0297951 -0.0262737 -0.0225079 -0.018477 -0.0140643 -0.00903782 -0.00394095 0.000731033 0.00457748 0.0077876 0.0114742 0.0160884 0.0215575 0.0263878 0.0296117 0.0313159 0.0318215 0.0320247 0.031683 0.0302267 0.0279077 0.0239978 0.0186543 0.0129701 0.00804545 0.00439444 0.00164993 -0.000350907 -0.00155686 -0.00204298 -0.00197807 -0.00162937 -0.0012135 -0.000835975 -0.000544337 -0.000348371 -0.000144756 0 0 
0 0 -6.67234e-05 -0.000174777 -0.000301119 -0.000529143 -0.000883421 -0.00136277 -0.0019231 -0.00245943 -0.00285006 -0.00299174 -0.00267321 -0.00167379 0.000122385 0.00258242 0.00484079 0.00637067 0.00741091 0.00808872 0.00848461 0.0080514 0.00682572 0.00481374 0.00168275 -0.00135068 -0.00345708 -0.00444124 -0.00481048 -0.00583936 -0.00781613 -0.0103815 -0.0127758 -0.014481 -0.015852 -0.0172593 -0.0191054 -0.0212312 -0.0236922 -0.026489 -0.029658 -0.033281 -0.0369476 -0.0404734 -0.043579 -0.0462137 -0.0488446 -0.051824 -0.0556036 -0.0602075 -0.0654026 -0.0707628 -0.0757031 -0.0799828 -0.083389 -0.0859616 -0.0876528 -0.0883903 -0.0879511 -0.0859406 -0.0819148 -0.07529 -0.0659772 -0.0538613 -0.039186 -0.0222896 -0.0038621 0.0153051 0.0342271 0.0520625 0.0682799 0.0823121 0.0941736 0.103861 0.111819 0.118102 0.122404 0.123509 0.120321 0.112611 0.101807 0.0903949 0.0804253 0.0724581 0.0657934 0.0601125 0.0559279 0.0545293 0.0565842 0.0618323 0.0696104 0.0793571 0.0902668 0.101142 0.110686 0.11829 0.12391 0.127866 0.130332 0.13206 0.133805 0.136205 0.139151 0.141824 0.142169 0.13784 0.127105 0.110593 0.0912019 0.0729994 0.0594379 0.0520915 0.0501745 0.051671 0.0549954 0.0598116 0.0662204 0.0741671 0.0828736 0.0915565 0.0995624 0.106659 0.112602 0.116861 0.118787 0.117708 0.113475 0.106071 0.0960174 0.0836007 0.0691228 0.0525506 0.0343181 0.0150475 -0.0041725 -0.0224464 -0.0391608 -0.053762 -0.0658417 -0.0750227 -0.0814522 -0.0853152 -0.087225 -0.0875485 -0.0867368 -0.0850877 -0.0826116 -0.0793418 -0.0752001 -0.0703513 -0.0649227 -0.0595688 -0.054773 -0.0509482 -0.048035 -0.0455212 -0.043035 -0.0399917 -0.0364642 -0.0328034 -0.0292337 -0.0261749 -0.0234699 -0.0210636 -0.0189688 -0.0171736 -0.015815 -0.0145009 -0.0128101 -0.0103863 -0.00776846 -0.00572061 -0.0046566 -0.0042505 -0.00329745 -0.00124329 0.00170312 0.00475894 0.0067092 0.00789996 0.00831559 0.0079293 0.00728195 0.00626885 0.00477269 0.00255471 0.00012733 -0.00164089 -0.00262365 -0.00293917 -0.00280251 -0.00242144 -0.00189733 -0.00135111 -0.000888203 -0.000553664 -0.000344593 -0.000140489 0 0 
0 0 -5.90738e-05 -0.000159238 -0.000283375 -0.000517377 -0.000890599 -0.00142012 -0.00210601 -0.00292193 -0.00380006 -0.00458498 -0.00518731 -0.00572958 -0.00638152 -0.00735243 -0.00840681 -0.00924063 -0.0103457 -0.0119671 -0.0141167 -0.0163792 -0.0182239 -0.0193839 -0.0191887 -0.0182789 -0.0175827 -0.0174993 -0.0179639 -0.0179721 -0.0172172 -0.0161272 -0.0152564 -0.0152582 -0.0159315 -0.0170868 -0.018668 -0.0204628 -0.0226815 -0.0250979 -0.0277334 -0.0304607 -0.0333171 -0.0367728 -0.0409497 -0.0459431 -0.0512171 -0.0562755 -0.0604896 -0.0635795 -0.0655028 -0.0664285 -0.0668257 -0.0667123 -0.0661169 -0.0646571 -0.0618793 -0.0572998 -0.0503956 -0.0411068 -0.0292608 -0.0150068 0.00146705 0.019859 0.0397682 0.0608452 0.0825997 0.104471 0.125581 0.145265 0.162888 0.178447 0.191865 0.203207 0.212105 0.217732 0.218775 0.214141 0.203758 0.189042 0.172448 0.156069 0.14069 0.125932 0.11145 0.097803 0.0861043 0.0770718 0.0710158 0.0679503 0.0682715 0.0721049 0.0788088 0.0870368 0.0955505 0.103517 0.110464 0.116201 0.121077 0.125757 0.130565 0.135125 0.138133 0.137771 0.132081 0.120171 0.103529 0.0857924 0.0711651 0.0624637 0.0602144 0.0629795 0.0689131 0.0768339 0.0866387 0.0983584 0.111858 0.126499 0.141645 0.156953 0.17203 0.186153 0.198356 0.207543 0.212939 0.214099 0.211039 0.204198 0.194038 0.180913 0.164926 0.146464 0.126016 0.104518 0.0825964 0.0609144 0.039892 0.020043 0.0017575 -0.0145541 -0.0286956 -0.0404647 -0.0497011 -0.0565513 -0.0612196 -0.0641679 -0.0657874 -0.0664684 -0.0665598 -0.0660284 -0.0648549 -0.0627497 -0.0595778 -0.0554091 -0.0504584 -0.0452517 -0.0402581 -0.0360157 -0.0325181 -0.0296748 -0.0269967 -0.024405 -0.0220161 -0.0198329 -0.0180836 -0.0165766 -0.0154714 -0.0148273 -0.0148416 -0.0157276 -0.0168623 -0.0176581 -0.0177331 -0.0173138 -0.0174164 -0.018071 -0.0189818 -0.0191603 -0.0180256 -0.0162069 -0.0139762 -0.011848 -0.0102447 -0.00913292 -0.0083079 -0.00726205 -0.0062929 -0.00564418 -0.00510739 -0.00451615 -0.00374402 -0.00287936 -0.00207772 -0.00140664 -0.000893663 -0.000540507 -0.000326501 -0.000129686 0 0 
0 0 -4.94825e-05 -0.000137563 -0.000252564 -0.000481011 -0.000872072 -0.00147372 -0.0023225 -0.00344781 -0.0048704 -0.00665056 -0.00887747 -0.0114664 -0.0142581 -0.0170939 -0.0200159 -0.0233244 -0.0264182 -0.028614 -0.0297869 -0.029609 -0.0285709 -0.0270835 -0.0259338 -0.0252099 -0.0239209 -0.0219748 -0.0194692 -0.0172389 -0.016043 -0.0155609 -0.0155451 -0.0155909 -0.0156973 -0.0162606 -0.0172502 -0.018938 -0.021175 -0.024156 -0.0279634 -0.0325773 -0.0376624 -0.0425832 -0.0467887 -0.0496877 -0.0512714 -0.0515469 -0.0506787 -0.0487412 -0.0453465 -0.0402413 -0.0330149 -0.0236399 -0.0122097 0.000950583 0.0152493 0.0303036 0.0456829 0.0613004 0.0769277 0.0927186 0.108589 0.12462 0.140687 0.156452 0.171747 0.186066 0.199009 0.210052 0.219163 0.226456 0.23241 0.236903 0.238918 0.236953 0.229327 0.215785 0.197534 0.177053 0.156356 0.136348 0.116479 0.0963479 0.0764954 0.0581006 0.0419606 0.0281916 0.016735 0.00808192 0.00295247 0.00167515 0.00384973 0.0088962 0.0160976 0.0246325 0.0336516 0.0426801 0.0516297 0.0601912 0.0673092 0.0712505 0.070196 0.0627891 0.0492144 0.031892 0.0149184 0.00225313 -0.00399712 -0.00403928 0.000327411 0.007454 0.016738 0.0284483 0.0426767 0.0590048 0.0767884 0.0956678 0.115505 0.136135 0.156974 0.17716 0.195455 0.210903 0.222609 0.230509 0.234773 0.235955 0.234162 0.229478 0.222014 0.212042 0.200179 0.186722 0.172115 0.156679 0.140939 0.125003 0.10912 0.0933089 0.0775211 0.0619019 0.0462352 0.0307017 0.0154262 0.000959837 -0.0122236 -0.0235593 -0.032705 -0.039651 -0.0445349 -0.0478418 -0.049815 -0.0507107 -0.0504206 -0.0487427 -0.0457345 -0.0414745 -0.0365503 -0.0314904 -0.0268844 -0.0230757 -0.0201276 -0.0179328 -0.0163068 -0.0153855 -0.014907 -0.0148771 -0.0149285 -0.0150401 -0.0156481 -0.0169588 -0.0193418 -0.0219841 -0.0238976 -0.0251075 -0.0257785 -0.0268759 -0.0283071 -0.0293134 -0.0294653 -0.0283008 -0.0261185 -0.023057 -0.0197801 -0.0168756 -0.0140665 -0.0113107 -0.00875556 -0.00655853 -0.00480272 -0.00339927 -0.0022908 -0.00145815 -0.000873301 -0.000501614 -0.000293127 -0.000113501 0 0 
0 0 -3.92034e-05 -0.000113096 -0.000217808 -0.000445091 -0.000863992 -0.00155667 -0.00262885 -0.00419607 -0.00636331 -0.0091841 -0.0125648 -0.0164335 -0.0207193 -0.0251172 -0.0292237 -0.0322342 -0.033839 -0.0344115 -0.0338696 -0.0326083 -0.0307903 -0.0283075 -0.0252127 -0.0215861 -0.0183969 -0.0161091 -0.0146794 -0.0137161 -0.0125912 -0.0116154 -0.0111332 -0.0115147 -0.0130254 -0.015378 -0.0185969 -0.0225056 -0.0268516 -0.0313498 -0.0352842 -0.0383058 -0.0399218 -0.0400635 -0.0386307 -0.0353678 -0.0299592 -0.021855 -0.0108508 0.00312797 0.0196507 0.0381063 0.057592 0.0773214 0.0964874 0.114534 0.131087 0.145783 0.158574 0.169304 0.177937 0.184562 0.189173 0.192121 0.193463 0.193681 0.192707 0.190976 0.188636 0.186059 0.183684 0.181813 0.180642 0.179321 0.17637 0.169742 0.158473 0.143091 0.125686 0.108117 0.0912598 0.0745873 0.0573639 0.039811 0.0229345 0.00761889 -0.00594286 -0.0178578 -0.0278959 -0.0354369 -0.0402412 -0.0421875 -0.0412323 -0.0369222 -0.0294449 -0.0191564 -0.00696674 0.0064881 0.0198476 0.0310722 0.0375683 0.0372556 0.029094 0.0142742 -0.00396583 -0.0212169 -0.0341159 -0.0411424 -0.043269 -0.042141 -0.0391649 -0.0342797 -0.0270294 -0.0172594 -0.00549092 0.0079043 0.0226829 0.038647 0.0556422 0.0734928 0.0917104 0.109624 0.126335 0.140777 0.1527 0.162295 0.170038 0.176093 0.180744 0.184076 0.186737 0.188984 0.190909 0.19245 0.193533 0.194189 0.193971 0.192704 0.189749 0.185103 0.178448 0.169692 0.158762 0.145736 0.130846 0.114295 0.0964402 0.0775477 0.0581414 0.0388939 0.0205206 0.00399338 -0.00999181 -0.0208939 -0.0288515 -0.0341119 -0.0372887 -0.0387066 -0.0385862 -0.0369612 -0.0339502 -0.0300283 -0.0255783 -0.0213117 -0.0174947 -0.0143779 -0.0121494 -0.0107537 -0.0104978 -0.0111409 -0.0122837 -0.0136164 -0.0148064 -0.0164395 -0.0186789 -0.0217164 -0.0252167 -0.0281857 -0.0305791 -0.0323272 -0.0335431 -0.0340665 -0.0334725 -0.0318762 -0.028878 -0.024799 -0.020451 -0.0162213 -0.012401 -0.00906286 -0.00627791 -0.0041379 -0.00259242 -0.00153877 -0.000862999 -0.000462184 -0.000254442 -9.43956e-05 0 0 
0 0 -3.15268e-05 -9.54059e-05 -0.000196657 -0.000432806 -0.000900175 -0.00173081 -0.00306854 -0.00504011 -0.00774711 -0.0112073 -0.015383 -0.0200669 -0.0247295 -0.0289342 -0.0322865 -0.0346388 -0.0359347 -0.035618 -0.0337916 -0.0306114 -0.02622 -0.021551 -0.017281 -0.0139094 -0.0110816 -0.00837771 -0.00617209 -0.0046351 -0.00465311 -0.00618051 -0.00882404 -0.012449 -0.0165203 -0.0209021 -0.025132 -0.028634 -0.030931 -0.0313928 -0.0298097 -0.0257296 -0.0188008 -0.00862641 0.00508858 0.0221444 0.0421967 0.0642952 0.0875683 0.110896 0.13338 0.154286 0.172978 0.189113 0.20212 0.211686 0.217355 0.218984 0.216612 0.210533 0.201467 0.189998 0.177057 0.163337 0.149682 0.136578 0.124606 0.114078 0.105591 0.099707 0.0969639 0.0973327 0.0999305 0.103249 0.105198 0.10453 0.101123 0.096225 0.0910978 0.0862292 0.0808854 0.0742247 0.0660907 0.0572431 0.0483943 0.0397256 0.0312022 0.0231698 0.0163384 0.0110923 0.00731552 0.00517177 0.00527352 0.00840472 0.0148839 0.0248529 0.0379981 0.0528055 0.0665523 0.0758412 0.0780275 0.071976 0.0592109 0.0433373 0.028724 0.0181828 0.0122515 0.00958896 0.00862035 0.00870562 0.0100271 0.0131154 0.0179737 0.0242162 0.0313499 0.0391695 0.0475283 0.0561075 0.0646488 0.072972 0.0807453 0.0875179 0.0926635 0.096007 0.0977875 0.0985517 0.0984459 0.097929 0.0974069 0.0977082 0.099503 0.103219 0.108879 0.11648 0.126108 0.137591 0.150463 0.163951 0.177537 0.190387 0.201751 0.210565 0.216403 0.21864 0.21706 0.211599 0.202319 0.189623 0.173687 0.155043 0.134143 0.111739 0.088599 0.0655144 0.0435563 0.0235916 0.00651817 -0.00717923 -0.0173633 -0.0242677 -0.0283863 -0.0300273 -0.0296497 -0.0274434 -0.0240596 -0.0199398 -0.015695 -0.0117717 -0.00833176 -0.00588816 -0.00457916 -0.0048091 -0.00658516 -0.00904023 -0.0116575 -0.0143283 -0.0175399 -0.0216551 -0.0261827 -0.0304561 -0.0335444 -0.0353112 -0.0355793 -0.0342669 -0.0319138 -0.0285844 -0.0244258 -0.019817 -0.0151892 -0.0110634 -0.00764435 -0.00497119 -0.00302651 -0.00170984 -0.000896216 -0.000445627 -0.000228037 -8.02752e-05 0 0 
0 0 -3.11233e-05 -9.64167e-05 -0.000208701 -0.00047139 -0.000999196 -0.00193783 -0.00344319 -0.00566457 -0.00866307 -0.0123902 -0.0166793 -0.0211847 -0.0256671 -0.0297556 -0.0328489 -0.0345047 -0.0341855 -0.0320955 -0.0285895 -0.0239492 -0.018978 -0.0138645 -0.00894714 -0.00467977 -0.00147284 -0.000178312 -0.000690919 -0.00268111 -0.00574424 -0.00937342 -0.0133885 -0.0171452 -0.0202356 -0.0216896 -0.0207966 -0.0170337 -0.00979219 0.00121178 0.0162597 0.0351706 0.0573322 0.0819217 0.107655 0.133423 0.158039 0.180636 0.200518 0.216995 0.22943 0.23719 0.24004 0.23782 0.230917 0.219788 0.205318 0.188331 0.16979 0.150597 0.131535 0.113452 0.096914 0.0824373 0.0703962 0.061067 0.0547759 0.0517125 0.0523683 0.0570335 0.0658082 0.0777281 0.091022 0.103446 0.113471 0.120974 0.127001 0.13257 0.137724 0.141367 0.142445 0.140841 0.137258 0.132353 0.126217 0.118782 0.110394 0.101957 0.094011 0.0868694 0.0805853 0.0758234 0.0730941 0.0731293 0.0763166 0.0831109 0.0926876 0.102899 0.110623 0.113207 0.109352 0.100544 0.0898836 0.0812157 0.0763948 0.0750085 0.0754161 0.0764884 0.0779268 0.0804931 0.0845012 0.0899659 0.0963122 0.103347 0.110649 0.117972 0.124897 0.131187 0.13649 0.140319 0.142108 0.141478 0.138428 0.133282 0.126437 0.11803 0.108145 0.0972106 0.0860678 0.0756544 0.066876 0.0602096 0.0561316 0.0549474 0.0571268 0.0626752 0.0714359 0.0830586 0.0972398 0.113596 0.131492 0.150327 0.169465 0.188091 0.205321 0.220116 0.231488 0.238532 0.240729 0.237878 0.230221 0.217974 0.20172 0.181962 0.159412 0.134817 0.109053 0.0833538 0.0587489 0.0365555 0.0175773 0.00247732 -0.00860629 -0.0159677 -0.0198454 -0.0209097 -0.0196037 -0.0167066 -0.0131266 -0.0093477 -0.00592909 -0.00314196 -0.00137903 -0.00109454 -0.00232126 -0.00536321 -0.00944809 -0.0142032 -0.0191463 -0.0239704 -0.0284827 -0.0318741 -0.0338983 -0.0341703 -0.0325092 -0.029427 -0.0253682 -0.0209309 -0.0164746 -0.0122337 -0.00855064 -0.00558979 -0.00339733 -0.00191368 -0.000992151 -0.000480117 -0.00023497 -8.06023e-05 0 0 
0 0 -4.3045e-05 -0.000126115 -0.000263273 -0.000558 -0.00111959 -0.00208848 -0.00362481 -0.00584408 -0.00878531 -0.0124204 -0.0165473 -0.0208789 -0.0249415 -0.0280908 -0.030008 -0.0303261 -0.0289915 -0.0261175 -0.0217439 -0.0166783 -0.011438 -0.00683699 -0.00391834 -0.0027501 -0.00330391 -0.00495574 -0.00729097 -0.00999091 -0.0124033 -0.0138973 -0.0133308 -0.00980395 -0.00261028 0.0088378 0.0244913 0.044476 0.0680289 0.0943661 0.122184 0.15 0.176527 0.200379 0.220648 0.236412 0.246878 0.251691 0.25058 0.243934 0.232315 0.216779 0.198277 0.178137 0.15737 0.137051 0.118063 0.10102 0.0864364 0.0745982 0.0657442 0.0598472 0.0568189 0.0565235 0.0586023 0.0627916 0.0690599 0.0774617 0.0882319 0.101425 0.116317 0.131597 0.145334 0.156135 0.163897 0.169962 0.175678 0.181482 0.186186 0.188326 0.187435 0.184024 0.178862 0.172073 0.163476 0.153207 0.142091 0.130615 0.119197 0.108254 0.0983916 0.0903872 0.0847377 0.0816145 0.0811653 0.0828265 0.0850552 0.0856889 0.0832545 0.0775801 0.0702517 0.0641098 0.0615257 0.0630865 0.0674101 0.0724299 0.077236 0.0820881 0.0878198 0.0948438 0.1031 0.112224 0.122016 0.132315 0.142687 0.15272 0.162372 0.171214 0.178763 0.18426 0.18715 0.187422 0.18559 0.182016 0.176854 0.170016 0.16125 0.150871 0.139377 0.127348 0.115097 0.103025 0.091499 0.0811067 0.0722179 0.0650783 0.0599685 0.0572169 0.0570664 0.0597633 0.0654704 0.0743154 0.0863313 0.101237 0.118573 0.137752 0.158103 0.178795 0.198896 0.217473 0.233185 0.244966 0.251711 0.252856 0.248064 0.237635 0.221907 0.201655 0.17779 0.151232 0.123371 0.0954626 0.0690324 0.0453332 0.0252194 0.00939191 -0.00221802 -0.00960296 -0.0133353 -0.0141031 -0.0128216 -0.0106157 -0.00809379 -0.00589354 -0.00422694 -0.00356824 -0.00459318 -0.00736957 -0.0117769 -0.0168575 -0.021777 -0.0260365 -0.0288238 -0.0300942 -0.0297421 -0.0278111 -0.0246706 -0.0206408 -0.0163524 -0.0122704 -0.00867672 -0.00577012 -0.00357867 -0.00206382 -0.0011113 -0.000564234 -0.000286252 -0.000102864 0 0 
0 0 -6.96412e-05 -0.000184879 -0.000353294 -0.000670336 -0.00122118 -0.00212625 -0.00351825 -0.00551783 -0.00820659 -0.0114843 -0.0151172 -0.0187319 -0.0217894 -0.0239878 -0.0249128 -0.0243344 -0.0225345 -0.0197509 -0.0168193 -0.0143731 -0.0128561 -0.0126182 -0.0132449 -0.0146238 -0.0161413 -0.0170634 -0.0165073 -0.0131687 -0.0061046 0.00555051 0.0221276 0.0433961 0.0689733 0.0978183 0.1287 0.159935 0.189686 0.21639 0.23831 0.254451 0.263837 0.266027 0.261157 0.249791 0.233052 0.212328 0.189305 0.165519 0.142506 0.121494 0.103397 0.0888777 0.0780683 0.0712033 0.0681003 0.0684696 0.0717882 0.0775297 0.0849587 0.0932902 0.101834 0.109995 0.117451 0.124096 0.130316 0.136652 0.143591 0.150917 0.157723 0.162744 0.165039 0.164949 0.16379 0.163313 0.164155 0.165715 0.166544 0.165827 0.163567 0.160168 0.155498 0.1493 0.141638 0.132914 0.123443 0.113436 0.102999 0.0928944 0.0839584 0.0767331 0.071581 0.0681666 0.0655873 0.0620636 0.0558071 0.046445 0.0352591 0.0251293 0.0192611 0.0192246 0.0245 0.032543 0.0408829 0.0485124 0.0556116 0.0629547 0.0708925 0.0792152 0.0879122 0.0968823 0.106135 0.11541 0.124388 0.133196 0.141639 0.149364 0.155802 0.160466 0.163297 0.164794 0.165449 0.165714 0.165595 0.165019 0.163834 0.162217 0.160118 0.157466 0.154034 0.149921 0.145221 0.139881 0.133856 0.126998 0.119379 0.111016 0.102187 0.0932381 0.0848243 0.0776109 0.0721911 0.0691376 0.0688756 0.0719211 0.0786626 0.0893996 0.103989 0.122254 0.143345 0.166401 0.190179 0.213237 0.234009 0.250823 0.262232 0.267085 0.264878 0.255447 0.239234 0.217217 0.1904 0.16051 0.12913 0.0980943 0.0690881 0.0433723 0.0219347 0.00523875 -0.00657644 -0.013754 -0.0172205 -0.0178518 -0.0169185 -0.0153313 -0.0138678 -0.0131325 -0.0132588 -0.0146566 -0.0170028 -0.0198134 -0.0225002 -0.0242242 -0.0247461 -0.0237958 -0.0215844 -0.0185399 -0.0149542 -0.011356 -0.00811273 -0.00545345 -0.00347835 -0.00210558 -0.00121568 -0.000678777 -0.000375212 -0.000146492 0 0 
0 0 -0.000111436 -0.000266647 -0.00046445 -0.000778568 -0.00127681 -0.00203795 -0.00315303 -0.00473744 -0.00683053 -0.00938045 -0.0122101 -0.0149057 -0.0171637 -0.0187065 -0.0195228 -0.0200301 -0.0204094 -0.0212417 -0.0227712 -0.0248794 -0.0274672 -0.0296303 -0.0305698 -0.0290927 -0.023826 -0.0139119 0.001602 0.0227477 0.049406 0.0807942 0.115422 0.151572 0.186807 0.219002 0.246016 0.26595 0.277731 0.280644 0.274889 0.261221 0.241101 0.216397 0.189152 0.16152 0.135314 0.112309 0.0935866 0.0799268 0.0716763 0.0686232 0.0704171 0.0761346 0.0848277 0.0953186 0.106534 0.117438 0.1274 0.135839 0.142289 0.146541 0.148415 0.148072 0.145878 0.142681 0.139367 0.13678 0.135218 0.13409 0.132277 0.128945 0.124484 0.120445 0.118503 0.119401 0.122511 0.126459 0.130441 0.134224 0.137848 0.140695 0.142022 0.141644 0.13978 0.136746 0.132405 0.126734 0.120163 0.113497 0.107398 0.102176 0.0976175 0.092806 0.0858523 0.0750924 0.060378 0.043884 0.0291785 0.0199925 0.0182128 0.0229447 0.0315683 0.0415745 0.0517253 0.061925 0.0720924 0.0820404 0.0914767 0.100337 0.108566 0.116168 0.12295 0.128798 0.133819 0.138065 0.141188 0.142814 0.142613 0.140726 0.137542 0.133754 0.129937 0.126319 0.123274 0.121113 0.120195 0.120574 0.122009 0.124192 0.12706 0.13051 0.134419 0.13854 0.142505 0.145989 0.148521 0.149723 0.149218 0.146912 0.142657 0.136408 0.128157 0.11824 0.107211 0.0958299 0.0852713 0.0766474 0.0710442 0.0693133 0.0723409 0.0805713 0.0942272 0.113015 0.136046 0.162285 0.189913 0.217128 0.241818 0.261854 0.275444 0.281092 0.278073 0.266193 0.246156 0.21905 0.186767 0.151465 0.115239 0.0805429 0.0490642 0.0223168 0.00104923 -0.0146073 -0.0244225 -0.0295684 -0.0309753 -0.0299456 -0.0277341 -0.0250886 -0.0229285 -0.0213387 -0.0204555 -0.0200241 -0.0194721 -0.0186113 -0.0170483 -0.0147896 -0.0121016 -0.00929219 -0.00676534 -0.00469234 -0.00312584 -0.00202682 -0.00128129 -0.000797623 -0.000485269 -0.000208632 0 0 
0 0 -0.00017141 -0.000402149 -0.000580302 -0.000858238 -0.00125379 -0.00178356 -0.00251523 -0.00350277 -0.00478126 -0.00640446 -0.00828994 -0.0104872 -0.012975 -0.0156689 -0.0189368 -0.02288 -0.027797 -0.0335314 -0.0390252 -0.0431967 -0.044076 -0.0402002 -0.0303829 -0.013728 0.00992076 0.0405571 0.0768823 0.117043 0.158441 0.19789 0.232734 0.260301 0.278612 0.28671 0.284258 0.272103 0.251532 0.224998 0.194931 0.164065 0.135042 0.109802 0.0901923 0.0769359 0.0703776 0.069998 0.0748359 0.083769 0.0950987 0.107636 0.119889 0.131027 0.140257 0.146945 0.15093 0.152079 0.15058 0.146861 0.141396 0.134561 0.126958 0.119121 0.11195 0.106323 0.102947 0.101897 0.102355 0.103051 0.102714 0.10129 0.100075 0.100798 0.104482 0.110458 0.117304 0.124105 0.130979 0.138148 0.145182 0.151027 0.155061 0.157309 0.158056 0.157065 0.154353 0.150085 0.144991 0.139507 0.13386 0.127774 0.120282 0.109601 0.0945189 0.0752914 0.0545457 0.0360505 0.0232886 0.0176857 0.0186055 0.0238363 0.0319601 0.0422851 0.0546821 0.0684067 0.0824672 0.0959721 0.108639 0.120132 0.130367 0.13907 0.146206 0.151956 0.156469 0.15936 0.160424 0.159252 0.15599 0.15106 0.145096 0.138501 0.131536 0.124353 0.117423 0.11134 0.106498 0.102827 0.100192 0.0984658 0.0976768 0.0978761 0.0990713 0.101382 0.104838 0.109439 0.115102 0.12155 0.128587 0.135741 0.142401 0.147775 0.151358 0.152638 0.151306 0.147271 0.140661 0.131536 0.120419 0.108119 0.095547 0.0842133 0.0753016 0.0704508 0.0708098 0.0773344 0.090555 0.110121 0.1353 0.164256 0.195065 0.225065 0.251563 0.272082 0.284235 0.286659 0.278588 0.260245 0.232678 0.197731 0.15817 0.116564 0.0761565 0.0395315 0.00911089 -0.014259 -0.030694 -0.0403462 -0.0441302 -0.0432009 -0.0390234 -0.0335253 -0.0278089 -0.0228855 -0.0189325 -0.0156474 -0.0129428 -0.0104525 -0.00825408 -0.00637287 -0.00475618 -0.00348561 -0.00250762 -0.00178834 -0.00127561 -0.000904451 -0.000659595 -0.000289293 0 0 
0 0 -0.000208154 -0.000463086 -0.000631426 -0.000847548 -0.00109611 -0.00134397 -0.00163252 -0.00196416 -0.00246822 -0.00341676 -0.00483191 -0.0072008 -0.0108263 -0.0158494 -0.0227694 -0.0307833 -0.0394292 -0.0471088 -0.0515267 -0.0510997 -0.0429012 -0.0257088 0.00109588 0.037223 0.0802296 0.127945 0.176567 0.222461 0.262067 0.291697 0.309297 0.313107 0.303351 0.281338 0.249459 0.211546 0.170862 0.131746 0.0971776 0.069892 0.0514433 0.0421301 0.041903 0.0491817 0.0626336 0.0799202 0.099107 0.118184 0.135277 0.149201 0.158717 0.163848 0.164533 0.16136 0.155014 0.146398 0.136361 0.12572 0.115291 0.105497 0.0970157 0.0900399 0.0854831 0.0837259 0.0850301 0.0885322 0.0924166 0.0948069 0.0945531 0.0927933 0.091654 0.0936727 0.0988347 0.105613 0.111939 0.117634 0.123614 0.130744 0.138179 0.144466 0.149095 0.152308 0.154262 0.154303 0.152572 0.149499 0.14594 0.141693 0.136633 0.129466 0.118702 0.102054 0.0794921 0.0535163 0.0291659 0.010929 0.00120581 -0.00093348 0.00162203 0.00634436 0.0132982 0.0236117 0.0375986 0.0539072 0.0709499 0.0873053 0.102655 0.116341 0.128163 0.137582 0.145133 0.1509 0.155201 0.157433 0.157438 0.154884 0.150329 0.144509 0.138337 0.132013 0.125302 0.118328 0.11146 0.105628 0.100985 0.0973772 0.0943522 0.0920075 0.0899458 0.088298 0.0867516 0.0857588 0.0855318 0.086552 0.0890777 0.093242 0.0995305 0.107474 0.11685 0.126815 0.137008 0.146649 0.155132 0.161538 0.164926 0.164336 0.15913 0.149495 0.135511 0.118429 0.0993113 0.0800792 0.0626815 0.0491803 0.0418386 0.0420168 0.0512768 0.0696713 0.0969654 0.131525 0.170689 0.211405 0.24939 0.281306 0.30337 0.313096 0.309232 0.291447 0.261585 0.221602 0.175302 0.126213 0.0788257 0.0362818 0.000574376 -0.025916 -0.0428953 -0.0509784 -0.0513647 -0.0469666 -0.0393258 -0.0307318 -0.022754 -0.0158657 -0.0108577 -0.00723382 -0.00486001 -0.00343912 -0.00248626 -0.00197842 -0.00164736 -0.00136584 -0.0011322 -0.000904542 -0.000707067 -0.000328597 0 0 
0 0 -0.000223711 -0.000480825 -0.000619698 -0.000750879 -0.000826182 -0.000778454 -0.00064786 -0.000444369 -0.00042776 -0.00111659 -0.00278967 -0.00634215 -0.0120366 -0.0197539 -0.029574 -0.0392232 -0.047069 -0.0501913 -0.0451767 -0.0307961 -0.0050609 0.0307706 0.0749075 0.124734 0.175546 0.223931 0.264909 0.294985 0.311818 0.313676 0.301695 0.276997 0.243012 0.203309 0.161771 0.122776 0.0889218 0.0631794 0.0464472 0.0391827 0.040729 0.0492512 0.0631479 0.0795979 0.0968776 0.11279 0.126083 0.135966 0.141882 0.144292 0.143179 0.139671 0.134172 0.127822 0.121086 0.114568 0.108683 0.103361 0.0989903 0.0952833 0.0926108 0.0908191 0.0906715 0.0925359 0.0963347 0.100635 0.103062 0.101528 0.0954368 0.0872912 0.0805317 0.0782572 0.0799424 0.0832387 0.0855789 0.0874029 0.0906442 0.0964217 0.103511 0.110057 0.115612 0.120518 0.124651 0.12719 0.128064 0.12803 0.127795 0.126611 0.123284 0.116051 0.102885 0.0819804 0.0545286 0.0251473 0.000305426 -0.0159899 -0.0226524 -0.0225739 -0.0194053 -0.0152549 -0.00907977 0.000839813 0.0151789 0.032223 0.0504533 0.0681374 0.0844236 0.0985128 0.109959 0.118448 0.124516 0.128614 0.130913 0.13096 0.128562 0.12363 0.117006 0.110076 0.103945 0.0985468 0.0933899 0.0885401 0.0845538 0.0824237 0.0822013 0.0835799 0.0857487 0.0886226 0.0914381 0.093867 0.0951436 0.0955637 0.0953754 0.0949594 0.0946499 0.0948115 0.0960005 0.0979296 0.100893 0.104467 0.109103 0.114595 0.121031 0.127943 0.134543 0.140072 0.143448 0.144407 0.141907 0.135976 0.126004 0.112589 0.0965477 0.0791629 0.0626546 0.0487179 0.0401836 0.0386624 0.0460013 0.0628154 0.0886749 0.122626 0.161717 0.203291 0.242971 0.276842 0.301317 0.312977 0.31071 0.293389 0.262807 0.221338 0.173278 0.123013 0.0737537 0.030092 -0.00533699 -0.0308067 -0.0450208 -0.0499753 -0.0468638 -0.039085 -0.0295041 -0.0197558 -0.0120848 -0.00640966 -0.00286486 -0.0011846 -0.000485121 -0.000489433 -0.000684465 -0.000815619 -0.000872247 -0.000810491 -0.000686518 -0.000333074 0 0 
0 0 -0.000218973 -0.000455472 -0.000549958 -0.00058546 -0.000491555 -0.000194272 0.000223831 0.000678491 0.000754865 -0.000296023 -0.00294374 -0.00816936 -0.0158027 -0.0247287 -0.0336517 -0.0388379 -0.0377222 -0.0269523 -0.00415224 0.0298497 0.0743181 0.124249 0.174976 0.221724 0.259085 0.284987 0.296329 0.292854 0.275833 0.247122 0.211445 0.17225 0.134519 0.101821 0.0766487 0.0609829 0.054232 0.0560523 0.0639662 0.076011 0.0897923 0.102843 0.114008 0.121497 0.125316 0.125112 0.121616 0.115687 0.108246 0.100817 0.0939176 0.0887386 0.0854041 0.0843658 0.085354 0.0878395 0.0913997 0.0949606 0.0982886 0.100503 0.101893 0.102386 0.103054 0.104491 0.106686 0.108034 0.10573 0.0977496 0.084158 0.0687581 0.0561304 0.0498977 0.0490994 0.0504579 0.0508728 0.0512689 0.0541485 0.0609776 0.0700291 0.0791895 0.0877513 0.0961299 0.104075 0.110527 0.115429 0.119695 0.123809 0.126137 0.124642 0.116966 0.101516 0.0773496 0.0474915 0.0176415 -0.0056625 -0.0197011 -0.0248113 -0.0244141 -0.0214331 -0.0174184 -0.0110138 -0.00107468 0.0129345 0.0296956 0.0481974 0.0664511 0.083112 0.0967165 0.10705 0.113765 0.117586 0.118937 0.118153 0.114775 0.108594 0.0996645 0.0892122 0.0791316 0.0706899 0.0638283 0.0577921 0.0527657 0.0493576 0.0489562 0.0515894 0.0569037 0.0638642 0.072194 0.0808377 0.0890463 0.0956187 0.100631 0.104186 0.106475 0.10742 0.107171 0.106045 0.103668 0.100309 0.0959265 0.0916237 0.0877598 0.0852966 0.084476 0.0856768 0.0889815 0.0940027 0.100764 0.108087 0.115419 0.121197 0.124562 0.124632 0.120713 0.113166 0.102021 0.0890287 0.0753606 0.0634515 0.0556845 0.0539983 0.0608465 0.0765404 0.101641 0.134163 0.171606 0.210398 0.245621 0.273846 0.2904 0.293483 0.281846 0.256114 0.219159 0.172914 0.122737 0.0733166 0.0293211 -0.00434731 -0.0269099 -0.0375824 -0.0386832 -0.0335398 -0.0246903 -0.0158243 -0.00823699 -0.00303609 -0.000390649 0.000670336 0.000609649 0.000168479 -0.000243993 -0.000543496 -0.000642521 -0.000604157 -0.000306301 0 0 
0 0 -0.000194986 -0.000390136 -0.000431554 -0.000378279 -0.000164785 0.000250603 0.000714779 0.00101526 0.000587089 -0.00135532 -0.00509566 -0.0110287 -0.0179664 -0.0234974 -0.0248843 -0.0174694 0.00101877 0.0319202 0.0742758 0.12329 0.174499 0.220788 0.256691 0.278314 0.282728 0.271125 0.245009 0.208805 0.167575 0.126052 0.0898799 0.0618744 0.0448104 0.0390751 0.0434326 0.0563479 0.0741423 0.0943545 0.11321 0.128464 0.138304 0.141605 0.138981 0.13104 0.119719 0.106514 0.0932478 0.0813487 0.0716248 0.0650054 0.0612765 0.0605967 0.0622973 0.0660826 0.0711902 0.0768057 0.0824724 0.0869984 0.0901431 0.0912555 0.0908125 0.089331 0.088168 0.0883952 0.0898495 0.090737 0.0875007 0.0779992 0.0625856 0.0459387 0.033458 0.0290227 0.0309367 0.0350358 0.0377929 0.0402575 0.0454833 0.0551197 0.0671644 0.0792001 0.0904603 0.101528 0.112171 0.121282 0.12888 0.136031 0.142658 0.146306 0.144175 0.133912 0.114853 0.0876704 0.0568255 0.0282718 0.00715913 -0.00560625 -0.0112938 -0.0123703 -0.0102415 -0.00577015 0.00179609 0.0125581 0.026518 0.0431016 0.0620294 0.0813175 0.0989643 0.113103 0.123516 0.129915 0.133022 0.13332 0.131049 0.125792 0.11718 0.105395 0.0919499 0.079034 0.0679455 0.0584893 0.0497831 0.0419679 0.0358623 0.0331021 0.0338549 0.0377261 0.0436773 0.0514668 0.0598997 0.0682182 0.0751929 0.0810469 0.0858148 0.0899062 0.0929221 0.0948567 0.0956265 0.0946893 0.0920826 0.0877324 0.08255 0.0767725 0.0712091 0.0661793 0.0624085 0.0606182 0.061157 0.0647636 0.0712309 0.0807617 0.0924806 0.105637 0.118787 0.130049 0.138008 0.140695 0.137535 0.127838 0.112754 0.0939874 0.07384 0.0560051 0.042946 0.0383254 0.0436966 0.060345 0.0878733 0.123635 0.164802 0.205817 0.241964 0.268151 0.279688 0.275323 0.25393 0.2184 0.172586 0.121897 0.0733659 0.0314288 0.000825063 -0.0174908 -0.0248336 -0.0234551 -0.0179647 -0.011076 -0.00518114 -0.00145257 0.000493203 0.000933698 0.000647879 0.000193182 -0.000218266 -0.000428777 -0.000471007 -0.000252181 0 0 
0 0 -0.000154606 -0.000293935 -0.000285523 -0.000176179 6.16697e-05 0.000389541 0.000569679 0.0003071 -0.000913895 -0.00350615 -0.00703035 -0.0106271 -0.0117334 -0.00690853 0.00686417 0.0327459 0.0702657 0.116901 0.167392 0.213755 0.249798 0.269457 0.270348 0.25322 0.220426 0.17759 0.130065 0.0844778 0.0462258 0.0190592 0.00559366 0.00522597 0.0167072 0.0366535 0.0611511 0.0865162 0.108795 0.125983 0.136428 0.140153 0.137871 0.130612 0.120422 0.108445 0.0967162 0.0860189 0.077426 0.071234 0.0673492 0.0657064 0.0654577 0.0662535 0.0672017 0.0680788 0.0683563 0.0679402 0.0668928 0.0648575 0.0619708 0.0581727 0.0543098 0.0511049 0.0503 0.0527136 0.0580997 0.0635702 0.0650219 0.0595087 0.0476099 0.0343058 0.0257216 0.0256594 0.0321235 0.0400013 0.0455576 0.0499689 0.0567673 0.0677073 0.0808585 0.0936109 0.105283 0.1167 0.12773 0.137469 0.145997 0.154173 0.161231 0.163899 0.158924 0.144566 0.121658 0.0925981 0.0626542 0.03683 0.0181221 0.00568014 -0.00195064 -0.00545791 -0.0045394 0.000542449 0.00949196 0.0213503 0.0356286 0.0523149 0.071594 0.0916239 0.110307 0.125544 0.136931 0.144165 0.147947 0.14882 0.146966 0.141876 0.133085 0.120872 0.106865 0.093375 0.0816331 0.0713201 0.0613686 0.0516982 0.0433694 0.037968 0.0357533 0.0361416 0.038227 0.0416544 0.0453652 0.0485999 0.0506085 0.051719 0.0526536 0.0538451 0.0554534 0.0573025 0.0595564 0.0616479 0.0637004 0.0653617 0.0669574 0.0680237 0.0684804 0.0681312 0.0670971 0.0659955 0.065073 0.0652046 0.0666726 0.0703266 0.0763672 0.084912 0.0956534 0.107417 0.119484 0.129797 0.137201 0.139598 0.135935 0.125467 0.108141 0.0856402 0.0599271 0.0350261 0.0146327 0.00276011 0.00281274 0.0161235 0.0433072 0.0817543 0.127729 0.175683 0.218272 0.250683 0.267601 0.266679 0.247208 0.211513 0.165621 0.115612 0.0694354 0.0322714 0.00664019 -0.00700304 -0.0117776 -0.010673 -0.00709897 -0.00358673 -0.000999317 0.000227078 0.000500851 0.000330729 1.10466e-05 -0.000217639 -0.000310553 -0.000178663 0 0 
0 0 -0.00010463 -0.000185386 -0.000146633 -4.38737e-05 8.38116e-05 0.000104541 -0.000243632 -0.00115441 -0.00270078 -0.00438075 -0.00459131 -0.00104401 0.00960489 0.0302397 0.0618712 0.103561 0.150346 0.195559 0.23159 0.251441 0.251713 0.231739 0.195158 0.148091 0.0972778 0.0499205 0.0113509 -0.01432 -0.0255155 -0.022946 -0.00887248 0.0126879 0.0378034 0.0623894 0.0833733 0.0988476 0.10781 0.11091 0.109031 0.104178 0.0981054 0.0922875 0.0881002 0.0857115 0.0852998 0.0862039 0.0876941 0.0889175 0.0891212 0.0879778 0.0850316 0.0805406 0.0744913 0.0674624 0.0598393 0.0522601 0.0452706 0.0389158 0.0333261 0.0284702 0.024896 0.0233826 0.0253 0.03132 0.0406589 0.0498135 0.0540373 0.0500885 0.0387107 0.0254976 0.0171763 0.0177503 0.0250684 0.0337002 0.0396045 0.0441381 0.0509854 0.0620924 0.0754584 0.0884593 0.100489 0.112488 0.124555 0.135863 0.146336 0.156254 0.164057 0.165893 0.158444 0.14126 0.116647 0.0887389 0.0624108 0.0411247 0.025373 0.0131779 0.00364637 -0.0020477 -0.00234362 0.00280134 0.0123642 0.0247613 0.0391414 0.0555227 0.0739753 0.0931541 0.111122 0.126139 0.137203 0.144052 0.147253 0.147659 0.145365 0.13964 0.130001 0.116945 0.10226 0.0882322 0.0761557 0.0656459 0.0555373 0.0457507 0.0373243 0.0319341 0.0296698 0.029919 0.0316307 0.0342684 0.0366506 0.0380196 0.0376329 0.036003 0.0340186 0.0321183 0.0307657 0.0300866 0.0304499 0.0319504 0.034865 0.039308 0.0453734 0.0524676 0.0599957 0.0673669 0.0741316 0.0799774 0.0843534 0.0872015 0.0882147 0.087864 0.0865544 0.0850931 0.0842859 0.0848058 0.087318 0.0916043 0.0974529 0.103488 0.108208 0.10983 0.106399 0.0970103 0.0811304 0.0597474 0.0348985 0.00964768 -0.0118289 -0.0256386 -0.0277527 -0.0159769 0.0103603 0.0495205 0.0966014 0.146809 0.193333 0.229469 0.249206 0.248892 0.229228 0.193533 0.148763 0.102429 0.061143 0.0298148 0.00937566 -0.00116856 -0.00467321 -0.0044482 -0.00276878 -0.001221 -0.000304256 5.14724e-05 3.99911e-05 -7.5903e-05 -0.000161161 -0.000100859 0 0 
0 0 -5.63616e-05 -9.32336e-05 -6.24798e-05 -4.69268e-05 -0.000149659 -0.000533467 -0.00130159 -0.00222749 -0.00252307 -0.00045537 0.0065988 0.0215193 0.0466177 0.0817713 0.123938 0.167119 0.202999 0.224079 0.224804 0.204166 0.165605 0.115544 0.0626334 0.0145239 -0.0225895 -0.045116 -0.0524432 -0.0457801 -0.0288521 -0.00597221 0.018226 0.0396993 0.0558913 0.0655313 0.0690424 0.0679567 0.0643134 0.0603592 0.0577179 0.0577265 0.0605504 0.0661441 0.0736435 0.081982 0.0900842 0.0966914 0.10105 0.102442 0.100879 0.0964833 0.0897583 0.0814614 0.0723262 0.0631393 0.0544486 0.0469237 0.0406893 0.0357776 0.031734 0.0282685 0.0255696 0.0243396 0.0258474 0.0308696 0.0385108 0.0449645 0.0456366 0.0370448 0.0206994 0.00253624 -0.00979342 -0.0122883 -0.0069171 0.000454911 0.00591406 0.0104266 0.0177951 0.0297865 0.0444941 0.0594733 0.0738622 0.0887262 0.104093 0.119303 0.13381 0.147118 0.156769 0.158694 0.150279 0.132525 0.109357 0.0856622 0.0652343 0.0495098 0.0368678 0.0253109 0.0148373 0.00792107 0.00644559 0.0108398 0.0197847 0.0318938 0.0459336 0.0614995 0.0779924 0.0946784 0.110126 0.122949 0.131864 0.136392 0.137167 0.135094 0.130191 0.121742 0.109212 0.0932751 0.0757965 0.0593792 0.045198 0.0331556 0.0220287 0.0117963 0.00371212 -0.000788749 -0.00128186 0.00135938 0.00617183 0.0122641 0.0186114 0.0238765 0.0275244 0.0295613 0.0308303 0.0313815 0.0315466 0.0313807 0.0313024 0.0317425 0.0332436 0.0362025 0.0408748 0.0471126 0.0544602 0.0628061 0.0716827 0.0806264 0.0888228 0.0954786 0.0998446 0.101415 0.100065 0.0958137 0.0893061 0.0813165 0.0730144 0.0654837 0.0597012 0.0566043 0.0562117 0.0584201 0.0619179 0.0651627 0.0659737 0.0623492 0.0528248 0.0369339 0.0159802 -0.00760133 -0.0297593 -0.0460094 -0.0520352 -0.0442462 -0.021847 0.014778 0.0623094 0.114584 0.16407 0.202183 0.222578 0.221822 0.20094 0.165398 0.122638 0.0808746 0.0460544 0.0211989 0.0064276 -0.000548395 -0.00258556 -0.00227937 -0.00134845 -0.000575735 -0.000184277 -7.11288e-05 -7.33444e-05 -4.17073e-05 0 0 
0 0 -2.38313e-05 -4.90609e-05 -7.51046e-05 -0.000207399 -0.000541635 -0.00111207 -0.00160488 -0.00107965 0.00224487 0.0110172 0.0277512 0.0539557 0.0887519 0.127535 0.163328 0.187341 0.19231 0.175262 0.137437 0.0859467 0.0300097 -0.0206911 -0.0582996 -0.0792323 -0.0826637 -0.0716522 -0.0508305 -0.0254254 -0.00116381 0.0184686 0.0308395 0.0357771 0.0347023 0.0295343 0.0233498 0.0181972 0.0162161 0.0184066 0.0247175 0.034672 0.0466022 0.0592622 0.0708864 0.0804771 0.0872713 0.0909725 0.0919921 0.0906178 0.0877798 0.0838795 0.0797936 0.07573 0.0720599 0.0689322 0.0660429 0.0635251 0.0608059 0.057725 0.0535967 0.0483501 0.0421865 0.0362927 0.0323944 0.0315943 0.0331963 0.0336665 0.028312 0.0139836 -0.00753468 -0.029807 -0.0449943 -0.0491825 -0.0443574 -0.0366244 -0.0299946 -0.0238625 -0.0148427 -0.00119757 0.0153651 0.0325464 0.0495459 0.0673766 0.0859483 0.104644 0.122432 0.137829 0.147755 0.148688 0.139039 0.121735 0.101433 0.0830084 0.0685022 0.0573736 0.0471276 0.0363543 0.0259828 0.0187645 0.0163166 0.0192011 0.0265845 0.037749 0.0512984 0.066075 0.0809139 0.0952099 0.108067 0.118587 0.125255 0.127877 0.126703 0.122684 0.115637 0.104979 0.09009 0.0715977 0.0515423 0.032691 0.0161945 0.00197973 -0.0110489 -0.022749 -0.031951 -0.0371486 -0.0377797 -0.034533 -0.0280932 -0.0195727 -0.0098222 -8.22781e-05 0.00888403 0.0169893 0.0247032 0.0318208 0.0381614 0.0435423 0.04807 0.0519002 0.0552133 0.0582676 0.0609858 0.0635342 0.0657781 0.0683264 0.0712176 0.0747166 0.0786844 0.0827782 0.0867934 0.0897943 0.0913382 0.0903957 0.0867359 0.0798869 0.0701693 0.0582512 0.0451825 0.0327668 0.0223077 0.0155582 0.013044 0.0148987 0.0201398 0.0266631 0.0323524 0.0341225 0.0299127 0.0182831 -0.000730616 -0.0244757 -0.0495613 -0.0701737 -0.0811483 -0.0778501 -0.0572457 -0.0201261 0.0299563 0.0852463 0.13615 0.173555 0.190399 0.185465 0.161674 0.126221 0.0878096 0.0533501 0.0274013 0.0108309 0.00214863 -0.00113368 -0.00164295 -0.00114372 -0.000567384 -0.000227497 -8.90449e-05 -2.45105e-05 0 0 
0 0 -1.97516e-05 -7.08361e-05 -0.000180254 -0.000430255 -0.000772847 -0.000895286 0.000138759 0.00397204 0.0128433 0.0291118 0.0534442 0.0841279 0.116186 0.141542 0.152658 0.14326 0.112388 0.0649678 0.00905818 -0.0437653 -0.084742 -0.107986 -0.111856 -0.100142 -0.077531 -0.0510699 -0.026408 -0.00749004 0.00308874 0.00614377 0.00277904 -0.00381044 -0.0105815 -0.0153142 -0.0157417 -0.0119933 -0.00405747 0.00658524 0.018441 0.0303092 0.040628 0.0491582 0.055183 0.0593121 0.0617871 0.0633398 0.0647856 0.0663709 0.0687106 0.0715595 0.0749031 0.0781249 0.0809773 0.0829579 0.0835152 0.0826743 0.0796769 0.0749529 0.0679533 0.059193 0.049142 0.0393729 0.0318943 0.0278174 0.02653 0.0243242 0.0165869 6.69896e-05 -0.0230695 -0.0465008 -0.0621568 -0.0663684 -0.0612201 -0.0527531 -0.0451239 -0.0379932 -0.0284315 -0.0147363 0.00175626 0.0192781 0.0370136 0.0558151 0.0754443 0.0952594 0.113523 0.128057 0.135492 0.133401 0.121956 0.105279 0.0883805 0.0748514 0.0649419 0.0568131 0.0479496 0.0381292 0.0287385 0.0220611 0.018886 0.0199439 0.025258 0.034945 0.0475766 0.0616823 0.075538 0.0884456 0.0996444 0.108528 0.114077 0.116101 0.114785 0.110702 0.103502 0.0927546 0.077686 0.0590569 0.0387921 0.0197248 0.00293428 -0.0116063 -0.0250034 -0.03708 -0.0467626 -0.0525784 -0.0539292 -0.0512166 -0.0449362 -0.0361128 -0.0255939 -0.0146839 -0.00378685 0.0067653 0.0174188 0.0277157 0.0376172 0.0467121 0.0551723 0.0629524 0.0697754 0.0756292 0.0797416 0.0823351 0.0828473 0.0821121 0.0800441 0.0771538 0.0739105 0.0706171 0.0679489 0.0658105 0.064354 0.0628892 0.0611869 0.0584299 0.053917 0.0473987 0.0383557 0.0275322 0.015296 0.00325725 -0.0073169 -0.0149382 -0.0181546 -0.0170341 -0.0115427 -0.0040168 0.00321332 0.00709296 0.00435637 -0.00603102 -0.0249072 -0.0495454 -0.0758968 -0.0983845 -0.110098 -0.106381 -0.0834932 -0.0430304 0.00916175 0.0644499 0.111335 0.141871 0.151143 0.140126 0.115006 0.0832569 0.0528708 0.0287712 0.0126615 0.00388066 9.12965e-05 -0.000924287 -0.00079394 -0.000449895 -0.000198508 -5.82697e-05 0 0 
0 0 -4.55417e-05 -0.000140459 -0.000293666 -0.000464852 -0.00032315 0.000907248 0.00471752 0.0129567 0.0271429 0.0476744 0.0720337 0.0951758 0.109976 0.108834 0.0886134 0.0500849 6.72376e-05 -0.0508752 -0.0935153 -0.119521 -0.127142 -0.118489 -0.0985483 -0.0749644 -0.0527355 -0.0367287 -0.0286387 -0.0274725 -0.0316972 -0.0373598 -0.0422648 -0.0439019 -0.0413283 -0.0350267 -0.0254554 -0.0148246 -0.00403068 0.00523231 0.0122321 0.0170995 0.0198784 0.0219105 0.0237004 0.0264927 0.0305566 0.036064 0.0431921 0.0509791 0.0594057 0.0671771 0.0741704 0.079491 0.0830181 0.084631 0.0840541 0.0817063 0.0772794 0.0713513 0.0637206 0.0550639 0.0458703 0.0377936 0.0324885 0.0308054 0.031809 0.0313329 0.0247621 0.00884353 -0.0141615 -0.0378133 -0.0541799 -0.0597089 -0.0563398 -0.0496352 -0.0436942 -0.0383075 -0.0310627 -0.0201323 -0.00630489 0.00933614 0.0260619 0.0443596 0.0636108 0.0829085 0.09982 0.111915 0.11584 0.110855 0.0987848 0.0844832 0.0720923 0.0636067 0.0574548 0.0515436 0.0440483 0.0359629 0.0285894 0.0231819 0.0197391 0.0191081 0.0221275 0.0294323 0.0399337 0.0524507 0.0649998 0.0766446 0.0861296 0.0932336 0.0973551 0.0987845 0.0974807 0.0937851 0.0870575 0.0770953 0.0629928 0.045757 0.0272 0.0101115 -0.00456882 -0.0168825 -0.0278941 -0.037509 -0.044968 -0.0488317 -0.0486232 -0.0445276 -0.0371781 -0.0276958 -0.0169486 -0.00631736 0.00386649 0.0132812 0.0222184 0.0303389 0.0380168 0.0451375 0.0521388 0.0591301 0.0658196 0.0720875 0.0771245 0.080982 0.0830573 0.0836609 0.0821528 0.0787179 0.0734385 0.0665581 0.0589174 0.0505777 0.0427612 0.035406 0.0295061 0.0249212 0.0215691 0.019256 0.0168263 0.0138578 0.00899901 0.00230349 -0.00644157 -0.0165209 -0.0263886 -0.0352015 -0.0408584 -0.042934 -0.0409808 -0.0359072 -0.0301992 -0.025977 -0.0271531 -0.0352079 -0.0511725 -0.0732914 -0.0967493 -0.116609 -0.125299 -0.117871 -0.0922497 -0.0501273 0.000220271 0.0496816 0.0877813 0.107778 0.108891 0.0942277 0.0713021 0.0471729 0.0268398 0.012791 0.004634 0.000865208 -0.000347125 -0.000483889 -0.000304479 -0.000120401 0 0 
0 0 -7.8841e-05 -0.00018191 -0.00024398 1.59124e-05 0.00126639 0.004607 0.0115433 0.0231618 0.0391257 0.057051 0.0715632 0.0764944 0.0667717 0.0400959 0.000606535 -0.0445328 -0.0854692 -0.113249 -0.12461 -0.119394 -0.10355 -0.0841716 -0.0671686 -0.0573314 -0.0545162 -0.057977 -0.0645744 -0.0706649 -0.074296 -0.072965 -0.0671276 -0.0573567 -0.0453788 -0.0337466 -0.0235856 -0.0166877 -0.0126508 -0.0111949 -0.0113057 -0.0113109 -0.0106166 -0.00776922 -0.00293367 0.00422127 0.0130063 0.0227359 0.0327198 0.0418841 0.0500197 0.0562952 0.0610371 0.0640462 0.0657151 0.0664551 0.0662789 0.0656225 0.0640287 0.0618098 0.0583131 0.0540632 0.0492236 0.0452514 0.0434654 0.0445 0.0470504 0.0470811 0.0400967 0.0231663 -0.0010699 -0.0262093 -0.0443641 -0.0521998 -0.051377 -0.0470772 -0.0428008 -0.0388091 -0.033176 -0.02426 -0.0122652 0.00253729 0.0193926 0.0382604 0.0578374 0.0768363 0.0924462 0.102065 0.103205 0.0968963 0.0864263 0.0765462 0.0697765 0.0661443 0.0632742 0.059297 0.0536698 0.0480305 0.0432971 0.0395347 0.0362954 0.0345748 0.0354871 0.0397712 0.0470143 0.0566477 0.0670108 0.0767512 0.0843023 0.0891851 0.0912529 0.0911839 0.0890257 0.0848841 0.0778731 0.0677394 0.0536937 0.0369391 0.019345 0.00350343 -0.00992913 -0.0208185 -0.0302175 -0.0380518 -0.0435523 -0.0455498 -0.0434631 -0.03751 -0.0281235 -0.0166829 -0.00413714 0.0078885 0.0191084 0.0288529 0.0371575 0.0436431 0.0486867 0.052601 0.0557426 0.0584914 0.0606543 0.0625246 0.0636687 0.0646416 0.065162 0.0655504 0.0650621 0.0635529 0.0606442 0.0559277 0.0496122 0.0413109 0.0318441 0.0214396 0.0111754 0.00182476 -0.0058034 -0.0109368 -0.013766 -0.0141903 -0.0136587 -0.0128641 -0.0135317 -0.0168005 -0.0230319 -0.0326999 -0.0440168 -0.0558522 -0.0655901 -0.0714345 -0.0727924 -0.0690915 -0.0628996 -0.0561221 -0.0527473 -0.0556339 -0.0654947 -0.0824389 -0.101752 -0.117565 -0.122863 -0.111739 -0.0843529 -0.0439082 0.000707376 0.0397628 0.066146 0.0757517 0.0708564 0.0564765 0.0387216 0.0229099 0.011402 0.00453419 0.00123182 4.32005e-06 -0.000221128 -0.000141679 0 0 
0 0 -7.19763e-05 -6.98653e-05 0.00017655 0.00123473 0.00397523 0.00940166 0.0182256 0.0298553 0.0417506 0.0496908 0.048184 0.0336111 0.00615931 -0.0299097 -0.0656738 -0.0930989 -0.106473 -0.104758 -0.0932661 -0.0776816 -0.0652349 -0.0601617 -0.0628362 -0.0722374 -0.0836996 -0.093913 -0.0994492 -0.0984307 -0.0917811 -0.0805172 -0.0678485 -0.0558102 -0.0463295 -0.0404955 -0.0377317 -0.0376738 -0.0384518 -0.0389622 -0.0380328 -0.0348171 -0.0296634 -0.0223919 -0.0142447 -0.00549512 0.0029125 0.0105208 0.01734 0.0228382 0.0277713 0.0318204 0.0356922 0.0394242 0.0432262 0.047336 0.0514276 0.0555591 0.0588129 0.0609921 0.0612464 0.0597501 0.056844 0.0538774 0.0523378 0.0526576 0.0537166 0.0516503 0.0423322 0.023561 -0.00193908 -0.027583 -0.0460859 -0.054354 -0.0540458 -0.0495968 -0.0443078 -0.0387102 -0.0317059 -0.0220931 -0.00945995 0.00648722 0.0252581 0.0457864 0.066298 0.0848589 0.098798 0.105832 0.104852 0.0985876 0.0912532 0.086704 0.0852909 0.0855375 0.084975 0.0826272 0.0791407 0.07602 0.0737347 0.0715277 0.0689334 0.0668942 0.0663155 0.0677067 0.0713615 0.0773753 0.0848677 0.0922894 0.097932 0.10103 0.101286 0.0996141 0.0962462 0.091319 0.0837722 0.0729723 0.0583555 0.0411698 0.0235113 0.00733299 -0.00670759 -0.0186349 -0.029081 -0.0379251 -0.0443313 -0.0472115 -0.046019 -0.0405108 -0.0310804 -0.0189787 -0.00533234 0.00846027 0.0216739 0.0335261 0.043619 0.0513824 0.0572074 0.0611976 0.0636356 0.0645322 0.0637532 0.0616798 0.0583334 0.0545418 0.0504775 0.0467047 0.0428802 0.039208 0.0355017 0.0314857 0.0270881 0.0216664 0.0156234 0.00830836 0.000233057 -0.00845297 -0.0172916 -0.0252257 -0.032029 -0.0364634 -0.0388679 -0.0389945 -0.0378016 -0.0365386 -0.0362906 -0.0389394 -0.0447619 -0.0542926 -0.0663513 -0.0789864 -0.0901351 -0.0966081 -0.097409 -0.0916774 -0.081574 -0.0703193 -0.0611228 -0.0585734 -0.0637096 -0.076162 -0.0917052 -0.103211 -0.105019 -0.0918955 -0.0648267 -0.0294917 0.00616883 0.033316 0.0477226 0.0492028 0.0413326 0.0295486 0.0180287 0.00929192 0.0039295 0.00124495 0.000263826 -1.89426e-05 0 0 
0 0 3.23236e-05 0.00030889 0.00107157 0.00308048 0.00705205 0.0133414 0.0213351 0.0287433 0.0318437 0.0269033 0.0116041 -0.012613 -0.0406685 -0.0656659 -0.0805228 -0.0828534 -0.0744692 -0.0610289 -0.0504995 -0.0473329 -0.0538337 -0.0674888 -0.0834295 -0.097678 -0.106182 -0.108367 -0.104584 -0.0965547 -0.0871953 -0.0781527 -0.0715762 -0.0676497 -0.066118 -0.0660503 -0.0658527 -0.0647894 -0.0618127 -0.0570294 -0.0507152 -0.0434269 -0.0362042 -0.0293209 -0.0235351 -0.0187148 -0.0147534 -0.0112421 -0.00756709 -0.00334305 0.00191785 0.00823501 0.015678 0.0238556 0.0323341 0.0406561 0.0481754 0.0544892 0.0587877 0.0607366 0.059789 0.0565917 0.0517897 0.0472735 0.0444919 0.0441214 0.044684 0.0424284 0.0334883 0.0157681 -0.00769415 -0.0308416 -0.047085 -0.0539588 -0.0528966 -0.047685 -0.0409255 -0.0335011 -0.0251004 -0.0150367 -0.00231808 0.014002 0.0336105 0.054617 0.074423 0.0908175 0.101615 0.1055 0.103001 0.0979613 0.0948285 0.0957283 0.0990018 0.102211 0.103491 0.103129 0.10209 0.101504 0.101248 0.100524 0.0988352 0.0971176 0.0955648 0.0945469 0.0946154 0.0966318 0.100289 0.104532 0.107795 0.10924 0.108112 0.10508 0.100753 0.0952619 0.0876919 0.0770963 0.0629614 0.0465336 0.0297516 0.0142266 0.000399328 -0.0119191 -0.023027 -0.0326588 -0.0399594 -0.0441787 -0.0447064 -0.0412037 -0.0337121 -0.0233941 -0.0113204 0.00111152 0.0134011 0.0245718 0.0343546 0.0423213 0.0490116 0.0546351 0.0589304 0.0617247 0.0624879 0.061488 0.0584004 0.0537231 0.0475352 0.040323 0.0321585 0.0236517 0.0153063 0.00748229 0.000594664 -0.0053162 -0.0100812 -0.0140927 -0.0177285 -0.0214781 -0.0258588 -0.0309711 -0.0370781 -0.0434918 -0.0500776 -0.0558625 -0.0603438 -0.0632053 -0.0642943 -0.0645703 -0.0646848 -0.0662215 -0.0700307 -0.0764595 -0.0852853 -0.0944763 -0.102339 -0.106062 -0.103905 -0.0955759 -0.0815228 -0.0658441 -0.0524044 -0.0460862 -0.0493091 -0.0598468 -0.0732577 -0.0816656 -0.0794602 -0.0648397 -0.0401551 -0.0124257 0.0115196 0.0266506 0.0315311 0.0284561 0.0211194 0.0132107 0.00700774 0.00313191 0.00124399 0.000326546 0 0 
0 0 0.000269496 0.000966575 0.00228607 0.0049707 0.00918964 0.0143011 0.0185437 0.0191121 0.0132217 -0.000177697 -0.019258 -0.0389429 -0.0533065 -0.0582862 -0.0534586 -0.0434314 -0.0341439 -0.0310462 -0.0367482 -0.0494999 -0.0662444 -0.0821497 -0.0936588 -0.0993086 -0.0991529 -0.095722 -0.0912005 -0.088023 -0.0873437 -0.088809 -0.0916167 -0.0937852 -0.0941504 -0.0917781 -0.0864463 -0.0791342 -0.0706243 -0.0623948 -0.0552434 -0.0498155 -0.0461154 -0.0436413 -0.0418718 -0.0397776 -0.0369012 -0.0326179 -0.0267921 -0.0194438 -0.0108999 -0.00161801 0.00811206 0.0174738 0.0261599 0.0337786 0.0399068 0.0443857 0.0468595 0.0471412 0.0449989 0.0410807 0.0363313 0.0327461 0.031529 0.033167 0.0356733 0.0353279 0.0281078 0.0124191 -0.00875729 -0.0295824 -0.0443606 -0.0510741 -0.0509686 -0.0469284 -0.0405572 -0.0330019 -0.0245713 -0.0151957 -0.00345672 0.0121553 0.0314331 0.0516396 0.0695048 0.0826192 0.0899116 0.0913328 0.0889005 0.0870305 0.0893377 0.0959524 0.103655 0.109563 0.113296 0.115707 0.117699 0.119598 0.121139 0.121689 0.121198 0.119906 0.117867 0.114918 0.111745 0.10943 0.108343 0.10792 0.10756 0.106258 0.10318 0.0985409 0.0929226 0.0865897 0.0787728 0.068462 0.0553173 0.0402927 0.0251807 0.0111578 -0.00141987 -0.0129144 -0.0232822 -0.0320102 -0.0383667 -0.0421314 -0.0426075 -0.0395553 -0.0327622 -0.0233159 -0.0124724 -0.00157456 0.00872325 0.0176854 0.0250083 0.0308371 0.0357133 0.0401946 0.0438644 0.0465913 0.0479801 0.0481724 0.0468473 0.0440524 0.0396225 0.0335741 0.0258311 0.0168622 0.0071093 -0.00315831 -0.0130458 -0.0220945 -0.0296731 -0.0354145 -0.0393058 -0.0415075 -0.0427832 -0.0437309 -0.0455098 -0.0486682 -0.0538001 -0.0608244 -0.0691067 -0.0777212 -0.0851434 -0.0905045 -0.0928097 -0.0923115 -0.0899616 -0.0870019 -0.0853947 -0.0860231 -0.0891959 -0.0937674 -0.0971988 -0.097395 -0.0918294 -0.0804901 -0.0647962 -0.0482879 -0.035733 -0.0301625 -0.0333138 -0.0425968 -0.0526213 -0.0574847 -0.0526327 -0.0384705 -0.0190195 -0.000153488 0.0131002 0.0189294 0.0183707 0.0141876 0.00917066 0.00507882 0.0025417 0.000875497 0 0 
0 0 0.000612809 0.00175422 0.00339791 0.006039 0.0091673 0.0113946 0.0107236 0.00536751 -0.00490037 -0.0180185 -0.0301281 -0.0369138 -0.0363719 -0.0297755 -0.021444 -0.0171663 -0.0202564 -0.0311409 -0.0463446 -0.0609098 -0.0714344 -0.0761796 -0.0769731 -0.0762434 -0.0765465 -0.0797864 -0.0855552 -0.093467 -0.101357 -0.107513 -0.110836 -0.110195 -0.106397 -0.0998714 -0.0920523 -0.0842982 -0.0772212 -0.0718909 -0.0679712 -0.0654489 -0.0635369 -0.0614754 -0.0587313 -0.054481 -0.0488751 -0.0417749 -0.0337499 -0.025173 -0.016748 -0.00880176 -0.00159638 0.00472866 0.0104328 0.0152639 0.0196513 0.0233038 0.0261991 0.027867 0.0280151 0.0267513 0.0250164 0.0243642 0.0259553 0.0297754 0.0335692 0.0336708 0.0261853 0.0102747 -0.0110018 -0.0317685 -0.0470065 -0.0553249 -0.0576146 -0.0557697 -0.0505344 -0.0429964 -0.0341433 -0.0247716 -0.0132086 0.00228318 0.0216328 0.041107 0.0569805 0.0670031 0.0716525 0.0723416 0.0723172 0.0755268 0.084181 0.0963364 0.108037 0.116948 0.123705 0.129544 0.134706 0.138966 0.142022 0.143884 0.144346 0.143642 0.14116 0.136834 0.131051 0.124822 0.118582 0.112629 0.107185 0.10177 0.0956995 0.088826 0.0815303 0.0737176 0.0648883 0.0540926 0.0413008 0.0270029 0.0128173 -0.000541612 -0.0126262 -0.0238773 -0.0337501 -0.0417216 -0.0469996 -0.0496094 -0.0490835 -0.0450916 -0.0371381 -0.0265171 -0.0145828 -0.00288932 0.00751193 0.0161165 0.0224289 0.0268323 0.0298293 0.0319927 0.0329775 0.0327832 0.0314785 0.0293596 0.0267056 0.0233466 0.019486 0.0148259 0.00956568 0.00335999 -0.00347741 -0.0111407 -0.0194246 -0.0278953 -0.0362064 -0.0436715 -0.0500135 -0.0547606 -0.0582129 -0.0603842 -0.0621121 -0.0639295 -0.0665272 -0.0705847 -0.0760541 -0.0831935 -0.0909376 -0.0986457 -0.105026 -0.108672 -0.109212 -0.105855 -0.0997124 -0.0918807 -0.0840297 -0.0783114 -0.0751131 -0.0748231 -0.0755435 -0.0747781 -0.0701017 -0.0597156 -0.0453337 -0.0303414 -0.0196165 -0.0166191 -0.0209208 -0.0292355 -0.0358365 -0.0364342 -0.0297615 -0.0178032 -0.00483088 0.00533372 0.0106482 0.0113442 0.00920043 0.00620593 0.00370515 0.00147618 0 0 
0 0 0.000954736 0.00238279 0.00390518 0.00567054 0.00675175 0.00580423 0.00173425 -0.00544801 -0.0138313 -0.0203418 -0.0223711 -0.0192555 -0.0137769 -0.00994639 -0.0112426 -0.018804 -0.0298277 -0.0412992 -0.0496083 -0.0532503 -0.0536131 -0.0523796 -0.0531315 -0.0575018 -0.0659453 -0.0777425 -0.0899844 -0.10102 -0.108392 -0.111582 -0.111056 -0.107567 -0.103225 -0.0987304 -0.0953131 -0.0930004 -0.0912026 -0.0896198 -0.0868414 -0.0830913 -0.0776864 -0.0712901 -0.0644161 -0.0574196 -0.0511905 -0.0454218 -0.0405707 -0.0360104 -0.031677 -0.0271946 -0.0221586 -0.0168103 -0.0107383 -0.00454324 0.00185843 0.00778664 0.0128966 0.0165689 0.0182891 0.0182348 0.0172796 0.0172425 0.0191288 0.0230187 0.0264624 0.0257905 0.0174476 0.00109358 -0.0198608 -0.0399133 -0.0546157 -0.0632605 -0.0666063 -0.0658175 -0.0605367 -0.0519403 -0.0416002 -0.0311793 -0.0190535 -0.00340989 0.0155499 0.0335658 0.0465468 0.0530081 0.0550939 0.0559924 0.0593321 0.0679586 0.0820794 0.0984195 0.112993 0.124475 0.134229 0.143239 0.151058 0.157124 0.161346 0.16422 0.165507 0.165066 0.16236 0.157296 0.149915 0.140845 0.130377 0.119269 0.108522 0.0984318 0.0889597 0.0800966 0.0717015 0.0632263 0.0539663 0.0431395 0.0307942 0.0174001 0.00414641 -0.00858178 -0.0205842 -0.0321043 -0.0421558 -0.050306 -0.0556062 -0.0583805 -0.0580119 -0.0542147 -0.0462812 -0.0353973 -0.0230735 -0.0111485 -0.000584059 0.0081359 0.014708 0.01946 0.0228143 0.0251328 0.025803 0.0249196 0.0223773 0.018653 0.0137863 0.00790167 0.0013631 -0.00564718 -0.0124309 -0.0190403 -0.0247461 -0.0298938 -0.0341692 -0.0379971 -0.041815 -0.0458732 -0.0508783 -0.0564698 -0.0630786 -0.0697963 -0.0762794 -0.0818416 -0.0858105 -0.0886817 -0.0902813 -0.0919755 -0.0941647 -0.0974462 -0.101851 -0.106159 -0.109661 -0.110247 -0.107104 -0.0997821 -0.0887556 -0.076513 -0.06481 -0.0564392 -0.0521124 -0.0513567 -0.0525917 -0.0522286 -0.0486601 -0.0404628 -0.0291491 -0.0182775 -0.0108424 -0.00960886 -0.0134537 -0.0189332 -0.0220594 -0.0200833 -0.0136555 -0.00535537 0.00177347 0.0058449 0.00685289 0.00588299 0.00421326 0.00188401 0 0 
0 0 0.00114822 0.00255917 0.00352029 0.00397897 0.00309839 0.000293372 -0.00415495 -0.00895924 -0.0120373 -0.0120719 -0.00950888 -0.00632734 -0.00606684 -0.010414 -0.0188037 -0.0287641 -0.0355985 -0.0378164 -0.0356627 -0.0321202 -0.031584 -0.0352825 -0.0442352 -0.0560315 -0.0681622 -0.0791048 -0.086763 -0.0918748 -0.094515 -0.0959663 -0.0974205 -0.0989152 -0.10123 -0.103304 -0.104906 -0.105262 -0.10368 -0.100564 -0.0954407 -0.0893925 -0.082588 -0.0758374 -0.0698212 -0.0646315 -0.0608146 -0.0576562 -0.0552507 -0.0525971 -0.0494163 -0.0452709 -0.0396787 -0.0330469 -0.0252502 -0.0172607 -0.00926536 -0.00242634 0.00298772 0.0062492 0.00700821 0.00578136 0.00358548 0.00273224 0.0041322 0.00819996 0.011956 0.0120067 0.00468098 -0.00995574 -0.0283909 -0.0454497 -0.057623 -0.0648487 -0.0680505 -0.0675852 -0.0622501 -0.0528918 -0.0416277 -0.0308072 -0.0191349 -0.00494851 0.0115889 0.0258773 0.0341244 0.0358928 0.0351903 0.036502 0.0433121 0.056515 0.0745931 0.0935178 0.109966 0.123776 0.136298 0.148037 0.157915 0.165378 0.170713 0.174419 0.176176 0.175735 0.172817 0.167309 0.159014 0.148055 0.134535 0.119355 0.103712 0.0888857 0.075733 0.0649023 0.0561857 0.048272 0.0400901 0.0306011 0.0199269 0.00860908 -0.00221997 -0.0128491 -0.0232716 -0.0338125 -0.0431904 -0.0508661 -0.0559657 -0.0589998 -0.0594518 -0.0569046 -0.0505221 -0.0413409 -0.0310288 -0.021265 -0.0128534 -0.0058695 -0.000461194 0.0040978 0.0077317 0.0109497 0.0127122 0.0131327 0.0117132 0.00877141 0.00396087 -0.0026676 -0.0104582 -0.0192184 -0.0277027 -0.0357438 -0.0423386 -0.0475229 -0.051002 -0.0533073 -0.0551327 -0.0568626 -0.0596068 -0.0632378 -0.0684708 -0.0746317 -0.0815596 -0.0884985 -0.0945989 -0.0996763 -0.10267 -0.104115 -0.103648 -0.102005 -0.0999483 -0.0977016 -0.0962637 -0.0948424 -0.093395 -0.0907505 -0.0856247 -0.0779599 -0.0670961 -0.0550668 -0.0433775 -0.0345053 -0.0308416 -0.0313806 -0.034901 -0.0370624 -0.0348952 -0.028166 -0.0183459 -0.0100814 -0.00581861 -0.00611861 -0.00930767 -0.0118741 -0.0118549 -0.00880677 -0.00403036 0.000417585 0.00326027 0.00421269 0.00378498 0.00188692 0 0 
0 0 0.0010957 0.00218267 0.00240184 0.00178975 2.36359e-05 -0.00263344 -0.00519143 -0.00649155 -0.00582883 -0.00421935 -0.00385095 -0.00625595 -0.0121658 -0.0191806 -0.0244066 -0.0265388 -0.0246515 -0.0217829 -0.020145 -0.0216334 -0.027714 -0.0361843 -0.0463016 -0.0553452 -0.0618655 -0.0664178 -0.0688064 -0.0714467 -0.0749683 -0.0801904 -0.0873825 -0.094818 -0.101978 -0.106811 -0.108979 -0.108238 -0.104804 -0.100264 -0.0950567 -0.0906084 -0.0869722 -0.0842615 -0.0822767 -0.0801361 -0.0777229 -0.0742471 -0.0700034 -0.0647613 -0.0588774 -0.052621 -0.0461308 -0.0399677 -0.0338694 -0.0284017 -0.0234017 -0.0194437 -0.0166007 -0.0151368 -0.0151845 -0.0161325 -0.0170226 -0.0157629 -0.0115187 -0.00447961 0.00221078 0.00469876 -0.000513939 -0.0130469 -0.0293213 -0.0442281 -0.0550876 -0.062403 -0.0670675 -0.0686565 -0.0650029 -0.0565629 -0.0456762 -0.0354068 -0.0250115 -0.0131596 -9.8348e-05 0.00973641 0.0131857 0.0113303 0.00955042 0.0130438 0.0242145 0.0421684 0.0636427 0.0848218 0.103489 0.120173 0.135776 0.150183 0.162008 0.170981 0.177592 0.182143 0.184132 0.18347 0.180039 0.173909 0.164699 0.152143 0.136179 0.11759 0.0973441 0.077342 0.0594771 0.0453476 0.0349988 0.0270742 0.0196685 0.0113927 0.00213591 -0.00726012 -0.015791 -0.0239786 -0.0320928 -0.0406444 -0.0482637 -0.0541773 -0.0575189 -0.0591037 -0.0585236 -0.0553739 -0.0489492 -0.0403026 -0.0312245 -0.0234201 -0.0176273 -0.0134403 -0.0108244 -0.00900277 -0.00792489 -0.00720721 -0.00739477 -0.00825676 -0.0100652 -0.0125625 -0.0160014 -0.0203798 -0.0253814 -0.030953 -0.0365385 -0.0424336 -0.0480641 -0.0537813 -0.0591639 -0.0642423 -0.068941 -0.0728823 -0.0763881 -0.078934 -0.0813344 -0.0834533 -0.086213 -0.0897962 -0.0941269 -0.0992294 -0.103662 -0.107075 -0.107795 -0.105684 -0.100877 -0.0937787 -0.0863388 -0.0791615 -0.073922 -0.0704193 -0.0678085 -0.0654862 -0.0609521 -0.0544729 -0.045481 -0.0354548 -0.0270468 -0.0210376 -0.0195662 -0.0212146 -0.0240667 -0.0259808 -0.0239033 -0.0187711 -0.0118619 -0.00604206 -0.00369115 -0.00407745 -0.00568311 -0.00633718 -0.00503257 -0.00246427 0.000215447 0.00201432 0.00259966 0.00146119 0 0 
0 0 0.000818268 0.00143738 0.00110676 0.000114388 -0.00133007 -0.00262529 -0.00314506 -0.00289034 -0.00250376 -0.00344695 -0.00671791 -0.0115865 -0.0167726 -0.019408 -0.0184174 -0.0154553 -0.0122837 -0.0130043 -0.0179507 -0.0255885 -0.0339749 -0.0394569 -0.042439 -0.0431708 -0.043368 -0.04555 -0.0498289 -0.0570924 -0.0659453 -0.0751305 -0.0836761 -0.0900658 -0.0947268 -0.0972341 -0.0984801 -0.0989797 -0.0989265 -0.0989278 -0.0984534 -0.098041 -0.0969329 -0.0952159 -0.0928041 -0.0893188 -0.0853069 -0.0803341 -0.0751745 -0.0698164 -0.0646009 -0.0598789 -0.0555827 -0.052038 -0.0487406 -0.0459533 -0.0432719 -0.0409741 -0.0390451 -0.0377247 -0.0369798 -0.0363648 -0.0349422 -0.0309627 -0.0238769 -0.0142598 -0.00539888 -0.00145974 -0.00562544 -0.0171549 -0.0322002 -0.0458507 -0.0560346 -0.0637525 -0.0699899 -0.0735004 -0.0715371 -0.0636323 -0.0526568 -0.042102 -0.0323524 -0.0224255 -0.0128037 -0.00701051 -0.00711765 -0.010619 -0.0111692 -0.00387669 0.0122635 0.0344939 0.0587095 0.0818779 0.102973 0.122746 0.141335 0.158011 0.171571 0.18218 0.190121 0.195297 0.197402 0.196388 0.192383 0.185374 0.175038 0.161113 0.143359 0.122215 0.0983173 0.0737286 0.050969 0.0325219 0.0191312 0.00974159 0.00223342 -0.00550205 -0.0138774 -0.0221325 -0.0293146 -0.0359118 -0.0426039 -0.0497541 -0.0562631 -0.0609563 -0.0631006 -0.0632409 -0.0615331 -0.057412 -0.0505488 -0.0419213 -0.0333809 -0.0266062 -0.0222344 -0.0197188 -0.0188168 -0.0190686 -0.0203345 -0.0222858 -0.0251456 -0.0283365 -0.0318824 -0.0354622 -0.0390669 -0.0425689 -0.0456602 -0.0484634 -0.0508749 -0.0535297 -0.0562688 -0.0597747 -0.0638221 -0.0686516 -0.0738956 -0.0791347 -0.0843012 -0.0884855 -0.0921 -0.0944878 -0.0961095 -0.0970699 -0.0973667 -0.0977817 -0.0977873 -0.0979018 -0.0974495 -0.096241 -0.0937273 -0.089068 -0.0826617 -0.074144 -0.0650208 -0.0562553 -0.0491112 -0.0449093 -0.0427444 -0.0425059 -0.0417569 -0.038765 -0.033329 -0.0250056 -0.0174444 -0.0125509 -0.0118546 -0.0150174 -0.0179777 -0.0189958 -0.0164209 -0.0113143 -0.00651728 -0.00329583 -0.00236956 -0.00275144 -0.00299216 -0.00245472 -0.00114639 0.000299743 0.00122842 0.000816277 0 0 
0 0 0.000448074 0.00067155 0.000203734 -0.00053167 -0.00118694 -0.00143461 -0.0013957 -0.00186171 -0.00356649 -0.00674324 -0.0104085 -0.0125848 -0.0126587 -0.0108583 -0.00918196 -0.00992741 -0.0130435 -0.018546 -0.024061 -0.027992 -0.0300354 -0.029566 -0.0288808 -0.0288746 -0.0310605 -0.0363366 -0.0434498 -0.0522028 -0.0606115 -0.0677254 -0.0733107 -0.0770125 -0.0800571 -0.0827809 -0.0861155 -0.0902298 -0.0945781 -0.0988163 -0.10161 -0.10277 -0.101693 -0.0987264 -0.0944325 -0.0894199 -0.0847403 -0.0805524 -0.0774743 -0.0752767 -0.0738149 -0.0726344 -0.0713633 -0.0698015 -0.0675152 -0.0647561 -0.0613995 -0.0580506 -0.0550396 -0.0527646 -0.0514602 -0.0504858 -0.0488916 -0.0449568 -0.0380131 -0.0286622 -0.0201344 -0.0164403 -0.0203765 -0.030997 -0.0440485 -0.055079 -0.0627944 -0.0685933 -0.0739556 -0.0770763 -0.0746233 -0.0656138 -0.0530884 -0.0411572 -0.0313306 -0.0232916 -0.0173038 -0.0155815 -0.018538 -0.0224527 -0.0208075 -0.0097675 0.0100603 0.0346497 0.0600047 0.0841034 0.106941 0.128858 0.149485 0.167459 0.182252 0.194106 0.203061 0.208647 0.210682 0.209384 0.204845 0.196998 0.185722 0.170864 0.15229 0.129895 0.104323 0.0770878 0.051023 0.0289399 0.0124425 0.00118157 -0.0066997 -0.0136747 -0.0206539 -0.027406 -0.0332338 -0.0386894 -0.0445854 -0.0513331 -0.0578533 -0.0628112 -0.0655358 -0.0664124 -0.0656348 -0.0627888 -0.0577258 -0.0509962 -0.0445299 -0.039523 -0.0363075 -0.0344577 -0.0336728 -0.0337359 -0.0347445 -0.0366287 -0.0394804 -0.0428354 -0.0467791 -0.0510003 -0.0555053 -0.0598116 -0.0634272 -0.0664161 -0.0684826 -0.0699829 -0.0708943 -0.0716866 -0.0726792 -0.0741496 -0.0765032 -0.0797302 -0.084026 -0.0886904 -0.0936298 -0.0978005 -0.100663 -0.101699 -0.100537 -0.0977719 -0.0935848 -0.0892513 -0.0851676 -0.0818111 -0.0791144 -0.07608 -0.0724439 -0.0669411 -0.0599356 -0.0516285 -0.0429697 -0.0359054 -0.0306714 -0.028474 -0.028451 -0.0290985 -0.0295358 -0.0274833 -0.0235676 -0.0180968 -0.0126397 -0.00957376 -0.00884876 -0.010536 -0.012343 -0.0122953 -0.0101617 -0.00654649 -0.00341036 -0.00172434 -0.001258 -0.00128762 -0.00103891 -0.000406331 0.000247191 0.000252529 0 0 
0 0 0.000144911 0.00015866 -0.000138227 -0.000439286 -0.00064833 -0.000905602 -0.0016171 -0.00321531 -0.00549707 -0.00771809 -0.00886259 -0.008251 -0.00690622 -0.0063695 -0.00834921 -0.0131959 -0.0186713 -0.0227876 -0.0234171 -0.0212157 -0.0185345 -0.0171906 -0.0193614 -0.0242985 -0.0309084 -0.0376246 -0.0428965 -0.0468024 -0.0494123 -0.0521889 -0.055931 -0.0609807 -0.0675969 -0.0744964 -0.0813743 -0.0870086 -0.0911073 -0.0936835 -0.0946471 -0.0947489 -0.0939431 -0.0928743 -0.0915466 -0.0901174 -0.0887859 -0.0873447 -0.086079 -0.0846261 -0.0832266 -0.0816161 -0.0799614 -0.0781554 -0.0761975 -0.0743648 -0.0724629 -0.0710301 -0.0700472 -0.0699216 -0.0703648 -0.0706549 -0.0695117 -0.0653999 -0.0576128 -0.0471359 -0.0373031 -0.032087 -0.0342073 -0.0423635 -0.0525078 -0.0604304 -0.0654712 -0.0696147 -0.0744255 -0.0778041 -0.0758381 -0.0669688 -0.0542004 -0.0422222 -0.0334837 -0.0284888 -0.0268488 -0.0292562 -0.0341109 -0.0368843 -0.0318685 -0.0169051 0.00574836 0.0317593 0.0578733 0.0829151 0.107531 0.131496 0.153742 0.17288 0.18885 0.202011 0.211905 0.217863 0.219876 0.218285 0.213075 0.204204 0.191781 0.175939 0.156498 0.133261 0.106748 0.0780427 0.0496795 0.0243491 0.00438721 -0.00980165 -0.0193943 -0.0264149 -0.0321681 -0.037014 -0.0408762 -0.0447252 -0.0491287 -0.0546869 -0.0601923 -0.0643448 -0.0665266 -0.067096 -0.0664385 -0.0642523 -0.0606008 -0.0561446 -0.052298 -0.0499173 -0.0491727 -0.0494728 -0.050743 -0.052554 -0.0550845 -0.0579777 -0.0609981 -0.0637847 -0.0662464 -0.0684816 -0.0704199 -0.0721222 -0.0733623 -0.0746233 -0.075836 -0.0772811 -0.0788257 -0.0804901 -0.0822734 -0.08388 -0.0854556 -0.0867424 -0.0881005 -0.0892778 -0.0905918 -0.0918368 -0.0928958 -0.0937448 -0.0936848 -0.0927653 -0.090181 -0.0860808 -0.0804252 -0.0735748 -0.0667215 -0.0601969 -0.0552432 -0.0516044 -0.0489043 -0.0463425 -0.0424717 -0.0372242 -0.0305466 -0.0239842 -0.0190671 -0.0168934 -0.018197 -0.0208257 -0.0229905 -0.0223455 -0.0182694 -0.012847 -0.00805667 -0.00610643 -0.00665278 -0.00800233 -0.00862637 -0.00750865 -0.00531974 -0.00306611 -0.00148644 -0.000786374 -0.000547342 -0.000380412 -0.000163298 -4.98054e-05 0 0 
0 0 -9.15643e-06 -5.78061e-05 -0.000169751 -0.000300605 -0.000604435 -0.00134638 -0.00265331 -0.00423848 -0.00530572 -0.00538389 -0.00484134 -0.00477738 -0.0065496 -0.00989781 -0.0136901 -0.0164091 -0.0168284 -0.0158144 -0.014122 -0.0134329 -0.0146865 -0.0176759 -0.0220783 -0.0263676 -0.0301028 -0.0326553 -0.0342553 -0.0358228 -0.0378299 -0.0413582 -0.0464184 -0.0528264 -0.0602243 -0.0672245 -0.0735518 -0.0781244 -0.0811666 -0.0828906 -0.0837861 -0.0848784 -0.0861041 -0.0880672 -0.0900896 -0.0919116 -0.0930136 -0.0929187 -0.0917056 -0.0893514 -0.0866546 -0.0837723 -0.0815996 -0.0802329 -0.0799687 -0.0808318 -0.0823958 -0.0847226 -0.0871778 -0.0899763 -0.0921353 -0.0931235 -0.0913813 -0.0857314 -0.0756783 -0.0627517 -0.0505874 -0.0432265 -0.0433281 -0.0492998 -0.0572413 -0.0631488 -0.0668453 -0.0706188 -0.0762346 -0.0810814 -0.0808889 -0.0735443 -0.0618249 -0.0509562 -0.0443004 -0.0426574 -0.0451449 -0.0505576 -0.055443 -0.0550986 -0.04536 -0.0263888 -0.0011781 0.0259943 0.0531818 0.0797856 0.106433 0.132311 0.156118 0.176602 0.194033 0.208521 0.219383 0.225601 0.227746 0.225814 0.219944 0.209814 0.196111 0.178945 0.158301 0.134051 0.106753 0.0770627 0.0469813 0.01883 -0.00475311 -0.0230146 -0.0359152 -0.0448617 -0.0506794 -0.0543609 -0.0564696 -0.0584808 -0.0612721 -0.0651867 -0.0689968 -0.0713898 -0.0718304 -0.0707862 -0.0687894 -0.065732 -0.0621817 -0.0586069 -0.0563082 -0.0557777 -0.057105 -0.0597896 -0.0638743 -0.068797 -0.0743202 -0.0796552 -0.0840841 -0.0870807 -0.0883232 -0.0882594 -0.0867347 -0.0845325 -0.0818219 -0.0797946 -0.0786749 -0.0789019 -0.0803816 -0.082833 -0.0859723 -0.0888 -0.0911238 -0.0922238 -0.0921806 -0.0909556 -0.0890969 -0.0870988 -0.0851821 -0.0839933 -0.0829107 -0.0819943 -0.0802582 -0.0772096 -0.0726855 -0.0664165 -0.0595138 -0.0521868 -0.0458531 -0.0408449 -0.0373522 -0.0353863 -0.0338574 -0.0322891 -0.0297563 -0.0260428 -0.0217828 -0.0173997 -0.0144286 -0.013167 -0.0138405 -0.0154967 -0.0164939 -0.0160688 -0.0133791 -0.00962448 -0.00631324 -0.0045705 -0.00464848 -0.0052009 -0.00513548 -0.00408778 -0.00252894 -0.00125211 -0.000548703 -0.000299613 -0.000239783 -0.000122065 0 0 
0 0 -5.14024e-05 -0.000124776 -0.000216264 -0.000473137 -0.00103348 -0.00188528 -0.00281246 -0.00347091 -0.00358978 -0.00358636 -0.00418052 -0.00603159 -0.00927621 -0.0123276 -0.0139179 -0.0131467 -0.0106524 -0.00915676 -0.00973812 -0.0133222 -0.0182586 -0.0222827 -0.0245835 -0.0243422 -0.0231873 -0.0224985 -0.0234907 -0.0270949 -0.0323178 -0.0386763 -0.0445724 -0.0493934 -0.0531286 -0.055919 -0.0589703 -0.0624577 -0.0669049 -0.0719314 -0.0769508 -0.0816323 -0.0850735 -0.0875213 -0.0885007 -0.0886062 -0.0880507 -0.0871191 -0.0863973 -0.0857078 -0.0857239 -0.0860502 -0.0871092 -0.0885743 -0.0904439 -0.0926912 -0.0948714 -0.0972831 -0.0994509 -0.101763 -0.103479 -0.104083 -0.102063 -0.0962061 -0.0862358 -0.0736855 -0.0623244 -0.0558538 -0.0566179 -0.0625961 -0.0699227 -0.0746779 -0.077176 -0.0800156 -0.0850405 -0.0897999 -0.0896201 -0.082343 -0.0705238 -0.0598464 -0.0541335 -0.0545246 -0.0592391 -0.0654539 -0.0681258 -0.0631556 -0.0484016 -0.0260277 0.000547915 0.0282042 0.0561779 0.0841168 0.112127 0.139031 0.163689 0.18509 0.203636 0.218969 0.230382 0.236915 0.23912 0.236971 0.230435 0.219391 0.204768 0.186614 0.165138 0.140252 0.112679 0.0828 0.0521577 0.0226063 -0.003553 -0.0253837 -0.0421667 -0.0543262 -0.0619968 -0.0661807 -0.0677152 -0.0689639 -0.0711763 -0.0748928 -0.0786486 -0.0810441 -0.0813972 -0.0803283 -0.0782981 -0.075656 -0.0727012 -0.069961 -0.0683517 -0.0679685 -0.0691847 -0.0716063 -0.0757154 -0.0807098 -0.0863196 -0.0915451 -0.0957034 -0.0983676 -0.099389 -0.0991797 -0.0977492 -0.0957393 -0.0931052 -0.0908882 -0.0888047 -0.0872403 -0.0860668 -0.0852607 -0.0850906 -0.0850341 -0.0856528 -0.0862983 -0.0871911 -0.087735 -0.0876368 -0.0866897 -0.0842239 -0.0807796 -0.076074 -0.0710521 -0.066056 -0.0616594 -0.0582593 -0.0552779 -0.0525692 -0.0488697 -0.0440862 -0.0382251 -0.0319107 -0.0267431 -0.0232176 -0.0222905 -0.0229815 -0.0240983 -0.0243263 -0.0220186 -0.0180271 -0.0131143 -0.00955581 -0.00896057 -0.0104286 -0.0128831 -0.0136362 -0.0120568 -0.00903464 -0.0058302 -0.00400462 -0.00342754 -0.00344468 -0.0033413 -0.00270785 -0.00181623 -0.00101211 -0.00050769 -0.000300591 -0.000121852 0 0 
0 0 -7.32921e-05 -0.000201149 -0.000377893 -0.000756402 -0.00132287 -0.00184981 -0.00215391 -0.00232244 -0.00275205 -0.0041752 -0.00638179 -0.00847017 -0.00965992 -0.00906073 -0.00809538 -0.00786695 -0.00887586 -0.0118087 -0.0146678 -0.0170672 -0.0181722 -0.0177889 -0.0173551 -0.0168464 -0.0177381 -0.0197507 -0.0226548 -0.026576 -0.0300992 -0.0338737 -0.0370137 -0.0398373 -0.0427712 -0.0456468 -0.0494665 -0.0539004 -0.0591944 -0.064928 -0.0702846 -0.0751184 -0.0784402 -0.0806073 -0.0814181 -0.0815593 -0.0815902 -0.0817973 -0.0829153 -0.0845385 -0.0870822 -0.0898345 -0.0928473 -0.0956542 -0.0980972 -0.100309 -0.101995 -0.103757 -0.105377 -0.107426 -0.109276 -0.110403 -0.109191 -0.104335 -0.0953286 -0.0839668 -0.0739674 -0.068835 -0.0705873 -0.0767976 -0.083544 -0.0871815 -0.088343 -0.0898077 -0.0937113 -0.0976413 -0.0971357 -0.0899222 -0.0784923 -0.0684773 -0.0639562 -0.0659023 -0.071576 -0.0768534 -0.0760171 -0.0659766 -0.0466926 -0.0220719 0.00495866 0.0326093 0.0612975 0.0902824 0.119084 0.146329 0.171405 0.193498 0.212863 0.228766 0.240511 0.247257 0.249538 0.247148 0.24015 0.228499 0.213206 0.194324 0.172202 0.14687 0.119183 0.0893644 0.0588851 0.0290107 0.00161069 -0.0227769 -0.0429774 -0.0588997 -0.0696067 -0.0755452 -0.077535 -0.0784309 -0.080036 -0.0833483 -0.0870391 -0.0896353 -0.0903058 -0.0894858 -0.0879389 -0.0859996 -0.084043 -0.0823412 -0.0814448 -0.0812326 -0.0822102 -0.0842288 -0.0878922 -0.0922445 -0.0967369 -0.100486 -0.102951 -0.104197 -0.104256 -0.103688 -0.102508 -0.101298 -0.0997512 -0.0983701 -0.0965454 -0.0944099 -0.0918381 -0.0889702 -0.0862762 -0.0837007 -0.0820613 -0.0809824 -0.0808136 -0.0807934 -0.0806293 -0.0797798 -0.0775511 -0.0742188 -0.0694194 -0.0641298 -0.0584854 -0.05326 -0.0488869 -0.0450848 -0.0422564 -0.0393597 -0.0366064 -0.0335288 -0.0298269 -0.0263625 -0.0224974 -0.0196266 -0.0176342 -0.0167379 -0.017229 -0.0176365 -0.0179993 -0.0168774 -0.0144801 -0.0116298 -0.00870676 -0.00769004 -0.00790099 -0.00884933 -0.00943898 -0.00826286 -0.00619885 -0.00402337 -0.00262771 -0.00222152 -0.00207875 -0.00180648 -0.00132142 -0.000799098 -0.000450671 -0.000168808 0 0 
0 0 -0.000119665 -0.000314882 -0.000539313 -0.000851701 -0.00119209 -0.00146316 -0.00179628 -0.00244864 -0.00353767 -0.00520213 -0.00669475 -0.00730812 -0.00710202 -0.00603027 -0.00614232 -0.00805833 -0.0111198 -0.0147404 -0.0159739 -0.015324 -0.0133002 -0.0111514 -0.0114569 -0.0134252 -0.0173045 -0.021371 -0.0241429 -0.0258665 -0.0257983 -0.0258935 -0.02671 -0.029266 -0.0339134 -0.0395313 -0.0458298 -0.0511837 -0.0555586 -0.0586619 -0.0607893 -0.0629993 -0.065208 -0.0683077 -0.0718974 -0.0757838 -0.079695 -0.0829849 -0.0858932 -0.0878847 -0.0896116 -0.0909732 -0.0924678 -0.0941744 -0.0962991 -0.0990013 -0.101994 -0.105592 -0.10947 -0.113781 -0.117658 -0.120314 -0.120054 -0.11529 -0.105863 -0.0936829 -0.082787 -0.0769099 -0.0778318 -0.0830537 -0.0886926 -0.0911623 -0.0913984 -0.0923943 -0.0962649 -0.100838 -0.101752 -0.0968969 -0.088463 -0.0816972 -0.0800406 -0.0841193 -0.0904053 -0.093954 -0.0892636 -0.07452 -0.0517957 -0.0257109 0.00140455 0.0294733 0.05929 0.0896226 0.119191 0.146997 0.172778 0.195931 0.216158 0.232608 0.244726 0.251861 0.254189 0.251601 0.244124 0.231968 0.215986 0.196244 0.173127 0.146949 0.118483 0.0882517 0.0575816 0.0275989 -0.000551723 -0.0265978 -0.0496223 -0.068917 -0.0830042 -0.0913345 -0.094294 -0.0945638 -0.0944371 -0.0955733 -0.097019 -0.0976673 -0.0966208 -0.0944093 -0.091732 -0.0892098 -0.0873279 -0.0862601 -0.0863046 -0.0869967 -0.0890539 -0.0924526 -0.0975479 -0.103087 -0.108016 -0.111384 -0.113004 -0.112917 -0.111407 -0.108989 -0.105948 -0.102895 -0.099851 -0.0972692 -0.0948446 -0.0928627 -0.0912416 -0.0898421 -0.0885855 -0.0869417 -0.0850509 -0.0822344 -0.0789754 -0.0750481 -0.0711147 -0.0674887 -0.0643446 -0.0621617 -0.060003 -0.0579727 -0.0549376 -0.0506402 -0.0453173 -0.039056 -0.0334726 -0.028895 -0.0264125 -0.0256838 -0.0256545 -0.0257598 -0.0240596 -0.0212783 -0.0172515 -0.0134016 -0.0114459 -0.0111306 -0.0132429 -0.0152107 -0.0158333 -0.0145781 -0.0109716 -0.00791551 -0.00599886 -0.00587433 -0.00692663 -0.00713122 -0.00652664 -0.00505761 -0.0034231 -0.0023657 -0.0017441 -0.00143943 -0.00119884 -0.000886604 -0.000592705 -0.000253623 0 0 
0 0 -0.000166685 -0.000392996 -0.00058319 -0.00077894 -0.000999499 -0.00133829 -0.00205383 -0.00317546 -0.00421907 -0.00486327 -0.00474007 -0.00446686 -0.00530617 -0.00697888 -0.00959554 -0.0114254 -0.0114855 -0.0109542 -0.00945692 -0.00927502 -0.0103235 -0.0120331 -0.0145837 -0.0161307 -0.0172319 -0.0177005 -0.0177374 -0.0185728 -0.0195798 -0.0217593 -0.0245055 -0.0276628 -0.0313981 -0.0348592 -0.0386651 -0.0421357 -0.0455507 -0.0489297 -0.0521956 -0.0558441 -0.0594167 -0.0635464 -0.067612 -0.0717233 -0.0756009 -0.0789671 -0.0820318 -0.0844662 -0.0869087 -0.0891132 -0.0916166 -0.0943817 -0.0975094 -0.101028 -0.104697 -0.108733 -0.112853 -0.117207 -0.121116 -0.123704 -0.123338 -0.118388 -0.108829 -0.0966947 -0.0862802 -0.0812764 -0.0831512 -0.089187 -0.09531 -0.0980038 -0.0982833 -0.0991502 -0.10287 -0.107666 -0.109613 -0.106733 -0.101176 -0.0973463 -0.0977869 -0.1022 -0.106732 -0.106423 -0.0967317 -0.0774039 -0.0518026 -0.0246906 0.00264458 0.0314775 0.062577 0.0941408 0.1244 0.152699 0.179204 0.203251 0.224141 0.24095 0.25333 0.260831 0.26326 0.260496 0.252717 0.240278 0.223757 0.203276 0.179319 0.152228 0.122816 0.09189 0.0608557 0.0306754 0.00202227 -0.025093 -0.0502868 -0.0728061 -0.0907474 -0.102814 -0.108583 -0.110219 -0.110022 -0.10987 -0.109584 -0.108547 -0.106283 -0.103189 -0.0998775 -0.0968344 -0.0946242 -0.093243 -0.0928887 -0.0930818 -0.0944974 -0.097334 -0.101848 -0.10673 -0.110915 -0.113555 -0.114872 -0.11491 -0.113858 -0.111944 -0.109266 -0.106275 -0.102838 -0.0994006 -0.0959668 -0.0928352 -0.090134 -0.0877768 -0.0857568 -0.0834928 -0.0812002 -0.0782207 -0.0748508 -0.0709639 -0.0668532 -0.0628098 -0.0587131 -0.0551768 -0.0515487 -0.0483182 -0.0449577 -0.0416086 -0.038191 -0.0344713 -0.031071 -0.0274054 -0.0242798 -0.021591 -0.0194312 -0.018467 -0.01766 -0.0176557 -0.0171932 -0.0160911 -0.0145552 -0.0120117 -0.0103034 -0.00924233 -0.00940392 -0.0108627 -0.0113643 -0.0112818 -0.00944918 -0.00684506 -0.00517616 -0.00434098 -0.0046124 -0.00474272 -0.00411775 -0.00310177 -0.00201064 -0.00132167 -0.00100765 -0.00080928 -0.000630235 -0.000298441 0 0 
0 0 -0.000184238 -0.000401645 -0.000543283 -0.000740473 -0.00107717 -0.00159045 -0.00230201 -0.00305306 -0.00351672 -0.00380447 -0.00398933 -0.00461632 -0.00631689 -0.00818096 -0.00984574 -0.0100637 -0.00867237 -0.00747248 -0.00682252 -0.00831897 -0.0111044 -0.0137577 -0.0156232 -0.0153382 -0.0141311 -0.0126261 -0.0120633 -0.0136525 -0.016523 -0.0205854 -0.0242798 -0.026903 -0.0286044 -0.029235 -0.0304014 -0.0323091 -0.0358052 -0.0407539 -0.046411 -0.0524004 -0.0574172 -0.0616831 -0.0646427 -0.0669041 -0.0688558 -0.0708958 -0.0738045 -0.0773491 -0.0819459 -0.0870068 -0.0924846 -0.0976542 -0.102335 -0.106216 -0.109159 -0.111534 -0.113459 -0.11548 -0.117253 -0.118396 -0.117288 -0.112632 -0.104176 -0.0941803 -0.0866095 -0.0849331 -0.0901832 -0.0991936 -0.107492 -0.111465 -0.112046 -0.112445 -0.115101 -0.118748 -0.120192 -0.117945 -0.114002 -0.111749 -0.112576 -0.114958 -0.115197 -0.109113 -0.0938844 -0.0704783 -0.0428387 -0.015053 0.0127299 0.0423371 0.0744547 0.106689 0.137293 0.165862 0.192957 0.217513 0.23864 0.255498 0.268072 0.275728 0.278305 0.27543 0.267657 0.255111 0.238341 0.217409 0.192935 0.165154 0.135087 0.103558 0.0722431 0.041909 0.0130537 -0.0147738 -0.0414681 -0.0665942 -0.0882545 -0.104594 -0.11471 -0.119868 -0.121976 -0.122627 -0.122382 -0.121063 -0.118847 -0.116346 -0.113837 -0.111405 -0.109214 -0.107129 -0.105269 -0.103282 -0.101866 -0.101442 -0.102506 -0.104061 -0.105466 -0.106536 -0.107542 -0.108646 -0.109525 -0.110168 -0.110078 -0.109369 -0.107452 -0.104545 -0.10056 -0.0958541 -0.0907892 -0.085505 -0.0806368 -0.0762341 -0.0728045 -0.0700198 -0.0680295 -0.0661688 -0.0639965 -0.0611027 -0.0568921 -0.0519097 -0.0459179 -0.0402742 -0.0353524 -0.0319247 -0.0300902 -0.0290092 -0.0284369 -0.0267779 -0.0241622 -0.020495 -0.0164471 -0.0136326 -0.0120758 -0.0126956 -0.0141765 -0.0153603 -0.015616 -0.0137565 -0.0111061 -0.00833125 -0.006826 -0.00744711 -0.00861192 -0.00997306 -0.00973102 -0.00806462 -0.00620731 -0.00451178 -0.00389243 -0.00371506 -0.00343797 -0.0029912 -0.00226154 -0.00157246 -0.00108496 -0.000775599 -0.000597573 -0.000283433 0 0 
0 0 -0.000181603 -0.00039385 -0.000538467 -0.000799446 -0.00123436 -0.00174182 -0.00215571 -0.0023959 -0.00262855 -0.00345225 -0.00490602 -0.0064572 -0.00740212 -0.00692495 -0.00604378 -0.00563638 -0.00645419 -0.00874052 -0.0106582 -0.0119187 -0.0116305 -0.0102609 -0.00942501 -0.00914551 -0.0104203 -0.0123421 -0.0143494 -0.0160639 -0.016815 -0.0174949 -0.0180259 -0.0192863 -0.0213736 -0.0240111 -0.0274966 -0.0309234 -0.034676 -0.0382548 -0.0418244 -0.0454985 -0.0489663 -0.0527481 -0.0564214 -0.0604142 -0.0644903 -0.068783 -0.0733376 -0.0778359 -0.0825796 -0.08694 -0.0913013 -0.0951377 -0.0986479 -0.101662 -0.104273 -0.106816 -0.109305 -0.112113 -0.114687 -0.116538 -0.116005 -0.111837 -0.10382 -0.0943095 -0.0874095 -0.0866896 -0.0930605 -0.103236 -0.112452 -0.117024 -0.117855 -0.118124 -0.120592 -0.124264 -0.126865 -0.127105 -0.126814 -0.127988 -0.130362 -0.131263 -0.127257 -0.115851 -0.0962202 -0.0703715 -0.0418555 -0.0136832 0.0149363 0.0457355 0.0789158 0.111988 0.143273 0.172674 0.200665 0.225958 0.247502 0.264699 0.277627 0.285553 0.288213 0.285396 0.277571 0.264787 0.247505 0.225903 0.2006 0.171891 0.140789 0.10831 0.0761153 0.0451288 0.015694 -0.0127732 -0.0404082 -0.0672119 -0.09127 -0.11062 -0.124041 -0.132055 -0.135867 -0.136724 -0.13527 -0.13198 -0.127974 -0.124275 -0.121402 -0.118787 -0.116297 -0.113461 -0.110533 -0.107324 -0.104697 -0.103109 -0.102938 -0.103413 -0.104045 -0.10479 -0.105631 -0.106541 -0.106974 -0.106925 -0.106056 -0.10472 -0.102562 -0.0999333 -0.0967827 -0.0932396 -0.0894749 -0.0852118 -0.0810097 -0.076421 -0.0720854 -0.0677039 -0.0635863 -0.0596897 -0.0558269 -0.0522504 -0.0485145 -0.045103 -0.0414553 -0.037952 -0.0344223 -0.0307473 -0.0273649 -0.0239335 -0.021327 -0.0192712 -0.0180462 -0.0175599 -0.0169104 -0.0161956 -0.0145004 -0.0124929 -0.0105804 -0.00929107 -0.00955391 -0.010355 -0.01169 -0.0119483 -0.0106805 -0.00875276 -0.00646773 -0.00562515 -0.006005 -0.00685581 -0.00730606 -0.00636117 -0.00481964 -0.00337902 -0.00256789 -0.00234624 -0.00212047 -0.00172546 -0.00124414 -0.000838753 -0.00059422 -0.000267566 0 0 
0 0 -0.0001838 -0.000415746 -0.000597023 -0.000857997 -0.00119255 -0.00153083 -0.00187933 -0.00232906 -0.00294062 -0.0039007 -0.00496423 -0.00569555 -0.00592916 -0.00546541 -0.00525355 -0.00587374 -0.00739806 -0.00939414 -0.0103806 -0.0102884 -0.00901064 -0.0075253 -0.00718161 -0.00792538 -0.0100699 -0.0123916 -0.0142588 -0.0151531 -0.0146916 -0.0141637 -0.0137678 -0.0147724 -0.0172977 -0.0209577 -0.0253716 -0.029227 -0.0326101 -0.0348858 -0.0368109 -0.0388792 -0.041488 -0.0454397 -0.0502506 -0.0561878 -0.0622422 -0.0682918 -0.0737659 -0.0782655 -0.0822061 -0.0851308 -0.0878133 -0.0900672 -0.0924274 -0.0949065 -0.0976246 -0.100749 -0.104121 -0.10797 -0.111375 -0.113882 -0.113615 -0.109531 -0.10151 -0.0920864 -0.0854577 -0.0853376 -0.0926441 -0.103965 -0.114367 -0.11989 -0.121389 -0.122004 -0.124675 -0.128938 -0.133051 -0.136402 -0.140295 -0.145321 -0.149269 -0.148386 -0.139886 -0.123564 -0.100511 -0.0734616 -0.0448978 -0.0163029 0.013478 0.0456738 0.0798901 0.113669 0.145913 0.176506 0.205514 0.231525 0.253655 0.271417 0.284812 0.292953 0.295803 0.293007 0.285108 0.27196 0.254105 0.23173 0.205504 0.175776 0.143554 0.109878 0.076561 0.0445557 0.0143043 -0.0148425 -0.0433163 -0.0712166 -0.0967757 -0.118139 -0.133845 -0.144125 -0.149528 -0.150881 -0.148575 -0.143509 -0.137422 -0.132119 -0.128195 -0.124829 -0.121368 -0.117093 -0.112418 -0.107543 -0.103561 -0.100929 -0.10009 -0.100294 -0.101087 -0.102218 -0.103322 -0.104125 -0.10383 -0.102831 -0.100853 -0.0985883 -0.0958935 -0.0932365 -0.0906638 -0.0881925 -0.0858659 -0.0831734 -0.0803381 -0.076546 -0.072274 -0.0670044 -0.0611872 -0.0553126 -0.049549 -0.0448603 -0.0410231 -0.0385155 -0.0365363 -0.0346886 -0.0324872 -0.02915 -0.0253449 -0.0209714 -0.0173699 -0.0148897 -0.0139464 -0.0143791 -0.0149381 -0.0154142 -0.01451 -0.0126391 -0.0103127 -0.008172 -0.00740709 -0.00772038 -0.00915711 -0.0103923 -0.0104454 -0.00944083 -0.0074292 -0.00588696 -0.00524476 -0.00542778 -0.00586815 -0.00562559 -0.00489074 -0.0038324 -0.00288369 -0.00228456 -0.00185153 -0.00152235 -0.00120648 -0.000894118 -0.000641152 -0.000288022 0 0 
0 0 -0.00019479 -0.000443061 -0.000631987 -0.00084428 -0.00106706 -0.00132985 -0.0018192 -0.00263328 -0.00348117 -0.00402999 -0.00393527 -0.00362767 -0.00409286 -0.00542724 -0.00744744 -0.00871804 -0.0084125 -0.00712008 -0.00544918 -0.00517435 -0.00641647 -0.00857706 -0.0107172 -0.0113557 -0.0109693 -0.0096173 -0.00857973 -0.00886701 -0.010158 -0.0127445 -0.0151477 -0.0173174 -0.018703 -0.0194424 -0.0204418 -0.021733 -0.0242384 -0.0276161 -0.0318952 -0.0367115 -0.0414284 -0.0462757 -0.05055 -0.0548699 -0.0588442 -0.0629574 -0.067201 -0.0715226 -0.0762311 -0.0806133 -0.0850976 -0.0889729 -0.092404 -0.0950987 -0.09711 -0.0986798 -0.0999493 -0.101344 -0.102399 -0.102887 -0.101223 -0.0967295 -0.0893801 -0.0816557 -0.0776087 -0.0808197 -0.0919361 -0.107197 -0.121206 -0.129648 -0.133008 -0.134359 -0.13694 -0.140746 -0.144997 -0.149491 -0.155429 -0.161919 -0.164956 -0.160042 -0.145446 -0.123241 -0.096637 -0.0683691 -0.0393886 -0.00991242 0.0215233 0.0550922 0.0900818 0.124302 0.157391 0.188914 0.218662 0.244993 0.26756 0.285849 0.299675 0.307989 0.310938 0.308217 0.300208 0.286703 0.268484 0.245632 0.218864 0.188368 0.155414 0.120777 0.0864884 0.0534189 0.0222311 -0.00801872 -0.0376838 -0.0671438 -0.0946281 -0.118404 -0.136966 -0.150302 -0.158845 -0.162979 -0.162698 -0.158869 -0.1535 -0.148356 -0.144202 -0.139847 -0.134381 -0.127004 -0.118504 -0.109509 -0.101467 -0.0952037 -0.0912907 -0.089331 -0.0889547 -0.0898515 -0.0914588 -0.0934248 -0.0948876 -0.0961112 -0.0965921 -0.0964862 -0.0954321 -0.093548 -0.0908 -0.0872074 -0.0831313 -0.0785592 -0.0741894 -0.0696256 -0.0654867 -0.0614687 -0.0575639 -0.0537699 -0.0496744 -0.0455589 -0.0409303 -0.0363335 -0.0316616 -0.0274323 -0.024129 -0.0216578 -0.0204444 -0.0195151 -0.0188718 -0.0175506 -0.0154277 -0.0130348 -0.0104492 -0.0091386 -0.00885651 -0.00989668 -0.0112202 -0.0115844 -0.0109221 -0.008771 -0.00660396 -0.00533224 -0.00558015 -0.00719322 -0.00844025 -0.00871092 -0.00742742 -0.00539994 -0.00406277 -0.00358673 -0.0038801 -0.00396899 -0.00342466 -0.00259176 -0.00179743 -0.00132735 -0.00108329 -0.000875959 -0.000667238 -0.000310194 0 0 
0 0 -0.000202656 -0.00044245 -0.000598551 -0.000797634 -0.00107743 -0.00143677 -0.00192363 -0.00247722 -0.00292973 -0.00335673 -0.00360031 -0.00396951 -0.00479148 -0.00560255 -0.00666021 -0.0069261 -0.00638032 -0.00593634 -0.00533801 -0.00600666 -0.0071385 -0.00823548 -0.00931281 -0.00914864 -0.00875959 -0.00800211 -0.00763186 -0.00826051 -0.00945379 -0.0116255 -0.0135354 -0.0151996 -0.0162514 -0.0166573 -0.0174509 -0.0184818 -0.0209255 -0.0243795 -0.0288371 -0.0339808 -0.0388212 -0.0437457 -0.0478536 -0.051857 -0.0556518 -0.0596765 -0.0641336 -0.0687609 -0.0738229 -0.0785772 -0.0830686 -0.0866963 -0.0894734 -0.0912963 -0.09211 -0.0924298 -0.092441 -0.092769 -0.0930114 -0.0929087 -0.0910615 -0.0866894 -0.0799113 -0.0731483 -0.070499 -0.0754689 -0.0888046 -0.106561 -0.123089 -0.133756 -0.138746 -0.141011 -0.143909 -0.148 -0.153183 -0.159689 -0.168238 -0.176619 -0.179211 -0.170979 -0.151359 -0.124781 -0.0959444 -0.0673054 -0.038273 -0.00782115 0.025145 0.0600086 0.0955934 0.130434 0.164423 0.197078 0.227464 0.254349 0.277519 0.296578 0.31085 0.319419 0.3224 0.319744 0.31144 0.297563 0.278858 0.255542 0.22804 0.196841 0.162977 0.127451 0.0920481 0.0579422 0.0256811 -0.00557887 -0.036376 -0.0670748 -0.0959502 -0.121173 -0.141239 -0.156183 -0.166328 -0.172058 -0.173298 -0.170783 -0.166176 -0.161082 -0.156011 -0.149651 -0.141202 -0.130393 -0.118597 -0.106888 -0.0967853 -0.0888671 -0.083682 -0.0808047 -0.0799195 -0.0804678 -0.0818263 -0.0836338 -0.0854561 -0.0874665 -0.0891216 -0.0903226 -0.0905227 -0.0898867 -0.0879954 -0.0850636 -0.0812272 -0.076644 -0.0718462 -0.0668227 -0.0622863 -0.0579903 -0.0541646 -0.050575 -0.04682 -0.0429086 -0.0381975 -0.0335049 -0.0285036 -0.0241389 -0.0207791 -0.0184027 -0.0174519 -0.0167291 -0.016391 -0.0153829 -0.0137556 -0.0118531 -0.0096813 -0.00848125 -0.00786032 -0.00822739 -0.00897867 -0.00934219 -0.00949132 -0.00839844 -0.0072922 -0.00612884 -0.00544324 -0.00600139 -0.0064203 -0.0069334 -0.00664355 -0.00557909 -0.00475542 -0.00392785 -0.00355525 -0.00330914 -0.00288637 -0.00244522 -0.00190569 -0.00143419 -0.00109268 -0.000829745 -0.000638267 -0.00030117 0 0 
0 0 -0.000203214 -0.000432796 -0.000568918 -0.000783829 -0.00113516 -0.00154654 -0.00191948 -0.00210335 -0.00219356 -0.00280552 -0.00386847 -0.00512826 -0.00587103 -0.00507249 -0.00408747 -0.00345392 -0.00416072 -0.00651112 -0.00815817 -0.0090843 -0.00802314 -0.0059301 -0.00460152 -0.00415565 -0.00589043 -0.00819661 -0.0103309 -0.0115881 -0.0109933 -0.0100217 -0.00887058 -0.00884477 -0.0105331 -0.0131466 -0.0168163 -0.0201099 -0.02308 -0.0253216 -0.0271265 -0.0293174 -0.0320579 -0.0361728 -0.0413156 -0.0475655 -0.0542372 -0.060815 -0.0668255 -0.0717065 -0.0756043 -0.0781147 -0.0798587 -0.0806929 -0.0811457 -0.0813791 -0.0815476 -0.0820825 -0.0829627 -0.0845957 -0.0862821 -0.087444 -0.086499 -0.0825866 -0.0758949 -0.0687768 -0.0656019 -0.0700169 -0.0829773 -0.100908 -0.117989 -0.129488 -0.135249 -0.138178 -0.141766 -0.147125 -0.154458 -0.164327 -0.176557 -0.187787 -0.191055 -0.181221 -0.158906 -0.130288 -0.100952 -0.0729794 -0.0443917 -0.0134606 0.0205519 0.0562272 0.0921831 0.127679 0.162552 0.196209 0.227275 0.254804 0.278715 0.298581 0.313384 0.32213 0.325265 0.322521 0.313915 0.299548 0.280375 0.256526 0.228312 0.1964 0.161702 0.125373 0.0889619 0.0540237 0.0210139 -0.0108853 -0.0422955 -0.0735199 -0.102789 -0.128221 -0.148066 -0.16253 -0.172101 -0.177383 -0.178428 -0.176055 -0.171445 -0.165869 -0.159153 -0.150139 -0.138407 -0.124675 -0.111092 -0.0990765 -0.0896788 -0.0829698 -0.0788643 -0.0768051 -0.0763661 -0.0768209 -0.077586 -0.0782884 -0.0787769 -0.0793781 -0.0797488 -0.0800491 -0.0800141 -0.0800357 -0.0798201 -0.079277 -0.0782926 -0.0764493 -0.07385 -0.0698693 -0.0649664 -0.0590635 -0.052633 -0.0461896 -0.0401605 -0.0352427 -0.0312865 -0.028709 -0.0266592 -0.0249936 -0.0228814 -0.0200088 -0.0167849 -0.0131455 -0.0105625 -0.00888886 -0.00893872 -0.0101192 -0.0111041 -0.0117216 -0.01045 -0.0083133 -0.00601561 -0.00428681 -0.00472444 -0.006024 -0.00808002 -0.0091131 -0.00818222 -0.00653454 -0.00419646 -0.00347593 -0.00408724 -0.005055 -0.00582844 -0.00508177 -0.00382667 -0.0027709 -0.00216667 -0.00208227 -0.00190599 -0.00154455 -0.00115054 -0.000818049 -0.000613366 -0.000287043 0 0 
0 0 -0.000201989 -0.000441116 -0.000597867 -0.000807073 -0.00107909 -0.00136999 -0.00173351 -0.00212013 -0.00248442 -0.00305445 -0.00350802 -0.00397835 -0.00443855 -0.00430099 -0.00461132 -0.0047826 -0.00508157 -0.00588012 -0.00576619 -0.00606706 -0.00583114 -0.00543545 -0.00576891 -0.00573663 -0.00643726 -0.0070118 -0.00758332 -0.00827008 -0.00827376 -0.00870299 -0.00888452 -0.00947939 -0.010725 -0.0121333 -0.0143679 -0.0164644 -0.0190101 -0.02151 -0.0241945 -0.0275491 -0.0312205 -0.0359258 -0.0410343 -0.0467111 -0.0525129 -0.0580686 -0.0633363 -0.0676834 -0.0714315 -0.0741774 -0.0762856 -0.0775093 -0.0780991 -0.0781758 -0.0777015 -0.0772518 -0.0768624 -0.077131 -0.0776117 -0.0777587 -0.0762477 -0.0720816 -0.0656348 -0.0592242 -0.0571045 -0.06287 -0.07748 -0.0972024 -0.116123 -0.129248 -0.136261 -0.139967 -0.144101 -0.150184 -0.158759 -0.170323 -0.184082 -0.19568 -0.197713 -0.185206 -0.160034 -0.129431 -0.0993824 -0.0712882 -0.0424259 -0.0107419 0.0240695 0.0602557 0.0964909 0.132367 0.167791 0.201989 0.23342 0.261362 0.285795 0.306124 0.321135 0.330063 0.333176 0.330457 0.321631 0.30706 0.287621 0.263495 0.234922 0.202638 0.167532 0.13075 0.0938071 0.0582914 0.0246233 -0.00797497 -0.0401577 -0.0721928 -0.102394 -0.128711 -0.1493 -0.164284 -0.17441 -0.180341 -0.182481 -0.181508 -0.17825 -0.173318 -0.165932 -0.154778 -0.140028 -0.123227 -0.107268 -0.0937359 -0.0833936 -0.0758129 -0.0707116 -0.0675945 -0.0663688 -0.0664803 -0.0674159 -0.0687375 -0.0702777 -0.0721269 -0.0738016 -0.0752845 -0.076217 -0.0769456 -0.0769543 -0.076323 -0.0750071 -0.0728257 -0.0699828 -0.066113 -0.0616886 -0.0564358 -0.0509403 -0.0452725 -0.0397849 -0.0348857 -0.0303652 -0.0268967 -0.0236784 -0.0211719 -0.0187549 -0.0163288 -0.0142687 -0.012074 -0.0106727 -0.00941119 -0.0088204 -0.00862855 -0.00821731 -0.00821633 -0.00756272 -0.00699453 -0.00644704 -0.00574193 -0.0057913 -0.00544674 -0.00585154 -0.00607996 -0.00577786 -0.00588766 -0.00508608 -0.00478856 -0.00460118 -0.00428507 -0.00441443 -0.00395201 -0.00347995 -0.00302805 -0.00246265 -0.00210373 -0.00172592 -0.00137425 -0.00109864 -0.000840771 -0.000635928 -0.000296607 0 0 
0 0 -0.000202882 -0.000451995 -0.000625754 -0.000819632 -0.00100849 -0.00119593 -0.00157714 -0.00220943 -0.00285912 -0.00328266 -0.00297678 -0.00252595 -0.00283128 -0.00382328 -0.0057584 -0.00673634 -0.00611882 -0.00465443 -0.00253225 -0.00232721 -0.00361591 -0.00583849 -0.0080534 -0.00828861 -0.00740105 -0.00535546 -0.00371577 -0.0036902 -0.00490076 -0.00762066 -0.010066 -0.0119352 -0.0125616 -0.0120503 -0.0116791 -0.0117896 -0.013563 -0.0168813 -0.0215621 -0.0271741 -0.0327135 -0.0381224 -0.0426567 -0.0467297 -0.050299 -0.0537077 -0.057399 -0.0612121 -0.065391 -0.0692052 -0.0727955 -0.0753785 -0.0768581 -0.0770431 -0.075985 -0.0741531 -0.0720078 -0.0702579 -0.0688837 -0.0675837 -0.0651092 -0.060754 -0.054702 -0.049333 -0.0487111 -0.0563043 -0.0728197 -0.094361 -0.114881 -0.129292 -0.137171 -0.141429 -0.146056 -0.152857 -0.162521 -0.175007 -0.189037 -0.199573 -0.199367 -0.184349 -0.157112 -0.125354 -0.0947129 -0.0659611 -0.0363441 -0.00403273 0.0311237 0.0673827 0.103828 0.139913 0.175557 0.209772 0.241372 0.269447 0.294128 0.314492 0.329578 0.338486 0.341709 0.338897 0.330122 0.315481 0.296024 0.271788 0.243262 0.210909 0.175814 0.138878 0.101809 0.0659867 0.031953 -0.0011773 -0.0339624 -0.0667864 -0.0979647 -0.125323 -0.147055 -0.163148 -0.174195 -0.181154 -0.184415 -0.184558 -0.182363 -0.177883 -0.170213 -0.158 -0.141677 -0.123161 -0.105588 -0.0904966 -0.0785037 -0.069165 -0.0623827 -0.0578294 -0.0555296 -0.0551901 -0.0563541 -0.0587319 -0.061792 -0.0654692 -0.0690615 -0.0722662 -0.0745646 -0.0759302 -0.0758685 -0.0743985 -0.0717633 -0.0681276 -0.0642697 -0.0599725 -0.0560821 -0.0523382 -0.0488771 -0.0453431 -0.0413623 -0.0370218 -0.0318023 -0.026492 -0.0210576 -0.0165111 -0.0133007 -0.0115849 -0.0115326 -0.0119088 -0.0124431 -0.0117824 -0.0098995 -0.00741883 -0.00470694 -0.00351552 -0.00358257 -0.00526484 -0.00731318 -0.00820122 -0.00796944 -0.00579922 -0.00359841 -0.00234739 -0.00254261 -0.00465857 -0.00610256 -0.00671277 -0.00574204 -0.00381732 -0.00283205 -0.00252534 -0.00296448 -0.00326204 -0.00283938 -0.00219607 -0.00157476 -0.00120615 -0.00103192 -0.000852829 -0.000657821 -0.000308032 0 0 
0 0 -0.000206192 -0.000446727 -0.000598248 -0.00079413 -0.00104502 -0.00130881 -0.00160727 -0.00193291 -0.0022562 -0.00271917 -0.00309566 -0.00340404 -0.00370387 -0.00364713 -0.00380677 -0.00387299 -0.00407998 -0.00464607 -0.00476843 -0.00497627 -0.00465265 -0.00424096 -0.0041954 -0.00417945 -0.00485448 -0.0054194 -0.0059437 -0.00631498 -0.00615685 -0.00643674 -0.0065387 -0.00722577 -0.00837568 -0.00978901 -0.0117774 -0.0136927 -0.0161029 -0.0185636 -0.0214825 -0.0248808 -0.0286371 -0.0331902 -0.0379848 -0.0432803 -0.0484664 -0.0535321 -0.0581874 -0.0620269 -0.0652778 -0.0673686 -0.0687858 -0.0690888 -0.0687436 -0.0677839 -0.0664461 -0.0652167 -0.0642983 -0.0642732 -0.0646371 -0.0650146 -0.0637098 -0.0600007 -0.0539801 -0.0481359 -0.0466868 -0.0530874 -0.0681475 -0.0880503 -0.106938 -0.119921 -0.126906 -0.131044 -0.136604 -0.145394 -0.1576 -0.17248 -0.187882 -0.198522 -0.197849 -0.182782 -0.15656 -0.12621 -0.0964705 -0.06784 -0.038037 -0.00586528 0.0286531 0.0644778 0.100964 0.137185 0.172799 0.206831 0.238486 0.266749 0.291486 0.311719 0.32676 0.335777 0.33904 0.336206 0.327427 0.312868 0.293418 0.269156 0.240703 0.208426 0.173411 0.136541 0.0996301 0.0638902 0.0299337 -0.00301259 -0.0355971 -0.0680931 -0.0989905 -0.126116 -0.147544 -0.163156 -0.173512 -0.179361 -0.181133 -0.17943 -0.175343 -0.169242 -0.160426 -0.147976 -0.132393 -0.115276 -0.0991714 -0.0852237 -0.0741216 -0.0656481 -0.0599423 -0.0564204 -0.0548095 -0.0545005 -0.0550235 -0.0562357 -0.0576702 -0.0596166 -0.0615188 -0.0635259 -0.0652419 -0.0668 -0.0678395 -0.0681997 -0.0679038 -0.0665344 -0.0644232 -0.0611159 -0.0571736 -0.0524255 -0.0472651 -0.0420523 -0.0368018 -0.0321209 -0.0277209 -0.0241632 -0.0209514 -0.0181998 -0.0158578 -0.0135261 -0.0116203 -0.00962933 -0.008171 -0.0070093 -0.00630883 -0.00623206 -0.00598119 -0.00618376 -0.00584233 -0.00534714 -0.00480076 -0.00414022 -0.00417186 -0.00422165 -0.00464515 -0.00496715 -0.00477622 -0.00465407 -0.00409157 -0.00388673 -0.00381631 -0.00365399 -0.00370018 -0.0033972 -0.00308685 -0.00270892 -0.00224567 -0.00192679 -0.00160872 -0.00131935 -0.00106816 -0.000829849 -0.000635754 -0.000298137 0 0 
0 0 -0.00021187 -0.000445555 -0.000572797 -0.000761162 -0.00106631 -0.00142212 -0.00168614 -0.00174787 -0.00171815 -0.00211026 -0.00303755 -0.00409586 -0.00454094 -0.00368232 -0.00241193 -0.00160843 -0.00223464 -0.00425491 -0.00592973 -0.00665954 -0.0054929 -0.00333249 -0.00177992 -0.00127463 -0.00272701 -0.00486805 -0.00690804 -0.00775577 -0.00699952 -0.00576086 -0.00429748 -0.00420307 -0.00547958 -0.00810968 -0.0115732 -0.014746 -0.0176866 -0.019757 -0.0217203 -0.0238297 -0.0265343 -0.0304455 -0.0350835 -0.0407761 -0.0464283 -0.0519673 -0.0567059 -0.0601899 -0.0627661 -0.0637412 -0.0639782 -0.0631816 -0.0619971 -0.0605497 -0.0592241 -0.0584174 -0.058295 -0.0592711 -0.0607082 -0.0620894 -0.0616931 -0.0586098 -0.0529234 -0.0471866 -0.0455273 -0.0514795 -0.0655828 -0.0840451 -0.101272 -0.112603 -0.118366 -0.122121 -0.128374 -0.138778 -0.152942 -0.168864 -0.183918 -0.193124 -0.19119 -0.176255 -0.151567 -0.123164 -0.0943646 -0.0654601 -0.0352274 -0.00344213 0.0300504 0.0650216 0.101151 0.137193 0.17216 0.205451 0.236659 0.264675 0.288935 0.308653 0.323395 0.33234 0.335618 0.332763 0.324213 0.310034 0.290957 0.267103 0.239129 0.207432 0.172981 0.136752 0.100445 0.0653417 0.0318996 -0.000570283 -0.0326747 -0.0647958 -0.0954162 -0.122391 -0.143917 -0.159769 -0.169991 -0.175258 -0.175823 -0.172383 -0.166458 -0.158821 -0.149663 -0.138254 -0.124934 -0.110475 -0.0964255 -0.083449 -0.072449 -0.0638489 -0.0582453 -0.0550565 -0.0535666 -0.053049 -0.0530067 -0.0533913 -0.0538333 -0.054701 -0.0556302 -0.0569253 -0.0582393 -0.059708 -0.0611599 -0.0623553 -0.0632121 -0.0630675 -0.06212 -0.0595395 -0.0559739 -0.0511325 -0.0454931 -0.0397748 -0.0340996 -0.0294748 -0.0256772 -0.0230944 -0.0211649 -0.0193501 -0.0174052 -0.0145257 -0.011356 -0.007871 -0.0052117 -0.00394506 -0.00407373 -0.0056138 -0.00690521 -0.00771166 -0.00687072 -0.00483688 -0.00271516 -0.00129182 -0.00179889 -0.00334749 -0.00548785 -0.00665615 -0.00592589 -0.00427549 -0.00227161 -0.0016543 -0.00244364 -0.00369374 -0.00453387 -0.00408555 -0.00302988 -0.00210747 -0.00171716 -0.00174758 -0.00168958 -0.00143248 -0.00108918 -0.000799614 -0.000615906 -0.000291346 0 0 
0 0 -0.000217028 -0.000464935 -0.000608523 -0.00077089 -0.000982327 -0.00124866 -0.00159808 -0.00198009 -0.00220982 -0.00233687 -0.00234707 -0.00244578 -0.0029577 -0.00349061 -0.00408895 -0.00418329 -0.00358291 -0.002835 -0.00198441 -0.00221276 -0.003106 -0.00425977 -0.00519714 -0.00488991 -0.0040902 -0.00280329 -0.00215212 -0.00253637 -0.0035932 -0.00549669 -0.00693978 -0.00808904 -0.00863055 -0.00883835 -0.00955905 -0.0107145 -0.0131783 -0.0165474 -0.0207582 -0.0254981 -0.0299964 -0.0343945 -0.0380101 -0.0412472 -0.0439482 -0.0464225 -0.0489465 -0.0512687 -0.0538572 -0.0560801 -0.0582003 -0.0595021 -0.0601327 -0.0598876 -0.0588539 -0.0575503 -0.0562385 -0.0556686 -0.0555167 -0.0556812 -0.0546459 -0.0516426 -0.0466407 -0.0422447 -0.0422445 -0.0498186 -0.0652192 -0.0842791 -0.101292 -0.112005 -0.117131 -0.12064 -0.127276 -0.138355 -0.152692 -0.167341 -0.179345 -0.184592 -0.179687 -0.163854 -0.140291 -0.113177 -0.0846391 -0.0548432 -0.0237644 0.0076801 0.0399871 0.073801 0.109256 0.144487 0.178271 0.210177 0.24021 0.267228 0.290495 0.309241 0.323346 0.332027 0.335188 0.332445 0.324303 0.310845 0.292633 0.269738 0.242933 0.212454 0.179164 0.144121 0.109071 0.0749896 0.0424472 0.0106223 -0.0210271 -0.0530272 -0.0838917 -0.111597 -0.134364 -0.151524 -0.163091 -0.169195 -0.17021 -0.166752 -0.160618 -0.153125 -0.144949 -0.135462 -0.124667 -0.112498 -0.0995759 -0.0861845 -0.0734956 -0.0626632 -0.0549212 -0.0498765 -0.0469297 -0.045733 -0.0457591 -0.0470193 -0.0487981 -0.0512067 -0.0536212 -0.0561177 -0.058001 -0.0591843 -0.0594722 -0.0587819 -0.0575258 -0.0554552 -0.0532918 -0.0507855 -0.0484367 -0.0459039 -0.043298 -0.0405388 -0.0372319 -0.0336152 -0.029267 -0.0248801 -0.0202425 -0.016133 -0.0128214 -0.0104021 -0.00925842 -0.00859014 -0.00843058 -0.00796914 -0.00688117 -0.00549856 -0.0036131 -0.00257877 -0.002197 -0.00286516 -0.0041475 -0.00494064 -0.00525973 -0.00432278 -0.00318269 -0.00228244 -0.00205906 -0.00289551 -0.00363006 -0.00421821 -0.00411405 -0.00350754 -0.00296743 -0.0024521 -0.00234609 -0.00233239 -0.00220581 -0.00197913 -0.00160458 -0.00126429 -0.00100927 -0.000809459 -0.000646728 -0.00031001 0 0 
0 0 -0.00021711 -0.000479392 -0.000651795 -0.000818996 -0.00095977 -0.00109266 -0.00140902 -0.00199731 -0.00254853 -0.00277485 -0.0022954 -0.00157419 -0.0016918 -0.0025797 -0.00424951 -0.00518117 -0.00446476 -0.00297322 -0.000977726 -0.000503605 -0.00145897 -0.0031795 -0.00497867 -0.00525454 -0.0045563 -0.00292806 -0.00149725 -0.00130769 -0.00207536 -0.00411519 -0.00624147 -0.00799769 -0.00920262 -0.00959992 -0.0102333 -0.0112872 -0.013462 -0.0167825 -0.0209027 -0.0255235 -0.0298109 -0.0338195 -0.036881 -0.0395571 -0.0416824 -0.0436041 -0.0455087 -0.0473094 -0.0491957 -0.050616 -0.0518532 -0.0525195 -0.0527617 -0.0525367 -0.0520638 -0.051749 -0.0518341 -0.0528027 -0.05431 -0.0559553 -0.0561835 -0.0539709 -0.0492884 -0.0445703 -0.0438307 -0.0501019 -0.0636725 -0.0805317 -0.0952851 -0.103999 -0.107861 -0.111269 -0.118957 -0.131657 -0.14709 -0.161311 -0.171214 -0.173948 -0.167848 -0.153343 -0.132815 -0.108687 -0.08156 -0.0517833 -0.0205875 0.0101598 0.0410752 0.0736684 0.108112 0.142315 0.174762 0.205106 0.233799 0.259642 0.281767 0.299517 0.312931 0.321265 0.324242 0.32167 0.313994 0.301281 0.28402 0.26232 0.236777 0.207579 0.1757 0.142024 0.108316 0.0755521 0.0440958 0.0132714 -0.0175824 -0.0489133 -0.0792488 -0.106536 -0.128853 -0.14546 -0.156168 -0.161242 -0.160972 -0.156275 -0.149119 -0.141061 -0.133077 -0.124747 -0.115951 -0.10626 -0.0958665 -0.0846317 -0.0737002 -0.0641974 -0.0572161 -0.0523887 -0.0492682 -0.0475264 -0.0469248 -0.0472192 -0.0477134 -0.0484831 -0.0493083 -0.0503565 -0.0512452 -0.0519202 -0.0521881 -0.0519391 -0.0512723 -0.0500337 -0.048682 -0.0469051 -0.0452026 -0.0433257 -0.0413594 -0.0391579 -0.0364147 -0.0332985 -0.02928 -0.0250259 -0.0204117 -0.0163095 -0.0129804 -0.0108409 -0.00983994 -0.0093325 -0.00907467 -0.00800092 -0.00632876 -0.00424898 -0.00219893 -0.00142048 -0.00160759 -0.00304783 -0.00466541 -0.00535815 -0.0050774 -0.00329724 -0.00158031 -0.000631173 -0.00108834 -0.00305881 -0.00451252 -0.00521598 -0.00427768 -0.00261237 -0.00171611 -0.00158886 -0.00229648 -0.00276543 -0.00253934 -0.0019957 -0.00141883 -0.00111394 -0.000992499 -0.000859268 -0.000685817 -0.000326328 0 0 
0 0 -0.000216866 -0.000471587 -0.000633625 -0.000842968 -0.00108662 -0.00126365 -0.00139897 -0.00156642 -0.00182214 -0.00244607 -0.0030064 -0.00318727 -0.00299042 -0.00195037 -0.00141823 -0.00153867 -0.00238583 -0.00414821 -0.00464771 -0.00440485 -0.00288138 -0.000732918 -2.58578e-05 -0.000193737 -0.00196108 -0.00404943 -0.00530566 -0.00570846 -0.00452275 -0.00331224 -0.00251251 -0.00307386 -0.00541028 -0.00868522 -0.0127584 -0.0162719 -0.0192156 -0.0212577 -0.0226505 -0.0242322 -0.0259162 -0.028688 -0.031939 -0.0357426 -0.0395344 -0.0427734 -0.0452898 -0.0464984 -0.0468356 -0.046107 -0.0449409 -0.0436529 -0.0425964 -0.0421952 -0.0425162 -0.0440065 -0.0465316 -0.0502893 -0.054648 -0.0588395 -0.061209 -0.0602614 -0.0560148 -0.0507174 -0.0484164 -0.0524283 -0.063154 -0.0768541 -0.0885257 -0.0946126 -0.0968511 -0.0999869 -0.108496 -0.122459 -0.13828 -0.151432 -0.158845 -0.159371 -0.1529 -0.140668 -0.124072 -0.10378 -0.0790223 -0.0503493 -0.0199804 0.00954974 0.0388202 0.069705 0.102495 0.13495 0.165465 0.193989 0.220818 0.245021 0.265639 0.282311 0.294821 0.302612 0.305409 0.303071 0.295944 0.284138 0.268041 0.24791 0.223973 0.196615 0.16656 0.134854 0.103029 0.0720359 0.0421967 0.012825 -0.0167597 -0.0467808 -0.0757287 -0.101525 -0.122043 -0.136659 -0.145379 -0.148843 -0.147473 -0.142335 -0.135035 -0.127239 -0.119629 -0.112236 -0.105043 -0.0976706 -0.0902116 -0.0823118 -0.0747055 -0.0680688 -0.0631198 -0.059284 -0.056154 -0.05357 -0.0516084 -0.0498575 -0.0479662 -0.0460235 -0.0441037 -0.0427408 -0.0417684 -0.0416338 -0.0420934 -0.0431736 -0.0444762 -0.0456574 -0.0463975 -0.0461495 -0.0450168 -0.042622 -0.0394394 -0.0356694 -0.0318378 -0.0284979 -0.0256183 -0.0238182 -0.0221488 -0.020675 -0.018642 -0.0157357 -0.012369 -0.00844572 -0.00537642 -0.00316658 -0.00271479 -0.00354839 -0.00477189 -0.00593899 -0.00552627 -0.00424768 -0.00217462 -0.000409729 -0.000238148 -0.000921178 -0.00303398 -0.00452406 -0.00475424 -0.00423587 -0.00247048 -0.00161718 -0.00147671 -0.00198607 -0.00299982 -0.00318211 -0.00299597 -0.00243706 -0.00181882 -0.00156896 -0.00140911 -0.00128469 -0.00112211 -0.000890084 -0.000677362 -0.000315332 0 0 
0 0 -0.000228408 -0.000476333 -0.000603292 -0.000808258 -0.00113958 -0.0014633 -0.00163751 -0.00154941 -0.00134649 -0.00175711 -0.00265381 -0.00361142 -0.00405716 -0.00283888 -0.00143503 -0.000494156 -0.000628447 -0.00253637 -0.0038059 -0.00451541 -0.0037929 -0.00195931 -0.000838436 1.47087e-05 -0.000685954 -0.00201355 -0.00331525 -0.00466482 -0.00477259 -0.00493469 -0.00483361 -0.00526525 -0.00683659 -0.00890728 -0.0120923 -0.0152592 -0.0185802 -0.0215807 -0.024038 -0.026455 -0.0283476 -0.0303916 -0.0321853 -0.0338572 -0.0354268 -0.0365496 -0.0374978 -0.0379794 -0.0384197 -0.038555 -0.0387728 -0.0389653 -0.0393214 -0.039904 -0.0407383 -0.0422953 -0.0445905 -0.0480428 -0.0521007 -0.0563231 -0.0590158 -0.0588459 -0.0555054 -0.0511118 -0.0494853 -0.0538024 -0.0645386 -0.0778327 -0.0889114 -0.0944092 -0.0963534 -0.0995901 -0.108403 -0.121905 -0.135744 -0.144846 -0.147053 -0.143083 -0.134437 -0.12282 -0.108463 -0.0905828 -0.0674628 -0.0397547 -0.010114 0.0184534 0.0463865 0.075378 0.105972 0.13588 0.163975 0.19004 0.214513 0.236308 0.255002 0.270091 0.281453 0.28839 0.290914 0.288901 0.282594 0.271954 0.257538 0.239362 0.21777 0.192797 0.165407 0.136231 0.10683 0.0778345 0.0497826 0.0216967 -0.00687884 -0.0360274 -0.0639814 -0.0885742 -0.107751 -0.121338 -0.129761 -0.134168 -0.134932 -0.132758 -0.128421 -0.12293 -0.11704 -0.110683 -0.104247 -0.0976025 -0.0909384 -0.0838171 -0.0769238 -0.0705899 -0.0653961 -0.0607422 -0.0564369 -0.0525687 -0.0494627 -0.04713 -0.0451294 -0.0436285 -0.0422429 -0.0412075 -0.0401452 -0.0394397 -0.0388834 -0.038546 -0.0384194 -0.0382315 -0.0381448 -0.0377267 -0.0372799 -0.0364488 -0.0354327 -0.0339713 -0.0323337 -0.0304432 -0.0282251 -0.0260835 -0.0234571 -0.0208596 -0.0178583 -0.0146492 -0.011695 -0.0087192 -0.00685432 -0.00537498 -0.00501308 -0.00511733 -0.00498421 -0.00487317 -0.00355397 -0.00223546 -0.000927061 -0.00020963 -0.00105 -0.00213783 -0.0039521 -0.00463489 -0.00392017 -0.00263806 -0.000734476 -0.000579568 -0.0014859 -0.00285847 -0.00404607 -0.00359609 -0.00264053 -0.00175154 -0.00134767 -0.00155284 -0.00164601 -0.00148242 -0.00117596 -0.000862112 -0.000659994 -0.000310948 0 0 
0 0 -0.00024849 -0.000519211 -0.000649364 -0.000789201 -0.00100778 -0.00132707 -0.00177713 -0.00216063 -0.00213623 -0.00187223 -0.00143447 -0.00146795 -0.00250473 -0.00357362 -0.00457886 -0.00412841 -0.00213028 -0.000322283 0.00114563 0.000290314 -0.00185666 -0.00384853 -0.00527756 -0.00429378 -0.0024407 -0.000206272 0.00100565 -4.91398e-05 -0.00229422 -0.00585116 -0.00882998 -0.0108059 -0.0117184 -0.0116324 -0.0120547 -0.0131301 -0.0157865 -0.0195296 -0.0237696 -0.0279673 -0.0310025 -0.032951 -0.0332961 -0.0327074 -0.0315041 -0.0300925 -0.0293191 -0.0288618 -0.0294709 -0.0304554 -0.032054 -0.0337684 -0.0355147 -0.0372947 -0.0389492 -0.041079 -0.0436954 -0.047458 -0.0518471 -0.0564264 -0.0595079 -0.0597675 -0.0567932 -0.0524864 -0.0506027 -0.0542678 -0.0641327 -0.0765031 -0.0868054 -0.0918528 -0.0938465 -0.0977632 -0.107184 -0.120518 -0.132233 -0.137365 -0.134903 -0.127285 -0.117404 -0.106926 -0.0948985 -0.0795952 -0.0586729 -0.0328845 -0.00473582 0.0226665 0.0494639 0.076704 0.104767 0.131979 0.157633 0.1814 0.203417 0.222803 0.239409 0.252963 0.263118 0.269176 0.271438 0.269746 0.264259 0.254819 0.242058 0.22599 0.206725 0.184311 0.159579 0.133018 0.105903 0.0788861 0.0524113 0.0255591 -0.00181083 -0.0295242 -0.0555338 -0.0778175 -0.0944992 -0.106306 -0.114241 -0.119803 -0.123047 -0.123784 -0.122007 -0.118313 -0.11333 -0.107562 -0.101445 -0.0951339 -0.0889115 -0.0824958 -0.076572 -0.0713055 -0.0670317 -0.0629402 -0.0587542 -0.0545651 -0.0507104 -0.0474878 -0.0447892 -0.0428389 -0.0412422 -0.0399758 -0.0384596 -0.0369898 -0.0352498 -0.0334873 -0.0317575 -0.03021 -0.0292861 -0.0287302 -0.0292313 -0.0300943 -0.0315876 -0.0328745 -0.0334956 -0.0331041 -0.0309602 -0.027665 -0.0231916 -0.0187738 -0.0150177 -0.012483 -0.0116575 -0.0114461 -0.011717 -0.0108616 -0.00891958 -0.0059393 -0.00241241 -0.000216153 0.000799421 -0.000457494 -0.00266771 -0.00449612 -0.00544652 -0.00401777 -0.00201921 0.00011972 0.000999092 -0.000441117 -0.00220488 -0.00415568 -0.00458483 -0.00356832 -0.00249748 -0.00146003 -0.0014255 -0.00186106 -0.00212743 -0.00215891 -0.00178715 -0.00135067 -0.00104724 -0.000843874 -0.000706804 -0.000348536 0 0 
0 0 -0.000253198 -0.000555305 -0.000742844 -0.000885449 -0.00098141 -0.00112204 -0.00154399 -0.00225739 -0.00280832 -0.00280372 -0.00195286 -0.000963886 -0.000958755 -0.00187367 -0.00365302 -0.00464484 -0.00405144 -0.00260254 -0.000475353 0.000395435 0.00023859 -0.000825923 -0.00246044 -0.0032256 -0.00369011 -0.00330975 -0.00266693 -0.00261399 -0.0028452 -0.00435065 -0.00628869 -0.00889843 -0.0117444 -0.014236 -0.0168443 -0.0187217 -0.0206283 -0.0220781 -0.0233728 -0.0247453 -0.0258022 -0.0271414 -0.0280129 -0.0288199 -0.029153 -0.0289422 -0.0283884 -0.0272055 -0.0261876 -0.0249877 -0.0245083 -0.0245938 -0.0257027 -0.0279338 -0.031192 -0.0359206 -0.0416146 -0.0487587 -0.0561183 -0.063075 -0.0675905 -0.0683101 -0.0647484 -0.0588089 -0.0544311 -0.0549535 -0.061548 -0.0709729 -0.0790357 -0.0827293 -0.0845677 -0.0891807 -0.0996118 -0.113137 -0.123482 -0.12575 -0.120197 -0.110881 -0.101475 -0.0931961 -0.0842658 -0.0722076 -0.054615 -0.0321135 -0.00661409 0.0190811 0.0445988 0.0699806 0.0954354 0.11982 0.142992 0.164552 0.184236 0.201244 0.215928 0.227907 0.236991 0.242216 0.244183 0.242816 0.238096 0.229738 0.218674 0.204555 0.187629 0.167725 0.145592 0.121566 0.0966567 0.0714473 0.0465297 0.0212099 -0.0042063 -0.0293038 -0.0518475 -0.0701778 -0.0831223 -0.0921555 -0.0990345 -0.105139 -0.109823 -0.112022 -0.111167 -0.107811 -0.10302 -0.0975113 -0.0919478 -0.0863896 -0.0814122 -0.0768799 -0.0736336 -0.0714844 -0.070444 -0.0692767 -0.0673673 -0.0642933 -0.0600981 -0.0551484 -0.0495723 -0.0442615 -0.0390532 -0.0346522 -0.0306491 -0.0277295 -0.0256609 -0.0245055 -0.0243453 -0.0248141 -0.0260665 -0.0271583 -0.0284075 -0.0290616 -0.0293068 -0.0289739 -0.0281257 -0.0271626 -0.025643 -0.0243887 -0.0228212 -0.0214535 -0.0200053 -0.0182325 -0.0164783 -0.0139937 -0.0115681 -0.00877454 -0.0062204 -0.00435592 -0.00292832 -0.00275925 -0.00285593 -0.0035095 -0.00389326 -0.00341221 -0.0026459 -0.0010037 6.45315e-05 0.000248487 -0.000595495 -0.00267402 -0.00408284 -0.00465207 -0.00364817 -0.00187264 -0.00095301 -0.000951013 -0.00192981 -0.00277507 -0.00278723 -0.00225268 -0.00155877 -0.00115309 -0.00102655 -0.00094139 -0.00079704 -0.000391806 0 0 
0 0 -0.000233416 -0.00053295 -0.000767178 -0.00103619 -0.00125682 -0.00132998 -0.00133453 -0.00153094 -0.00211882 -0.00308949 -0.00378829 -0.00354686 -0.00228676 -0.000428632 0.000415394 -0.00037958 -0.0025676 -0.00504796 -0.00565475 -0.00431477 -0.0013257 0.00148657 0.00234471 0.00122273 -0.00191002 -0.00504491 -0.00716285 -0.0076756 -0.00656159 -0.00570301 -0.00548293 -0.00715275 -0.0106393 -0.0147971 -0.0192683 -0.0223929 -0.024412 -0.0249346 -0.024439 -0.0237908 -0.022976 -0.0229082 -0.022996 -0.0234757 -0.0238419 -0.0238843 -0.0236101 -0.0227168 -0.0218546 -0.0208085 -0.0204588 -0.0206931 -0.022082 -0.0247074 -0.0285308 -0.033852 -0.04031 -0.0481968 -0.0563429 -0.0640042 -0.0691808 -0.070509 -0.0673595 -0.0615522 -0.0567481 -0.0563724 -0.0618265 -0.0701526 -0.0773627 -0.0807384 -0.0826321 -0.087446 -0.0976189 -0.109444 -0.116354 -0.113976 -0.104039 -0.0918671 -0.0816265 -0.0738713 -0.0661041 -0.0559082 -0.0412268 -0.0222382 2.48007e-05 0.0236526 0.0475865 0.0709446 0.0935195 0.114754 0.13505 0.153939 0.170979 0.185394 0.197751 0.208046 0.215796 0.220185 0.221862 0.220759 0.216847 0.209873 0.200621 0.188857 0.174533 0.157531 0.13836 0.116976 0.0943287 0.0711026 0.0480454 0.0248571 0.00206051 -0.0196001 -0.0383824 -0.0531014 -0.0635293 -0.0718373 -0.0798321 -0.0883732 -0.0960877 -0.101033 -0.102428 -0.100966 -0.0979907 -0.0940863 -0.0897668 -0.0849717 -0.0804046 -0.0763727 -0.0736891 -0.0721072 -0.0715949 -0.0710209 -0.0697184 -0.0671797 -0.0630359 -0.0575482 -0.0510254 -0.0444669 -0.0380083 -0.0325107 -0.0277754 -0.0243843 -0.022066 -0.0207629 -0.0204985 -0.0208113 -0.0218652 -0.0227215 -0.0236803 -0.0240351 -0.024026 -0.0236115 -0.0230018 -0.0227549 -0.0226364 -0.0233477 -0.0239707 -0.0245335 -0.0240962 -0.0221257 -0.0189737 -0.0144289 -0.0102294 -0.00678312 -0.00523081 -0.00562033 -0.0066141 -0.00782633 -0.00733279 -0.00522414 -0.00210598 0.000994603 0.00212083 0.00129211 -0.00147326 -0.00440063 -0.00570467 -0.00507139 -0.00259619 -0.000407163 0.000399608 -0.000426497 -0.0022559 -0.00350268 -0.00373939 -0.00304809 -0.00209644 -0.00152689 -0.00134788 -0.00136106 -0.00130701 -0.00110319 -0.000833026 -0.000383369 0 0 
0 0 -0.000218357 -0.000485984 -0.000691593 -0.00104334 -0.00150456 -0.00183715 -0.00179681 -0.00147629 -0.00132916 -0.00198371 -0.0033821 -0.00456328 -0.00459996 -0.00302035 -0.000879293 0.000548866 0.000492599 -0.0011734 -0.00290424 -0.00424098 -0.00438598 -0.00328102 -0.00196106 -0.000542598 -0.000295352 -0.00122358 -0.00316309 -0.00601045 -0.00863639 -0.0111316 -0.0127331 -0.0137896 -0.0146816 -0.0153864 -0.0167993 -0.0184679 -0.0207287 -0.0229919 -0.0248994 -0.0260446 -0.0259293 -0.024838 -0.0225316 -0.0198527 -0.0170489 -0.0147363 -0.0134149 -0.0130258 -0.0139433 -0.0155834 -0.0182385 -0.0212399 -0.0246396 -0.0283345 -0.0321577 -0.0366115 -0.0416062 -0.0476172 -0.0541352 -0.0604477 -0.0649638 -0.0663431 -0.0638956 -0.0589984 -0.0550298 -0.0552365 -0.061029 -0.0698413 -0.0776614 -0.0818505 -0.0845242 -0.0896648 -0.0990196 -0.108374 -0.111078 -0.103635 -0.0891891 -0.0740387 -0.0623131 -0.0538907 -0.0458679 -0.0363629 -0.0240764 -0.00864518 0.0101815 0.0313163 0.0535426 0.0749528 0.0948918 0.113152 0.130471 0.146637 0.16107 0.17296 0.183165 0.191657 0.198026 0.201645 0.203004 0.202187 0.199067 0.193545 0.186159 0.176639 0.165008 0.15079 0.134255 0.115225 0.0946121 0.0733142 0.0523392 0.0318327 0.0125231 -0.00532224 -0.0204966 -0.0325601 -0.0419988 -0.0511122 -0.0614064 -0.0730629 -0.0840158 -0.0918494 -0.0958509 -0.0969557 -0.0963411 -0.0943545 -0.0911298 -0.0865716 -0.0816714 -0.0769661 -0.0732427 -0.0703898 -0.0684287 -0.0667745 -0.0650348 -0.0627767 -0.0595164 -0.055304 -0.0503417 -0.0452346 -0.0402465 -0.0356902 -0.0314118 -0.0277845 -0.0244026 -0.0212503 -0.0183888 -0.0158123 -0.0141496 -0.0131874 -0.0135473 -0.0148822 -0.0171762 -0.0198757 -0.0224052 -0.0245243 -0.0254993 -0.0256155 -0.0245907 -0.0228416 -0.0206625 -0.0183683 -0.0165325 -0.0149504 -0.0141438 -0.0132793 -0.0123306 -0.0109021 -0.00853151 -0.00603419 -0.00324405 -0.00137163 -0.000452859 -0.000713342 -0.00209839 -0.0033936 -0.00446062 -0.00429505 -0.00294423 -0.0012066 0.000459445 0.000537663 -0.000869706 -0.0029788 -0.00454249 -0.00450293 -0.00333223 -0.00195039 -0.00130702 -0.00146278 -0.00179533 -0.00185591 -0.00155384 -0.00112561 -0.000782935 -0.000343523 0 0 
0 0 -0.000231088 -0.000485518 -0.000631705 -0.000888488 -0.00137069 -0.00203749 -0.00263215 -0.0027996 -0.00223376 -0.00136715 -0.00104599 -0.00186618 -0.00401096 -0.005857 -0.00610041 -0.00420371 -0.000538429 0.00215589 0.0028533 0.000821739 -0.00295696 -0.00586431 -0.00719674 -0.00593297 -0.00352472 -0.00164017 -0.00129428 -0.00366152 -0.00760054 -0.0122887 -0.0162904 -0.0187107 -0.0198014 -0.01952 -0.0191323 -0.0189213 -0.0194403 -0.020526 -0.0216421 -0.0226235 -0.0225712 -0.0216871 -0.0198155 -0.0173705 -0.0148521 -0.0124091 -0.0108032 -0.00987288 -0.0100561 -0.0111807 -0.0134147 -0.0165387 -0.0205515 -0.0253582 -0.0307012 -0.036715 -0.0432439 -0.0503022 -0.0574415 -0.0637571 -0.0678497 -0.0682326 -0.0644876 -0.0577911 -0.0516024 -0.0493506 -0.0528839 -0.0601908 -0.0676132 -0.0725115 -0.0765812 -0.0830329 -0.09293 -0.101492 -0.102346 -0.0927629 -0.0769916 -0.0617371 -0.0506299 -0.0425422 -0.0347444 -0.0262322 -0.0165409 -0.00496124 0.00999996 0.0284625 0.0488813 0.0687558 0.086843 0.102972 0.118051 0.132026 0.144415 0.15461 0.163141 0.170153 0.175479 0.178507 0.179707 0.17902 0.176584 0.172187 0.16633 0.158637 0.148884 0.136645 0.121758 0.104071 0.0847707 0.0650638 0.0463268 0.0291051 0.0137 -5.78063e-05 -0.0118437 -0.0217424 -0.0304201 -0.0397535 -0.0507696 -0.0630181 -0.0743101 -0.0822797 -0.0863619 -0.0875873 -0.0872844 -0.0854257 -0.0821393 -0.0775102 -0.0728204 -0.0687765 -0.0661004 -0.0644444 -0.0637928 -0.0637324 -0.063866 -0.0634766 -0.0620948 -0.0591639 -0.0548523 -0.0494117 -0.0432769 -0.0368429 -0.030507 -0.0249314 -0.0201348 -0.0163087 -0.0134571 -0.0114642 -0.0104467 -0.0102599 -0.0110796 -0.0125561 -0.0148019 -0.0171514 -0.0194515 -0.0212682 -0.0221831 -0.022396 -0.0215903 -0.0205954 -0.0195041 -0.0188309 -0.0188457 -0.019047 -0.0192658 -0.0181846 -0.0158221 -0.0119051 -0.00729621 -0.00346687 -0.00121666 -0.0016654 -0.00357451 -0.00597107 -0.00720748 -0.00588688 -0.00299027 0.000759724 0.00278873 0.00211127 -0.000545255 -0.00415787 -0.0060346 -0.00578814 -0.00395839 -0.00183213 -0.00101904 -0.00133856 -0.00219884 -0.00276446 -0.00260884 -0.0020373 -0.00140736 -0.00097115 -0.000742013 -0.000348692 0 0 
0 0 -0.000226552 -0.000501546 -0.000697964 -0.00086464 -0.00113669 -0.00172407 -0.00272351 -0.00383935 -0.00416732 -0.00332612 -0.00170325 -0.000309309 -0.000860411 -0.00285046 -0.00527429 -0.00680281 -0.00567752 -0.0034554 -0.000606165 0.00143184 0.00135624 7.67513e-05 -0.00288184 -0.00582564 -0.00809765 -0.00946429 -0.00931107 -0.00898773 -0.00880082 -0.00977157 -0.0124134 -0.0159253 -0.0201317 -0.0234125 -0.0254179 -0.0255651 -0.0239339 -0.0214424 -0.0184173 -0.0160132 -0.0141729 -0.0132993 -0.0130815 -0.0130597 -0.0130865 -0.0126071 -0.0119735 -0.0109993 -0.0102919 -0.0100489 -0.0108173 -0.0128928 -0.0162111 -0.0209765 -0.0267613 -0.0335571 -0.0410082 -0.0490045 -0.056891 -0.06375 -0.0681502 -0.068606 -0.0644474 -0.0568574 -0.0491331 -0.0448442 -0.0463614 -0.0522598 -0.0592874 -0.0647872 -0.0697794 -0.0767969 -0.086124 -0.0929872 -0.0914222 -0.0799663 -0.0634491 -0.0487245 -0.0382585 -0.0303608 -0.0224477 -0.0146609 -0.007499 0.000159465 0.0109793 0.0258556 0.0436438 0.0614165 0.0775508 0.0916987 0.104348 0.115982 0.126241 0.134797 0.141805 0.147406 0.15161 0.154174 0.155239 0.154731 0.152913 0.149735 0.145298 0.139244 0.13121 0.12067 0.10714 0.090916 0.0732624 0.0560503 0.0407266 0.0277223 0.0169632 0.00718684 -0.00187299 -0.0103812 -0.0187471 -0.0282061 -0.0392939 -0.0515699 -0.0627385 -0.0708621 -0.075329 -0.0772819 -0.0776915 -0.0765669 -0.0737831 -0.0697198 -0.0657201 -0.0626628 -0.0610712 -0.0603864 -0.0606649 -0.0613028 -0.0620096 -0.0621929 -0.0612113 -0.0587498 -0.0546774 -0.049065 -0.0423367 -0.0350549 -0.0277656 -0.0213324 -0.0160857 -0.0126332 -0.0106591 -0.0101714 -0.0106673 -0.0114943 -0.0124074 -0.0128171 -0.0129679 -0.0126564 -0.0125255 -0.0127834 -0.0138477 -0.0159764 -0.0185879 -0.0216698 -0.0240565 -0.0254593 -0.0251007 -0.0229553 -0.019634 -0.0154369 -0.0119414 -0.00934263 -0.00840883 -0.00868312 -0.00908941 -0.00934641 -0.00802817 -0.00581395 -0.00289879 1.54572e-05 0.00129715 0.00138195 -0.000621299 -0.00342862 -0.0056148 -0.00672377 -0.00520842 -0.00280552 -0.000836304 -0.000292116 -0.0016749 -0.0032837 -0.00411549 -0.00378912 -0.00268566 -0.00170376 -0.00114606 -0.000921135 -0.00080334 -0.000406569 0 0 
0 0 -0.00011244 -0.00037342 -0.000788429 -0.00116902 -0.0014053 -0.00156619 -0.00201624 -0.00317773 -0.00473557 -0.00604218 -0.00600051 -0.00381361 -0.000970346 0.00124321 0.000896808 -0.00254128 -0.00625558 -0.00898597 -0.00830215 -0.00478471 -0.00101915 0.00186407 0.00121395 -0.00199753 -0.00666883 -0.0115745 -0.0144863 -0.0160049 -0.0157422 -0.0150992 -0.015225 -0.0161204 -0.0184775 -0.0210521 -0.0234849 -0.024809 -0.0244388 -0.0228112 -0.0197949 -0.0165396 -0.0131213 -0.010232 -0.00804703 -0.00644291 -0.00567243 -0.00532699 -0.00582258 -0.00678666 -0.00850013 -0.0108047 -0.0135731 -0.0168706 -0.0202755 -0.0240097 -0.0277433 -0.0319252 -0.0364543 -0.0417579 -0.0476219 -0.0533144 -0.057829 -0.0590858 -0.0566577 -0.0507636 -0.044704 -0.0415539 -0.0440127 -0.0510463 -0.0596404 -0.0669503 -0.0732136 -0.0801465 -0.0875131 -0.0909868 -0.0855214 -0.0711036 -0.0528501 -0.0374576 -0.0262581 -0.0171695 -0.00780989 0.000334126 0.00620798 0.0110233 0.018226 0.0296051 0.0441414 0.0593707 0.0735612 0.0858066 0.0961902 0.105245 0.113353 0.12028 0.125811 0.129937 0.133088 0.135133 0.136117 0.135884 0.134762 0.132689 0.129673 0.125088 0.118472 0.109252 0.0971287 0.0825701 0.0673058 0.0533825 0.042233 0.0337651 0.0268505 0.019826 0.0119996 0.0034882 -0.00547764 -0.0158442 -0.0277375 -0.0411165 -0.0535943 -0.0635025 -0.0699822 -0.0742012 -0.0765969 -0.0770713 -0.0751744 -0.071409 -0.0671596 -0.0633865 -0.060518 -0.0580089 -0.0560946 -0.0542335 -0.0527664 -0.0510463 -0.0493693 -0.0472099 -0.0448521 -0.0418641 -0.0384003 -0.0345459 -0.0301411 -0.0256863 -0.0211314 -0.0171066 -0.0135381 -0.0107658 -0.00860767 -0.00705795 -0.00612867 -0.00550992 -0.00559253 -0.00609158 -0.00756749 -0.00977962 -0.0128742 -0.0165597 -0.0199811 -0.0230264 -0.0245182 -0.0247171 -0.0232305 -0.020696 -0.0180632 -0.0156579 -0.0147366 -0.0146131 -0.0153026 -0.0156255 -0.01419 -0.0113492 -0.00654281 -0.00195769 0.00119357 0.00183069 -0.0010151 -0.00473685 -0.00820605 -0.00887639 -0.0061696 -0.00249157 0.000912046 0.00124933 -0.000951176 -0.00377574 -0.00594335 -0.00598278 -0.00468301 -0.00313261 -0.00197471 -0.00152438 -0.00137596 -0.0011776 -0.000860238 -0.000396805 0 0 
0 0 0.000150522 4.84975e-05 -0.000577296 -0.00144575 -0.00219054 -0.00241651 -0.0021963 -0.00228066 -0.00332275 -0.00560835 -0.00806656 -0.008683 -0.00703141 -0.0032008 0.000506473 0.00170606 0.000590097 -0.0032197 -0.00695245 -0.00920509 -0.00977308 -0.00782016 -0.0057319 -0.00390366 -0.00397513 -0.00665882 -0.0108725 -0.0164362 -0.0211769 -0.0243178 -0.0252831 -0.0238891 -0.0218202 -0.019308 -0.0179692 -0.0176465 -0.0180661 -0.0188405 -0.0184929 -0.0172899 -0.0143831 -0.0106502 -0.00652431 -0.00267852 -0.000133268 0.00128238 0.000666443 -0.00121502 -0.00450277 -0.00857938 -0.012915 -0.0174188 -0.0214007 -0.0251588 -0.0282836 -0.0314722 -0.0346884 -0.0384212 -0.0428379 -0.0473046 -0.0508729 -0.0515361 -0.0487178 -0.042627 -0.0362292 -0.0328445 -0.0354413 -0.0435965 -0.054495 -0.0650652 -0.0743191 -0.0829908 -0.090234 -0.092413 -0.0854545 -0.0704922 -0.0528335 -0.0383491 -0.0273863 -0.0174271 -0.0067802 0.00225784 0.00797436 0.011589 0.0168936 0.0258061 0.0379623 0.0514457 0.0648089 0.0765041 0.0859078 0.0935671 0.100425 0.106557 0.111335 0.114783 0.117309 0.119113 0.120095 0.120142 0.11947 0.118009 0.115482 0.111396 0.105013 0.0959792 0.0842951 0.0708608 0.0576156 0.0464737 0.0384547 0.0327075 0.027589 0.0211254 0.0130267 0.00373618 -0.00597953 -0.0167221 -0.0288377 -0.0422022 -0.0546372 -0.0645394 -0.0710327 -0.0752277 -0.0772499 -0.0769952 -0.0738498 -0.0686093 -0.0628469 -0.0578293 -0.0537944 -0.0504113 -0.047819 -0.0456293 -0.0439386 -0.0422692 -0.0410624 -0.0399094 -0.038982 -0.0377771 -0.036311 -0.0343935 -0.0315806 -0.0281131 -0.0236309 -0.0188242 -0.0136268 -0.00880968 -0.00445557 -0.00108625 0.000794415 0.00140006 1.1353e-05 -0.00248217 -0.0063413 -0.0105208 -0.0143595 -0.0173479 -0.018566 -0.0188629 -0.0180212 -0.0175674 -0.0178611 -0.0191802 -0.0215725 -0.0235324 -0.0247682 -0.023774 -0.0206087 -0.0159701 -0.0104625 -0.00638168 -0.00375117 -0.00376417 -0.00558064 -0.00768947 -0.00961316 -0.00906369 -0.00682778 -0.0031393 0.000627893 0.00172201 0.000524261 -0.00316104 -0.00696817 -0.0086145 -0.00800655 -0.00556755 -0.0032937 -0.00224717 -0.00214751 -0.00234954 -0.00212019 -0.00139787 -0.000593791 -0.000160705 0 0 
0 0 0.000482994 0.000726173 0.000191801 -0.00100086 -0.00260697 -0.00396802 -0.00441557 -0.00385948 -0.00289507 -0.00297488 -0.00503791 -0.00849885 -0.0119022 -0.0123849 -0.00921628 -0.00376437 0.0017126 0.00322038 0.000748083 -0.00478805 -0.0109297 -0.0143624 -0.0154257 -0.0137186 -0.0115457 -0.0106666 -0.0114198 -0.0148367 -0.0191309 -0.0236204 -0.0269894 -0.0281153 -0.0275872 -0.0249014 -0.0215523 -0.0177746 -0.0140977 -0.0113153 -0.00882941 -0.00727744 -0.00581825 -0.00475594 -0.00374355 -0.00260947 -0.00182512 -0.000930474 -0.000841255 -0.00110719 -0.00239699 -0.00448516 -0.00745479 -0.0112704 -0.0153166 -0.0199265 -0.024256 -0.0289072 -0.0333853 -0.0381895 -0.0430383 -0.047603 -0.0507328 -0.0506312 -0.0466186 -0.0389646 -0.0307281 -0.0254715 -0.0267387 -0.0347385 -0.0471589 -0.0602693 -0.0721423 -0.0823336 -0.0894694 -0.0907524 -0.0835124 -0.0695579 -0.0538965 -0.0415344 -0.0316649 -0.0218556 -0.0107844 -0.00149831 0.00417558 0.0072795 0.0113479 0.0182623 0.0280386 0.0397762 0.0524386 0.0640197 0.0730914 0.0800052 0.0860688 0.0916832 0.0961361 0.0993072 0.101565 0.103344 0.104355 0.104682 0.104201 0.102893 0.100286 0.095969 0.0892319 0.0800124 0.0688455 0.0569249 0.0459513 0.0374116 0.0317125 0.0274631 0.0227945 0.0162329 0.00784853 -0.00161607 -0.0111407 -0.0214635 -0.0328097 -0.0452139 -0.0563883 -0.0651912 -0.0706822 -0.0739257 -0.0749576 -0.0734347 -0.0688991 -0.0625166 -0.0560472 -0.0507034 -0.0468983 -0.0441659 -0.0427054 -0.041861 -0.0414066 -0.0407127 -0.040055 -0.0391821 -0.0380542 -0.0363742 -0.0340315 -0.0312267 -0.0275629 -0.0234941 -0.0186645 -0.0140202 -0.00941031 -0.0055931 -0.00273684 -0.000924219 -0.000330063 -0.000399418 -0.00141288 -0.00242823 -0.00381534 -0.0049937 -0.00610233 -0.00743995 -0.0088184 -0.0111415 -0.013885 -0.0176205 -0.0214979 -0.0248915 -0.0275093 -0.0278987 -0.0265896 -0.023097 -0.0185148 -0.014226 -0.0108551 -0.0102057 -0.0111306 -0.013344 -0.0150684 -0.0140577 -0.0106907 -0.00463658 0.000824965 0.003254 0.00173917 -0.00369863 -0.00912272 -0.0122771 -0.0118121 -0.00845056 -0.00502424 -0.00297643 -0.00288442 -0.00382163 -0.00434931 -0.00387835 -0.00250542 -0.000902454 0.000238472 0.000336934 0 0 
0 0 0.000728197 0.00139327 0.00136048 0.000467881 -0.00155811 -0.00439573 -0.00700912 -0.0081087 -0.00697906 -0.00457735 -0.0029701 -0.00400078 -0.00818231 -0.0131317 -0.0162561 -0.0157274 -0.0112557 -0.00574006 -0.00124226 -0.000151055 -0.00318205 -0.00863872 -0.0155289 -0.0209694 -0.0241472 -0.0246921 -0.0227741 -0.0206216 -0.0188431 -0.0188375 -0.0206562 -0.0231423 -0.0256006 -0.0260761 -0.024496 -0.0204637 -0.0146641 -0.00846072 -0.0024685 0.00186308 0.00465033 0.0055057 0.00485712 0.00337625 0.00125513 -0.000647974 -0.00266574 -0.00425647 -0.00592294 -0.0075021 -0.00932209 -0.0115848 -0.0139516 -0.0169465 -0.0199901 -0.0236787 -0.0276195 -0.0323429 -0.0375216 -0.0428883 -0.0471314 -0.0483602 -0.0455672 -0.0388921 -0.0310658 -0.0257787 -0.027002 -0.0354558 -0.0492598 -0.064109 -0.0769637 -0.0863103 -0.0908788 -0.0889598 -0.079382 -0.0647184 -0.0495293 -0.0375511 -0.0274495 -0.0167981 -0.0048581 0.00512284 0.0113407 0.0146949 0.0183088 0.0234517 0.030784 0.0402121 0.0514669 0.0623635 0.0709322 0.0770087 0.0821615 0.0869042 0.0908236 0.0936452 0.0958109 0.0973914 0.0984817 0.0989106 0.0986881 0.0972415 0.0943831 0.0897629 0.0830767 0.0743839 0.0648346 0.0554569 0.0474602 0.0414836 0.037403 0.0336665 0.0289711 0.022089 0.0135827 0.00398755 -0.0058707 -0.0165814 -0.0282361 -0.0407895 -0.0522957 -0.0617887 -0.0685108 -0.0731934 -0.0754241 -0.074684 -0.0706944 -0.0646406 -0.0583847 -0.0529811 -0.0488411 -0.0455659 -0.0434771 -0.0418166 -0.0402605 -0.0382355 -0.0361032 -0.0339384 -0.0317427 -0.0294544 -0.0270172 -0.0248401 -0.022445 -0.0202225 -0.0176302 -0.0151833 -0.0124316 -0.00978314 -0.00724741 -0.00465358 -0.00235807 1.52405e-05 0.00187677 0.00373009 0.00484536 0.00520494 0.0042456 0.00156681 -0.00254815 -0.00834034 -0.0144401 -0.0202576 -0.0243611 -0.0260212 -0.0255527 -0.0230718 -0.0204674 -0.0185285 -0.0183437 -0.0200198 -0.0220887 -0.0240437 -0.0235065 -0.0204122 -0.015072 -0.00832215 -0.00297135 -2.90313e-05 -0.00113632 -0.00563328 -0.0111035 -0.0155643 -0.0161086 -0.0130338 -0.00814693 -0.00401317 -0.00299382 -0.00458122 -0.00694794 -0.00804854 -0.00693187 -0.00430473 -0.00145008 0.000597185 0.0014675 0.000921355 0 0 
0 0 0.000756963 0.00170758 0.00236907 0.00246339 0.00119811 -0.00194484 -0.00660866 -0.0113602 -0.0141194 -0.013484 -0.00972829 -0.00507474 -0.00297653 -0.00528986 -0.0116026 -0.0189768 -0.0231713 -0.0225466 -0.0173219 -0.0106941 -0.00649568 -0.00634176 -0.0108547 -0.0179024 -0.0250291 -0.0304445 -0.0325253 -0.0317697 -0.028584 -0.0244728 -0.0206048 -0.017512 -0.0157154 -0.0146035 -0.013847 -0.0126692 -0.0105138 -0.00737684 -0.00309044 0.00148178 0.00603411 0.00957415 0.0115241 0.0116384 0.00966626 0.00619845 0.00136146 -0.00371615 -0.00889315 -0.013297 -0.0168612 -0.0194137 -0.0209037 -0.0218949 -0.0223893 -0.0231716 -0.0244663 -0.02696 -0.0307228 -0.0353315 -0.0397157 -0.0416689 -0.0399913 -0.0344897 -0.0276293 -0.0231166 -0.0251538 -0.0351716 -0.0511482 -0.0684814 -0.0826948 -0.0913747 -0.0934306 -0.0885371 -0.0769989 -0.0618375 -0.0469445 -0.0346953 -0.0235159 -0.011329 0.00202092 0.0134468 0.0213048 0.026383 0.0310381 0.03609 0.0421666 0.0501613 0.0604309 0.0710912 0.0796784 0.0857565 0.0905662 0.0948062 0.098358 0.101168 0.103442 0.105089 0.106082 0.106524 0.106053 0.104107 0.100516 0.0954009 0.0888097 0.0810667 0.0733174 0.0662933 0.0601745 0.0550386 0.050543 0.0457152 0.0397248 0.0319221 0.0225862 0.0119354 0.000702439 -0.0113385 -0.0240257 -0.0372207 -0.0495074 -0.0601177 -0.0683765 -0.0744316 -0.077593 -0.0772562 -0.073292 -0.0670573 -0.0602161 -0.0539338 -0.0485062 -0.0439531 -0.0404728 -0.0375124 -0.0347019 -0.0315959 -0.0287843 -0.0263353 -0.0245868 -0.0234114 -0.0228614 -0.0230939 -0.0235743 -0.0240772 -0.0239436 -0.0229343 -0.0204328 -0.0164742 -0.0113584 -0.00527482 0.000713213 0.00620828 0.0100204 0.0120324 0.0117831 0.00959712 0.00589989 0.0012737 -0.00325386 -0.00743917 -0.0104591 -0.012519 -0.0136502 -0.0143995 -0.0155548 -0.0173957 -0.0205 -0.0243031 -0.0282835 -0.0313138 -0.0319319 -0.0297737 -0.0243547 -0.0173156 -0.0103759 -0.00598613 -0.00620524 -0.0104269 -0.0170421 -0.0222606 -0.0229158 -0.018791 -0.0115157 -0.00527869 -0.00300722 -0.00509154 -0.00970338 -0.0134207 -0.0140405 -0.0112905 -0.00655485 -0.00189201 0.00127764 0.00259604 0.00252924 0.00129627 0 0 
0 0 0.000550973 0.00149045 0.00266731 0.00398978 0.00455623 0.00307878 -0.00142603 -0.00880481 -0.0170952 -0.0230802 -0.024102 -0.0195353 -0.0120338 -0.0059728 -0.00476639 -0.00965396 -0.0180807 -0.0263486 -0.0313086 -0.0312204 -0.027402 -0.0218388 -0.0174129 -0.0161137 -0.018218 -0.0231829 -0.0288426 -0.0332739 -0.0345894 -0.0321426 -0.0265571 -0.0188934 -0.0111716 -0.00465484 -0.000173717 0.00209925 0.00293661 0.00293038 0.0031809 0.00381808 0.00509341 0.0066971 0.00786984 0.00837481 0.00753696 0.00536562 0.00189752 -0.00251718 -0.00748429 -0.012515 -0.0172394 -0.0213462 -0.0246221 -0.0270462 -0.0285864 -0.0295829 -0.0302947 -0.0313162 -0.0328579 -0.034829 -0.0362804 -0.0355205 -0.0312598 -0.0235472 -0.0147079 -0.00885255 -0.0105093 -0.0216557 -0.0402418 -0.060833 -0.0776446 -0.0872578 -0.0887955 -0.0832144 -0.072215 -0.058864 -0.0459129 -0.0346262 -0.0232045 -0.0102464 0.00389339 0.0163689 0.0259447 0.0333105 0.0398678 0.0458732 0.0519018 0.0592499 0.0689292 0.079442 0.0884998 0.0952149 0.100321 0.104459 0.107846 0.110841 0.113435 0.115197 0.116009 0.116077 0.115028 0.11227 0.1078 0.102284 0.0961554 0.0898088 0.0838495 0.0782809 0.0726445 0.0666433 0.0603885 0.0536109 0.0460943 0.0372892 0.0269227 0.0149997 0.00239145 -0.0106285 -0.0235298 -0.0362493 -0.0478942 -0.0580512 -0.065898 -0.0711908 -0.0730832 -0.0710492 -0.0652646 -0.0572789 -0.0488861 -0.0413698 -0.035198 -0.030654 -0.0279301 -0.0265922 -0.0260031 -0.0256779 -0.02571 -0.0261188 -0.0268112 -0.0275264 -0.0281683 -0.0286211 -0.0285302 -0.0278637 -0.0263453 -0.0238985 -0.020303 -0.0157835 -0.010633 -0.00521983 -0.000138112 0.00406407 0.00687557 0.00823922 0.00804679 0.00698936 0.00534317 0.00395675 0.00319137 0.00286845 0.00286897 0.00209514 -8.2424e-05 -0.00447256 -0.0109356 -0.0186468 -0.0263205 -0.0319106 -0.034337 -0.0329455 -0.0284121 -0.0226281 -0.0176224 -0.0155102 -0.0168082 -0.0212515 -0.0268218 -0.0306998 -0.0308547 -0.0260107 -0.0178743 -0.00956541 -0.00475551 -0.00596759 -0.0119868 -0.0194255 -0.0239552 -0.0229405 -0.0170036 -0.00877655 -0.00144222 0.00305868 0.00457949 0.00409836 0.00286129 0.00125603 0 0 
0 0 0.00020956 0.000848739 0.00210809 0.00423345 0.00672126 0.00821929 0.00685312 0.000954344 -0.00958066 -0.0224405 -0.0338368 -0.0393769 -0.036865 -0.0278812 -0.0164758 -0.0089754 -0.00884265 -0.0159258 -0.0273563 -0.0373174 -0.042762 -0.0422394 -0.0370615 -0.0302553 -0.0238992 -0.0202426 -0.0192783 -0.0204445 -0.0225767 -0.0236852 -0.0229507 -0.0194008 -0.0133693 -0.00580323 0.00227816 0.00921937 0.0142672 0.0166116 0.0164199 0.0141345 0.0103474 0.0061893 0.00197932 -0.0014843 -0.00431345 -0.00645728 -0.00823084 -0.00995217 -0.011833 -0.0141694 -0.0167719 -0.0197398 -0.0227001 -0.0255028 -0.027806 -0.0295565 -0.0308759 -0.0319486 -0.0330686 -0.033847 -0.0337055 -0.0308622 -0.024329 -0.0139998 -0.0023348 0.00613015 0.00641505 -0.00405147 -0.023227 -0.0451422 -0.0626588 -0.0719096 -0.0722558 -0.0661118 -0.0563282 -0.0457778 -0.0357776 -0.026508 -0.0162609 -0.00429961 0.008616 0.0203439 0.0298397 0.0379037 0.0450939 0.0512247 0.0565633 0.0626286 0.0706486 0.0799337 0.0884864 0.0953947 0.100518 0.104356 0.107291 0.110028 0.112624 0.114292 0.114704 0.114156 0.112397 0.109044 0.104452 0.0995778 0.0950254 0.0910111 0.0872103 0.0830327 0.077517 0.0708261 0.0636171 0.0564087 0.0491029 0.0409494 0.0309998 0.019347 0.00697647 -0.00512724 -0.0164889 -0.0271589 -0.0368891 -0.0455589 -0.0522002 -0.0563834 -0.0571279 -0.0540945 -0.0475526 -0.0394121 -0.0312006 -0.0243386 -0.019334 -0.0165167 -0.0159057 -0.0170691 -0.0190904 -0.0212589 -0.0235902 -0.0256266 -0.0273385 -0.0283116 -0.0286389 -0.0281613 -0.0269484 -0.0251115 -0.0230164 -0.0208283 -0.0185768 -0.0166511 -0.0148089 -0.0131873 -0.0113342 -0.00914055 -0.00635539 -0.0027597 0.00139724 0.00614738 0.0106267 0.0145366 0.0167706 0.0168369 0.014342 0.00919576 0.00224073 -0.00575862 -0.0132191 -0.0191332 -0.0226177 -0.0233142 -0.0222024 -0.0200562 -0.0188509 -0.0197411 -0.023277 -0.0295046 -0.0362094 -0.0413632 -0.0419403 -0.0366504 -0.0268744 -0.0156472 -0.00870591 -0.00889158 -0.0163622 -0.0276779 -0.0365929 -0.039088 -0.0336061 -0.0223146 -0.00956751 0.000880911 0.00674197 0.00812211 0.00668428 0.00429662 0.00229446 0.00082984 0 0 
0 0 -0.000119247 7.98686e-05 0.00098894 0.00309183 0.00654846 0.010742 0.0140296 0.0136835 0.0070584 -0.00659234 -0.0254574 -0.0442421 -0.0569064 -0.0596522 -0.0516527 -0.0378524 -0.0241908 -0.0161115 -0.0168365 -0.023971 -0.0347101 -0.0440187 -0.0484573 -0.0473581 -0.0405333 -0.030897 -0.020612 -0.012014 -0.00678775 -0.00445923 -0.00474371 -0.00546569 -0.0053577 -0.00348652 0.000688747 0.00588607 0.0116117 0.0159217 0.0181915 0.0177884 0.0145875 0.00947744 0.00287068 -0.00394825 -0.0104706 -0.0160661 -0.0203052 -0.0233815 -0.0250349 -0.0258337 -0.0256068 -0.0249676 -0.0238489 -0.0224896 -0.0210253 -0.0195354 -0.0185121 -0.0179183 -0.0182029 -0.0187046 -0.0188761 -0.0166338 -0.0107655 -0.000889151 0.0107965 0.0195051 0.0199598 0.00903609 -0.0110962 -0.0340018 -0.0516684 -0.0597401 -0.0583177 -0.0512562 -0.0424568 -0.0341811 -0.0266683 -0.0189687 -0.00977219 0.00107071 0.0124029 0.0228784 0.0318326 0.0399724 0.0472196 0.053333 0.0579819 0.0627476 0.0687064 0.0760281 0.0833311 0.0898375 0.0947754 0.0981706 0.100359 0.102484 0.104556 0.105827 0.10565 0.10432 0.101897 0.0985155 0.0947022 0.0916407 0.0895257 0.0881086 0.0862509 0.0828853 0.0771395 0.07003 0.0626652 0.0560532 0.0496214 0.0425915 0.0334111 0.022381 0.0106988 -0.000226986 -0.00998291 -0.0186939 -0.02679 -0.0342368 -0.0402261 -0.0438581 -0.0441772 -0.0408461 -0.0342567 -0.0262224 -0.0181603 -0.0114646 -0.00655913 -0.00379247 -0.00304295 -0.0039246 -0.00550781 -0.00733539 -0.00930772 -0.0110439 -0.0129446 -0.0145789 -0.0164154 -0.0180866 -0.0197595 -0.0213664 -0.0230498 -0.0246884 -0.0260251 -0.0270383 -0.027127 -0.026213 -0.0235945 -0.0194571 -0.0136046 -0.00652795 0.00100525 0.00836643 0.0141594 0.0178996 0.0185936 0.0164378 0.0120237 0.00613988 0.000783344 -0.00345211 -0.00531006 -0.0053449 -0.00451094 -0.00411792 -0.00635783 -0.0115109 -0.0200648 -0.0302981 -0.03977 -0.0464299 -0.0474589 -0.0430692 -0.0339001 -0.0233629 -0.016402 -0.0157892 -0.0238817 -0.0374817 -0.0512042 -0.0591563 -0.0564549 -0.0439201 -0.0253118 -0.00661576 0.00691702 0.0134911 0.0138429 0.0105982 0.00647029 0.00309948 0.001119 0.000233704 0 0 
0 0 -0.000327672 -0.000527421 -0.000187843 0.00119023 0.00429481 0.00949571 0.0162755 0.022405 0.0242992 0.0184563 0.00265581 -0.0212527 -0.0481533 -0.0712557 -0.0831405 -0.0816747 -0.0682266 -0.0487519 -0.0316464 -0.0211934 -0.02035 -0.0262991 -0.0344847 -0.0414431 -0.0429984 -0.0393958 -0.0307351 -0.0191566 -0.0073737 0.00326785 0.0104419 0.0142575 0.0146542 0.0124822 0.00959487 0.00642236 0.00474072 0.00398616 0.00431061 0.00487952 0.00462421 0.00329823 -4.92152e-05 -0.00468886 -0.0106922 -0.0170552 -0.0230071 -0.028065 -0.0313384 -0.0330193 -0.0325674 -0.0305089 -0.0268421 -0.0219884 -0.0163686 -0.0103319 -0.00481196 0.000155283 0.00364312 0.00614375 0.00791846 0.0109081 0.016509 0.0252211 0.03506 0.0411951 0.0383891 0.0231965 -0.00174976 -0.0293133 -0.0505462 -0.0607363 -0.0606383 -0.055304 -0.0493377 -0.0444022 -0.0395041 -0.0330195 -0.0242538 -0.0137666 -0.00282991 0.0077231 0.0175537 0.027068 0.0359113 0.0435543 0.0495083 0.0547192 0.0600976 0.0663969 0.0731486 0.0798959 0.0852854 0.089039 0.0910648 0.0926881 0.0939964 0.0946683 0.0937334 0.0917044 0.088755 0.0857916 0.083279 0.0821646 0.0818947 0.081761 0.0799551 0.075616 0.0683937 0.0598914 0.0515692 0.0443029 0.0373612 0.029621 0.0196331 0.00777375 -0.00450784 -0.0154778 -0.0245318 -0.031941 -0.0385368 -0.0444444 -0.04875 -0.0501788 -0.0477284 -0.0412245 -0.0312962 -0.0196817 -0.00775114 0.0028069 0.0114293 0.0174131 0.0209936 0.0222187 0.0217743 0.0199534 0.0169628 0.0131993 0.008404 0.00312458 -0.00294847 -0.00895914 -0.0150442 -0.020528 -0.0254026 -0.0293218 -0.0318392 -0.03301 -0.0321928 -0.0298257 -0.0255543 -0.0201858 -0.0141097 -0.00808206 -0.00311758 0.000809148 0.00290665 0.00396009 0.00406766 0.00423323 0.00519643 0.00692954 0.0099847 0.0127579 0.0147729 0.0143201 0.0104895 0.00340782 -0.0071397 -0.0187755 -0.0302527 -0.0387971 -0.0423039 -0.0406798 -0.0337334 -0.0255888 -0.0197156 -0.0206087 -0.0310454 -0.0480897 -0.0674802 -0.0808763 -0.0823948 -0.0706606 -0.0477988 -0.0211535 0.00253806 0.0182049 0.0240075 0.0221394 0.0160692 0.00935188 0.00420353 0.00114832 -0.000141142 -0.000288477 0 0 
0 0 -0.000389707 -0.000826019 -0.00100197 -0.000598923 0.00120047 0.00539646 0.0127516 0.0227342 0.0329873 0.0394151 0.0366736 0.0216003 -0.0055955 -0.0403261 -0.0734183 -0.0971922 -0.105427 -0.0974521 -0.0783852 -0.0541204 -0.0330137 -0.0191222 -0.0137013 -0.0157994 -0.0206175 -0.0255475 -0.026894 -0.0234024 -0.0158101 -0.00474792 0.00645736 0.016274 0.02259 0.0243845 0.0222909 0.016436 0.00897102 0.000873971 -0.00627491 -0.0116217 -0.0151928 -0.0167889 -0.0175392 -0.0175483 -0.0178636 -0.0185806 -0.0197035 -0.021267 -0.0224423 -0.0233446 -0.022902 -0.0213255 -0.0180105 -0.0131149 -0.00691335 0.000397792 0.00776506 0.0150387 0.020985 0.0258268 0.0295143 0.0336593 0.0395688 0.0478101 0.0564351 0.0605496 0.0545711 0.0351648 0.00518405 -0.0275695 -0.053339 -0.0672383 -0.0704818 -0.0691818 -0.0680604 -0.0682771 -0.0673707 -0.0634019 -0.0561556 -0.0469491 -0.0370168 -0.0266163 -0.0159334 -0.0049756 0.00570867 0.0156371 0.0239446 0.0309946 0.0370179 0.0433916 0.0502277 0.0575944 0.0641352 0.0689652 0.0716014 0.0730365 0.0735921 0.0734008 0.0718024 0.0692737 0.0662902 0.0640711 0.0630016 0.0633143 0.0637455 0.0630649 0.0596867 0.0532055 0.0437868 0.0335497 0.0236503 0.0150293 0.00671608 -0.00230496 -0.0133522 -0.0259812 -0.0385537 -0.0490055 -0.0565588 -0.061644 -0.0653657 -0.0681359 -0.0688047 -0.0661073 -0.0589214 -0.0475859 -0.0327365 -0.0163484 0.000306349 0.0152033 0.0274969 0.0364813 0.0422469 0.0448791 0.0447982 0.042411 0.0380113 0.0322953 0.0252257 0.0176306 0.00940711 0.00162465 -0.00563299 -0.0116474 -0.0163864 -0.0197459 -0.0215604 -0.0224685 -0.022186 -0.021749 -0.0209815 -0.0206329 -0.0206343 -0.0208299 -0.02107 -0.020209 -0.0181566 -0.0138807 -0.0077741 0.000101516 0.00877035 0.0166529 0.0227144 0.0248579 0.0229569 0.0164983 0.00652582 -0.0047598 -0.0158488 -0.0233644 -0.0267482 -0.0252329 -0.0203115 -0.0154831 -0.0133729 -0.0186567 -0.0323984 -0.0532782 -0.077369 -0.096313 -0.10431 -0.096238 -0.0727624 -0.0400294 -0.00564353 0.0212987 0.0362469 0.0389816 0.0326295 0.0224787 0.0125868 0.0052905 0.00112056 -0.000670939 -0.00103447 -0.000586302 0 0 
0 0 -0.000342118 -0.000828663 -0.00129663 -0.00169423 -0.0014289 0.000579101 0.00583914 0.0154777 0.0293804 0.0452439 0.057881 0.0615242 0.0511306 0.0250447 -0.0123993 -0.0541866 -0.0900118 -0.111508 -0.115222 -0.101325 -0.0765839 -0.048134 -0.0229298 -0.00604688 0.00251512 0.00311473 -0.000530004 -0.00514749 -0.00848046 -0.00823191 -0.00503886 0.000892134 0.00763694 0.0133116 0.0167032 0.0161869 0.0122182 0.0048314 -0.00452944 -0.014253 -0.0231472 -0.0294241 -0.0330811 -0.0334396 -0.0313696 -0.0273308 -0.0220674 -0.0164443 -0.010711 -0.00558362 -0.000641341 0.00380507 0.00819591 0.012668 0.0172281 0.0220406 0.0264973 0.0305708 0.0334223 0.0353032 0.0362875 0.0379043 0.041534 0.0477686 0.054683 0.0572745 0.0496643 0.0284036 -0.00359865 -0.0381757 -0.0651719 -0.0798958 -0.0840509 -0.0847048 -0.0865079 -0.0899967 -0.0916001 -0.0890854 -0.0828621 -0.0746455 -0.0655335 -0.0552518 -0.0440171 -0.0320419 -0.0200412 -0.00821379 0.00236037 0.0112203 0.0181733 0.0245502 0.0312437 0.0387432 0.0458316 0.0515915 0.054818 0.056018 0.0555823 0.054299 0.0521044 0.049666 0.047448 0.0465916 0.0470944 0.0484499 0.048769 0.0469184 0.0416834 0.0334008 0.0226234 0.0111791 0.000181388 -0.00965748 -0.0191287 -0.0291211 -0.040932 -0.054051 -0.0668887 -0.0769619 -0.083383 -0.0867831 -0.0886851 -0.0896026 -0.0882564 -0.0833813 -0.0738985 -0.0604949 -0.0437552 -0.0256479 -0.00731638 0.00912684 0.0228529 0.0331695 0.0404652 0.0448563 0.0466784 0.0463765 0.0443072 0.0412348 0.0371733 0.0327947 0.0279318 0.023185 0.0183911 0.0139902 0.00968956 0.00534459 0.000860757 -0.00430282 -0.00972067 -0.015864 -0.0220722 -0.0280568 -0.0329667 -0.0358494 -0.0361552 -0.0328681 -0.0266171 -0.0174723 -0.00726993 0.00270225 0.0107831 0.0154233 0.0165227 0.0135155 0.00804037 0.00130884 -0.00472958 -0.00808703 -0.00850977 -0.00527205 -0.000690459 0.0030283 0.00240562 -0.00605938 -0.0227465 -0.0476201 -0.0757281 -0.100164 -0.113922 -0.110262 -0.0890445 -0.0536305 -0.0123122 0.0247412 0.0505666 0.0608694 0.0572768 0.0447736 0.0290726 0.0153038 0.00574962 0.000525843 -0.00148381 -0.0017741 -0.00138327 -0.000639096 0 0 
0 0 -0.000244346 -0.000651332 -0.00117683 -0.00198909 -0.00284319 -0.00299312 -0.000985332 0.00503263 0.0167706 0.0347206 0.056652 0.0778578 0.0913145 0.0901056 0.0711382 0.0354812 -0.00970902 -0.0546467 -0.0899277 -0.108039 -0.107729 -0.0911651 -0.0643346 -0.0348024 -0.00821504 0.0104755 0.0200667 0.0211502 0.0158655 0.00782464 -0.000660256 -0.00692031 -0.0103673 -0.0109532 -0.0093278 -0.00721855 -0.0053531 -0.0051522 -0.00689449 -0.0105826 -0.0157418 -0.0210681 -0.0259062 -0.0286992 -0.0291255 -0.0265371 -0.021143 -0.0134875 -0.00401956 0.00590956 0.0158644 0.0247769 0.0324855 0.0385305 0.0428462 0.0455657 0.0465311 0.0459269 0.0433866 0.0394781 0.0345679 0.0305358 0.0288477 0.0304977 0.0336868 0.0333667 0.023628 0.00095262 -0.0315955 -0.065672 -0.091249 -0.103778 -0.105828 -0.104885 -0.105918 -0.108617 -0.108829 -0.10432 -0.0960385 -0.0861534 -0.07545 -0.0633298 -0.0499593 -0.0360247 -0.0220162 -0.00790705 0.00532015 0.0163619 0.0245932 0.0312893 0.0376863 0.0446659 0.0515773 0.0576172 0.061192 0.0620846 0.0606572 0.0583409 0.0558767 0.0541085 0.0533742 0.0542286 0.0560119 0.0577095 0.0573828 0.0541764 0.0475031 0.0380755 0.0264647 0.0140436 0.00171297 -0.0097943 -0.0209174 -0.0327263 -0.0464386 -0.0617028 -0.0766141 -0.0886001 -0.0966482 -0.10161 -0.105188 -0.107911 -0.108351 -0.105039 -0.0970498 -0.0849741 -0.0695435 -0.052224 -0.0341704 -0.0173519 -0.00263084 0.00952085 0.0195689 0.0275872 0.0338303 0.0386545 0.0421775 0.0449663 0.0467294 0.0478168 0.0477732 0.0466138 0.0439039 0.0396551 0.0337205 0.026118 0.017218 0.00726199 -0.0027147 -0.012303 -0.0202668 -0.0261838 -0.0295029 -0.0298781 -0.0278651 -0.0236742 -0.0188231 -0.0139259 -0.0102678 -0.00831143 -0.00804742 -0.00930002 -0.0107115 -0.0116991 -0.0105685 -0.00676013 -0.000308992 0.00817854 0.0161105 0.0212207 0.0199726 0.0102724 -0.00834245 -0.0346926 -0.0639238 -0.0904298 -0.106759 -0.106984 -0.088992 -0.0540242 -0.00953654 0.0351925 0.0704708 0.0892322 0.0904184 0.0770891 0.0560912 0.034371 0.0165935 0.00496625 -0.00100105 -0.00300151 -0.00287283 -0.00206052 -0.00128421 -0.000526256 0 0 
0 0 -0.000147694 -0.000427792 -0.00085929 -0.00170345 -0.0030032 -0.00449677 -0.00531723 -0.00382597 0.0023203 0.0155726 0.0370105 0.0652165 0.0954561 0.120262 0.132018 0.125004 0.0983067 0.0561873 0.00681621 -0.0394458 -0.0739704 -0.0913751 -0.0907282 -0.0754219 -0.050786 -0.023492 0.000765927 0.0177442 0.0254105 0.0242506 0.0158996 0.00356605 -0.00970504 -0.0213505 -0.0293874 -0.0333099 -0.0330196 -0.0296769 -0.0244217 -0.0184408 -0.0129735 -0.00845096 -0.00529231 -0.00319489 -0.0017606 -0.000348142 0.00164674 0.00463135 0.00896049 0.0143957 0.0207972 0.0275521 0.0341123 0.0399281 0.0443594 0.0471764 0.047875 0.0462798 0.0421177 0.0357368 0.0279537 0.0205536 0.0154605 0.0137098 0.0139185 0.0111116 -0.00036264 -0.0239026 -0.0564104 -0.0894316 -0.113148 -0.123387 -0.123329 -0.120847 -0.120768 -0.122112 -0.120435 -0.113492 -0.102842 -0.0909007 -0.0781114 -0.0636432 -0.0478466 -0.031725 -0.015507 0.00103146 0.0170497 0.0306039 0.0406881 0.0482361 0.0547923 0.0612222 0.0676135 0.0734614 0.0773454 0.0781947 0.0763097 0.0735845 0.0713628 0.0707258 0.0715873 0.0738135 0.076043 0.0769252 0.0753063 0.070616 0.0627998 0.0524629 0.0400952 0.0263894 0.0124221 -0.000965456 -0.014019 -0.0280195 -0.0440479 -0.0617684 -0.0790929 -0.0933383 -0.103463 -0.110515 -0.116264 -0.121074 -0.123571 -0.122117 -0.115894 -0.105537 -0.0916534 -0.075404 -0.0579068 -0.0410366 -0.0256613 -0.0121713 -2.03277e-05 0.0107124 0.0201731 0.0282817 0.0351807 0.040893 0.0451324 0.0479041 0.0489317 0.0481217 0.0452669 0.0408331 0.0350523 0.0285665 0.0219149 0.0156337 0.0103085 0.00600587 0.00291539 0.000617954 -0.00125051 -0.00327108 -0.00599758 -0.00980985 -0.014996 -0.0210593 -0.0275205 -0.0330299 -0.0363849 -0.0364198 -0.0320351 -0.0233934 -0.011092 0.00281533 0.0156654 0.0243888 0.025727 0.0181002 0.00101514 -0.0233682 -0.0505372 -0.0749708 -0.0901548 -0.0907784 -0.0735089 -0.0392344 0.0066565 0.0556311 0.0973962 0.12387 0.130823 0.119171 0.0945897 0.0646189 0.0366703 0.0154246 0.00228966 -0.00380265 -0.00528513 -0.00448045 -0.0030159 -0.00175766 -0.000957244 -0.000357626 0 0 
0 0 -7.82112e-05 -0.000242151 -0.000523555 -0.00116358 -0.00235593 -0.0042234 -0.00655314 -0.00838632 -0.00789716 -0.00237561 0.0111168 0.0343391 0.0669133 0.104791 0.140812 0.166753 0.174974 0.162054 0.129286 0.0825833 0.0310386 -0.0164779 -0.0523315 -0.0726601 -0.0769074 -0.0676836 -0.0498892 -0.0286591 -0.00936034 0.00435137 0.0104712 0.0088137 0.00107952 -0.0104177 -0.022653 -0.0329547 -0.0395132 -0.0409399 -0.0374838 -0.0295629 -0.0187056 -0.00645638 0.00563063 0.0162026 0.0243899 0.0297124 0.0323861 0.0327217 0.0314508 0.0292787 0.0268083 0.02466 0.0230413 0.0220178 0.0215707 0.0214179 0.0212166 0.0203429 0.0183197 0.014915 0.0107077 0.00684142 0.00507438 0.00612584 0.00844201 0.00736513 -0.00283778 -0.0250767 -0.0563976 -0.0880351 -0.110821 -0.120603 -0.121119 -0.119794 -0.121355 -0.124051 -0.123249 -0.116782 -0.106629 -0.0951236 -0.082545 -0.0678486 -0.0516242 -0.0349557 -0.0181683 -0.000536923 0.0169571 0.0321977 0.0436631 0.0521453 0.0587483 0.0643681 0.0695895 0.0746101 0.0783903 0.0794785 0.0779658 0.0756578 0.0743617 0.0749027 0.0771232 0.0799225 0.081645 0.0811431 0.0781342 0.0725397 0.064294 0.0536782 0.0408755 0.0265709 0.0117628 -0.00237038 -0.0162371 -0.0309765 -0.0477351 -0.0658775 -0.0833481 -0.0974068 -0.107201 -0.113682 -0.118724 -0.122676 -0.124283 -0.121805 -0.114866 -0.103979 -0.090087 -0.0738917 -0.0569154 -0.0407617 -0.0267695 -0.0150369 -0.00514741 0.00298178 0.00933607 0.0140757 0.0175649 0.0198345 0.0211517 0.0217552 0.0220606 0.0222038 0.0223287 0.0227286 0.0237435 0.0254152 0.0276952 0.0303292 0.032664 0.0340131 0.0336448 0.0308834 0.02534 0.0168504 0.00589641 -0.00668283 -0.0195191 -0.0310513 -0.0396171 -0.0436564 -0.0426395 -0.0362867 -0.0259569 -0.0134573 -0.00152071 0.00680907 0.00909505 0.00360587 -0.00958987 -0.0284995 -0.0495224 -0.0672328 -0.0764146 -0.0722512 -0.052192 -0.0167078 0.0303416 0.0814507 0.127784 0.160363 0.173278 0.165223 0.139581 0.103916 0.0663825 0.0340871 0.0110566 -0.0023338 -0.00782111 -0.00831469 -0.00650402 -0.00420197 -0.00236135 -0.00119915 -0.000596306 -0.000208349 0 0 
0 0 -3.64251e-05 -0.000115263 -0.000256272 -0.000631152 -0.00144174 -0.00297083 -0.00545554 -0.0086608 -0.0117863 -0.0130015 -0.00931261 0.0023155 0.0248268 0.0586199 0.100628 0.145154 0.183107 0.206796 0.210409 0.191983 0.155101 0.105333 0.0512963 0.000832783 -0.0402083 -0.0674634 -0.0804352 -0.0799557 -0.0695158 -0.053489 -0.0357868 -0.0206559 -0.00996238 -0.00484534 -0.00467106 -0.00779125 -0.0125378 -0.0165062 -0.0185816 -0.0173803 -0.0129531 -0.00565996 0.0037746 0.0138221 0.0235401 0.0314654 0.0369462 0.0394171 0.0387985 0.035544 0.0300518 0.0233236 0.015988 0.00897569 0.00279709 -0.00202824 -0.00536497 -0.00762674 -0.00911232 -0.0102393 -0.0106101 -0.00969204 -0.0061519 2.0515e-05 0.00713117 0.0103007 0.00398001 -0.0145033 -0.0423732 -0.0711244 -0.0921922 -0.101676 -0.10343 -0.104374 -0.108644 -0.11395 -0.115658 -0.111681 -0.104113 -0.0951779 -0.0848287 -0.0719234 -0.0572092 -0.0420331 -0.0264335 -0.0095659 0.00779608 0.0231547 0.0350853 0.0437173 0.0499664 0.0542182 0.0576151 0.0609412 0.0639349 0.0652759 0.0648696 0.063924 0.0640586 0.065619 0.0684834 0.0710251 0.0717273 0.0699502 0.0662094 0.0605847 0.0528823 0.0427519 0.0304992 0.0165941 0.0024537 -0.0110517 -0.0241335 -0.038001 -0.053467 -0.0699656 -0.0854318 -0.0972264 -0.104597 -0.108564 -0.110974 -0.112297 -0.111432 -0.106737 -0.0982191 -0.086524 -0.0726884 -0.0573061 -0.0420892 -0.0285837 -0.0181752 -0.0108121 -0.00593124 -0.00327636 -0.002504 -0.00310067 -0.00418332 -0.00553102 -0.00637078 -0.00631669 -0.00465798 -0.00143863 0.00333398 0.00946929 0.0164727 0.0238713 0.0307438 0.0364112 0.039839 0.0404986 0.0380303 0.0325326 0.0245719 0.0147592 0.00453838 -0.00514182 -0.0128359 -0.017766 -0.0195629 -0.018131 -0.0147523 -0.0105294 -0.00775088 -0.00811207 -0.0131732 -0.0236185 -0.0383101 -0.0554441 -0.0708387 -0.0806598 -0.0805989 -0.067223 -0.040108 0.000477566 0.05039 0.10385 0.153126 0.189689 0.208034 0.204586 0.181276 0.143811 0.0997952 0.0582225 0.0247433 0.00241179 -0.00914846 -0.0128386 -0.0116608 -0.00857932 -0.00541148 -0.00295559 -0.00144635 -0.000653443 -0.000304672 -0.00010134 0 0 
0 0 -1.08538e-05 -3.19256e-05 -6.64818e-05 -0.000218043 -0.000618247 -0.00152586 -0.00335033 -0.00634291 -0.0106276 -0.0155032 -0.0189796 -0.0186561 -0.0106577 0.00812795 0.0387889 0.0807027 0.128073 0.17398 0.210127 0.228925 0.227479 0.204456 0.163967 0.11184 0.0546149 0.000429948 -0.0455432 -0.078305 -0.0962083 -0.0998077 -0.0907812 -0.0734691 -0.0512157 -0.0283507 -0.0079964 0.00794636 0.0179868 0.0227998 0.0226784 0.0195943 0.0149033 0.010092 0.00655444 0.00443039 0.00433867 0.00545948 0.00756516 0.00979373 0.0115758 0.0126027 0.012414 0.0112838 0.00906084 0.0063976 0.00329783 0.000310466 -0.00244534 -0.00518025 -0.00773755 -0.0103704 -0.0122068 -0.0126919 -0.0105117 -0.00548027 0.000752721 0.00370279 -0.00176923 -0.0182098 -0.0429283 -0.068243 -0.0863945 -0.0941738 -0.0954676 -0.0965848 -0.101175 -0.106713 -0.108862 -0.105667 -0.0993524 -0.0917569 -0.0826971 -0.0709853 -0.0574426 -0.0434901 -0.028983 -0.013053 0.00366962 0.0188329 0.0308496 0.0397143 0.0456493 0.0488063 0.0502978 0.0517262 0.0536292 0.0553137 0.0565803 0.0578458 0.0597117 0.0619655 0.0644236 0.0658615 0.0652628 0.0625433 0.058516 0.0532614 0.046143 0.0366874 0.0249887 0.011858 -0.00145326 -0.0141499 -0.026535 -0.039646 -0.0539875 -0.0691322 -0.0831563 -0.0935198 -0.0996637 -0.102625 -0.104266 -0.104852 -0.103595 -0.0989521 -0.0910972 -0.0806385 -0.068552 -0.0552237 -0.0420796 -0.0305508 -0.0218108 -0.015658 -0.0114726 -0.00890805 -0.00754508 -0.00695763 -0.00638512 -0.00592425 -0.00505738 -0.00387546 -0.00181523 0.000747882 0.00364112 0.00670613 0.00939901 0.0116863 0.0129052 0.0132813 0.0123674 0.0106265 0.00840127 0.0063205 0.00526611 0.00536185 0.00748917 0.0109335 0.0155653 0.0199665 0.0226442 0.0222573 0.0168875 0.00629096 -0.0101927 -0.0309961 -0.0541917 -0.0765825 -0.093851 -0.102626 -0.0986116 -0.0801518 -0.0467649 -0.000220788 0.0536752 0.110326 0.161908 0.201992 0.224796 0.226271 0.207735 0.172051 0.126722 0.0799347 0.0385203 0.00820475 -0.0103902 -0.0183393 -0.0186996 -0.0152949 -0.0104967 -0.00627303 -0.00331953 -0.00151902 -0.000624888 -0.000234181 -9.94094e-05 -2.93665e-05 0 0 
0 0 1.05396e-05 3.10758e-05 6.99545e-05 7.48619e-05 -1.5076e-05 -0.000375181 -0.00138136 -0.00339982 -0.00704553 -0.012537 -0.0191004 -0.0256769 -0.0292236 -0.0265436 -0.0146939 0.00963769 0.0452553 0.0898527 0.13739 0.179473 0.210307 0.223358 0.217371 0.192951 0.152819 0.102951 0.0485502 -0.00315205 -0.046613 -0.0776688 -0.0934007 -0.0948515 -0.0832127 -0.0627074 -0.0374009 -0.0113086 0.0114057 0.0288899 0.0390347 0.0421209 0.0386345 0.029964 0.0182962 0.00516013 -0.00707413 -0.0174271 -0.0245125 -0.0280583 -0.0281169 -0.0248314 -0.0194241 -0.0122909 -0.00488564 0.00247296 0.00870295 0.013559 0.0165443 0.017313 0.0160912 0.0127834 0.00860734 0.00422738 0.00146107 0.000448968 0.000386211 -0.00259831 -0.0126573 -0.0317977 -0.0574349 -0.0825649 -0.10058 -0.108611 -0.110404 -0.111629 -0.115404 -0.11934 -0.119696 -0.11484 -0.107007 -0.0977882 -0.0869796 -0.0735718 -0.0585324 -0.0431976 -0.0274934 -0.0105178 0.00727656 0.023502 0.0369681 0.0471742 0.0542309 0.0575255 0.0583938 0.0587188 0.0601282 0.0624972 0.0659092 0.069765 0.0734353 0.0758625 0.0770757 0.0765818 0.0744083 0.0706471 0.0660959 0.0603314 0.0528123 0.0427064 0.0305014 0.0166599 0.0025782 -0.0113273 -0.0251391 -0.0397555 -0.0554918 -0.0719059 -0.0872786 -0.0992114 -0.107164 -0.111989 -0.115369 -0.117386 -0.117293 -0.113667 -0.106676 -0.096781 -0.0847797 -0.0708032 -0.0562728 -0.0423562 -0.0302334 -0.0198525 -0.0107541 -0.00299368 0.00364916 0.00906138 0.0137023 0.0168516 0.0186992 0.0186636 0.0171854 0.0138834 0.00888066 0.00261581 -0.00466455 -0.0120244 -0.0190843 -0.0243806 -0.0275727 -0.0274648 -0.0239105 -0.0167565 -0.0063311 0.0059743 0.0191614 0.0308741 0.0394869 0.0428861 0.0395627 0.0291322 0.0112373 -0.0118958 -0.0384948 -0.0642954 -0.0852876 -0.0973164 -0.0961587 -0.0805582 -0.049468 -0.00578966 0.0462868 0.101134 0.150748 0.190547 0.214747 0.220734 0.207847 0.177371 0.135746 0.0887491 0.0446731 0.00949698 -0.0145124 -0.0261844 -0.0288073 -0.0252981 -0.0188067 -0.0123371 -0.00693045 -0.00334394 -0.00135933 -0.000373213 -2.34816e-05 6.11118e-05 4.54582e-05 2.2172e-05 0 0 
0 0 3.61248e-05 9.16792e-05 0.000174889 0.000271983 0.000363992 0.00033863 -7.26007e-05 -0.00111461 -0.00342404 -0.0076233 -0.0138943 -0.0225423 -0.0319444 -0.0400328 -0.0442567 -0.0403713 -0.0267446 -0.00147838 0.034098 0.0756562 0.118924 0.1565 0.18391 0.197302 0.194658 0.177511 0.147086 0.108131 0.0651294 0.02292 -0.0132117 -0.0408364 -0.0572028 -0.062765 -0.05861 -0.0470535 -0.0316893 -0.0148845 -0.000229077 0.0107855 0.0166501 0.0170326 0.0128081 0.00462475 -0.0053108 -0.0158531 -0.0249294 -0.0316269 -0.0350689 -0.0347851 -0.0312754 -0.0246939 -0.016266 -0.00653414 0.00317435 0.0121236 0.0194057 0.024294 0.0265114 0.025804 0.0230188 0.0187083 0.0143337 0.0102626 0.00594106 -0.00158905 -0.0155044 -0.037139 -0.0639336 -0.0897011 -0.108784 -0.118817 -0.12293 -0.125745 -0.129892 -0.133265 -0.132789 -0.127247 -0.118643 -0.108309 -0.0961926 -0.0815142 -0.0652492 -0.0486699 -0.0317272 -0.0137461 0.00483602 0.0220809 0.0368199 0.0485355 0.0569402 0.0611607 0.0623368 0.0623946 0.0637994 0.0670079 0.072394 0.0785657 0.0836455 0.0858734 0.085458 0.0829483 0.0792932 0.0746404 0.0695142 0.0628686 0.0543393 0.0433799 0.0304438 0.0158472 0.000713787 -0.0144446 -0.0297432 -0.0457748 -0.0627213 -0.0801253 -0.0963432 -0.109352 -0.11861 -0.124658 -0.12895 -0.131327 -0.131137 -0.127207 -0.119642 -0.108775 -0.0953424 -0.0795494 -0.0626882 -0.0458797 -0.0303848 -0.0164029 -0.00384693 0.00688989 0.015786 0.022496 0.0272303 0.0293655 0.0289506 0.0256805 0.0201039 0.0124105 0.00324202 -0.00651569 -0.0161398 -0.0245068 -0.0310634 -0.0345276 -0.0347702 -0.0312545 -0.0245137 -0.0153366 -0.00473392 0.00529221 0.0135348 0.0178628 0.0174914 0.0116392 0.000536247 -0.0142597 -0.0312617 -0.04689 -0.0587641 -0.0633048 -0.0581436 -0.0422115 -0.0149983 0.020752 0.0626861 0.105505 0.144457 0.174954 0.192088 0.194806 0.181649 0.154602 0.11747 0.0746706 0.0335527 -0.00165714 -0.0266404 -0.040095 -0.0438796 -0.039635 -0.0315698 -0.0222268 -0.0136581 -0.00746026 -0.00332537 -0.00106214 -4.89656e-05 0.000342672 0.00035726 0.000261323 0.000157227 6.63286e-05 0 0 
0 0 6.82026e-05 0.000157474 0.000261496 0.000390187 0.000545992 0.000668083 0.000591908 0.000196314 -0.00096114 -0.00345834 -0.00789865 -0.0153692 -0.0256463 -0.0381579 -0.0514756 -0.062329 -0.0686694 -0.0666564 -0.0539338 -0.0301084 0.00456807 0.0456115 0.0889434 0.129351 0.162169 0.18499 0.194856 0.191602 0.175459 0.147979 0.112731 0.0727513 0.0329402 -0.00341791 -0.033177 -0.0544455 -0.0672075 -0.0715132 -0.0693832 -0.0621444 -0.0519449 -0.0406232 -0.0292064 -0.0194206 -0.0113598 -0.00600177 -0.00273306 -0.00162801 -0.00194791 -0.00299985 -0.00435137 -0.00506352 -0.00517706 -0.00407421 -0.00226688 0.000211333 0.00286841 0.00506965 0.00652914 0.00669579 0.00604725 0.00456349 0.0031796 0.00181663 -0.0002095 -0.00536428 -0.0162128 -0.0337147 -0.0557066 -0.0772815 -0.0938846 -0.103517 -0.108724 -0.112811 -0.117839 -0.12186 -0.122572 -0.118953 -0.112531 -0.104305 -0.0941769 -0.0815588 -0.067377 -0.0526097 -0.0373654 -0.0211268 -0.00428832 0.0115666 0.0254821 0.0369 0.045285 0.0497159 0.0510201 0.0510589 0.0523564 0.0559543 0.0622895 0.0695439 0.0752379 0.0771193 0.0756098 0.0718959 0.0675673 0.0628312 0.0576551 0.0509377 0.0424039 0.0319068 0.0198213 0.00630371 -0.00777097 -0.0218667 -0.0359122 -0.0504005 -0.0654591 -0.080473 -0.094186 -0.104935 -0.112315 -0.116775 -0.119356 -0.119999 -0.11838 -0.113501 -0.105728 -0.0952943 -0.0830497 -0.0690634 -0.0545882 -0.0406316 -0.0281673 -0.0174685 -0.00846621 -0.00135198 0.00390493 0.00730431 0.00931404 0.00961873 0.00869345 0.00643979 0.00362552 0.00051935 -0.00222822 -0.00411734 -0.00511938 -0.00496012 -0.00425515 -0.00292032 -0.00185535 -0.00145092 -0.00248414 -0.00563121 -0.0109382 -0.0189077 -0.0286083 -0.0399099 -0.0511845 -0.0613257 -0.0685786 -0.0707307 -0.0665134 -0.0538473 -0.0327558 -0.00319095 0.0329039 0.0724097 0.112016 0.146858 0.173915 0.18965 0.19257 0.182442 0.159864 0.127498 0.0876384 0.0448401 0.0043029 -0.0299898 -0.0535596 -0.066162 -0.0681665 -0.0618809 -0.0511041 -0.0378632 -0.0254129 -0.015184 -0.00775218 -0.00334247 -0.000875811 0.000254221 0.000626815 0.000683485 0.000548941 0.000387954 0.000251656 0.0001114 0 0 
0 0 0.000105032 0.000224943 0.00033392 0.000449479 0.000583685 0.000723264 0.000802324 0.000742206 0.000205906 -0.0012373 -0.00410107 -0.00945562 -0.0179776 -0.0303714 -0.046522 -0.0644277 -0.0819543 -0.0953742 -0.101345 -0.0972911 -0.0808515 -0.0523506 -0.012891 0.034123 0.0840957 0.13256 0.173903 0.204383 0.22073 0.221234 0.20622 0.176853 0.136486 0.0887676 0.038546 -0.00938935 -0.0511598 -0.0832066 -0.104094 -0.113093 -0.111299 -0.100516 -0.0831146 -0.0620018 -0.0394634 -0.018001 0.000832045 0.0157269 0.0260872 0.0317719 0.0330175 0.0306263 0.0252726 0.0181947 0.010083 0.00189737 -0.00576952 -0.012513 -0.0180587 -0.0223854 -0.0251953 -0.0265525 -0.0262197 -0.0247474 -0.023088 -0.0234998 -0.0281433 -0.0378371 -0.0512647 -0.0649252 -0.0757253 -0.0822119 -0.0859836 -0.089223 -0.0931691 -0.0964672 -0.0974556 -0.0953812 -0.0910134 -0.0850227 -0.0772601 -0.0674649 -0.0561909 -0.0442582 -0.0316829 -0.0182868 -0.00447376 0.00879928 0.0206313 0.030591 0.0380119 0.042215 0.043762 0.044191 0.0455951 0.0492033 0.0552755 0.0621911 0.0674497 0.0690306 0.0672214 0.0634239 0.0591416 0.0547183 0.049809 0.0435553 0.0357804 0.0265683 0.0161589 0.00473435 -0.00724549 -0.0191322 -0.0308871 -0.0428147 -0.0549107 -0.0667163 -0.0771712 -0.0852668 -0.0906117 -0.0936208 -0.0949976 -0.094826 -0.0930007 -0.0890042 -0.0831532 -0.0758535 -0.0676786 -0.058864 -0.0504161 -0.0428958 -0.0370382 -0.0327109 -0.029673 -0.0276893 -0.0261783 -0.0248411 -0.0228831 -0.0201628 -0.0162819 -0.0112691 -0.00500908 0.00225617 0.0101805 0.0182017 0.0253136 0.0306838 0.0330033 0.0317017 0.0260164 0.01574 0.000958447 -0.0177738 -0.0391621 -0.0616298 -0.082636 -0.0999231 -0.11063 -0.112351 -0.103319 -0.0823925 -0.0503522 -0.00858951 0.0392739 0.0894177 0.136983 0.177172 0.206278 0.220976 0.22008 0.203301 0.172385 0.130647 0.0825672 0.0332196 -0.0131991 -0.0521369 -0.0802637 -0.0964812 -0.100484 -0.0945763 -0.0813155 -0.0639733 -0.0462411 -0.0302249 -0.0179021 -0.00940484 -0.00404614 -0.00117149 0.000274826 0.000805585 0.000853351 0.000758967 0.000607413 0.000465969 0.000334048 0.000158812 0 0 
0 0 0.00014731 0.000318971 0.000388861 0.000465969 0.000547841 0.000631999 0.000695876 0.000653434 0.000254173 -0.000857588 -0.00314481 -0.00734654 -0.0142649 -0.0247699 -0.039271 -0.0570141 -0.0763393 -0.0945411 -0.108635 -0.115786 -0.113405 -0.0999426 -0.0747949 -0.0389307 0.00519584 0.0540247 0.10284 0.147056 0.182353 0.205374 0.214146 0.207921 0.18752 0.154909 0.113359 0.0669077 0.0198451 -0.0235328 -0.0597886 -0.0863722 -0.102122 -0.10705 -0.102282 -0.089737 -0.0716641 -0.0505483 -0.0286616 -0.00800553 0.00984808 0.0238024 0.0332462 0.0380596 0.0384507 0.0350426 0.0285507 0.0198328 0.00976596 -0.000838963 -0.0112427 -0.0208282 -0.0290206 -0.0354481 -0.0399193 -0.0427311 -0.0446579 -0.0471227 -0.0514573 -0.0581855 -0.0665313 -0.0746203 -0.0807286 -0.084124 -0.085548 -0.0861729 -0.086652 -0.0864486 -0.0847472 -0.0811083 -0.0757726 -0.0690191 -0.0608939 -0.0513807 -0.0407982 -0.0296052 -0.0179254 -0.00584938 0.00631806 0.0180057 0.0286035 0.037665 0.0447083 0.0494302 0.0522189 0.0541203 0.0564828 0.060186 0.0652868 0.0706713 0.0746526 0.075945 0.0745568 0.0713559 0.0673094 0.0627746 0.0575942 0.051329 0.043853 0.0352317 0.0256282 0.0152201 0.00430818 -0.00673776 -0.0178098 -0.028978 -0.0401497 -0.0509474 -0.0607286 -0.0689032 -0.0752167 -0.0798234 -0.0830784 -0.0850875 -0.0857943 -0.0850159 -0.0828695 -0.0796045 -0.0755205 -0.0708442 -0.0660469 -0.0614283 -0.0572592 -0.0533812 -0.0495292 -0.045382 -0.0405212 -0.0346977 -0.0276322 -0.019316 -0.00991457 0.000180617 0.010461 0.0202401 0.0287588 0.0351535 0.038519 0.0380754 0.033172 0.0236497 0.00967619 -0.00812589 -0.0286838 -0.0504703 -0.0714923 -0.0894725 -0.101904 -0.106552 -0.101512 -0.0856644 -0.0590064 -0.0226794 0.0207402 0.0678209 0.114248 0.155742 0.188246 0.208497 0.214524 0.205508 0.182195 0.146574 0.102042 0.0529889 0.00447314 -0.0391599 -0.0745586 -0.0993325 -0.112557 -0.114842 -0.107721 -0.0937552 -0.0757458 -0.0566296 -0.0390776 -0.0247172 -0.0142878 -0.0073898 -0.0031686 -0.000847038 0.000295838 0.000713976 0.000760839 0.000691811 0.000600488 0.000516519 0.000441027 0.000207857 0 0 
0 0 0.000171164 0.000356535 0.000413762 0.000456273 0.000481817 0.000493181 0.000491169 0.00041802 8.61944e-05 -0.000809126 -0.00265507 -0.00597351 -0.0114215 -0.0198023 -0.0318162 -0.0475229 -0.0660811 -0.0856698 -0.103905 -0.118227 -0.126163 -0.125577 -0.114888 -0.0933806 -0.0614725 -0.0209044 0.025244 0.0730414 0.11821 0.156672 0.185135 0.201269 0.203901 0.193043 0.169922 0.136833 0.096913 0.0538779 0.0115606 -0.0264978 -0.0574677 -0.0794949 -0.0918145 -0.0947175 -0.0892935 -0.0772532 -0.0606229 -0.0415035 -0.0218996 -0.00351798 0.0122934 0.0245629 0.0327649 0.036753 0.0366639 0.0329025 0.0260257 0.0167708 0.00592385 -0.0057058 -0.0172845 -0.0281414 -0.0377686 -0.0461099 -0.0534306 -0.0603869 -0.0675997 -0.07526 -0.0828471 -0.089342 -0.0937931 -0.095872 -0.0959338 -0.0947054 -0.0925919 -0.0895038 -0.0851315 -0.0792895 -0.0720861 -0.0636814 -0.0542025 -0.043751 -0.032571 -0.0209596 -0.00910585 0.00281382 0.0145838 0.0258214 0.0361601 0.045216 0.0526418 0.0583213 0.0624812 0.0658096 0.0691627 0.0731324 0.077668 0.0820259 0.0851083 0.0860709 0.0848233 0.0818582 0.077786 0.0729253 0.0672282 0.0605471 0.0528001 0.0440605 0.034436 0.0240645 0.0131769 0.001981 -0.00939547 -0.0208982 -0.0324 -0.0435952 -0.0540732 -0.0634677 -0.0715482 -0.0783233 -0.0839098 -0.0883194 -0.09148 -0.0932469 -0.0935919 -0.0926068 -0.0903437 -0.0869384 -0.0825407 -0.0773239 -0.0713742 -0.0646283 -0.0569837 -0.0483429 -0.0386327 -0.0279778 -0.016545 -0.00475002 0.00684604 0.0175475 0.0266138 0.0333173 0.0369493 0.036948 0.0328825 0.0245754 0.0121799 -0.0037409 -0.0221681 -0.0417485 -0.0607867 -0.0773192 -0.0892534 -0.0945668 -0.0915352 -0.0790782 -0.056912 -0.0258065 0.0123679 0.0547911 0.0979042 0.13786 0.170941 0.194008 0.20476 0.201975 0.185655 0.156997 0.118323 0.0729435 0.0249438 -0.0213287 -0.0616398 -0.0931832 -0.114366 -0.124814 -0.12527 -0.117315 -0.103068 -0.0849784 -0.0655806 -0.0472264 -0.031706 -0.0198329 -0.0115318 -0.0061012 -0.00275166 -0.000851197 0.000100913 0.000475396 0.000569427 0.000575067 0.000559313 0.00052909 0.000475128 0.000232845 0 0 
0 0 0.000182401 0.000373513 0.000415492 0.000424986 0.000393203 0.000318703 0.000213504 5.81625e-05 -0.000271319 -0.00102393 -0.0025286 -0.00518683 -0.00946556 -0.0159584 -0.0254033 -0.0383083 -0.0545554 -0.0732207 -0.0926209 -0.110654 -0.125103 -0.13385 -0.135041 -0.127139 -0.109237 -0.0813757 -0.04476 -0.00180069 0.044183 0.0893843 0.130113 0.163132 0.185986 0.197096 0.195891 0.182788 0.159178 0.127292 0.0900475 0.0507408 0.0126659 -0.0212098 -0.0486031 -0.068072 -0.0790905 -0.081972 -0.0777111 -0.0677754 -0.0539049 -0.0378933 -0.0213884 -0.00583033 0.00763955 0.0182143 0.0254145 0.0289656 0.0289054 0.0254519 0.0190552 0.0103229 -4.50961e-05 -0.0113098 -0.0228759 -0.0343489 -0.0455935 -0.0566601 -0.0675804 -0.0781976 -0.0879481 -0.0961146 -0.102066 -0.105536 -0.106724 -0.106016 -0.103761 -0.0999826 -0.0946974 -0.0878799 -0.0796873 -0.0702413 -0.0597612 -0.0484107 -0.0364452 -0.0241673 -0.0117851 0.000504146 0.0125228 0.024025 0.0347416 0.044392 0.0527433 0.0596543 0.0652763 0.0700123 0.0744035 0.0787764 0.0831247 0.0869102 0.0894106 0.0900469 0.0887054 0.0856482 0.0812979 0.0758759 0.0694705 0.0620366 0.0536013 0.044219 0.0340074 0.0230843 0.0116213 -0.000222476 -0.0122894 -0.0244918 -0.0366556 -0.0485176 -0.0597546 -0.0700547 -0.0792408 -0.0871473 -0.093756 -0.0989547 -0.102624 -0.104589 -0.104767 -0.103127 -0.0996855 -0.0944957 -0.0876993 -0.0794859 -0.0700462 -0.059548 -0.0481721 -0.036152 -0.0237799 -0.0114614 0.000274092 0.0108659 0.0196417 0.0259981 0.0293791 0.0293619 0.0257483 0.0184818 0.00780311 -0.00581266 -0.0215331 -0.0381809 -0.0542734 -0.068139 -0.0780063 -0.0821717 -0.0791782 -0.0680313 -0.0484219 -0.0208685 0.0131805 0.0514247 0.0908945 0.128284 0.160283 0.183945 0.197044 0.198179 0.186944 0.163903 0.130682 0.0897601 0.0443914 -0.00174147 -0.044808 -0.0814671 -0.109126 -0.126773 -0.134459 -0.133119 -0.124303 -0.109869 -0.0919192 -0.0726551 -0.0541606 -0.0380966 -0.0253672 -0.0160593 -0.00965022 -0.0053919 -0.00269515 -0.00111575 -0.000280824 0.000112765 0.000303391 0.000419478 0.000490768 0.000513972 0.000484274 0.000242011 0 0 
0 0 0.000184185 0.000372457 0.000395937 0.000372519 0.000284297 0.000119055 -0.000111528 -0.000396953 -0.0007945 -0.00148466 -0.00274768 -0.00492172 -0.00835277 -0.0134212 -0.0206766 -0.0307307 -0.0439509 -0.0601448 -0.0784085 -0.0972481 -0.114829 -0.129245 -0.138722 -0.141589 -0.136389 -0.122107 -0.0984485 -0.066122 -0.0268963 0.0165306 0.060965 0.103085 0.139819 0.168627 0.187647 0.195783 0.192779 0.179152 0.156296 0.126283 0.0917315 0.0555244 0.0205109 -0.0107943 -0.0364684 -0.0553163 -0.06691 -0.0714899 -0.0699243 -0.0633983 -0.0533074 -0.0410973 -0.0281013 -0.0154675 -0.0041765 0.00504317 0.0116134 0.0152344 0.0158068 0.0134498 0.00851848 0.0014373 -0.00729741 -0.01735 -0.028419 -0.0402664 -0.052586 -0.0649425 -0.0766899 -0.0871537 -0.0957241 -0.102066 -0.106116 -0.108062 -0.108034 -0.106119 -0.102368 -0.0968445 -0.0896836 -0.081054 -0.0711794 -0.0602893 -0.0486797 -0.0366493 -0.0244591 -0.0123262 -0.000394629 0.0111319 0.0220969 0.0322846 0.0414417 0.0494506 0.0562999 0.0622083 0.0674538 0.0722735 0.0765875 0.0800459 0.0821575 0.0824979 0.0809697 0.0777212 0.073019 0.0670794 0.0599946 0.0518833 0.0427897 0.0328498 0.0221621 0.0108618 -0.00087724 -0.0129252 -0.0251011 -0.0372478 -0.0491836 -0.0606384 -0.071326 -0.0809711 -0.0893541 -0.096286 -0.101636 -0.105254 -0.107013 -0.106797 -0.104537 -0.100257 -0.0940067 -0.0859758 -0.07642 -0.0657021 -0.0541715 -0.0422287 -0.0302787 -0.0187774 -0.00814124 0.00112004 0.00855945 0.0136915 0.0161167 0.015576 0.011966 0.00541357 -0.0038019 -0.0151331 -0.0278777 -0.0410593 -0.0534722 -0.0637453 -0.0703809 -0.0719624 -0.0673259 -0.0556372 -0.0366746 -0.0108604 0.0206035 0.0557954 0.0922008 0.126963 0.157175 0.18022 0.193992 0.197073 0.188926 0.169822 0.140851 0.103889 0.0615205 0.01687 -0.0267345 -0.0660807 -0.0984703 -0.122114 -0.136249 -0.141276 -0.138261 -0.128683 -0.114222 -0.0966539 -0.0778775 -0.0597133 -0.0436564 -0.030588 -0.0206981 -0.0135811 -0.00860496 -0.00519834 -0.00297937 -0.00162271 -0.000826442 -0.000345111 -1.16966e-05 0.000235482 0.000397942 0.000474198 0.0004712 0.000238588 0 0 
0 0 0.000177709 0.000353914 0.000354394 0.000296358 0.000154445 -9.56133e-05 -0.000451902 -0.0008895 -0.00141298 -0.00213083 -0.00326375 -0.00511083 -0.00795442 -0.0120357 -0.0176912 -0.025372 -0.0355648 -0.0485673 -0.0641895 -0.0816336 -0.0995691 -0.116434 -0.130675 -0.140751 -0.145195 -0.142661 -0.132007 -0.112674 -0.0848748 -0.0498054 -0.00946945 0.0334897 0.0761867 0.115738 0.149582 0.175632 0.192402 0.199017 0.195339 0.181961 0.160165 0.131852 0.0993349 0.0652043 0.0319145 0.00164853 -0.0239365 -0.0437689 -0.0574396 -0.0651115 -0.067348 -0.065036 -0.0592101 -0.0509767 -0.0413663 -0.0314246 -0.02201 -0.0139063 -0.0076467 -0.00356385 -0.00180441 -0.00230842 -0.00497872 -0.00967909 -0.0162679 -0.024542 -0.0341676 -0.0446912 -0.0554458 -0.065813 -0.0751867 -0.0831435 -0.089438 -0.0939858 -0.0967674 -0.0977241 -0.0968813 -0.0942124 -0.0898192 -0.0837782 -0.0763013 -0.0676199 -0.0580259 -0.0478234 -0.0372721 -0.0265738 -0.0158742 -0.0052914 0.00504019 0.0149467 0.0242091 0.0326037 0.0400285 0.0465224 0.0522089 0.0571743 0.0613913 0.0645886 0.0664137 0.0665366 0.0648952 0.0615511 0.0567189 0.0505763 0.0432946 0.0350237 0.0259042 0.0160909 0.00572958 -0.00502088 -0.0160021 -0.0270519 -0.0379845 -0.0486239 -0.058778 -0.0682077 -0.076638 -0.083824 -0.0896137 -0.0938038 -0.096317 -0.0970246 -0.0959103 -0.0929401 -0.088189 -0.0817795 -0.0739105 -0.0649084 -0.0551309 -0.0450711 -0.0351502 -0.0258516 -0.0175977 -0.0107792 -0.00571868 -0.00269002 -0.00192924 -0.00354344 -0.00754809 -0.0137404 -0.0217647 -0.0310889 -0.0409735 -0.0505857 -0.0589434 -0.0649747 -0.0675442 -0.065517 -0.0579865 -0.044344 -0.0244601 0.00122353 0.0316122 0.0650505 0.099355 0.132067 0.160608 0.182646 0.196263 0.200167 0.193735 0.177063 0.151002 0.117058 0.0773015 0.034324 -0.00893794 -0.0495434 -0.0848279 -0.112768 -0.132153 -0.142763 -0.145206 -0.140646 -0.130463 -0.116128 -0.0992091 -0.0812552 -0.0638292 -0.048259 -0.0353445 -0.0252775 -0.0177493 -0.0122417 -0.00826533 -0.00545296 -0.00355601 -0.00231316 -0.00146773 -0.00084071 -0.000343456 3.3967e-05 0.000280937 0.000407891 0.000435168 0.000222994 0 0 
0 0 0.000163809 0.000317689 0.000289202 0.000194531 4.34922e-06 -0.000317126 -0.000781176 -0.00136478 -0.00204294 -0.00286445 -0.00398684 -0.00565327 -0.00811824 -0.0115587 -0.016132 -0.022091 -0.0297951 -0.0396723 -0.0519908 -0.0666283 -0.0828818 -0.0996611 -0.115686 -0.129639 -0.140234 -0.146183 -0.146178 -0.139034 -0.123943 -0.10071 -0.0699475 -0.0330732 0.00784656 0.050299 0.0916427 0.129337 0.161191 0.185374 0.200632 0.206279 0.202264 0.189174 0.168184 0.141048 0.10985 0.0768295 0.044134 0.013694 -0.0130469 -0.0350769 -0.0518943 -0.0634136 -0.069925 -0.071953 -0.0702786 -0.0657596 -0.0593496 -0.0519467 -0.0443731 -0.037276 -0.0311201 -0.0262466 -0.0228693 -0.021198 -0.0213753 -0.0234187 -0.0271898 -0.0323913 -0.0385672 -0.0452386 -0.0519294 -0.0582363 -0.0638497 -0.0685595 -0.0721944 -0.0746434 -0.0757726 -0.0754889 -0.0737196 -0.0705027 -0.0659281 -0.0601729 -0.053462 -0.0460418 -0.038141 -0.0299336 -0.0214973 -0.012886 -0.00417186 0.00453463 0.0129738 0.0208924 0.0280888 0.0344685 0.0399987 0.0447547 0.0486626 0.0515304 0.0530882 0.0530949 0.0514791 0.0482938 0.0436872 0.0378644 0.0309857 0.0232826 0.0149264 0.00612379 -0.0029775 -0.012173 -0.0213321 -0.0303087 -0.0389218 -0.0470147 -0.0544139 -0.06095 -0.0664335 -0.0706935 -0.0736459 -0.0752082 -0.0753534 -0.074116 -0.0715244 -0.067742 -0.0628963 -0.0572113 -0.050964 -0.0444981 -0.0382102 -0.0324969 -0.027729 -0.0242511 -0.0222954 -0.0220372 -0.0234965 -0.0266484 -0.0313583 -0.0374117 -0.0444466 -0.0519292 -0.0592045 -0.0654555 -0.0698591 -0.0715103 -0.0696 -0.0633288 -0.0520943 -0.0355373 -0.013674 0.0130238 0.0435092 0.0763131 0.109459 0.140823 0.168143 0.189351 0.202687 0.206973 0.201594 0.1866 0.162631 0.130902 0.0932048 0.0517465 0.00906062 -0.0321811 -0.0694208 -0.100519 -0.124024 -0.1393 -0.146521 -0.146493 -0.140498 -0.129825 -0.11577 -0.0996427 -0.082777 -0.0664592 -0.051782 -0.0394555 -0.0296225 -0.0220191 -0.0162154 -0.0118005 -0.00848416 -0.00605837 -0.00433789 -0.00309098 -0.00212021 -0.00131939 -0.000664701 -0.000175961 0.00014088 0.000313164 0.000374365 0.000194798 0 0 
0 0 0.000143305 0.000264847 0.000202195 6.68156e-05 -0.000167021 -0.000540471 -0.00108255 -0.00178504 -0.00261503 -0.00358489 -0.00479733 -0.00643532 -0.00869315 -0.0117132 -0.015584 -0.0203866 -0.0262943 -0.0336225 -0.0427942 -0.0541055 -0.0674521 -0.0823114 -0.0978212 -0.112923 -0.126539 -0.137578 -0.14484 -0.147097 -0.143117 -0.131934 -0.113021 -0.0865375 -0.0533436 -0.0150357 0.0262688 0.0681928 0.108317 0.144373 0.174401 0.196871 0.210736 0.215449 0.211005 0.198015 0.17757 0.151215 0.120752 0.0881301 0.0552325 0.0237314 -0.00495137 -0.0297576 -0.0499835 -0.0653328 -0.075828 -0.0818828 -0.0840727 -0.0831804 -0.0799646 -0.0751484 -0.0693675 -0.0631433 -0.0569654 -0.0512582 -0.0464239 -0.042731 -0.040312 -0.0391453 -0.0390098 -0.0397167 -0.0409763 -0.04258 -0.0442967 -0.0459337 -0.0473143 -0.0482951 -0.0487207 -0.0483937 -0.0471929 -0.0450415 -0.0419369 -0.0379832 -0.0333119 -0.0280997 -0.0225026 -0.01659 -0.0103882 -0.00384481 0.00304727 0.0102311 0.0174879 0.0245375 0.0310801 0.03694 0.0420156 0.0463012 0.0497743 0.0522669 0.0536059 0.0535479 0.0520817 0.0491975 0.0450421 0.0397962 0.0336697 0.0268821 0.0196469 0.0121815 0.00465162 -0.00277965 -0.010001 -0.0168849 -0.0233337 -0.0292145 -0.0344463 -0.03895 -0.0426063 -0.0453701 -0.0472333 -0.0482259 -0.0484272 -0.0479117 -0.0468348 -0.0453329 -0.0436001 -0.0418323 -0.0402428 -0.0391141 -0.0386252 -0.0390565 -0.0405349 -0.043203 -0.0470231 -0.051856 -0.0574665 -0.0635315 -0.0696691 -0.0754068 -0.0801696 -0.0832843 -0.0840046 -0.0816045 -0.0753912 -0.0648391 -0.0496164 -0.0296423 -0.00517016 0.0232318 0.0545336 0.0873796 0.120049 0.150621 0.177118 0.197734 0.210926 0.215604 0.211157 0.197583 0.175408 0.145663 0.109852 0.069875 0.0279647 -0.0134506 -0.0520049 -0.085555 -0.112454 -0.131769 -0.143294 -0.147521 -0.145396 -0.138128 -0.127096 -0.113428 -0.0982236 -0.0825799 -0.0675906 -0.0541186 -0.0427012 -0.0334675 -0.0261419 -0.0203259 -0.0156796 -0.0119887 -0.00910922 -0.00690123 -0.00520751 -0.00385457 -0.00271546 -0.00174406 -0.000957974 -0.000388186 -2.26268e-05 0.000189402 0.000289463 0.000155397 0 0 
0 0 0.000117142 0.000197794 9.80299e-05 -8.24446e-05 -0.000358266 -0.000768332 -0.00135506 -0.002136 -0.00309297 -0.0042184 -0.00557081 -0.00727681 -0.00948132 -0.0122672 -0.0156659 -0.0196995 -0.0244018 -0.0299259 -0.0365909 -0.0448379 -0.0549272 -0.066862 -0.080258 -0.0944488 -0.108605 -0.121808 -0.133064 -0.141294 -0.145336 -0.143985 -0.136169 -0.121175 -0.098777 -0.0694582 -0.0343605 0.00480025 0.0459669 0.0868909 0.125371 0.15943 0.1874 0.208008 0.220341 0.224009 0.21909 0.206126 0.186053 0.160205 0.1301 0.0974272 0.0638805 0.0311024 0.000521882 -0.0267005 -0.0497851 -0.0683708 -0.0824346 -0.0922392 -0.0982269 -0.100913 -0.100817 -0.0984733 -0.0943879 -0.0891155 -0.0831915 -0.0770835 -0.0711196 -0.0654955 -0.0602837 -0.055503 -0.0511391 -0.0471656 -0.0435813 -0.0402875 -0.0372232 -0.0343234 -0.031422 -0.0284017 -0.0250857 -0.0214274 -0.0173426 -0.0128865 -0.00813308 -0.00320275 0.0018186 0.00690412 0.0121577 0.0177099 0.0236578 0.0300414 0.0366611 0.0432285 0.0494128 0.0549726 0.059742 0.0637002 0.0668588 0.0690815 0.0702286 0.0701391 0.0687524 0.0660786 0.0622366 0.0573971 0.0517578 0.0455442 0.0389834 0.0322906 0.0255914 0.0190599 0.0127185 0.00664933 0.000917892 -0.00446611 -0.00943192 -0.0140003 -0.0181432 -0.0218728 -0.0252407 -0.0283337 -0.0312401 -0.0340824 -0.0369108 -0.0399025 -0.0431181 -0.0466509 -0.0506025 -0.0549981 -0.0598873 -0.0652689 -0.0711109 -0.0772852 -0.0835303 -0.0895058 -0.0947726 -0.0988285 -0.101171 -0.101266 -0.0985451 -0.0924362 -0.0824246 -0.068105 -0.049318 -0.0261628 0.000939867 0.0312417 0.0636709 0.0968902 0.129359 0.15939 0.18529 0.205481 0.21859 0.223693 0.220231 0.208149 0.187818 0.160151 0.126403 0.0882244 0.0475681 0.00656975 -0.0325515 -0.0677513 -0.0973082 -0.120075 -0.135517 -0.143787 -0.145547 -0.141827 -0.13379 -0.122591 -0.109439 -0.0952497 -0.0809454 -0.0673876 -0.0552687 -0.0449971 -0.0365833 -0.0298068 -0.024262 -0.0196407 -0.0157776 -0.0125784 -0.00995122 -0.00780645 -0.00603801 -0.00453033 -0.00321631 -0.00209901 -0.00122232 -0.000605065 -0.000207319 4.089e-05 0.000184307 0.000108109 0 0 
0 0 8.50079e-05 0.000119786 -1.38947e-05 -0.000245124 -0.000570137 -0.00100764 -0.00160837 -0.00242351 -0.00346215 -0.0047149 -0.00621039 -0.00802781 -0.0102596 -0.0129465 -0.0160674 -0.0195913 -0.0235038 -0.0278348 -0.0327569 -0.0386312 -0.0458254 -0.0546385 -0.0651164 -0.077016 -0.0898688 -0.103006 -0.115606 -0.126768 -0.135497 -0.140731 -0.141333 -0.136261 -0.124669 -0.106152 -0.0808684 -0.0495636 -0.0135326 0.0254863 0.0655375 0.104586 0.140752 0.172327 0.197914 0.216423 0.227159 0.229819 0.224458 0.211497 0.191742 0.166261 0.136429 0.10381 0.0700412 0.0366894 0.00513775 -0.0236017 -0.0488049 -0.0701182 -0.0874013 -0.100708 -0.110211 -0.116152 -0.118918 -0.118937 -0.11675 -0.11284 -0.107662 -0.101529 -0.0946892 -0.0873889 -0.0797585 -0.0720123 -0.0642913 -0.0567003 -0.0492951 -0.042115 -0.0351104 -0.0282101 -0.0213467 -0.014486 -0.00757306 -0.000670161 0.00614288 0.0127554 0.0191037 0.0252347 0.0312691 0.0374137 0.0438566 0.0506929 0.0577736 0.0648167 0.0714455 0.0773613 0.0823778 0.0864489 0.0896101 0.0917551 0.092833 0.0926462 0.0911759 0.0883963 0.0844356 0.0794368 0.0736022 0.0671334 0.0602518 0.0531877 0.0460654 0.0389735 0.0319327 0.0249877 0.0181312 0.0113627 0.00468237 -0.00193774 -0.00849348 -0.0150396 -0.0215876 -0.0282264 -0.0350141 -0.0419871 -0.0491444 -0.0565088 -0.0640465 -0.0717097 -0.0793907 -0.0869831 -0.0942978 -0.101217 -0.107482 -0.112834 -0.116872 -0.119141 -0.119173 -0.116464 -0.110592 -0.101139 -0.0878126 -0.0703916 -0.0488329 -0.0233373 0.00563422 0.0372677 0.0704934 0.103964 0.136201 0.165692 0.190946 0.210644 0.223659 0.229153 0.226649 0.216101 0.197804 0.172474 0.141175 0.105322 0.0665841 0.0268481 -0.0118949 -0.0477353 -0.0789827 -0.104344 -0.123083 -0.135034 -0.140565 -0.140456 -0.135689 -0.127353 -0.116465 -0.103989 -0.0909548 -0.078087 -0.0660659 -0.0553875 -0.0463463 -0.0389129 -0.032821 -0.0277458 -0.0233697 -0.0195375 -0.0161944 -0.0132955 -0.0107857 -0.0086191 -0.00673451 -0.00506885 -0.00360794 -0.00239106 -0.00146759 -0.000832838 -0.000412468 -0.000123544 6.69663e-05 5.77166e-05 0 0 
0 0 4.5069e-05 3.17713e-05 -0.000127124 -0.000407641 -0.000793093 -0.00126919 -0.00186653 -0.00266233 -0.00371977 -0.00504975 -0.00665244 -0.00856475 -0.0108507 -0.0135186 -0.0165014 -0.0197272 -0.0231328 -0.0267023 -0.0304965 -0.034746 -0.0397488 -0.0458782 -0.0534049 -0.0624445 -0.072877 -0.084361 -0.0963159 -0.108024 -0.118671 -0.127361 -0.133135 -0.135002 -0.131992 -0.123297 -0.108409 -0.0872595 -0.060237 -0.0282613 0.00731623 0.04488 0.0826846 0.119007 0.152208 0.18086 0.203809 0.220179 0.22936 0.231069 0.22531 0.212402 0.193048 0.168286 0.139384 0.107806 0.0750194 0.0423151 0.0108172 -0.0186047 -0.0452998 -0.0687653 -0.0886701 -0.104819 -0.117191 -0.125932 -0.131369 -0.133897 -0.133866 -0.131607 -0.127438 -0.121666 -0.114585 -0.106504 -0.0977339 -0.0884922 -0.0789643 -0.069294 -0.0595238 -0.0497067 -0.0398462 -0.0299862 -0.0201283 -0.0103956 -0.000911043 0.00817655 0.016799 0.0249508 0.0328125 0.0405964 0.0485521 0.0567979 0.0652166 0.0735241 0.0813008 0.0881906 0.0939853 0.0985906 0.102077 0.104375 0.105429 0.105118 0.103371 0.100174 0.0956806 0.0899885 0.0833214 0.0758652 0.0678534 0.0595128 0.0509663 0.0423093 0.033543 0.0246681 0.0157195 0.00664766 -0.00251009 -0.0117888 -0.0211565 -0.0306161 -0.0401587 -0.0497949 -0.0595107 -0.0692597 -0.0789386 -0.0884758 -0.0976872 -0.1064 -0.114385 -0.121363 -0.12706 -0.131229 -0.133562 -0.133719 -0.131315 -0.12597 -0.117332 -0.105082 -0.0890736 -0.069268 -0.0457877 -0.0189383 0.0107767 0.0426006 0.0755646 0.108427 0.139873 0.168453 0.19281 0.211792 0.224472 0.230172 0.228533 0.219498 0.203303 0.180548 0.152113 0.119169 0.0831257 0.0456241 0.00837128 -0.026893 -0.0585884 -0.0854095 -0.106478 -0.121422 -0.130303 -0.133647 -0.132228 -0.126961 -0.118783 -0.108592 -0.0972351 -0.0854897 -0.0741605 -0.0637349 -0.0545681 -0.0468215 -0.0404198 -0.0351329 -0.0306189 -0.0266391 -0.0230026 -0.0196769 -0.016646 -0.0139066 -0.0114363 -0.00922242 -0.0072331 -0.00544331 -0.003887 -0.00263498 -0.00171925 -0.00108261 -0.000627443 -0.000288418 -5.48848e-05 6.43925e-06 0 0 
0 0 -5.53467e-06 -6.78876e-05 -0.000240448 -0.00056001 -0.00101087 -0.00154368 -0.00214677 -0.00289014 -0.00388259 -0.00519923 -0.00685359 -0.00883427 -0.0111574 -0.0138226 -0.0167492 -0.0198224 -0.0229437 -0.0260486 -0.0291316 -0.0323288 -0.0358484 -0.0400006 -0.0450906 -0.0513848 -0.0590507 -0.0680326 -0.0780522 -0.0886049 -0.0990663 -0.108713 -0.116784 -0.122465 -0.124939 -0.123389 -0.117126 -0.105607 -0.088586 -0.0662273 -0.0390644 -0.00804339 0.0256165 0.0604939 0.095114 0.127979 0.157743 0.183247 0.203511 0.217719 0.225372 0.226149 0.22011 0.20764 0.189438 0.166464 0.139832 0.110671 0.0800753 0.0490183 0.018416 -0.0108844 -0.0381481 -0.062696 -0.084094 -0.102059 -0.116586 -0.127717 -0.135646 -0.140501 -0.142519 -0.142003 -0.139239 -0.134598 -0.128409 -0.120993 -0.112589 -0.10342 -0.0936191 -0.0833239 -0.0725961 -0.061547 -0.0502759 -0.0389516 -0.0277761 -0.0169497 -0.00658437 0.0032777 0.0127679 0.0221137 0.0315627 0.0412684 0.0511135 0.0608043 0.0698796 0.0779158 0.0846365 0.0899264 0.0938451 0.0963478 0.0974381 0.096968 0.0948961 0.0911973 0.0860269 0.0794896 0.0718148 0.063212 0.0539093 0.044177 0.0341436 0.0239135 0.0134914 0.0029264 -0.0077726 -0.0186066 -0.029505 -0.040453 -0.0513883 -0.0622545 -0.0729638 -0.08347 -0.0936716 -0.10347 -0.112676 -0.121124 -0.128539 -0.134684 -0.139216 -0.141819 -0.142188 -0.140087 -0.13524 -0.127404 -0.116371 -0.10195 -0.0841178 -0.0629034 -0.0385713 -0.0114538 0.017851 0.0486404 0.0800333 0.111001 0.14044 0.167147 0.189969 0.207823 0.219857 0.225507 0.224488 0.216782 0.202658 0.182572 0.157256 0.127694 0.0950485 0.0606824 0.0260753 -0.00728979 -0.0380153 -0.064882 -0.0869658 -0.103773 -0.115196 -0.121476 -0.123175 -0.120992 -0.115728 -0.108157 -0.0990446 -0.0890901 -0.0789617 -0.0692317 -0.0604597 -0.0528299 -0.0464198 -0.0410894 -0.0366458 -0.0327971 -0.0293051 -0.0260039 -0.0228169 -0.0197742 -0.0169149 -0.0142567 -0.0118095 -0.00956283 -0.00749287 -0.00563249 -0.00406957 -0.00286765 -0.00199403 -0.00134607 -0.000836042 -0.000441381 -0.000177786 -4.77705e-05 0 0 
0 0 -6.74037e-05 -0.000182497 -0.000363143 -0.000699314 -0.00119942 -0.00180418 -0.00244343 -0.00313216 -0.00399571 -0.00518749 -0.00679228 -0.00879931 -0.0111623 -0.0138264 -0.0167013 -0.0196782 -0.0226274 -0.0254655 -0.0281399 -0.0306934 -0.0332711 -0.0360949 -0.0394531 -0.0436125 -0.0488023 -0.0551548 -0.0626283 -0.0709766 -0.0798122 -0.0885934 -0.0967583 -0.103673 -0.10873 -0.111302 -0.110754 -0.106532 -0.0981016 -0.0851576 -0.067656 -0.0458118 -0.0201712 0.00843337 0.0389564 0.0701971 0.100906 0.129877 0.155974 0.17818 0.195624 0.207605 0.213737 0.213922 0.20829 0.197293 0.18154 0.161717 0.138547 0.112798 0.085207 0.056658 0.028008 0.000146108 -0.026162 -0.0502995 -0.0718661 -0.0906429 -0.106443 -0.11917 -0.128824 -0.135528 -0.139485 -0.14097 -0.140279 -0.137711 -0.13348 -0.127843 -0.120975 -0.113033 -0.104149 -0.0944407 -0.0840863 -0.0733243 -0.0623903 -0.0515531 -0.0409786 -0.0307799 -0.0208483 -0.011 -0.000952349 0.009405 0.0199863 0.0304685 0.0403675 0.049151 0.0565218 0.0623066 0.0665117 0.0691588 0.0702374 0.0696598 0.0673496 0.0632965 0.0576577 0.0505569 0.0422503 0.0329687 0.02296 0.0124879 0.00174364 -0.00916883 -0.0201651 -0.0312449 -0.042321 -0.053342 -0.0642239 -0.0749107 -0.0852691 -0.0951932 -0.104555 -0.113234 -0.121089 -0.127965 -0.13367 -0.137966 -0.14057 -0.141224 -0.139618 -0.135478 -0.128556 -0.118749 -0.10597 -0.0902008 -0.0715077 -0.0500345 -0.0260691 -1.15221e-05 0.0275663 0.0560173 0.0845667 0.112374 0.138524 0.162106 0.182228 0.198047 0.208871 0.214132 0.213491 0.206948 0.194712 0.177215 0.155115 0.12921 0.100452 0.0699522 0.0389295 0.00865173 -0.0196915 -0.0450588 -0.0666279 -0.0838552 -0.0965355 -0.104752 -0.108858 -0.109388 -0.106916 -0.102096 -0.0955475 -0.087854 -0.0796061 -0.0713158 -0.0634522 -0.0563561 -0.050265 -0.0451567 -0.040896 -0.0373089 -0.0341706 -0.0312433 -0.0283586 -0.025443 -0.0225117 -0.0196433 -0.016899 -0.0143183 -0.0118889 -0.00960313 -0.00749275 -0.00565833 -0.00419944 -0.00311226 -0.00228584 -0.00159839 -0.00101617 -0.000578121 -0.000306343 -0.000111758 0 0 
0 0 -0.000135925 -0.000310408 -0.000505768 -0.00083833 -0.00134855 -0.0020046 -0.00270908 -0.00339134 -0.00411594 -0.00508586 -0.00650701 -0.00844844 -0.0108376 -0.0135321 -0.0163713 -0.0192293 -0.0220236 -0.0246727 -0.027107 -0.029313 -0.031366 -0.033399 -0.0356226 -0.0382887 -0.0416166 -0.0457451 -0.0507468 -0.0565416 -0.0629609 -0.0697018 -0.0764121 -0.0826829 -0.0880843 -0.0921876 -0.0945708 -0.0947432 -0.0922448 -0.0866627 -0.0776297 -0.0649414 -0.0485991 -0.0288112 -0.00604163 0.0190219 0.0455013 0.0724431 0.0988196 0.12355 0.145699 0.164361 0.178893 0.188881 0.194133 0.194675 0.190677 0.182419 0.170195 0.154338 0.135272 0.113557 0.089897 0.0651147 0.0399911 0.0152818 -0.00846657 -0.0307241 -0.0511422 -0.0693325 -0.0850561 -0.0982172 -0.108816 -0.116953 -0.122782 -0.126462 -0.128163 -0.12803 -0.126208 -0.122851 -0.118046 -0.111943 -0.104762 -0.0967149 -0.0880993 -0.0792012 -0.07025 -0.0614029 -0.0526141 -0.043695 -0.0344302 -0.0246438 -0.0144374 -0.00412435 0.00575083 0.014627 0.0221009 0.0279473 0.0321583 0.0347664 0.0357973 0.0351468 0.0327895 0.0286875 0.0230112 0.0158977 0.00764032 -0.00150557 -0.011281 -0.0213968 -0.0316628 -0.0418936 -0.0520384 -0.0620104 -0.0717351 -0.0811153 -0.0900274 -0.0983631 -0.10599 -0.112741 -0.11849 -0.123082 -0.126375 -0.12822 -0.12844 -0.126838 -0.123205 -0.11737 -0.109111 -0.0982954 -0.0848799 -0.068933 -0.050621 -0.0301791 -0.00795645 0.0156877 0.0402067 0.0650163 0.0894368 0.112851 0.134549 0.153878 0.17019 0.182879 0.191447 0.195496 0.194758 0.189112 0.17866 0.163706 0.144792 0.122592 0.0979769 0.071815 0.045096 0.0188318 -0.00601899 -0.0285586 -0.048108 -0.0642013 -0.0766442 -0.0854264 -0.0907719 -0.0930578 -0.0927527 -0.0903193 -0.0862642 -0.0810353 -0.0750733 -0.0687809 -0.0625639 -0.0567051 -0.051453 -0.0468937 -0.0430886 -0.0398855 -0.0371592 -0.0347161 -0.0323684 -0.0299396 -0.0273817 -0.0246811 -0.0219307 -0.0192241 -0.0166139 -0.0140917 -0.011648 -0.00933432 -0.00726975 -0.00559225 -0.00433132 -0.00336992 -0.00254708 -0.0017944 -0.00115997 -0.000712761 -0.000448826 -0.000190371 0 0 
0 0 -0.000200818 -0.000441523 -0.000669726 -0.000992815 -0.0014701 -0.00212339 -0.00287809 -0.00360412 -0.00426059 -0.00500254 -0.00611985 -0.00783779 -0.0101657 -0.0128988 -0.0157596 -0.0185395 -0.0211357 -0.0235516 -0.0257926 -0.0278257 -0.029644 -0.0312867 -0.0328852 -0.0346252 -0.0366608 -0.0391375 -0.0421037 -0.0455569 -0.0494496 -0.0536555 -0.0580526 -0.0624496 -0.0666333 -0.0703898 -0.0734337 -0.0755063 -0.0762325 -0.0752786 -0.0722754 -0.0668722 -0.0587786 -0.0478299 -0.0340095 -0.0174621 0.00143766 0.0221615 0.0440127 0.0661737 0.0877767 0.107938 0.125949 0.141259 0.15346 0.16237 0.167896 0.17 0.168628 0.163795 0.155474 0.143929 0.129483 0.112711 0.0942342 0.0746673 0.0545726 0.0344004 0.0146505 -0.00424571 -0.0218811 -0.0379772 -0.0523638 -0.064967 -0.0757506 -0.0847245 -0.0918874 -0.0972559 -0.100875 -0.102775 -0.103014 -0.101662 -0.098909 -0.0949613 -0.0900687 -0.0845553 -0.0786646 -0.0725634 -0.0662604 -0.0595867 -0.0523059 -0.0442716 -0.0355077 -0.0263469 -0.0173409 -0.00910874 -0.00211072 0.00337995 0.0072933 0.00968709 0.0105989 0.00996047 0.0077244 0.00388934 -0.00139862 -0.00792813 -0.0154156 -0.0235838 -0.0321657 -0.0408854 -0.0495035 -0.0578613 -0.0658334 -0.0733504 -0.0803201 -0.0865941 -0.092069 -0.0966481 -0.100159 -0.102475 -0.103475 -0.103048 -0.101084 -0.0975126 -0.0922562 -0.0852064 -0.076309 -0.0655155 -0.0527947 -0.0381888 -0.0218063 -0.00390044 0.0151825 0.0350318 0.055215 0.0752356 0.0945741 0.112676 0.129019 0.143155 0.154688 0.163304 0.168659 0.170543 0.168758 0.163266 0.154119 0.141505 0.12572 0.107299 0.0868895 0.0652428 0.0432132 0.0215884 0.00110982 -0.0175751 -0.0339187 -0.0475355 -0.0582679 -0.0661437 -0.0713347 -0.0741269 -0.0748687 -0.0739459 -0.071727 -0.0686002 -0.0648468 -0.0607699 -0.0566105 -0.0525795 -0.0488607 -0.0455333 -0.0426566 -0.0402002 -0.0381005 -0.0362527 -0.0344915 -0.0327047 -0.0307437 -0.028539 -0.0261293 -0.023606 -0.0210822 -0.0185761 -0.016063 -0.013538 -0.0110648 -0.00880467 -0.00694417 -0.00554201 -0.00448407 -0.00357752 -0.00270964 -0.0019116 -0.00128176 -0.000864662 -0.000607512 -0.000280428 0 0 
0 0 -0.000250744 -0.000557555 -0.000835823 -0.00116862 -0.00159555 -0.00217748 -0.00291302 -0.00368565 -0.00436345 -0.00497666 -0.00578159 -0.0071259 -0.00920144 -0.0118795 -0.0147998 -0.017602 -0.0200858 -0.0222567 -0.0242174 -0.0260522 -0.0277755 -0.0293175 -0.0306538 -0.0318898 -0.0331208 -0.034438 -0.0358932 -0.0374792 -0.0391801 -0.040974 -0.0428624 -0.0448658 -0.0469466 -0.0491146 -0.0513004 -0.0533561 -0.0551068 -0.0563484 -0.0567773 -0.0560831 -0.0539605 -0.0500795 -0.0442069 -0.0361378 -0.0258169 -0.0133271 0.00107128 0.0169129 0.0336709 0.0506717 0.0673185 0.0830843 0.097558 0.110434 0.121489 0.130538 0.13734 0.141611 0.143094 0.141663 0.137389 0.130539 0.121487 0.110639 0.0983309 0.0849375 0.0707671 0.0562386 0.0417172 0.0275094 0.0138613 0.000934251 -0.0111199 -0.0221494 -0.0320443 -0.0406657 -0.047905 -0.0536964 -0.0579852 -0.0607581 -0.062114 -0.0621628 -0.0611362 -0.0592763 -0.0568435 -0.0540018 -0.050741 -0.0469333 -0.0423292 -0.0367074 -0.0300734 -0.022692 -0.0151233 -0.00801407 -0.00187936 0.00293268 0.00635166 0.00839814 0.00916021 0.00855985 0.00658778 0.00323856 -0.00132033 -0.00688534 -0.0131229 -0.019769 -0.0265539 -0.0332128 -0.0395364 -0.0453306 -0.0505084 -0.0549759 -0.058655 -0.0614236 -0.0631948 -0.0638776 -0.063362 -0.0615747 -0.0584717 -0.0539967 -0.048162 -0.0409773 -0.0324844 -0.0227235 -0.0117912 0.000247755 0.0132871 0.0271727 0.0416868 0.0565164 0.0712916 0.0856243 0.0991041 0.111351 0.121959 0.130572 0.136912 0.140829 0.142237 0.141103 0.13742 0.131183 0.122461 0.111402 0.0982474 0.0833207 0.0670813 0.0500317 0.0328108 0.0160245 0.000331362 -0.0138228 -0.0260549 -0.036154 -0.0440335 -0.049729 -0.0534246 -0.0553682 -0.0558905 -0.0552927 -0.0538724 -0.0519387 -0.0497302 -0.0474335 -0.045222 -0.0431874 -0.0413497 -0.0397614 -0.0384095 -0.0372612 -0.036273 -0.0353784 -0.0344955 -0.0335085 -0.032303 -0.0308116 -0.028965 -0.0268512 -0.0246204 -0.0223639 -0.0200775 -0.0176945 -0.0151725 -0.0126035 -0.0101908 -0.00817697 -0.00666852 -0.00554791 -0.00459294 -0.00365045 -0.00273505 -0.00196384 -0.00141186 -0.00104397 -0.000769373 -0.000366697 0 0 
0 0 -0.000280952 -0.00064238 -0.000969365 -0.00134133 -0.00174661 -0.00222849 -0.00284688 -0.0035783 -0.00430173 -0.00492499 -0.00555246 -0.00651136 -0.00814759 -0.0105398 -0.0134175 -0.0163317 -0.0188762 -0.0209276 -0.0226128 -0.0241365 -0.0256357 -0.0271072 -0.0284258 -0.0295184 -0.03034 -0.0309299 -0.0312998 -0.031471 -0.031458 -0.0312604 -0.0309643 -0.0306474 -0.0304426 -0.0304817 -0.0308888 -0.0317278 -0.0329684 -0.0345383 -0.036277 -0.0379743 -0.0393515 -0.0401328 -0.0400109 -0.0386818 -0.0358507 -0.0313391 -0.0250532 -0.0170793 -0.00758805 0.00307981 0.0146277 0.0267047 0.0390186 0.051353 0.0635058 0.0752359 0.0862112 0.0960215 0.10419 0.110404 0.114478 0.116462 0.116544 0.114921 0.111736 0.107124 0.101241 0.0943056 0.086573 0.0782531 0.0695333 0.0605429 0.0514612 0.0424808 0.033777 0.0255941 0.0180824 0.0114401 0.00579495 0.00126891 -0.00213669 -0.00444462 -0.00579562 -0.00639622 -0.00645076 -0.00608882 -0.00529865 -0.00392994 -0.00169579 0.00167313 0.00625 0.0118432 0.0179187 0.0238651 0.0290979 0.0332151 0.0361126 0.0378165 0.0384053 0.0378652 0.036167 0.033344 0.0295334 0.0249902 0.0200356 0.0149269 0.00990865 0.00522619 0.00104193 -0.00248941 -0.00529216 -0.00728233 -0.00842699 -0.00864631 -0.00789562 -0.00615229 -0.00336092 0.00046728 0.00529586 0.0111019 0.0177769 0.0252218 0.0332757 0.0418269 0.0506933 0.0597445 0.0688352 0.0777914 0.0864244 0.0944936 0.101728 0.10785 0.112623 0.115786 0.117154 0.116564 0.113999 0.109501 0.10327 0.095495 0.0863503 0.075996 0.064605 0.0524229 0.0397461 0.026941 0.0143783 0.00245065 -0.0084232 -0.0179159 -0.0257294 -0.0317519 -0.0359939 -0.0385939 -0.0397488 -0.0397159 -0.0387896 -0.0372706 -0.0354454 -0.0335781 -0.0318614 -0.0304607 -0.0294614 -0.0289224 -0.0287967 -0.0289927 -0.0294002 -0.0299289 -0.0305101 -0.0310485 -0.0314816 -0.0317075 -0.0316021 -0.0310841 -0.0300826 -0.0286546 -0.0269007 -0.0250113 -0.0230827 -0.0210904 -0.0189233 -0.0164906 -0.0138757 -0.0113628 -0.00923341 -0.00764405 -0.00649872 -0.00552819 -0.00453754 -0.00353365 -0.00265541 -0.00200848 -0.0015683 -0.00122736 -0.00090649 -0.000429667 0 0 
0 0 -0.000297685 -0.000692777 -0.00104062 -0.00146612 -0.00190461 -0.00232267 -0.00277403 -0.00333185 -0.00399255 -0.0046704 -0.00531343 -0.00606407 -0.00725898 -0.00916032 -0.0117273 -0.0146328 -0.0173631 -0.0195502 -0.021134 -0.0223441 -0.0234722 -0.0246631 -0.0258758 -0.0269512 -0.0276984 -0.0279624 -0.0276959 -0.0268641 -0.0255424 -0.0237975 -0.0217544 -0.0195634 -0.0173723 -0.0153918 -0.0138511 -0.012916 -0.0127521 -0.0134479 -0.0149737 -0.0172302 -0.0200737 -0.0232551 -0.0265371 -0.0296058 -0.0321263 -0.0337859 -0.0343527 -0.0336875 -0.0316781 -0.0283642 -0.0237565 -0.0179219 -0.0109006 -0.00271778 0.0065694 0.0168423 0.0278102 0.0390241 0.0499309 0.0600463 0.0691018 0.0769593 0.0837001 0.0893556 0.0939372 0.0974163 0.0997269 0.10097 0.101167 0.100427 0.0988073 0.0963391 0.0931551 0.0893928 0.0852516 0.0809122 0.0766034 0.0725022 0.0687761 0.0656275 0.0631281 0.061322 0.0601137 0.0593816 0.0589493 0.0587077 0.0586986 0.0590786 0.0601748 0.062341 0.0657199 0.0702236 0.0754053 0.0806533 0.0853532 0.0890824 0.0916828 0.0931677 0.0936259 0.0930919 0.0915634 0.0890677 0.0857382 0.0818304 0.0776579 0.0734703 0.0694846 0.0658856 0.0627925 0.0603091 0.058462 0.0573087 0.0568303 0.0570495 0.0579868 0.0596196 0.0619322 0.0648508 0.0682721 0.0721287 0.0762489 0.0804864 0.0846951 0.0886858 0.0923066 0.0954426 0.0979943 0.099841 0.100903 0.10106 0.100167 0.0981681 0.0949282 0.0903724 0.0844447 0.0771372 0.0686071 0.0590854 0.0489331 0.0384805 0.0280039 0.0177261 0.00780716 -0.00154635 -0.0101229 -0.0176855 -0.024022 -0.0290024 -0.032487 -0.0344696 -0.0349531 -0.0341113 -0.0321706 -0.0294227 -0.0261835 -0.0227782 -0.0194832 -0.0165391 -0.0141923 -0.0125846 -0.0117781 -0.0118075 -0.0125781 -0.0139724 -0.0158222 -0.0179537 -0.0201655 -0.0223732 -0.0244361 -0.0262443 -0.0276657 -0.0285596 -0.0288197 -0.0284355 -0.0275071 -0.0262359 -0.0247941 -0.0232867 -0.0216691 -0.0197726 -0.0174727 -0.0148741 -0.0122892 -0.0100939 -0.00844811 -0.0072787 -0.00631491 -0.00530287 -0.00423598 -0.00327871 -0.00256638 -0.00209046 -0.0017272 -0.00136612 -0.000991739 -0.000457814 0 0 
0 0 -0.000315203 -0.00072335 -0.00104825 -0.00150225 -0.00200965 -0.00244638 -0.00277274 -0.00307787 -0.00350066 -0.00410166 -0.00482451 -0.00562138 -0.00661638 -0.00806218 -0.0101088 -0.012688 -0.0154237 -0.017838 -0.0196229 -0.0207752 -0.0215663 -0.0223037 -0.0231527 -0.0240411 -0.0247481 -0.0249736 -0.0244717 -0.0231102 -0.0209187 -0.0180056 -0.0146191 -0.0109532 -0.00724757 -0.00368128 -0.00050753 0.00205977 0.00379689 0.00452529 0.00410817 0.00250611 -0.000248714 -0.00404276 -0.00869425 -0.0139534 -0.0195247 -0.0250885 -0.0303737 -0.0351483 -0.0392039 -0.0423925 -0.044527 -0.0454659 -0.0450079 -0.0429423 -0.0390629 -0.0333078 -0.0258023 -0.0169047 -0.00714357 0.00299181 0.0131445 0.0231525 0.0330011 0.0426921 0.0521273 0.0611541 0.0695829 0.077316 0.0842901 0.0904425 0.0957259 0.10009 0.103552 0.106184 0.108103 0.109481 0.110422 0.111149 0.111789 0.112527 0.113477 0.114698 0.116131 0.117672 0.11918 0.120521 0.121753 0.123032 0.124717 0.127187 0.13069 0.135225 0.140457 0.145814 0.150673 0.154537 0.157232 0.158735 0.159146 0.158541 0.15695 0.154411 0.151054 0.147106 0.142892 0.138624 0.134498 0.130653 0.127141 0.124004 0.121262 0.118904 0.116931 0.115297 0.113999 0.113016 0.112313 0.111773 0.11128 0.110744 0.110018 0.108998 0.107501 0.105427 0.102652 0.0991197 0.0948233 0.0897428 0.0838992 0.0772913 0.0699417 0.0619093 0.0532109 0.043861 0.0338971 0.0234216 0.0126648 0.00197059 -0.00819984 -0.017465 -0.0255462 -0.032301 -0.0376826 -0.0416544 -0.0441768 -0.0452184 -0.0448055 -0.0430165 -0.0399784 -0.035871 -0.0309043 -0.0253315 -0.0194838 -0.013684 -0.00827267 -0.00352239 0.00034957 0.00317078 0.00482791 0.00528824 0.00463809 0.00301289 0.000599552 -0.00240761 -0.00581269 -0.00940868 -0.0130395 -0.0165208 -0.0196802 -0.0223083 -0.0242427 -0.0253782 -0.0257086 -0.0254166 -0.024731 -0.0238775 -0.0229245 -0.0217803 -0.020226 -0.0181321 -0.0156113 -0.0130283 -0.0107874 -0.00911791 -0.00791363 -0.00691833 -0.00587672 -0.00475979 -0.00375033 -0.00301697 -0.00254971 -0.00219836 -0.00182603 -0.00141206 -0.00101822 -0.000458658 0 0 
0 0 -0.000344749 -0.00075637 -0.00102626 -0.00145028 -0.00199734 -0.00250939 -0.00282861 -0.00293957 -0.00301464 -0.0033094 -0.00395348 -0.004883 -0.00600089 -0.00730981 -0.00890713 -0.010925 -0.0132856 -0.0156788 -0.017716 -0.0191365 -0.0199522 -0.0203751 -0.0207183 -0.021118 -0.0215075 -0.0216144 -0.0210852 -0.0195992 -0.0170365 -0.013465 -0.00913031 -0.00438253 0.000511465 0.00524391 0.00961109 0.0134009 0.016418 0.0184555 0.0193698 0.0190048 0.0172489 0.0141126 0.00962869 0.00394381 -0.0027133 -0.0100796 -0.0179124 -0.02597 -0.034009 -0.0418282 -0.0491892 -0.0558239 -0.0614043 -0.0655283 -0.067802 -0.0679141 -0.0658118 -0.0616741 -0.0559253 -0.048992 -0.0411716 -0.0325871 -0.0232237 -0.0130869 -0.00227825 0.00898217 0.0204052 0.0318035 0.0429753 0.0537766 0.0640799 0.0737351 0.0827015 0.09095 0.0985468 0.105528 0.112016 0.118094 0.12389 0.129554 0.135153 0.140745 0.146259 0.151586 0.156573 0.161081 0.165081 0.168757 0.172412 0.17648 0.181272 0.186865 0.193037 0.199257 0.204889 0.20943 0.212591 0.214378 0.214823 0.214083 0.212198 0.209249 0.205328 0.200717 0.195655 0.190389 0.18508 0.179791 0.174564 0.169413 0.164309 0.159266 0.154232 0.149186 0.144146 0.139107 0.134018 0.128811 0.123373 0.117653 0.111561 0.104988 0.0979015 0.0901587 0.0817581 0.0727199 0.0631094 0.0529854 0.0424677 0.0316617 0.0206774 0.0097221 -0.00111976 -0.0117787 -0.0221749 -0.0322205 -0.0416327 -0.0500609 -0.0570443 -0.0622382 -0.0654889 -0.0667761 -0.0662774 -0.0641234 -0.0605167 -0.0555675 -0.0494759 -0.04245 -0.0347384 -0.0266221 -0.0183461 -0.0102268 -0.00257905 0.00429986 0.0101202 0.0146747 0.0178535 0.0196342 0.0200156 0.0191237 0.0171273 0.014201 0.0105484 0.00635835 0.00180365 -0.00293261 -0.00760137 -0.0119578 -0.0157205 -0.0186504 -0.0206809 -0.0218264 -0.0223036 -0.0223587 -0.0222215 -0.0219161 -0.0213272 -0.0201888 -0.0183869 -0.0160456 -0.0135633 -0.0113732 -0.00971297 -0.00849577 -0.00741514 -0.00626616 -0.00505442 -0.00398623 -0.00326435 -0.00287038 -0.0025932 -0.00224733 -0.00180263 -0.00135972 -0.00100898 -0.000455315 0 0 
0 0 -0.000384091 -0.000803487 -0.00102129 -0.001359 -0.00185701 -0.00241334 -0.00281746 -0.00290083 -0.00271336 -0.00256606 -0.00283797 -0.00369532 -0.00502292 -0.00657265 -0.00812945 -0.00971249 -0.0114431 -0.0133629 -0.0153204 -0.017014 -0.0181981 -0.0187754 -0.0188966 -0.0187734 -0.0185561 -0.0181808 -0.0174022 -0.015871 -0.0133066 -0.00961087 -0.00490837 0.000484736 0.0061964 0.0118494 0.0171432 0.0218361 0.0257562 0.0287682 0.0307524 0.0315605 0.0310585 0.0291309 0.0257284 0.0208523 0.0145753 0.00706487 -0.00149848 -0.010925 -0.0209784 -0.0314586 -0.0421233 -0.052681 -0.0627616 -0.0718712 -0.0794726 -0.08511 -0.0885844 -0.0899242 -0.0894498 -0.0874566 -0.0841531 -0.0795384 -0.0735081 -0.0659529 -0.056946 -0.0466769 -0.0354714 -0.0235947 -0.0112539 0.0013141 0.013936 0.0264272 0.0386664 0.0505637 0.0620893 0.0732658 0.0840801 0.0945896 0.104886 0.115 0.125009 0.134903 0.144601 0.153962 0.162795 0.170921 0.178269 0.184923 0.191191 0.19745 0.204081 0.211226 0.218773 0.226224 0.232993 0.238494 0.242391 0.244574 0.245126 0.244204 0.241903 0.238307 0.233581 0.227921 0.221602 0.21484 0.207801 0.200509 0.193 0.185224 0.177205 0.168924 0.160377 0.151587 0.142552 0.133321 0.123913 0.114258 0.104347 0.0941167 0.0835737 0.0726761 0.06141 0.0497427 0.037709 0.0253878 0.0129153 0.000442809 -0.0118719 -0.0238625 -0.0353069 -0.0459773 -0.0557361 -0.0645203 -0.0723084 -0.0790558 -0.084576 -0.0885526 -0.0906104 -0.0904934 -0.0881909 -0.0838418 -0.0777938 -0.0703499 -0.0618168 -0.0524213 -0.0424246 -0.0320717 -0.02167 -0.0114979 -0.00184675 0.00700709 0.0147896 0.0212845 0.0262761 0.0297207 0.0316476 0.0321423 0.0313206 0.0293396 0.0263476 0.0224944 0.0179219 0.0128003 0.00734487 0.0018203 -0.00344121 -0.00811278 -0.0119252 -0.0147979 -0.0168175 -0.0181933 -0.0191523 -0.0198504 -0.0202733 -0.0202479 -0.0195524 -0.0180918 -0.0160484 -0.0138112 -0.0118209 -0.0102813 -0.00907396 -0.00789923 -0.00656243 -0.00516897 -0.00398765 -0.00325408 -0.00295411 -0.00281902 -0.00257282 -0.0021438 -0.0016522 -0.00125845 -0.00100204 -0.000469696 0 0 
0 0 -0.000416271 -0.000852518 -0.00105503 -0.00129523 -0.00165395 -0.00213631 -0.00260144 -0.00280118 -0.00257888 -0.00210488 -0.00184337 -0.00226106 -0.00351586 -0.00535461 -0.00728189 -0.00893424 -0.0102778 -0.0115187 -0.0129173 -0.0144601 -0.0159269 -0.0169588 -0.0173795 -0.017162 -0.0164437 -0.0153682 -0.0139422 -0.0120206 -0.00937016 -0.0057958 -0.00121855 0.00420374 0.0102333 0.0164379 0.0224641 0.027966 0.0326851 0.0364613 0.0392243 0.0408802 0.0413385 0.0405252 0.038331 0.0347061 0.0295971 0.02303 0.0150423 0.00576152 -0.00467364 -0.0160878 -0.0282868 -0.0410092 -0.0538349 -0.0662724 -0.0776813 -0.0875355 -0.09553 -0.101633 -0.106088 -0.109135 -0.110878 -0.111199 -0.109841 -0.106616 -0.101455 -0.0945179 -0.0860718 -0.0763756 -0.0656506 -0.0540862 -0.0418959 -0.0292732 -0.0163566 -0.00327433 0.00990185 0.0231056 0.0362987 0.0494552 0.0626119 0.0757762 0.0889416 0.102068 0.115028 0.127668 0.139724 0.150978 0.161284 0.170653 0.179317 0.187629 0.195991 0.204612 0.213436 0.222063 0.229906 0.236356 0.240973 0.243606 0.244293 0.243209 0.240472 0.236257 0.230696 0.224024 0.216468 0.208265 0.199566 0.190371 0.180706 0.170543 0.159902 0.148806 0.137267 0.125335 0.113082 0.100586 0.0878891 0.0750385 0.0620465 0.0489262 0.0357304 0.0224588 0.00918605 -0.00410227 -0.0173138 -0.0303073 -0.042939 -0.0550102 -0.0663593 -0.0767673 -0.0860119 -0.0938724 -0.100223 -0.105087 -0.108511 -0.110605 -0.111243 -0.110238 -0.107274 -0.102195 -0.0950614 -0.0861341 -0.0758505 -0.0646284 -0.0528304 -0.0407447 -0.0286107 -0.0167057 -0.00531721 0.00527288 0.0148033 0.0230683 0.0299057 0.0352105 0.0389471 0.0411539 0.0419312 0.0414136 0.0397205 0.0369329 0.0331677 0.0284894 0.0230943 0.0172275 0.0112252 0.00540567 0.000157238 -0.00433613 -0.00796369 -0.010851 -0.0132039 -0.0151832 -0.0168346 -0.0180462 -0.0186097 -0.0183326 -0.0172397 -0.01555 -0.013698 -0.0120534 -0.010765 -0.00963876 -0.00837659 -0.00683704 -0.00519116 -0.00382834 -0.00303787 -0.00279675 -0.0028014 -0.00269951 -0.00234753 -0.00186598 -0.00144633 -0.00118289 -0.00102022 -0.000503159 0 0 
0 0 -0.000420951 -0.000873053 -0.00110149 -0.00128914 -0.00148928 -0.00177938 -0.00215558 -0.00244832 -0.00238995 -0.00188809 -0.00124387 -0.00103465 -0.00176531 -0.00350963 -0.00580596 -0.00797238 -0.00954287 -0.0105104 -0.0112518 -0.0121607 -0.0133805 -0.0146571 -0.0155782 -0.0157965 -0.0151439 -0.0136594 -0.0115074 -0.00881179 -0.0056155 -0.0018637 0.00255749 0.00770336 0.013488 0.019714 0.0260411 0.0321251 0.0375806 0.0421552 0.0456596 0.0480052 0.049126 0.0490248 0.0476801 0.0450599 0.041086 0.035726 0.0289279 0.020679 0.0110112 -1.28324e-06 -0.0122732 -0.0255781 -0.0395705 -0.0536979 -0.0673177 -0.0798138 -0.090839 -0.100326 -0.108483 -0.115531 -0.12154 -0.126303 -0.129488 -0.130775 -0.130034 -0.127318 -0.122855 -0.116875 -0.109514 -0.100938 -0.091295 -0.080755 -0.0694399 -0.0574814 -0.0449636 -0.0319575 -0.0185583 -0.0048342 0.00921857 0.0235486 0.0381272 0.0528655 0.0676255 0.0821763 0.096234 0.109528 0.121839 0.133086 0.143431 0.153159 0.162662 0.172226 0.181849 0.191235 0.19983 0.20698 0.21219 0.215192 0.215996 0.21478 0.21173 0.207047 0.20091 0.193515 0.185093 0.175866 0.165988 0.15548 0.14434 0.132546 0.120145 0.107191 0.0937435 0.0799124 0.0657946 0.0514953 0.037145 0.0228229 0.0086259 -0.00540999 -0.0191855 -0.0326535 -0.0457186 -0.058324 -0.0703786 -0.0817639 -0.0923308 -0.1019 -0.110307 -0.117387 -0.122906 -0.126738 -0.128799 -0.129171 -0.128048 -0.125595 -0.121831 -0.116599 -0.109667 -0.100856 -0.0903016 -0.0782871 -0.0653413 -0.0519317 -0.0384999 -0.0253138 -0.0126253 -0.000638551 0.0103961 0.0202561 0.0287759 0.0358414 0.0414579 0.0456178 0.0483421 0.0496824 0.049719 0.0485079 0.0460923 0.0425439 0.0379663 0.0325361 0.0265403 0.0203543 0.0143307 0.00876626 0.0038256 -0.000471476 -0.00421752 -0.00758664 -0.0106359 -0.0132883 -0.0153142 -0.0164719 -0.0166318 -0.015907 -0.0146293 -0.0132383 -0.0120706 -0.0111252 -0.0101508 -0.00882943 -0.00707242 -0.00515582 -0.00357548 -0.00269365 -0.0024792 -0.00257753 -0.00258771 -0.00232116 -0.00188862 -0.00151009 -0.001287 -0.00117265 -0.00104886 -0.00053201 0 0 
0 0 -0.000391153 -0.000839483 -0.00110112 -0.00130384 -0.00141928 -0.00149611 -0.00162744 -0.00181566 -0.00188222 -0.00159663 -0.000948756 -0.000322075 -0.000339411 -0.00146189 -0.00363173 -0.00624561 -0.00851593 -0.00993985 -0.0106043 -0.0109484 -0.0114704 -0.0123411 -0.013357 -0.0140385 -0.0139081 -0.0126669 -0.0102767 -0.00692944 -0.00288969 0.00157711 0.00638199 0.0114916 0.016989 0.0228162 0.0289134 0.0350267 0.0408628 0.0460426 0.0502897 0.053356 0.0551307 0.0555766 0.0547204 0.0526302 0.0493136 0.0447687 0.0389545 0.0318635 0.0233891 0.0135226 0.0021824 -0.0105118 -0.024283 -0.0386446 -0.0529542 -0.0665775 -0.0791404 -0.0905265 -0.100945 -0.110603 -0.119557 -0.127564 -0.134219 -0.139163 -0.142178 -0.143309 -0.142713 -0.140599 -0.13708 -0.132212 -0.126108 -0.118847 -0.110523 -0.101218 -0.0909906 -0.0799439 -0.0681392 -0.0556559 -0.0425408 -0.0288293 -0.0145832 8.79612e-05 0.0150174 0.0299682 0.0446111 0.0586195 0.0717255 0.0837564 0.0947743 0.105032 0.114874 0.124641 0.134416 0.143965 0.152814 0.160286 0.165829 0.169075 0.169979 0.168714 0.165518 0.160611 0.154242 0.146567 0.137828 0.128222 0.117883 0.106862 0.0951489 0.0827538 0.0697108 0.0561271 0.0421072 0.0277892 0.0133213 -0.00116224 -0.015494 -0.0295288 -0.0431545 -0.0562836 -0.068829 -0.0807002 -0.0917957 -0.102071 -0.111435 -0.119818 -0.127108 -0.133181 -0.137942 -0.141219 -0.142883 -0.142805 -0.140968 -0.137517 -0.1327 -0.126753 -0.119759 -0.111608 -0.102069 -0.0910005 -0.0785164 -0.0649354 -0.0508302 -0.0367553 -0.0231286 -0.0102329 0.00180243 0.0128579 0.0227842 0.0314989 0.0388812 0.0449667 0.0497346 0.0532244 0.0554024 0.0562566 0.0557218 0.0538399 0.0506692 0.0463604 0.0411538 0.0353386 0.0292872 0.0233219 0.017678 0.0124098 0.00751964 0.00288129 -0.00153871 -0.00567883 -0.00931046 -0.0121251 -0.013869 -0.0144941 -0.0142155 -0.0134416 -0.0126187 -0.011984 -0.011439 -0.0106321 -0.00925404 -0.00727366 -0.00508205 -0.00328191 -0.00228437 -0.00206397 -0.00221844 -0.00228261 -0.00205616 -0.0016594 -0.00133989 -0.00122204 -0.00122498 -0.00119518 -0.00104261 -0.000523938 0 0 
0 0 -0.000340769 -0.000754434 -0.00100932 -0.00125732 -0.00140133 -0.00137434 -0.00122903 -0.00109845 -0.00102824 -0.000892574 -0.000523859 4.75896e-05 0.000439283 7.80381e-05 -0.00140633 -0.00386307 -0.00664368 -0.00895794 -0.0103494 -0.0108587 -0.010953 -0.0111014 -0.0115047 -0.012028 -0.0121851 -0.0114522 -0.00943722 -0.00606786 -0.00152744 0.00376943 0.00944338 0.0151954 0.0209033 0.0265624 0.0322153 0.0378672 0.043411 0.0486223 0.0531946 0.0568215 0.059229 0.0602991 0.0599595 0.0582662 0.055251 0.0510399 0.0456968 0.0392592 0.0316924 0.0229036 0.0127849 0.00128081 -0.011394 -0.0248719 -0.0385741 -0.0519308 -0.0645888 -0.0764515 -0.0877252 -0.0985982 -0.109143 -0.11908 -0.127967 -0.135381 -0.141083 -0.145064 -0.147486 -0.148541 -0.148316 -0.146831 -0.144102 -0.140173 -0.135076 -0.128861 -0.121572 -0.113235 -0.103949 -0.0937513 -0.0826752 -0.0707856 -0.0581108 -0.0447685 -0.0309401 -0.0168604 -0.00285595 0.0106986 0.0234914 0.0352825 0.046051 0.0559665 0.0653588 0.074591 0.0838096 0.0929158 0.10149 0.108876 0.114467 0.117833 0.118826 0.117579 0.114391 0.109561 0.103315 0.0958544 0.0873726 0.0780282 0.0679662 0.0572403 0.0458488 0.0338146 0.0211774 0.00806251 -0.00536322 -0.0189543 -0.0325103 -0.0458969 -0.0589306 -0.0714358 -0.0833023 -0.0944181 -0.104691 -0.114043 -0.122416 -0.129737 -0.135979 -0.141096 -0.145043 -0.147772 -0.149218 -0.149255 -0.147762 -0.144648 -0.13991 -0.133726 -0.126397 -0.118197 -0.109256 -0.0995055 -0.0887479 -0.076838 -0.0638617 -0.0501799 -0.0363298 -0.0228576 -0.0101534 0.00159753 0.0123924 0.0222147 0.0310856 0.038934 0.0456912 0.0513048 0.0557108 0.0588677 0.0606337 0.060966 0.0598028 0.057277 0.0535258 0.0488715 0.0436256 0.0380878 0.0324838 0.0269427 0.0214536 0.0159692 0.0104495 0.00496245 -0.000246839 -0.00483374 -0.00841162 -0.0107705 -0.011945 -0.0122516 -0.0121434 -0.0120104 -0.0119686 -0.0118196 -0.0111771 -0.00971195 -0.00751559 -0.00507331 -0.00305832 -0.00192202 -0.00163702 -0.00177087 -0.00182117 -0.00157442 -0.00117998 -0.0009133 -0.000915145 -0.00108551 -0.00120919 -0.00116274 -0.000961734 -0.000465336 0 0 
0 0 -0.000296119 -0.0006511 -0.000837522 -0.00109222 -0.00131942 -0.0013455 -0.0010706 -0.000581587 -9.59871e-05 0.00023179 0.00043044 0.00062793 0.000837246 0.000788227 4.04748e-05 -0.00169705 -0.00427963 -0.00711766 -0.00953021 -0.0110257 -0.0115435 -0.0114177 -0.0110609 -0.0107272 -0.0103653 -0.00960434 -0.00795875 -0.0050306 -0.000702486 0.00485403 0.0112037 0.0178569 0.0243813 0.0305153 0.0361993 0.0414672 0.0463998 0.0509957 0.0551474 0.0586699 0.0613004 0.0628195 0.0630279 0.0618707 0.0593023 0.0553999 0.0502979 0.0441498 0.0369902 0.0288063 0.019493 0.00901704 -0.00247482 -0.014663 -0.0270625 -0.0392266 -0.0508685 -0.0619724 -0.0727985 -0.0835818 -0.0944068 -0.105013 -0.114925 -0.12367 -0.130957 -0.13678 -0.141248 -0.144553 -0.146765 -0.147848 -0.147796 -0.146563 -0.144166 -0.140638 -0.135963 -0.130216 -0.123391 -0.115567 -0.106737 -0.0969633 -0.0862616 -0.0747489 -0.0625739 -0.0499872 -0.0372776 -0.0248437 -0.0130275 -0.00211101 0.00778985 0.0168058 0.0252143 0.0333787 0.0415644 0.0497487 0.0576176 0.0645754 0.0699829 0.0733167 0.0743641 0.073251 0.0702454 0.0656961 0.0598877 0.0529966 0.0451999 0.0366175 0.0273536 0.0174699 0.00700649 -0.00404408 -0.015624 -0.0275952 -0.0397773 -0.0519862 -0.0640323 -0.0757607 -0.0869953 -0.0975706 -0.107356 -0.116259 -0.124169 -0.131066 -0.136843 -0.141532 -0.145053 -0.147436 -0.148671 -0.148751 -0.147678 -0.145339 -0.14163 -0.13646 -0.129845 -0.122033 -0.113333 -0.104077 -0.0944333 -0.0843641 -0.0736796 -0.0622173 -0.0500314 -0.0373706 -0.024726 -0.0125556 -0.00114427 0.00939449 0.0191134 0.0281091 0.0363714 0.0438487 0.0503382 0.0557247 0.0597969 0.0624716 0.0636793 0.0634481 0.0618416 0.0590862 0.0554353 0.0511857 0.0465408 0.0416009 0.036371 0.0307784 0.0248016 0.0184915 0.0120808 0.00593422 0.000502554 -0.00383158 -0.00688951 -0.00880462 -0.00992743 -0.01071 -0.0114369 -0.0120979 -0.0123789 -0.0118701 -0.0103282 -0.00792897 -0.00529102 -0.00310201 -0.00182385 -0.00139808 -0.00137456 -0.001263 -0.000888593 -0.00044177 -0.000224992 -0.00036858 -0.000729437 -0.00103512 -0.00111867 -0.00100645 -0.000808976 -0.000375474 0 0 
0 0 -0.000275351 -0.000570032 -0.000652841 -0.000830831 -0.00108445 -0.0012337 -0.00103908 -0.000395277 0.000534309 0.00138601 0.00184692 0.00184904 0.00154992 0.00110822 0.000461567 -0.000653881 -0.00249798 -0.00504097 -0.00788662 -0.0104076 -0.0120753 -0.0126137 -0.0121404 -0.0109975 -0.00951652 -0.00780511 -0.00572131 -0.00291196 0.000955497 0.00606054 0.0122853 0.0192658 0.0264783 0.0334319 0.0397574 0.0452893 0.0500011 0.0539936 0.0573331 0.0600786 0.0621549 0.0634707 0.0638167 0.063065 0.0610348 0.0577253 0.0531585 0.0474406 0.0406508 0.0328069 0.0239126 0.0139606 0.0031939 -0.00806622 -0.0193289 -0.030195 -0.0404721 -0.0502242 -0.0597876 -0.069489 -0.0794856 -0.0895902 -0.0993393 -0.108279 -0.116094 -0.122739 -0.128334 -0.132991 -0.136783 -0.139607 -0.141402 -0.142083 -0.141645 -0.140076 -0.137389 -0.133571 -0.128673 -0.122716 -0.115703 -0.107686 -0.0986725 -0.0887774 -0.0781299 -0.0669818 -0.0555705 -0.0443284 -0.0335663 -0.0236643 -0.0147175 -0.00673719 0.000550944 0.00750906 0.0144563 0.0215006 0.0284362 0.0347494 0.039804 0.0430375 0.0441729 0.0432347 0.0405106 0.0363843 0.0311505 0.0250117 0.0180981 0.01046 0.0021828 -0.00669117 -0.016085 -0.0260362 -0.0364277 -0.0471715 -0.0580516 -0.0689042 -0.0794845 -0.0897049 -0.0993276 -0.108246 -0.116304 -0.123415 -0.129472 -0.134436 -0.13828 -0.14098 -0.142526 -0.142914 -0.142204 -0.140439 -0.137681 -0.133818 -0.128794 -0.122514 -0.115067 -0.106699 -0.0977677 -0.0886285 -0.0794306 -0.0701155 -0.0604763 -0.0502825 -0.0394873 -0.0282495 -0.0169361 -0.0058982 0.00459143 0.0143985 0.0235728 0.0321199 0.0400314 0.0471438 0.0532411 0.0580973 0.0615674 0.0636702 0.0644431 0.0640562 0.0626514 0.0604574 0.0575795 0.0541291 0.0500776 0.0453434 0.0398429 0.0335846 0.0267698 0.0197492 0.0130114 0.0070013 0.00204909 -0.00177738 -0.00465394 -0.00692783 -0.00890771 -0.0107401 -0.0122423 -0.0130372 -0.0127 -0.01113 -0.00864417 -0.00591113 -0.00365238 -0.00225972 -0.00162392 -0.00127815 -0.000803004 -0.000113017 0.000513897 0.000732891 0.00043652 -0.000154637 -0.00067588 -0.000903708 -0.000867445 -0.000739268 -0.000634502 -0.000295051 0 0 
0 0 -0.000273205 -0.000526298 -0.000528186 -0.000569673 -0.000718895 -0.00090528 -0.000886546 -0.000375384 0.000710022 0.00207972 0.00318036 0.0035233 0.0029925 0.00186662 0.000549774 -0.000758237 -0.00217089 -0.00396652 -0.0063351 -0.00904986 -0.0115569 -0.0132065 -0.0135252 -0.0124181 -0.010178 -0.00720975 -0.00385689 -0.000223889 0.00380713 0.00849909 0.0140486 0.0204504 0.0274614 0.0346723 0.041608 0.0478223 0.0530255 0.0570975 0.0600635 0.0620691 0.0632436 0.0637055 0.0634354 0.0624328 0.0605613 0.0577241 0.053853 0.0489263 0.0428882 0.0356863 0.0273012 0.0177824 0.00739804 -0.00341103 -0.0141284 -0.0242875 -0.0336859 -0.0423624 -0.0507047 -0.0590943 -0.0677751 -0.0766645 -0.0854029 -0.0935586 -0.100873 -0.107311 -0.112986 -0.11803 -0.122443 -0.126111 -0.128908 -0.130701 -0.131452 -0.131137 -0.129722 -0.127202 -0.123576 -0.118877 -0.113093 -0.106278 -0.0984481 -0.0896961 -0.0801495 -0.0700399 -0.05961 -0.0492614 -0.039325 -0.0301752 -0.0220073 -0.0148384 -0.00850285 -0.00263197 0.00314825 0.00905773 0.0150241 0.0206167 0.0252582 0.0283627 0.0295667 0.0288715 0.0264968 0.0228202 0.0181885 0.0127705 0.00668263 -6.16325e-05 -0.00744269 -0.0154055 -0.0239194 -0.0329399 -0.0423935 -0.0521759 -0.0620598 -0.0718992 -0.0814442 -0.0905457 -0.0990497 -0.106808 -0.113682 -0.119572 -0.124373 -0.128064 -0.130614 -0.132031 -0.132306 -0.13148 -0.129643 -0.126893 -0.123316 -0.118872 -0.113509 -0.107171 -0.0999361 -0.092063 -0.0838907 -0.075714 -0.0676349 -0.0595444 -0.0511553 -0.0421769 -0.0325142 -0.0222386 -0.0116981 -0.00122365 0.00882976 0.0182688 0.0270101 0.0350243 0.042272 0.0486315 0.0539484 0.0581258 0.0611278 0.0630543 0.0640497 0.0642603 0.063714 0.0624222 0.0602881 0.0572004 0.0530599 0.0478211 0.041623 0.0347331 0.0276332 0.0207919 0.0146152 0.00928451 0.004767 0.00082352 -0.00281244 -0.00626964 -0.00941874 -0.0119245 -0.0133504 -0.0133544 -0.0119587 -0.00961994 -0.00704044 -0.00488554 -0.00346353 -0.00256852 -0.00176363 -0.000723724 0.000496095 0.00149326 0.0018453 0.00146082 0.000653334 -0.000105068 -0.000508075 -0.000564934 -0.000486608 -0.000459381 -0.000500155 -0.000253857 0 0 
0 0 -0.000263937 -0.000495539 -0.000481851 -0.000404901 -0.000356288 -0.000400471 -0.00044384 -0.000190541 0.000672484 0.00215919 0.00382814 0.00492298 0.00482558 0.00345055 0.00126272 -0.00102527 -0.00296126 -0.00454146 -0.00614727 -0.00810404 -0.0103888 -0.012491 -0.0136965 -0.0133954 -0.0113932 -0.00790199 -0.00341385 0.0015611 0.00664737 0.0117599 0.0170286 0.0226429 0.0287169 0.0351887 0.0418498 0.0482713 0.054036 0.0587449 0.0621649 0.0642555 0.0650872 0.0648567 0.063715 0.0618634 0.0593788 0.0563463 0.052689 0.0483276 0.0430988 0.036808 0.0293129 0.0205862 0.0108289 0.00048111 -0.00991229 -0.0198148 -0.0289331 -0.0372413 -0.0450101 -0.05263 -0.0603279 -0.0681139 -0.0756954 -0.0827295 -0.0889977 -0.0945002 -0.0994269 -0.103893 -0.107975 -0.111484 -0.114306 -0.116287 -0.117349 -0.117451 -0.116559 -0.114622 -0.111616 -0.10757 -0.102466 -0.0963317 -0.0891913 -0.0811397 -0.0722742 -0.0628308 -0.0530364 -0.043265 -0.0338591 -0.0251936 -0.0175113 -0.0109291 -0.00529102 -0.000288068 0.00449216 0.00936643 0.0143633 0.0192072 0.0234005 0.0263497 0.0276651 0.0272354 0.025236 0.0220248 0.0179317 0.013172 0.00782297 0.00182524 -0.0048106 -0.0120719 -0.0199199 -0.0283002 -0.0370871 -0.0462035 -0.0554446 -0.0646393 -0.073522 -0.0819634 -0.0897838 -0.0968522 -0.103038 -0.108259 -0.112401 -0.115469 -0.117433 -0.118319 -0.11816 -0.117003 -0.114971 -0.112195 -0.1088 -0.104733 -0.0999897 -0.094441 -0.0881799 -0.0813674 -0.0742955 -0.0672048 -0.060117 -0.0528782 -0.0451733 -0.0367548 -0.0275351 -0.0176566 -0.00746533 0.0026446 0.0122526 0.0211017 0.0290758 0.0361877 0.0424982 0.0480226 0.0527782 0.0567509 0.0599646 0.0624913 0.0643203 0.0653849 0.0655337 0.0645955 0.0623822 0.0588381 0.0540403 0.0482284 0.0418042 0.0351797 0.0287875 0.0228474 0.0174276 0.0123652 0.00744303 0.00248551 -0.00242723 -0.00693949 -0.0105087 -0.0126928 -0.0132543 -0.0123612 -0.0105428 -0.00849866 -0.00677531 -0.00549265 -0.0043874 -0.00304006 -0.00128032 0.000654851 0.00218859 0.00283105 0.00249935 0.00158595 0.000666888 0.000113464 -5.31057e-05 -5.91667e-05 -0.000118303 -0.000274667 -0.000428233 -0.000245464 0 0 
0 0 -0.000222439 -0.000432827 -0.000458926 -0.000350517 -0.000134601 7.85872e-05 0.000205673 0.000355942 0.000854206 0.00199378 0.00370128 0.00537417 0.00612111 0.00529585 0.0028974 -0.000376344 -0.00356526 -0.0059742 -0.00756795 -0.00873973 -0.0099297 -0.0112883 -0.0124243 -0.0126986 -0.0115197 -0.00859399 -0.00405772 0.00163782 0.00787367 0.0141034 0.0200521 0.0256606 0.0310759 0.0365002 0.0420788 0.0477355 0.0532329 0.0582183 0.0622702 0.0651004 0.0665222 0.0665165 0.0651666 0.062736 0.0594631 0.0556214 0.0513804 0.046759 0.0416504 0.035842 0.0290958 0.0212992 0.0125046 0.0030145 -0.00670263 -0.0161678 -0.0250368 -0.0331952 -0.0408046 -0.0481981 -0.0555388 -0.0628397 -0.0698151 -0.0761264 -0.0815888 -0.0862035 -0.0901967 -0.093734 -0.0969155 -0.0996033 -0.101691 -0.102996 -0.103508 -0.103154 -0.101916 -0.0997435 -0.0965991 -0.0924824 -0.087389 -0.0813402 -0.0743429 -0.0665094 -0.0579062 -0.0487565 -0.0392741 -0.0298008 -0.0206693 -0.0122741 -0.00487864 0.00136052 0.00650194 0.0108439 0.0147958 0.0187043 0.0227647 0.0268197 0.0305128 0.0332548 0.0346826 0.0345304 0.0329748 0.0302328 0.0266868 0.022504 0.0177664 0.0124161 0.00639733 -0.000315617 -0.00768599 -0.0156155 -0.0240053 -0.0327388 -0.0416293 -0.0505128 -0.0591374 -0.0673476 -0.0749601 -0.0818854 -0.0879729 -0.0931642 -0.0973661 -0.10056 -0.102762 -0.103973 -0.104259 -0.103632 -0.102271 -0.100245 -0.0976845 -0.0945457 -0.0907647 -0.0862027 -0.0808934 -0.0749312 -0.0685814 -0.0620252 -0.0552836 -0.0482344 -0.0406417 -0.0323611 -0.0233709 -0.0138822 -0.00425169 0.00512218 0.013879 0.021817 0.0289052 0.0352763 0.041072 0.046447 0.0514414 0.0560105 0.0600406 0.0633615 0.065751 0.0670278 0.0669469 0.0654384 0.0624913 0.058318 0.0532301 0.0476716 0.0419983 0.0364426 0.0310743 0.0257668 0.0203093 0.0145405 0.00849299 0.00242222 -0.00315137 -0.00761593 -0.0105328 -0.0118029 -0.0117271 -0.0108665 -0.00980714 -0.00891934 -0.00808579 -0.00693925 -0.00512309 -0.00260179 0.000119959 0.00229928 0.00335313 0.00323229 0.00238768 0.00147002 0.000903406 0.000699072 0.00061237 0.000418085 9.82986e-05 -0.000212116 -0.000380872 -0.000230786 0 0 
0 0 -0.000146359 -0.000311373 -0.000374483 -0.000321124 -7.79285e-05 0.000329695 0.000765704 0.00111984 0.00148306 0.00214375 0.0033469 0.0049311 0.00621619 0.00631234 0.0046128 0.00127383 -0.00286468 -0.00666956 -0.00933385 -0.0107101 -0.0111511 -0.01119 -0.0111273 -0.0108228 -0.00987134 -0.00776881 -0.00415401 0.000983718 0.00732402 0.014269 0.0212387 0.0277628 0.033615 0.0388069 0.0435704 0.0481017 0.0525271 0.0568045 0.060702 0.0639231 0.066102 0.0669825 0.0663642 0.0642912 0.0609557 0.0566481 0.0516742 0.046225 0.0403968 0.0341277 0.0273038 0.0198121 0.0116593 0.00301064 -0.00580637 -0.0144375 -0.0225934 -0.0302017 -0.037378 -0.0444098 -0.0514737 -0.058542 -0.0653499 -0.0715205 -0.0767908 -0.0811381 -0.0847182 -0.0877199 -0.0902561 -0.0921858 -0.0934374 -0.0938613 -0.0934303 -0.0921423 -0.0899752 -0.0869264 -0.0829507 -0.0780844 -0.0723047 -0.0656776 -0.0582023 -0.0499837 -0.0411225 -0.0317877 -0.02219 -0.0126509 -0.00347352 0.00494646 0.0123275 0.0184565 0.0233728 0.0272707 0.0305615 0.03364 0.0368034 0.0400566 0.0431674 0.0456862 0.0471699 0.0473553 0.0462355 0.04401 0.0409787 0.0373172 0.0330974 0.0282384 0.0226666 0.0163081 0.00920488 0.00144121 -0.00683939 -0.0155376 -0.0244678 -0.0334907 -0.0423442 -0.0508689 -0.0588825 -0.0662744 -0.0729289 -0.0787742 -0.0837108 -0.0877289 -0.0907865 -0.092908 -0.0940891 -0.0943999 -0.0939201 -0.0927341 -0.0909411 -0.088475 -0.085265 -0.0811781 -0.0762238 -0.0705302 -0.06434 -0.0578747 -0.0511924 -0.0442282 -0.036843 -0.0289623 -0.0206152 -0.0120017 -0.0033599 0.0050249 0.0129451 0.0203076 0.0271525 0.0336191 0.0398587 0.0459104 0.0516985 0.0569987 0.0615042 0.064897 0.0669245 0.0674594 0.0664985 0.0642451 0.0609276 0.0569148 0.0525269 0.0480224 0.0434546 0.0387065 0.0335618 0.0277886 0.0213782 0.014552 0.00777542 0.00161378 -0.00334633 -0.00680439 -0.00880594 -0.00975414 -0.0101779 -0.0104655 -0.0107235 -0.01064 -0.00971141 -0.00763626 -0.00455454 -0.00116882 0.00160068 0.00312338 0.00333175 0.00275214 0.00205457 0.00166967 0.00158565 0.00150472 0.00119583 0.00067359 0.000146334 -0.000190092 -0.000289872 -0.000170545 0 0 
0 0 -6.04557e-05 -0.000149275 -0.000188141 -0.000200897 -6.72589e-05 0.000329195 0.000973116 0.00169484 0.00231885 0.0028455 0.00347561 0.00438597 0.00540613 0.00594721 0.00522684 0.00278245 -0.00115929 -0.00570865 -0.00973331 -0.0123733 -0.0132998 -0.012813 -0.0114506 -0.00971263 -0.00778279 -0.00553823 -0.00261317 0.00139592 0.00667348 0.0130813 0.0202194 0.0275123 0.0343985 0.0404854 0.0456215 0.0498859 0.0534857 0.0566812 0.0595627 0.0621205 0.0641718 0.0654187 0.0655805 0.064433 0.0619116 0.0580935 0.0531866 0.0473662 0.0408519 0.0337597 0.0261437 0.0181063 0.00970115 0.00113208 -0.00732157 -0.0153704 -0.0227931 -0.0295503 -0.0358246 -0.041968 -0.048234 -0.0546802 -0.061082 -0.0670676 -0.0723467 -0.0767856 -0.0804835 -0.0835304 -0.086015 -0.0877995 -0.0887441 -0.08871 -0.0876897 -0.0856778 -0.0826873 -0.0787257 -0.0737963 -0.0679285 -0.0611602 -0.0535633 -0.0451972 -0.0361681 -0.0265891 -0.0166491 -0.00653788 0.0034598 0.0130223 0.021799 0.0294696 0.0358079 0.0407866 0.0445476 0.0474488 0.0498817 0.0522747 0.0547448 0.0572679 0.0594719 0.0609937 0.061489 0.0608484 0.0591398 0.0565792 0.0533072 0.0494467 0.0448694 0.0395164 0.0332568 0.0261356 0.0182385 0.00969059 0.000658976 -0.00872507 -0.01829 -0.0278109 -0.0371107 -0.0459637 -0.0542541 -0.0618485 -0.0686515 -0.0745609 -0.0795192 -0.0834621 -0.086383 -0.088267 -0.0891453 -0.0891098 -0.0882284 -0.0865988 -0.0841906 -0.0809603 -0.0768281 -0.0718911 -0.0662987 -0.06035 -0.0542227 -0.0479846 -0.0415764 -0.0349021 -0.0278656 -0.0204592 -0.0127568 -0.00487581 0.00303257 0.0108615 0.0185415 0.0260097 0.0333181 0.0403624 0.0470594 0.0531702 0.0583981 0.062417 0.0650139 0.0661183 0.0658746 0.0645389 0.0624243 0.0597887 0.0568074 0.0535033 0.0498005 0.0454856 0.04034 0.0342888 0.027465 0.0202586 0.0132264 0.00695947 0.00186272 -0.00192386 -0.00461607 -0.00666006 -0.00848715 -0.010255 -0.011782 -0.0125552 -0.0120398 -0.00996661 -0.00667605 -0.00299087 0.000116189 0.00197935 0.00257483 0.00242297 0.00218697 0.00221264 0.00242148 0.00247108 0.00211992 0.00143211 0.000687116 0.000154411 -8.38461e-05 -0.000116917 -6.0725e-05 0 0 
0 0 2.33847e-06 1.44589e-06 5.50515e-05 5.09384e-05 5.83497e-05 0.000262579 0.000835597 0.00177036 0.0028341 0.00371943 0.00427344 0.00457493 0.00477711 0.00484855 0.00441481 0.00294522 9.80975e-05 -0.00393825 -0.00837722 -0.0122283 -0.0145562 -0.014911 -0.0134559 -0.0106886 -0.00729622 -0.00377235 -0.000278805 0.00338002 0.00759074 0.0126799 0.0187542 0.0256538 0.0328958 0.0399168 0.0461911 0.0513862 0.0553807 0.0583209 0.0604108 0.061878 0.0628574 0.0633415 0.0632203 0.0623347 0.060512 0.0576032 0.0535708 0.0483907 0.0421405 0.0349466 0.0269389 0.0182837 0.00922376 7.44399e-06 -0.00896359 -0.0173235 -0.0247848 -0.0312629 -0.0369196 -0.0421528 -0.0473673 -0.0527565 -0.0582661 -0.0635778 -0.0684251 -0.0726564 -0.0763042 -0.0794177 -0.0820113 -0.0839222 -0.0849666 -0.0849869 -0.0839053 -0.0817285 -0.078449 -0.0740667 -0.0685965 -0.0620955 -0.0546061 -0.0462469 -0.0371126 -0.0273199 -0.0170449 -0.00644287 0.00425317 0.0147919 0.024869 0.0341065 0.042225 0.0489423 0.0541869 0.0579966 0.0606987 0.0626773 0.0643925 0.0661481 0.0680511 0.0699049 0.0714091 0.0721822 0.0719919 0.0707976 0.0686779 0.065751 0.0621098 0.0576692 0.0523667 0.046059 0.0387724 0.0305815 0.0216446 0.0121184 0.00217664 -0.00802123 -0.018263 -0.028321 -0.0379754 -0.0470552 -0.0553921 -0.0628871 -0.0694043 -0.0748653 -0.0792114 -0.0823863 -0.084408 -0.0853171 -0.0852133 -0.0842264 -0.082462 -0.0799436 -0.0766686 -0.0726595 -0.0680541 -0.0630269 -0.0578288 -0.052553 -0.0471903 -0.0415867 -0.0356068 -0.0291094 -0.0220587 -0.0145013 -0.0065209 0.00177078 0.0102178 0.0186248 0.026803 0.0345736 0.0417236 0.0481071 0.0535312 0.0578434 0.0609648 0.0628778 0.0637453 0.063774 0.0632024 0.0621526 0.060631 0.0584553 0.0554161 0.0513055 0.0460341 0.0397178 0.0327185 0.0255167 0.0186826 0.0126825 0.00771375 0.00367837 0.00027341 -0.00291602 -0.00614199 -0.00932413 -0.0120266 -0.0135858 -0.013503 -0.0116417 -0.00846517 -0.00490759 -0.00186735 6.20787e-05 0.000941192 0.00130655 0.00170907 0.00236735 0.00305077 0.00335046 0.00303396 0.00223172 0.00132117 0.000639184 0.00028847 0.000161881 0.000107377 6.08112e-05 0 0 
0 0 2.76916e-05 9.55172e-05 0.000255707 0.000355492 0.000354323 0.000366136 0.000643772 0.00141837 0.00268175 0.00410074 0.00518356 0.00557146 0.00522125 0.00436018 0.00320659 0.00173894 -0.000278425 -0.00311851 -0.00671301 -0.0105717 -0.0138433 -0.0156164 -0.015345 -0.0130096 -0.00905452 -0.00423784 0.000704601 0.00538856 0.00978549 0.0142 0.0190214 0.0245586 0.0308583 0.0376442 0.0444228 0.0506481 0.0558293 0.0597191 0.0622118 0.0634254 0.0635787 0.062911 0.061621 0.0598598 0.057627 0.0548633 0.0514156 0.0471319 0.0418818 0.0355984 0.0282928 0.0200168 0.0109566 0.00137562 -0.00826411 -0.0174748 -0.0257619 -0.0328898 -0.0388818 -0.0440569 -0.0488562 -0.0535979 -0.058339 -0.0628957 -0.0670644 -0.0706904 -0.0738138 -0.0764904 -0.0787353 -0.0803993 -0.0812882 -0.0812056 -0.0800739 -0.077847 -0.074498 -0.07002 -0.0643959 -0.0576689 -0.0499186 -0.041244 -0.0317862 -0.0216823 -0.0110906 -0.000219945 0.0107306 0.0214988 0.0317956 0.0412897 0.0496461 0.0566067 0.0620171 0.0658658 0.0683772 0.0699254 0.0709952 0.0720029 0.0732118 0.0746182 0.0760205 0.0770154 0.0773131 0.0766682 0.0750721 0.072549 0.0691678 0.0649213 0.0597171 0.0534762 0.046169 0.0378768 0.0287568 0.0189881 0.00876448 -0.00173892 -0.0123028 -0.0227226 -0.0327419 -0.0421692 -0.0508194 -0.0585421 -0.065258 -0.0708451 -0.0752645 -0.0784926 -0.0805285 -0.0814662 -0.0814237 -0.0805696 -0.0790316 -0.0768331 -0.0740111 -0.0706046 -0.0667377 -0.0625584 -0.058217 -0.0536817 -0.0487893 -0.0433576 -0.0372119 -0.0302749 -0.0226289 -0.0144192 -0.00580469 0.00299206 0.011758 0.0202125 0.0281266 0.0352815 0.0415514 0.0468939 0.051365 0.0550436 0.0580127 0.0603575 0.0621295 0.0633415 0.0639172 0.0636855 0.0624207 0.0598579 0.0558871 0.0505874 0.0442632 0.0374118 0.0306134 0.0243279 0.0188309 0.0140567 0.00974058 0.00551329 0.00111456 -0.00346482 -0.00788655 -0.0115271 -0.0137118 -0.0140217 -0.0125119 -0.00974464 -0.00666606 -0.00408168 -0.00236832 -0.00134691 -0.000480814 0.000657723 0.0020774 0.00336816 0.00401495 0.00379738 0.00293398 0.0019109 0.0011463 0.000756851 0.000599464 0.000476365 0.000302855 0.000143273 0 0 
0 0 3.24677e-05 0.000132705 0.000340537 0.000570741 0.000707966 0.000708565 0.000720724 0.00107162 0.00205804 0.00365271 0.0053911 0.00655648 0.00656391 0.00528868 0.00309761 0.000571227 -0.00188826 -0.00424488 -0.00668536 -0.00939334 -0.0121815 -0.0144279 -0.015386 -0.0144105 -0.0113629 -0.00655063 -0.000715049 0.00536357 0.0111192 0.0163169 0.0210728 0.0257298 0.0306572 0.0360755 0.0419373 0.0479633 0.0536716 0.0585791 0.0622589 0.0644298 0.0650219 0.0641915 0.0621633 0.0593417 0.0559676 0.0522768 0.0482974 0.0440028 0.0392454 0.0338996 0.0277733 0.0207338 0.0127303 0.00383742 -0.00558936 -0.0150611 -0.0239959 -0.03197 -0.0388248 -0.0447429 -0.0500677 -0.0551224 -0.060028 -0.0645954 -0.0686399 -0.0719952 -0.0746844 -0.0767872 -0.0783617 -0.0793459 -0.0795519 -0.0788473 -0.0771379 -0.0743973 -0.0706008 -0.0657158 -0.0597413 -0.0527096 -0.0446981 -0.0358414 -0.0262291 -0.0160497 -0.00545371 0.00536452 0.0162006 0.026824 0.0369576 0.0463258 0.054585 0.0614805 0.0667907 0.0704888 0.0726644 0.0736917 0.0740393 0.0742143 0.0746383 0.0755093 0.0766843 0.0778719 0.0786239 0.0786406 0.0776942 0.0757641 0.0728461 0.0689813 0.0641045 0.0581822 0.0511595 0.0431131 0.0341606 0.0245107 0.0143578 0.0039035 -0.00665484 -0.0171241 -0.0272623 -0.0368674 -0.0457202 -0.0536957 -0.0606663 -0.0665783 -0.0713874 -0.0750543 -0.077592 -0.0790765 -0.0796236 -0.0794096 -0.0784998 -0.0769207 -0.0746743 -0.0717655 -0.0683093 -0.06443 -0.0601978 -0.0554755 -0.0501252 -0.0439343 -0.0368296 -0.0289171 -0.0204674 -0.0117679 -0.0031072 0.00530744 0.0133034 0.0207419 0.0275322 0.0336198 0.0390114 0.0438515 0.0482754 0.0524132 0.0562822 0.0597779 0.062646 0.0646189 0.0653644 0.0646832 0.062453 0.0587138 0.0537365 0.0479241 0.0417903 0.0358329 0.0303608 0.0254127 0.0207567 0.0160205 0.0109022 0.0053135 -0.000455337 -0.00587433 -0.0102049 -0.0128493 -0.0135758 -0.0125941 -0.0105795 -0.00833307 -0.00648742 -0.0051868 -0.00408118 -0.0027017 -0.000787079 0.00143814 0.00335498 0.00437191 0.00429075 0.00342683 0.0023677 0.00159236 0.00123042 0.00110162 0.000963972 0.000712355 0.000404325 0.000165703 0 0 
0 0 5.01939e-05 0.000158361 0.000326868 0.000612249 0.000925867 0.00111558 0.00112354 0.00113881 0.00156938 0.00276246 0.00464669 0.00659029 0.00763491 0.007007 0.0045707 0.000907735 -0.00298345 -0.00629576 -0.00870482 -0.0103969 -0.0117882 -0.0129874 -0.0137746 -0.013603 -0.0118887 -0.00835308 -0.00313967 0.00321012 0.010021 0.0166362 0.0226251 0.0278394 0.0324603 0.0367926 0.0411641 0.0457507 0.0505143 0.055195 0.0593599 0.0625536 0.0643928 0.0646614 0.0633456 0.0606339 0.0568266 0.0522536 0.0472235 0.0419441 0.0365543 0.0310378 0.0252927 0.0190791 0.0121879 0.00448171 -0.00391806 -0.0126496 -0.0212116 -0.0291571 -0.0362721 -0.0426459 -0.0485808 -0.0543538 -0.060062 -0.0654958 -0.0703391 -0.0743371 -0.0774113 -0.0796218 -0.081005 -0.0815791 -0.0812216 -0.0798127 -0.0773028 -0.0737063 -0.0690153 -0.0632654 -0.0564541 -0.0486514 -0.0399652 -0.0305311 -0.0205048 -0.0100289 0.000714297 0.0115522 0.0222947 0.0327314 0.0426305 0.0517393 0.0597522 0.0664164 0.0715089 0.0749328 0.0767394 0.0772085 0.0768408 0.0761874 0.0758157 0.0760416 0.0769018 0.0781683 0.0793803 0.080062 0.0798729 0.0786474 0.0763394 0.072968 0.0685454 0.0630423 0.0564393 0.0487631 0.0401018 0.0306451 0.0205947 0.0101617 -0.000476381 -0.011126 -0.0215923 -0.0316494 -0.0410938 -0.0497307 -0.0574523 -0.0641822 -0.0698342 -0.0743866 -0.0777728 -0.0800419 -0.0812794 -0.0815857 -0.0810012 -0.0795421 -0.0771692 -0.0739343 -0.0699839 -0.0654842 -0.0604963 -0.0549651 -0.0487581 -0.0417369 -0.0339703 -0.0256972 -0.0172916 -0.00911085 -0.00138335 0.00581841 0.0125322 0.018856 0.0249125 0.0307274 0.0363856 0.041881 0.0472562 0.0523787 0.0570833 0.0610062 0.0637941 0.0650968 0.0647611 0.0628318 0.059556 0.0553266 0.0505804 0.0457352 0.0410465 0.0365704 0.0321519 0.0274715 0.0222128 0.0162151 0.00964858 0.00300363 -0.00302096 -0.00776575 -0.0107569 -0.011981 -0.0118155 -0.0109266 -0.0099226 -0.00909324 -0.00835321 -0.0072148 -0.00527673 -0.00254076 0.000503525 0.00302782 0.0043842 0.00444121 0.00362431 0.00262058 0.00194049 0.00168803 0.00163539 0.00150012 0.00118055 0.000770565 0.000418218 0.000155385 0 0 
0 0 0.000101921 0.000223997 0.000309254 0.000531092 0.000904912 0.0013152 0.00157878 0.00163176 0.00169802 0.00222567 0.00356309 0.00556095 0.00742255 0.00801096 0.00647281 0.00276187 -0.00226818 -0.00726778 -0.0110701 -0.0131697 -0.0137638 -0.0134317 -0.0126755 -0.0116514 -0.010142 -0.00770059 -0.00396078 0.00115872 0.00746349 0.0144741 0.0215633 0.0281233 0.033797 0.0384989 0.0423914 0.0458153 0.0490525 0.0522896 0.055514 0.058459 0.0608163 0.0622013 0.0623009 0.0609584 0.0581385 0.0539992 0.0488135 0.0428938 0.0365863 0.0301304 0.0236285 0.0170109 0.0101112 0.00277746 -0.00496757 -0.0128854 -0.0205777 -0.0276782 -0.0340675 -0.0398795 -0.0454948 -0.0512583 -0.057304 -0.0634293 -0.0692156 -0.0742617 -0.0783312 -0.0813728 -0.0833901 -0.0843461 -0.0841417 -0.0826926 -0.0799083 -0.0758654 -0.070555 -0.0640567 -0.0564288 -0.047773 -0.0382516 -0.0280447 -0.0173371 -0.006302 0.00487293 0.0160015 0.0268804 0.0373519 0.0471648 0.0561621 0.0640318 0.0705815 0.075511 0.0787712 0.0803073 0.0803947 0.0794553 0.0781196 0.0770223 0.0766247 0.0771227 0.078353 0.0798655 0.0811327 0.0816471 0.0811034 0.07937 0.0764713 0.0723962 0.0672294 0.0608923 0.0534544 0.0449248 0.0355031 0.0253374 0.0146799 0.00368919 -0.00741986 -0.0184661 -0.0292253 -0.0394517 -0.0489309 -0.0575018 -0.0650253 -0.0714159 -0.0765772 -0.0804197 -0.082966 -0.0842397 -0.0843353 -0.0832803 -0.0811047 -0.0778458 -0.0736746 -0.0688205 -0.06355 -0.0579683 -0.0520909 -0.0457586 -0.0388734 -0.0314922 -0.0238543 -0.0163089 -0.00910113 -0.00235027 0.0040358 0.010257 0.0165642 0.023074 0.0297494 0.0364442 0.0429199 0.0489161 0.0541434 0.0583442 0.0612591 0.062683 0.0626204 0.0612016 0.0587655 0.0557276 0.0524233 0.0491167 0.0458102 0.0422978 0.0383014 0.0334953 0.0277237 0.0210825 0.0139425 0.00695877 0.000810302 -0.00397247 -0.00720827 -0.00905451 -0.00999796 -0.0105886 -0.0111501 -0.0116324 -0.0116211 -0.0105676 -0.00816463 -0.00465874 -0.000850761 0.00225001 0.00393742 0.00416005 0.00346468 0.00262615 0.00216514 0.0021266 0.00221032 0.00209471 0.00168844 0.00114684 0.000689847 0.000418692 0.000164804 0 0 
0 0 0.000176304 0.000340652 0.000379258 0.000475981 0.000734865 0.00118766 0.00172129 0.0021348 0.00234099 0.00253199 0.00310932 0.00435826 0.00605059 0.00733265 0.00708098 0.0045106 -0.000242274 -0.00613293 -0.0116066 -0.0153496 -0.0167662 -0.0160127 -0.0138461 -0.0110539 -0.0081695 -0.00531207 -0.00222644 0.0014631 0.00610452 0.0118347 0.0184675 0.0254651 0.0322205 0.0382322 0.0431449 0.046929 0.0497589 0.0519221 0.0536978 0.0553058 0.0567353 0.057908 0.0585227 0.0583076 0.0569505 0.0542702 0.0502915 0.0451163 0.0390397 0.032295 0.0251264 0.0176256 0.00978724 0.00164289 -0.00667719 -0.0148483 -0.0224475 -0.0291066 -0.0347476 -0.0396081 -0.0442025 -0.0490488 -0.0544238 -0.060226 -0.0660756 -0.0714701 -0.0761039 -0.0797765 -0.0824568 -0.0840722 -0.0844957 -0.0835683 -0.0812255 -0.07744 -0.0722578 -0.0657164 -0.0579242 -0.0490042 -0.039151 -0.0285721 -0.0175119 -0.0061695 0.00525151 0.0165485 0.0275122 0.0379722 0.0477365 0.0566137 0.064382 0.0708182 0.0756838 0.0788364 0.0802471 0.0800895 0.0788037 0.0769784 0.075302 0.0743568 0.0744276 0.0755037 0.0771641 0.0788551 0.0799476 0.0800127 0.0788132 0.0763096 0.0725523 0.0675919 0.0614674 0.054175 0.0457663 0.0363637 0.0261382 0.0153157 0.00408783 -0.00730231 -0.018682 -0.029794 -0.0403912 -0.0502161 -0.0590579 -0.0667392 -0.0731558 -0.0781804 -0.0817676 -0.0839069 -0.0846653 -0.0840978 -0.0822899 -0.0793455 -0.0753948 -0.0707104 -0.0656488 -0.0604732 -0.0553116 -0.0500726 -0.0445318 -0.0384911 -0.0319209 -0.0249572 -0.0178661 -0.0108315 -0.00395272 0.00287474 0.00980086 0.0169919 0.0243874 0.0318014 0.0388704 0.0451997 0.0504722 0.0544605 0.0571355 0.0585336 0.0588239 0.0582743 0.0571162 0.0556362 0.0539459 0.0520715 0.0498331 0.0469318 0.043071 0.0380583 0.0319318 0.0250514 0.0179334 0.0112229 0.00549897 0.00100889 -0.00233754 -0.00489578 -0.00712044 -0.00936748 -0.0116336 -0.0135221 -0.0143817 -0.0135754 -0.0109783 -0.00703009 -0.00274502 0.000746044 0.00272945 0.00320535 0.00281025 0.00233584 0.00225916 0.0025443 0.00281928 0.00273992 0.00224597 0.00155547 0.000961525 0.000619261 0.000483803 0.000225698 0 0 
0 0 0.000237664 0.000465884 0.000543384 0.000566361 0.000631162 0.000892569 0.00143933 0.00217907 0.00288004 0.00336044 0.0036706 0.0040786 0.0047834 0.00556805 0.00574853 0.00443141 0.00107124 -0.00406562 -0.00991376 -0.0150105 -0.0181221 -0.0185973 -0.0165968 -0.012869 -0.00836202 -0.00388083 0.00016468 0.00378393 0.00732796 0.011301 0.0161188 0.0218627 0.0282429 0.0347919 0.0409268 0.04614 0.0501176 0.0528112 0.0543653 0.0550571 0.0552217 0.0550955 0.0547635 0.0541691 0.0531187 0.051358 0.0487243 0.0451037 0.0404801 0.0348979 0.0283839 0.020999 0.0127718 0.00380829 -0.00556193 -0.0148836 -0.0235157 -0.0309466 -0.0369536 -0.0417655 -0.0458945 -0.0500026 -0.0545272 -0.0594982 -0.0646349 -0.06947 -0.0736437 -0.0770031 -0.0794714 -0.0809998 -0.0814971 -0.0807802 -0.0787322 -0.0752903 -0.0704619 -0.0642824 -0.0568462 -0.0482434 -0.0387222 -0.0284502 -0.017692 -0.00667176 0.00440105 0.0152939 0.0258383 0.0358235 0.0451128 0.0535202 0.060837 0.0669091 0.0714536 0.0743552 0.0755352 0.0751449 0.073568 0.0713679 0.0692327 0.0677707 0.0674138 0.068209 0.0698924 0.0718714 0.0734936 0.0742096 0.0736514 0.0717216 0.0684408 0.0639111 0.05819 0.0513435 0.0433988 0.0344439 0.0246274 0.0141527 0.00326524 -0.00781958 -0.0188782 -0.0296785 -0.0399612 -0.0494729 -0.0580106 -0.0653481 -0.071406 -0.0760621 -0.0793126 -0.0811825 -0.0817541 -0.0810875 -0.0792803 -0.0764381 -0.0727471 -0.0685668 -0.0641934 -0.059877 -0.0556179 -0.0512019 -0.0462688 -0.0405416 -0.0339067 -0.0265332 -0.0186862 -0.0106707 -0.00272061 0.00507917 0.0127386 0.0202621 0.0275137 0.0342936 0.0402719 0.0452181 0.0489777 0.0516073 0.0533109 0.0543378 0.0549715 0.0553722 0.0555462 0.0553739 0.0546169 0.0529739 0.0501927 0.0461441 0.0408519 0.0346211 0.0279456 0.0214191 0.0155258 0.0106072 0.00662442 0.00323399 -3.3269e-05 -0.00353822 -0.0073539 -0.0111637 -0.014293 -0.0159425 -0.015541 -0.013071 -0.00920136 -0.00499032 -0.00153441 0.000540587 0.00131376 0.00142803 0.00159841 0.00214688 0.00290874 0.00343799 0.00339656 0.00280433 0.00197371 0.0012623 0.000850129 0.000691079 0.000625092 0.000319404 0 0 
0 0 0.000256227 0.000538744 0.000713748 0.000783956 0.000747079 0.000741703 0.0010033 0.00169406 0.00274272 0.00384347 0.00462718 0.00490825 0.00477382 0.00438449 0.00373306 0.00250678 0.000256129 -0.00329021 -0.00787744 -0.0126836 -0.0166436 -0.0187091 -0.0183176 -0.0154971 -0.010851 -0.00525933 0.000351662 0.00534622 0.00949021 0.0130224 0.0164528 0.0203234 0.024949 0.0303632 0.0362798 0.0421876 0.0475098 0.0517437 0.0546037 0.0560459 0.0561958 0.0553816 0.0538846 0.0519877 0.0498255 0.0474537 0.0448428 0.0419223 0.0385638 0.0345689 0.029701 0.0237501 0.0165495 0.00808058 -0.00135768 -0.0112619 -0.0208732 -0.0295296 -0.0367673 -0.0426373 -0.0475568 -0.0521151 -0.0567888 -0.0616792 -0.0665241 -0.070892 -0.0744064 -0.0769372 -0.0784894 -0.0791075 -0.0787519 -0.0773236 -0.0746996 -0.0708393 -0.0657326 -0.0594309 -0.0520175 -0.0435881 -0.0343466 -0.024474 -0.0142397 -0.00383126 0.00651473 0.0166117 0.0262761 0.0353424 0.0437084 0.0511961 0.0576688 0.0629183 0.066801 0.0691165 0.0698545 0.0691048 0.0672003 0.0646425 0.0620986 0.0601864 0.0593782 0.059861 0.0614421 0.0636406 0.0657884 0.0672425 0.067544 0.066453 0.0640061 0.0602433 0.0553276 0.049298 0.0422274 0.0341593 0.0252156 0.01556 0.0054173 -0.00499215 -0.0154443 -0.0257055 -0.0355681 -0.04479 -0.0531703 -0.0604978 -0.066693 -0.0716264 -0.0753152 -0.0778042 -0.0791046 -0.0792686 -0.0782904 -0.0762744 -0.0733694 -0.0698808 -0.0660926 -0.062197 -0.0580874 -0.0534711 -0.0479816 -0.0413301 -0.0335592 -0.0249289 -0.0158803 -0.00692268 0.00158092 0.00941522 0.016554 0.0229942 0.0287769 0.0338941 0.0383229 0.0420593 0.0451766 0.0477885 0.0500748 0.0521449 0.0540298 0.0555663 0.0564451 0.0563144 0.0548448 0.0519031 0.0475879 0.0421838 0.036199 0.0301766 0.0246333 0.0198321 0.0157883 0.0122237 0.00868455 0.00470272 8.41302e-05 -0.004976 -0.00987002 -0.0137871 -0.015954 -0.0159475 -0.013931 -0.0106313 -0.00711876 -0.00424376 -0.00243809 -0.0014776 -0.000753838 0.000262069 0.00166766 0.00308106 0.00396062 0.00398607 0.00329175 0.00232943 0.00153985 0.0011144 0.000968078 0.000901428 0.000774252 0.000391552 0 0 
0 0 0.00023448 0.000533321 0.000783192 0.000984544 0.00103174 0.00091895 0.000833786 0.00109966 0.00196485 0.00337126 0.00488837 0.00589601 0.00592421 0.00486702 0.00297474 0.000611199 -0.00198801 -0.0047476 -0.0077436 -0.010897 -0.0139156 -0.0162258 -0.0171512 -0.0161575 -0.0131002 -0.00827122 -0.00232342 0.00387347 0.00956048 0.0143169 0.0181544 0.0214322 0.0246423 0.0282472 0.0324992 0.0373572 0.0424945 0.0474334 0.051643 0.0547032 0.0563464 0.056487 0.0552528 0.0528936 0.0497525 0.0461533 0.0424062 0.038724 0.0351441 0.0315638 0.0276547 0.0230638 0.0174163 0.0104615 0.0022745 -0.00680388 -0.0161193 -0.024969 -0.0328651 -0.0396756 -0.045687 -0.0513913 -0.0571581 -0.0630477 -0.0687219 -0.0736569 -0.0773972 -0.0797831 -0.080832 -0.0806797 -0.0793934 -0.0769416 -0.0732643 -0.068344 -0.0622575 -0.0550636 -0.0469333 -0.0379604 -0.0283693 -0.0183562 -0.00815789 0.00199849 0.0119154 0.0214056 0.0303374 0.0385619 0.0459912 0.0525215 0.0580265 0.0623741 0.065413 0.0670421 0.0672301 0.0661134 0.0639323 0.061146 0.0583125 0.0560392 0.0548447 0.0549539 0.0563211 0.0585862 0.0611327 0.0632873 0.0644832 0.0644009 0.0628986 0.0600722 0.056029 0.0508939 0.044725 0.0375332 0.0294102 0.0204481 0.0108654 0.000851254 -0.00937015 -0.019584 -0.0295747 -0.0391182 -0.0480402 -0.0561059 -0.0631953 -0.0691285 -0.0739037 -0.0774761 -0.079822 -0.0808981 -0.0806379 -0.0790456 -0.0762543 -0.0725895 -0.0683436 -0.0637195 -0.0586399 -0.0528842 -0.0461474 -0.0383234 -0.0295635 -0.0202884 -0.0110725 -0.00243388 0.00526072 0.0118691 0.0175065 0.0223751 0.0267567 0.0308848 0.0348976 0.0388952 0.0428194 0.0466031 0.0501029 0.0531115 0.0553882 0.0566156 0.0565175 0.0549129 0.051843 0.0475797 0.0425637 0.0373473 0.0323991 0.0280426 0.0242922 0.0208878 0.0174033 0.0134172 0.00864618 0.00313391 -0.00266728 -0.00804205 -0.0121599 -0.0144657 -0.0147756 -0.0134205 -0.0111353 -0.00879111 -0.00696636 -0.00574228 -0.00475796 -0.00344298 -0.00153257 0.00079215 0.00292141 0.0041932 0.00433087 0.00358521 0.0025437 0.00173535 0.00135937 0.00128528 0.00125712 0.00111017 0.000841692 0.000399363 0 0 
0 0 0.00020647 0.000483352 0.000720742 0.00102161 0.00126702 0.00130411 0.001115 0.000933194 0.00118198 0.00220737 0.0039456 0.00580546 0.00689501 0.006449 0.00424073 0.000705359 -0.00330511 -0.00694701 -0.0097101 -0.0115655 -0.012793 -0.0136556 -0.0141748 -0.0140087 -0.0126784 -0.00981675 -0.00537818 0.000309885 0.00656187 0.0126729 0.0180718 0.022522 0.0260796 0.0290683 0.0319035 0.0349611 0.038432 0.0422862 0.0462563 0.049968 0.0529547 0.0547968 0.0552042 0.0540892 0.0515683 0.0479412 0.0435833 0.0389106 0.034241 0.0297011 0.0252005 0.0204986 0.0152664 0.00919766 0.00221965 -0.00551812 -0.0135732 -0.0214301 -0.0286328 -0.0351349 -0.0411901 -0.0472671 -0.0537141 -0.0605386 -0.0672995 -0.0733693 -0.0781371 -0.0812939 -0.0828288 -0.0828653 -0.0815007 -0.0787416 -0.0745741 -0.0689974 -0.0621466 -0.0541386 -0.0451758 -0.0354457 -0.0251845 -0.0146393 -0.00407208 0.00629017 0.0162349 0.0255927 0.0342109 0.042021 0.0488976 0.0548022 0.0596115 0.0632663 0.0656664 0.0667902 0.0666459 0.0653389 0.0631184 0.060317 0.0574468 0.0549971 0.053482 0.0531927 0.0542234 0.0563114 0.0589676 0.0615451 0.0634282 0.0641387 0.0634591 0.0613802 0.0580061 0.0534654 0.0478125 0.0411144 0.033375 0.0247149 0.0152418 0.00517502 -0.00527231 -0.0158554 -0.0263564 -0.0365536 -0.0462236 -0.0551149 -0.0630292 -0.0697577 -0.0752244 -0.079314 -0.0819857 -0.0831232 -0.0826214 -0.0804874 -0.07692 -0.0722878 -0.0670037 -0.0613564 -0.0553562 -0.0488612 -0.0416782 -0.0337626 -0.0253258 -0.0167864 -0.0086088 -0.00123065 0.00516985 0.0106385 0.0154554 0.0199196 0.0243888 0.0290678 0.0340244 0.0391189 0.0440737 0.0485133 0.0520613 0.0544299 0.0554074 0.0549384 0.0531013 0.0501393 0.0464365 0.0424261 0.03851 0.034948 0.0317981 0.0288437 0.0257009 0.021926 0.0172559 0.0116829 0.00554908 -0.000523367 -0.00579702 -0.00964763 -0.0117899 -0.0123621 -0.011823 -0.0108439 -0.00998943 -0.00944247 -0.00895029 -0.00799872 -0.00614268 -0.00339103 -0.000249562 0.00246197 0.00402816 0.00424905 0.00350952 0.00249833 0.00179029 0.00156146 0.00161651 0.00164992 0.00148833 0.00116035 0.000795621 0.00035092 0 0 
0 0 0.000210018 0.000459942 0.000605931 0.000882475 0.00125887 0.00156505 0.0016026 0.0013415 0.00106341 0.0012876 0.00243082 0.00439016 0.00640997 0.00734671 0.00624406 0.00285989 -0.00212242 -0.00735722 -0.0115403 -0.0138734 -0.0143704 -0.0136205 -0.0123947 -0.0111614 -0.00992039 -0.00828953 -0.00576655 -0.00203479 0.00291134 0.00872817 0.0148576 0.0207183 0.0258398 0.0299681 0.0331324 0.0355947 0.0376923 0.0398156 0.0421591 0.044751 0.0474324 0.049821 0.0514995 0.0521066 0.0514013 0.0493478 0.0460828 0.0418394 0.0369333 0.0316259 0.0260301 0.0201503 0.0139266 0.00719585 4.62042e-06 -0.00750109 -0.0149474 -0.0219199 -0.0281234 -0.0335482 -0.038573 -0.0437572 -0.0495435 -0.0560254 -0.0628035 -0.0691782 -0.0744596 -0.0782459 -0.0804135 -0.0810445 -0.0802326 -0.0779423 -0.0741632 -0.0688486 -0.0621335 -0.0541752 -0.0451858 -0.0353858 -0.0250419 -0.0144232 -0.00382551 0.0065007 0.0163386 0.0255142 0.0338826 0.0413291 0.0478015 0.0531997 0.0575059 0.0606319 0.0625934 0.0633902 0.0631016 0.0618326 0.0597989 0.0572454 0.0545476 0.0521248 0.0504116 0.0497582 0.0503159 0.0520058 0.0544557 0.0571194 0.0593733 0.0606425 0.0606232 0.0591468 0.0563029 0.0521694 0.0469033 0.0405198 0.0331005 0.0246951 0.0154052 0.00543289 -0.00499731 -0.0156227 -0.0261909 -0.0364424 -0.0461563 -0.0550651 -0.0629348 -0.0695513 -0.0747885 -0.0785332 -0.0807511 -0.0813075 -0.0801615 -0.077372 -0.0731964 -0.068121 -0.0626198 -0.0569875 -0.0512963 -0.0453982 -0.0390574 -0.0321801 -0.0248838 -0.017444 -0.0102145 -0.00343629 0.00281977 0.00862083 0.0142036 0.0197131 0.0253552 0.0310911 0.0367681 0.0420833 0.0466314 0.0500238 0.0520391 0.052594 0.0518219 0.0500324 0.0476047 0.0449305 0.0423492 0.039985 0.0378092 0.035621 0.0330497 0.0297499 0.0254472 0.0201042 0.0140117 0.00770548 0.00185959 -0.00291045 -0.00623555 -0.0081676 -0.00908986 -0.00956046 -0.010066 -0.0108091 -0.0115644 -0.0117676 -0.0108327 -0.00848011 -0.00501805 -0.00124555 0.00182491 0.00349716 0.00371601 0.00299822 0.00211955 0.00165087 0.0016942 0.00195774 0.00207516 0.00188093 0.00146264 0.00102472 0.000702387 0.000301779 0 0 
0 0 0.000251241 0.000500736 0.000556289 0.000701769 0.00101772 0.00146001 0.00183719 0.00191717 0.00165277 0.00134592 0.00154831 0.00268194 0.00459592 0.00642174 0.00690932 0.00508024 0.000786894 -0.00505638 -0.0108278 -0.0149999 -0.0166903 -0.0159506 -0.0135814 -0.0105941 -0.00775506 -0.00538358 -0.00329725 -0.0010306 0.00187042 0.00576574 0.010671 0.0163042 0.0221845 0.0277406 0.0324657 0.036124 0.0386968 0.0404103 0.0416242 0.042653 0.0437542 0.0449748 0.0461724 0.0471236 0.0475208 0.0471288 0.0457561 0.0433101 0.03979 0.0352593 0.0297987 0.023446 0.0163017 0.00843395 2.69504e-05 -0.00855859 -0.0168655 -0.0243744 -0.0307093 -0.035873 -0.0402215 -0.0444017 -0.048984 -0.054186 -0.0597806 -0.0651653 -0.0696536 -0.0728316 -0.0746014 -0.0750147 -0.0741736 -0.0720604 -0.0686079 -0.0637786 -0.0576181 -0.0502869 -0.0419724 -0.0328968 -0.0232997 -0.0134716 -0.00366481 0.00585194 0.0148633 0.0232114 0.0307627 0.0373785 0.0430004 0.0475596 0.0510343 0.0534317 0.0547697 0.0551487 0.0546513 0.0534133 0.0515788 0.049338 0.0469347 0.044648 0.0428553 0.0418871 0.0419891 0.0431837 0.0452927 0.0478853 0.0503768 0.0522138 0.0529216 0.052269 0.0502167 0.0468496 0.0422904 0.0366546 0.0300167 0.0224268 0.0139814 0.004842 -0.00478415 -0.0146274 -0.024407 -0.0339115 -0.0428775 -0.0510963 -0.0583265 -0.0644033 -0.0691901 -0.0726401 -0.0746899 -0.075241 -0.0742802 -0.0718701 -0.0683517 -0.0641592 -0.0597166 -0.0552831 -0.0508079 -0.0460328 -0.0406474 -0.0344916 -0.0275846 -0.020163 -0.012496 -0.00486546 0.00257468 0.00974588 0.0166202 0.0231354 0.0292712 0.0348408 0.0396842 0.0435825 0.0463419 0.0478896 0.0482939 0.0477751 0.0466526 0.0453052 0.043999 0.0428729 0.0418523 0.0406375 0.0388906 0.0362282 0.032448 0.0275602 0.0218097 0.0156973 0.00984155 0.00477372 0.00085457 -0.00187271 -0.00374899 -0.0052679 -0.00694211 -0.00900049 -0.0112525 -0.0131377 -0.0139068 -0.0129543 -0.0102159 -0.00627207 -0.00215843 0.00101918 0.0026261 0.00277677 0.00211957 0.00147029 0.00135583 0.00176479 0.00229343 0.00251748 0.00228258 0.00174582 0.00119439 0.000828559 0.000656269 0.000303164 0 0 
0 0 0.000299564 0.000581611 0.000627271 0.000647991 0.000757365 0.00106346 0.00156111 0.00206779 0.00231703 0.00220609 0.00196835 0.00208015 0.00291188 0.00430532 0.00545769 0.00524091 0.00283637 -0.00175094 -0.00756304 -0.0130251 -0.0167027 -0.0177306 -0.0161712 -0.0127671 -0.00854081 -0.00439783 -0.00092242 0.00178724 0.00399378 0.00620269 0.00898676 0.0126844 0.0173436 0.0226992 0.0282211 0.033358 0.0376179 0.040746 0.0427008 0.0436441 0.0438628 0.0436904 0.0433552 0.0430264 0.0427228 0.042338 0.0417364 0.0406365 0.0388108 0.0360264 0.0321222 0.0269329 0.0204328 0.0126527 0.00382744 -0.00565504 -0.0151563 -0.0240334 -0.0317228 -0.0380009 -0.0430748 -0.0474814 -0.051787 -0.0563153 -0.0608925 -0.0650737 -0.0682519 -0.0700636 -0.0704513 -0.0695648 -0.0675732 -0.0645499 -0.0604492 -0.0552396 -0.0489832 -0.0418173 -0.033916 -0.0254711 -0.0167029 -0.00785048 0.000850114 0.00916265 0.0169079 0.0239217 0.0301169 0.0353803 0.0396351 0.0428687 0.0450836 0.0463473 0.0467528 0.046427 0.0455004 0.0441014 0.0423504 0.0403445 0.0382122 0.0361363 0.0343505 0.0331868 0.0329006 0.0336747 0.0354391 0.0379256 0.040691 0.0431708 0.0448538 0.0453818 0.0445793 0.0424602 0.0391421 0.0347638 0.0294093 0.0231434 0.0160437 0.00819604 -0.000203854 -0.00893878 -0.0177537 -0.0264319 -0.0347629 -0.0425412 -0.0496019 -0.0557689 -0.0609657 -0.0650944 -0.0680634 -0.0697359 -0.0700229 -0.0690066 -0.0669157 -0.0641371 -0.0609519 -0.0575194 -0.0536334 -0.0490309 -0.0433868 -0.0365813 -0.0287285 -0.0201509 -0.0112507 -0.00243309 0.00600445 0.0137731 0.0207247 0.0267317 0.0317475 0.0357363 0.0387623 0.0409138 0.0423131 0.043125 0.0435788 0.0438142 0.0439899 0.0441559 0.0442021 0.0439203 0.0429757 0.041036 0.0379003 0.0335692 0.028304 0.0225899 0.0170069 0.0121064 0.0081955 0.00527502 0.00307384 0.00105413 -0.00128158 -0.00422422 -0.00768466 -0.0111462 -0.0138271 -0.0149343 -0.0139806 -0.0110965 -0.00708735 -0.0030799 -0.000130497 0.00127482 0.00138138 0.000925874 0.000686439 0.00105659 0.00188157 0.00266092 0.00295133 0.00264575 0.00198273 0.00132586 0.000907717 0.000746754 0.000706669 0.000358609 0 0 
0 0 0.000312954 0.000632411 0.000757207 0.000769881 0.000707306 0.000716438 0.000981148 0.00156949 0.00232265 0.00291978 0.00312374 0.00298459 0.00280776 0.00289656 0.00321539 0.00326919 0.00229254 -0.000246762 -0.00428865 -0.0090911 -0.0134729 -0.0163018 -0.0168538 -0.0150415 -0.0113312 -0.00654618 -0.00157969 0.0028188 0.00623716 0.00869956 0.0105963 0.0125323 0.0150419 0.0184822 0.022832 0.0278152 0.0329296 0.0376075 0.0413809 0.0439242 0.0451418 0.0451621 0.0442467 0.0427526 0.041006 0.0392556 0.0376181 0.0360833 0.0344647 0.0325153 0.0299353 0.026402 0.0216307 0.0154318 0.00782904 -0.000932058 -0.0103288 -0.0196965 -0.0283577 -0.0359285 -0.0423486 -0.0479791 -0.0531984 -0.0582913 -0.0630937 -0.0671496 -0.0698828 -0.070934 -0.0702842 -0.0681442 -0.0648008 -0.0604041 -0.0550314 -0.0487044 -0.0415238 -0.033663 -0.0253378 -0.0167446 -0.00809956 0.000383686 0.00848495 0.0160105 0.022821 0.0287739 0.0337743 0.0377765 0.0407209 0.042637 0.043583 0.0436851 0.0431215 0.0420508 0.0406376 0.0390443 0.0373117 0.0355166 0.0336713 0.031841 0.0301903 0.0289444 0.0283841 0.0287565 0.0301386 0.0324537 0.0353649 0.038393 0.0409951 0.0427172 0.0432456 0.0424819 0.0404644 0.037308 0.0331322 0.0279972 0.0219616 0.0150852 0.00749553 -0.000624537 -0.00907899 -0.0176464 -0.0261324 -0.0343257 -0.0420493 -0.0491351 -0.0554683 -0.060895 -0.065226 -0.0682253 -0.0697469 -0.0697795 -0.0685236 -0.0662676 -0.0632481 -0.0595516 -0.0549974 -0.0493777 -0.0424954 -0.0344482 -0.0255146 -0.0161902 -0.00695371 0.00173179 0.00954355 0.0162701 0.021834 0.0262633 0.0297016 0.0323435 0.0344795 0.0363462 0.0381457 0.0400019 0.0418793 0.0436196 0.0450106 0.0457613 0.0455823 0.0442621 0.0416915 0.0379427 0.0332818 0.0281287 0.0230201 0.0184659 0.0147728 0.0120019 0.0098556 0.00785674 0.00544382 0.00224195 -0.00178404 -0.00624199 -0.0103823 -0.0133639 -0.0145047 -0.0135571 -0.0108733 -0.00732933 -0.0039885 -0.00168736 -0.000667938 -0.000548954 -0.00059965 -0.000181922 0.000851567 0.00214886 0.00313166 0.00339419 0.00293514 0.00211474 0.00137636 0.000961195 0.000840921 0.000844045 0.000805299 0.000417614 0 0 
0 0 0.000274885 0.00059831 0.000818262 0.000945674 0.000900272 0.000716796 0.000598008 0.000823457 0.00155226 0.00265566 0.00372341 0.00430939 0.00419199 0.00346351 0.00241553 0.00128291 7.63222e-05 -0.00145305 -0.00355212 -0.00627021 -0.00933273 -0.0121277 -0.0139761 -0.0142936 -0.012764 -0.0094595 -0.00484151 0.000365764 0.00535819 0.00951004 0.0125713 0.0146824 0.0162933 0.0179886 0.0202636 0.0233853 0.0273337 0.0318091 0.0363205 0.0403264 0.0433543 0.0450992 0.0454638 0.044563 0.0426666 0.0400884 0.0371724 0.0341599 0.0312145 0.0283269 0.0253873 0.0221506 0.0183226 0.0135647 0.00768115 0.000648401 -0.00723002 -0.0154901 -0.023565 -0.0310432 -0.0377881 -0.0439905 -0.0499336 -0.0557803 -0.0613208 -0.066067 -0.0693974 -0.0708499 -0.070353 -0.0680854 -0.0643659 -0.0594246 -0.0533891 -0.0463472 -0.0384595 -0.029931 -0.0210402 -0.0120072 -0.00308963 0.0055209 0.0135667 0.0208945 0.0273513 0.0328079 0.0371949 0.040472 0.0426061 0.0436991 0.0438388 0.0432159 0.0420518 0.0405573 0.0389594 0.0373585 0.0358218 0.0343428 0.0328634 0.0313971 0.0299579 0.028741 0.0279444 0.0279001 0.0287777 0.0306563 0.0333564 0.0364794 0.0395553 0.0420293 0.0434757 0.0436769 0.0425559 0.0401772 0.0366508 0.0320717 0.0264889 0.0199992 0.0126497 0.00460021 -0.00397428 -0.0128411 -0.0217813 -0.0305355 -0.0389132 -0.0466942 -0.0537442 -0.059834 -0.0647019 -0.0680527 -0.0697074 -0.0696269 -0.0680454 -0.0652545 -0.0615529 -0.0570312 -0.0515913 -0.0451455 -0.0377025 -0.0294797 -0.0208714 -0.0123758 -0.00440092 0.00272085 0.00888945 0.0140512 0.0183768 0.022026 0.0252578 0.0282687 0.0312854 0.0343995 0.0376111 0.0407308 0.0434641 0.0454264 0.0462874 0.0457906 0.0438795 0.0407093 0.0366392 0.0321342 0.0276903 0.0237291 0.0205131 0.0180421 0.0160853 0.0141947 0.0118798 0.00873511 0.00467775 -6.69267e-05 -0.00488524 -0.00902103 -0.0117197 -0.0125919 -0.0116716 -0.00951046 -0.00692444 -0.00473914 -0.00345737 -0.00300726 -0.00285485 -0.0023541 -0.00111356 0.000703235 0.00251092 0.00366141 0.00382148 0.00314195 0.00213171 0.00132242 0.000955993 0.000941319 0.00102609 0.00101126 0.000846344 0.00041918 0 0 
0 0 0.000210677 0.00049106 0.000730405 0.000987722 0.00113426 0.0010439 0.000742968 0.000487063 0.000659285 0.00152541 0.00298694 0.00453152 0.00546796 0.00527001 0.00383689 0.00151655 -0.00108608 -0.00340554 -0.00517486 -0.00643471 -0.00746287 -0.00851289 -0.00959541 -0.0104659 -0.0106652 -0.00967937 -0.0072165 -0.00331831 0.00154126 0.00668822 0.0114081 0.0152427 0.0180143 0.0199293 0.0213841 0.0228899 0.0248355 0.0274321 0.0306495 0.0342113 0.0377359 0.0407642 0.0429136 0.0438991 0.0436062 0.0420698 0.0394554 0.0360143 0.0320235 0.0277429 0.0233452 0.0188673 0.0142376 0.00926342 0.00377131 -0.00233004 -0.00895767 -0.0157909 -0.0224431 -0.0286147 -0.0342191 -0.0394637 -0.0446246 -0.0499202 -0.0551773 -0.059919 -0.0635171 -0.0654431 -0.0655155 -0.0638383 -0.0606699 -0.0562241 -0.0506521 -0.0440307 -0.0365114 -0.0283323 -0.0197533 -0.0110536 -0.00246093 0.00579302 0.0134851 0.0204241 0.0264621 0.0314829 0.0353805 0.038131 0.0397467 0.0403225 0.0400206 0.0390618 0.0376753 0.0361304 0.0346083 0.0332337 0.0320494 0.0309882 0.0299607 0.0289054 0.0277698 0.0266403 0.0257012 0.0252384 0.0255244 0.0267482 0.0288668 0.0316708 0.0347116 0.0374579 0.0394415 0.0402816 0.0398068 0.038009 0.0349621 0.0308179 0.025647 0.0195579 0.0126215 0.00496384 -0.00324063 -0.0117973 -0.0204354 -0.0288896 -0.0369146 -0.0443214 -0.0509393 -0.0565454 -0.0608879 -0.0636782 -0.0647585 -0.0641791 -0.0622163 -0.0592039 -0.0554658 -0.0510989 -0.0460561 -0.0403125 -0.0338665 -0.0269597 -0.0199016 -0.0130576 -0.0066599 -0.000823145 0.00447766 0.00939898 0.0141054 0.0187119 0.0232754 0.0277794 0.0321571 0.0362445 0.0398033 0.0425724 0.0442655 0.0446779 0.0437203 0.0414994 0.0383155 0.034634 0.0309641 0.0277195 0.0251342 0.023192 0.0216179 0.0199977 0.0178346 0.014797 0.0107613 0.00598057 0.000950671 -0.00363802 -0.00714484 -0.00913443 -0.00956737 -0.00878131 -0.0073913 -0.00608145 -0.00530857 -0.00518157 -0.0053112 -0.00507594 -0.00396792 -0.00191578 0.000617972 0.00284086 0.0040666 0.00407054 0.00317093 0.00201765 0.0011966 0.00092786 0.00105015 0.0012378 0.00125234 0.00105925 0.000762092 0.000347501 0 0 
0 0 0.000165923 0.000381936 0.000539948 0.000817594 0.00115229 0.00136063 0.00126057 0.000856676 0.000445184 0.000513473 0.00143434 0.00315172 0.00507141 0.00628204 0.00599075 0.00392947 0.00054849 -0.00321332 -0.00632605 -0.00812736 -0.00854876 -0.00803339 -0.00727726 -0.00676237 -0.00663681 -0.00657074 -0.00602086 -0.00443835 -0.0015748 0.00244868 0.00719447 0.0120704 0.0165061 0.020123 0.0227789 0.0245947 0.0258892 0.0270038 0.0283003 0.0299581 0.0320421 0.034422 0.0368221 0.0388898 0.040274 0.0406381 0.0398146 0.037723 0.0344758 0.030232 0.0252499 0.0197194 0.0138106 0.00755269 0.000978907 -0.00585102 -0.0127568 -0.0194658 -0.0256012 -0.0308966 -0.0353162 -0.0390652 -0.0425421 -0.0460345 -0.0495777 -0.0528377 -0.0553012 -0.0564843 -0.0561598 -0.0543989 -0.0514144 -0.0474013 -0.0424911 -0.0367366 -0.0302553 -0.0232218 -0.0158766 -0.00843771 -0.00114531 0.00583108 0.0122777 0.0180217 0.0229027 0.0268268 0.0296906 0.0314883 0.0322521 0.0320915 0.0312129 0.0298425 0.0282168 0.0266032 0.0251585 0.0239963 0.0230946 0.0223878 0.0217608 0.0210764 0.0202511 0.0192928 0.0183297 0.0176085 0.0174213 0.0180378 0.0195566 0.021906 0.0247671 0.0277028 0.0302066 0.0318389 0.0323013 0.0314833 0.0294357 0.0262872 0.0221638 0.0171981 0.0114683 0.00509679 -0.00182328 -0.00908444 -0.0164655 -0.0237097 -0.030617 -0.0370033 -0.0427377 -0.0476438 -0.0515077 -0.0540914 -0.0553048 -0.0552234 -0.0541011 -0.0522495 -0.0499041 -0.0470822 -0.0436709 -0.0395413 -0.0346669 -0.0291485 -0.0232144 -0.0170934 -0.0109426 -0.00485069 0.0012466 0.00736351 0.0134868 0.0194911 0.0251981 0.0303324 0.0346668 0.0379584 0.0400907 0.0410008 0.0407611 0.0395119 0.0375252 0.0351186 0.0326372 0.0304088 0.0286214 0.0272458 0.0261003 0.0247858 0.0229149 0.0201227 0.0163035 0.0116343 0.00659382 0.00180888 -0.00208234 -0.00467147 -0.00586983 -0.00596924 -0.00552749 -0.0051311 -0.0052116 -0.00583272 -0.00670089 -0.0071995 -0.00672613 -0.00500206 -0.00226782 0.00073156 0.00310679 0.00419522 0.00394955 0.00286669 0.00169143 0.00100156 0.000933993 0.00123414 0.00150938 0.00151385 0.0012536 0.000895072 0.000589993 0.000248997 0 0 
0 0 0.000166282 0.000338874 0.000380849 0.000545765 0.000890115 0.00132762 0.00162908 0.0015573 0.00108039 0.000514647 0.000422765 0.00126961 0.00305591 0.0051527 0.00653272 0.00621095 0.00381963 -0.000141875 -0.00455755 -0.00810672 -0.00992419 -0.00981852 -0.00829036 -0.0062035 -0.00432177 -0.00309106 -0.0024317 -0.0019306 -0.00101561 0.000749824 0.00358338 0.00739821 0.0118503 0.0164489 0.0207072 0.024204 0.026766 0.0283797 0.0292651 0.0297284 0.0301073 0.0306804 0.0315927 0.0327674 0.0340299 0.0350627 0.0355175 0.0351075 0.0336157 0.0309662 0.0271583 0.0222879 0.0164441 0.00978435 0.0024124 -0.00543981 -0.0134751 -0.0212233 -0.0282385 -0.0340852 -0.0386285 -0.0419884 -0.0445034 -0.0465489 -0.0483033 -0.0496254 -0.0501956 -0.0496469 -0.04784 -0.0448497 -0.0409301 -0.0363272 -0.0311731 -0.0255776 -0.0195838 -0.0133621 -0.00708413 -0.000934227 0.00491757 0.0103293 0.0151558 0.0192555 0.0225022 0.0248239 0.0261611 0.0265271 0.0260133 0.024762 0.022984 0.0209239 0.0188359 0.0169167 0.0153209 0.0141135 0.0132871 0.0127366 0.0123286 0.0119101 0.0113551 0.0106274 0.00980234 0.00906435 0.00869718 0.00897731 0.0101197 0.0121751 0.014995 0.0182288 0.0214254 0.0240978 0.0258755 0.0265354 0.0260386 0.0244506 0.0218967 0.0185211 0.0144089 0.00965359 0.00432485 -0.00147024 -0.00755735 -0.0137641 -0.0198981 -0.0258213 -0.0314078 -0.0365107 -0.0409062 -0.0444158 -0.0469092 -0.048426 -0.0491309 -0.0491871 -0.0486676 -0.0474319 -0.0452931 -0.0420765 -0.0377025 -0.0322664 -0.0260123 -0.0191867 -0.0120791 -0.00484059 0.00234848 0.00935634 0.0159678 0.0219825 0.0270878 0.0310949 0.0338483 0.0353623 0.0357627 0.0353239 0.0343627 0.0332143 0.0321477 0.0312782 0.0306662 0.0301817 0.0295914 0.0285873 0.0268882 0.0242591 0.020689 0.0163127 0.0115506 0.00692836 0.00300118 0.000169812 -0.00144857 -0.0020916 -0.00224161 -0.00247679 -0.0032398 -0.00465459 -0.00639865 -0.00789639 -0.00843749 -0.00755048 -0.00524322 -0.00204384 0.00109855 0.00328749 0.00401346 0.00342241 0.0022062 0.00113928 0.000729432 0.000980596 0.00151349 0.00187371 0.00182488 0.00143974 0.000964235 0.000614454 0.000442019 0.000191303 0 0 
0 0 0.000195055 0.000366641 0.000355477 0.000372228 0.000538495 0.000927679 0.0014606 0.00188455 0.00190895 0.00144594 0.000784056 0.000498966 0.00111784 0.00270597 0.00469763 0.0060727 0.00580367 0.00349053 -0.000445614 -0.00490168 -0.00853873 -0.010411 -0.0102001 -0.00829356 -0.00547073 -0.00257181 -0.000243385 0.00127612 0.00214134 0.00275692 0.00363412 0.00522228 0.00779405 0.0113029 0.01548 0.0198399 0.0238924 0.0271934 0.0294899 0.030749 0.0311272 0.0309136 0.0304308 0.0299575 0.0295958 0.0293978 0.0292217 0.028889 0.0281543 0.0268034 0.0246303 0.0214916 0.017258 0.0118896 0.00541349 -0.00201113 -0.0100708 -0.0183065 -0.0261236 -0.0330032 -0.0385503 -0.0427155 -0.045652 -0.0476296 -0.0488738 -0.0493356 -0.0488152 -0.0470681 -0.0440072 -0.0397609 -0.0346254 -0.0289187 -0.0228622 -0.0166112 -0.010277 -0.00399402 0.00205927 0.00772605 0.0128727 0.0173912 0.0211645 0.0240994 0.0260933 0.0271223 0.0271945 0.0263587 0.0247431 0.0225442 0.0199904 0.0173202 0.0147842 0.0125539 0.0107556 0.00942681 0.0085387 0.00801223 0.00768702 0.00743198 0.00709534 0.00663411 0.00604225 0.00547656 0.00512917 0.00529045 0.00620943 0.008036 0.010751 0.0141373 0.0178303 0.0213391 0.0242496 0.0262358 0.0271335 0.0269199 0.0256589 0.0234955 0.0205093 0.0167858 0.0123553 0.00728632 0.00168494 -0.00429984 -0.0105208 -0.0168295 -0.0230758 -0.0290494 -0.0345073 -0.0392303 -0.0430407 -0.0459296 -0.0479226 -0.0490518 -0.0492456 -0.048319 -0.0460989 -0.0424386 -0.0373842 -0.0311593 -0.0240873 -0.0165949 -0.00903433 -0.00171883 0.00513137 0.0113216 0.0166972 0.0211288 0.0245297 0.0269274 0.0284018 0.0291613 0.0294619 0.0296088 0.0298244 0.0302576 0.0308234 0.0313762 0.0316023 0.0311756 0.0298132 0.0273886 0.0239566 0.0197843 0.0153105 0.0110065 0.00736821 0.00468511 0.00304991 0.00222952 0.00178555 0.00117713 -1.68064e-05 -0.00195956 -0.00443315 -0.00685598 -0.00852382 -0.00881328 -0.00745385 -0.00473952 -0.00141329 0.00150943 0.00323027 0.0034717 0.00257247 0.00133404 0.000517233 0.000489245 0.00110721 0.00186847 0.00228214 0.00214927 0.00161753 0.00100843 0.000583423 0.000415564 0.000404519 0.000203262 0 0 
0 0 0.000209406 0.000403855 0.00044225 0.000404068 0.000366093 0.000479136 0.000866099 0.00148561 0.00208421 0.00231955 0.0020167 0.00136019 0.00086127 0.00106021 0.00212852 0.00367064 0.00483026 0.00470548 0.00287477 -0.00041092 -0.00428802 -0.00763263 -0.00953942 -0.00957032 -0.00785741 -0.0049438 -0.00155447 0.00157993 0.00398087 0.00549024 0.00627758 0.00675552 0.00745089 0.00883004 0.0111361 0.0143281 0.0181265 0.0221059 0.02577 0.0287151 0.0306691 0.0315586 0.0314626 0.0305906 0.0291802 0.027462 0.0256456 0.0238395 0.022075 0.0202855 0.0183464 0.0160631 0.0132192 0.00958447 0.00500401 -0.000577293 -0.0070155 -0.01401 -0.0210865 -0.0277135 -0.0334724 -0.0380974 -0.0416158 -0.0441312 -0.0457737 -0.0465262 -0.0462066 -0.0445963 -0.0415933 -0.0372888 -0.0319689 -0.0259775 -0.0196046 -0.0130494 -0.00647586 -4.09993e-05 0.00607224 0.0116918 0.0166777 0.0209329 0.0243469 0.0268296 0.028327 0.0288173 0.0283584 0.0270431 0.0250348 0.0225329 0.0197938 0.0170459 0.0144912 0.0122853 0.0105325 0.00925463 0.00842647 0.00794913 0.00772064 0.00758595 0.00744367 0.00720496 0.00685128 0.00645122 0.00616095 0.00619592 0.00682993 0.00824172 0.0105196 0.0135654 0.0171033 0.0207394 0.0240473 0.0266399 0.0282374 0.0287096 0.0280812 0.0264147 0.0238335 0.0204191 0.0162216 0.011318 0.00578847 -0.000247108 -0.0066425 -0.0132249 -0.0197857 -0.0260639 -0.0317828 -0.0366945 -0.040642 -0.043578 -0.0454949 -0.0463731 -0.0461295 -0.0446191 -0.0417495 -0.0375193 -0.0321376 -0.0258999 -0.019259 -0.0126056 -0.00627845 -0.000506152 0.00459754 0.00896373 0.01264 0.0156872 0.0182286 0.0203893 0.0223133 0.0241205 0.0258961 0.0276678 0.0293591 0.0307954 0.0317212 0.031885 0.031035 0.0290803 0.02607 0.0222923 0.0181625 0.0142059 0.0108565 0.00840562 0.00690709 0.00614535 0.00568063 0.00499807 0.00367781 0.00152649 -0.00130628 -0.00435508 -0.00689948 -0.00829764 -0.00813333 -0.00640715 -0.00362719 -0.000630027 0.00167695 0.00271697 0.00246906 0.00143143 0.000401834 2.21596e-05 0.000472491 0.00143516 0.00233082 0.00268735 0.00239748 0.00170556 0.000996078 0.000542604 0.000391377 0.000418802 0.000460701 0.000249462 0 0 
0 0 0.000180332 0.000381497 0.000517758 0.000556676 0.00046703 0.000332156 0.000345216 0.000693256 0.00139684 0.00222314 0.00278383 0.00278091 0.00222966 0.00149992 0.00111264 0.00138035 0.00217471 0.00296126 0.00305027 0.00201368 -0.000143362 -0.00294959 -0.00564441 -0.00748566 -0.00794591 -0.00686511 -0.00445988 -0.00120639 0.00224432 0.00530823 0.00758002 0.00896892 0.00966037 0.0100595 0.0106458 0.0118092 0.0137354 0.0164138 0.0196183 0.0229828 0.0260837 0.0285293 0.0300323 0.030451 0.0297756 0.028122 0.0257085 0.0227853 0.0196227 0.0164007 0.0132395 0.0101601 0.00708343 0.00385448 0.000293106 -0.00374206 -0.00830678 -0.0132688 -0.0183984 -0.0233105 -0.0277004 -0.0313283 -0.0341621 -0.036263 -0.0377301 -0.0385327 -0.038541 -0.0375155 -0.0353063 -0.0319276 -0.0275618 -0.0225031 -0.0170032 -0.0112945 -0.00551438 0.000160328 0.00559109 0.0105899 0.0150153 0.0187445 0.0216952 0.0237772 0.0249357 0.0251766 0.0245551 0.0231953 0.0212738 0.0189709 0.0165274 0.0141383 0.0119679 0.0101379 0.00870078 0.00767847 0.00703555 0.00670457 0.00658812 0.00658231 0.00659061 0.00651837 0.00634014 0.00605741 0.00577745 0.00566615 0.00592223 0.0067654 0.00832403 0.0106132 0.0134812 0.0166536 0.0197594 0.0223845 0.0242245 0.0250592 0.0248246 0.0235621 0.0213722 0.0183628 0.0146321 0.0102722 0.00537183 2.48703e-05 -0.00561801 -0.0114185 -0.0171297 -0.0225287 -0.0273201 -0.0313234 -0.0344385 -0.0366547 -0.0380006 -0.0384733 -0.0380243 -0.0365409 -0.0340222 -0.0305293 -0.0262856 -0.0215951 -0.0168027 -0.0121408 -0.00780411 -0.00381537 -0.000163677 0.00325194 0.00654291 0.00981243 0.0131209 0.0164844 0.0198415 0.023058 0.0259671 0.0283385 0.0299508 0.0306167 0.0302145 0.0287553 0.0263539 0.0232764 0.0198793 0.0165853 0.0137621 0.0116623 0.0103147 0.00956245 0.00905132 0.00832465 0.00698549 0.00484944 0.00198279 -0.00122854 -0.00421161 -0.0063197 -0.00710491 -0.00642467 -0.00455112 -0.00211132 0.000121402 0.00148497 0.00171753 0.00105133 8.24147e-05 -0.000484717 -0.000239403 0.000755272 0.00201341 0.00291426 0.00307808 0.00253463 0.00165135 0.000869921 0.000452099 0.000387089 0.000486703 0.000556528 0.000508989 0.000265057 0 0 
0 0 0.000118037 0.000286073 0.000473782 0.000638548 0.000678679 0.000538833 0.000300518 0.000189994 0.000462889 0.00121761 0.00226742 0.00319153 0.0035625 0.00319633 0.00228349 0.00129474 0.000669011 0.000599583 0.00092328 0.00120815 0.00104126 0.000171944 -0.00134163 -0.00314945 -0.00475129 -0.0056039 -0.00532338 -0.00379428 -0.0011865 0.00206363 0.00540519 0.00831813 0.0104807 0.0118125 0.0124745 0.0128113 0.0132002 0.0139721 0.0153168 0.017264 0.0196425 0.0221664 0.0244628 0.0261864 0.0270477 0.0268475 0.0255644 0.0232523 0.0201128 0.0163798 0.0122924 0.00806014 0.00384301 -0.00029995 -0.00436275 -0.00837904 -0.0123556 -0.0162414 -0.0198972 -0.0231251 -0.0257165 -0.0275626 -0.0286788 -0.0291974 -0.0292648 -0.0289667 -0.0282372 -0.0269361 -0.0249012 -0.0221066 -0.0186323 -0.0146971 -0.0104926 -0.00618779 -0.00190545 0.00225533 0.00616039 0.00971003 0.0127667 0.0152343 0.0170425 0.0181252 0.018461 0.0180545 0.0169897 0.0153908 0.0134168 0.0112495 0.0090538 0.00699075 0.00517393 0.00368037 0.00253444 0.00174002 0.00124692 0.00101815 0.000965011 0.00102967 0.00112154 0.00117734 0.00113617 0.000997935 0.000793278 0.000638449 0.000673186 0.00109836 0.0020693 0.00367956 0.00590161 0.0085814 0.0114359 0.014133 0.0163398 0.0178027 0.0183845 0.0180664 0.0169058 0.0150091 0.0124941 0.00946458 0.00599121 0.00216026 -0.00196363 -0.00625064 -0.0105499 -0.0146492 -0.0183501 -0.0215331 -0.024156 -0.0262582 -0.0278592 -0.0289669 -0.0294686 -0.0292773 -0.0283227 -0.026628 -0.0243159 -0.0215703 -0.0185444 -0.0153524 -0.0120233 -0.00852357 -0.00481243 -0.00084584 0.00336669 0.00775547 0.0121848 0.0164537 0.0203111 0.0235097 0.0258246 0.0270805 0.0272446 0.0263508 0.0246204 0.0223414 0.0198534 0.0174998 0.015541 0.0141268 0.0132274 0.012666 0.0121374 0.0113119 0.00987754 0.00769848 0.00485586 0.00166327 -0.00139855 -0.00378938 -0.00508625 -0.0051173 -0.00405323 -0.00232161 -0.000565113 0.000656215 0.000980094 0.0004712 -0.000443446 -0.0011504 -0.0011191 -0.000205821 0.00126674 0.00269736 0.00348109 0.00336555 0.00253883 0.00147731 0.000662302 0.000322097 0.000380174 0.000584418 0.000701721 0.000643105 0.000459801 0.000215722 0 0 
0 0 6.07417e-05 0.00016881 0.000313661 0.000532486 0.000747245 0.000823372 0.000668273 0.000342062 8.82756e-05 0.000223946 0.00093802 0.00211995 0.00335362 0.00411294 0.00402712 0.00309952 0.00169285 0.000323836 -0.000546325 -0.000748749 -0.000437525 3.55188e-05 0.000256298 -3.96969e-05 -0.000864329 -0.0019798 -0.00293513 -0.00326695 -0.00262788 -0.000917844 0.00168844 0.00479924 0.00792849 0.0106425 0.0126605 0.013899 0.0144791 0.0146517 0.0147191 0.0149687 0.0155854 0.0166102 0.01795 0.0193959 0.0206888 0.0215173 0.021634 0.0208732 0.0191466 0.0165078 0.0130641 0.00898987 0.00449167 -0.000232471 -0.00501122 -0.00970424 -0.0141737 -0.0182671 -0.0218019 -0.0245783 -0.0264308 -0.0272689 -0.0271434 -0.0262288 -0.0247417 -0.0228864 -0.0207367 -0.0182815 -0.0154583 -0.0122609 -0.0087629 -0.00512194 -0.0015175 0.00193145 0.0051305 0.00803196 0.0105612 0.0126468 0.0142257 0.0152307 0.0156346 0.0154216 0.0146105 0.0132453 0.0114279 0.00928485 0.00697234 0.00463349 0.00239324 0.000362754 -0.00138534 -0.0028086 -0.00391477 -0.00470468 -0.00522521 -0.00551087 -0.00560651 -0.0055678 -0.00545161 -0.00531014 -0.00519438 -0.00513102 -0.00511681 -0.00509501 -0.00496938 -0.00459321 -0.00381563 -0.00250248 -0.000600092 0.00184828 0.00467138 0.00762714 0.01041 0.0127543 0.0144658 0.0154297 0.0156434 0.0151632 0.0140854 0.0124852 0.0104341 0.00796241 0.00510321 0.00191776 -0.00150385 -0.0050014 -0.00844832 -0.0117473 -0.0148596 -0.0177846 -0.0204978 -0.0229045 -0.0248342 -0.0261273 -0.0266298 -0.0262896 -0.0251353 -0.0232399 -0.0206987 -0.0175847 -0.0139535 -0.0098601 -0.00539847 -0.000686917 0.00409978 0.0087345 0.0129692 0.0165641 0.0193132 0.0211014 0.0218853 0.0217584 0.0209005 0.0195717 0.0181068 0.0167687 0.0157676 0.0151716 0.0149188 0.0147971 0.0145162 0.0137783 0.0123634 0.0101968 0.00739333 0.00426233 0.00123343 -0.00122865 -0.0027667 -0.00322018 -0.00269779 -0.00155525 -0.000302096 0.000570731 0.000758084 0.00022751 -0.000733424 -0.00159818 -0.00185758 -0.00121313 0.000219561 0.00193619 0.00329813 0.00381127 0.00337357 0.00231746 0.00118383 0.000437465 0.000237879 0.000431057 0.000717448 0.000854142 0.000771846 0.000551059 0.000316044 0.00012644 0 0 
0 0 3.9135e-05 9.60323e-05 0.00014188 0.000296967 0.000568942 0.000863731 0.00101367 0.000880428 0.000486465 7.09947e-05 -2.22199e-06 0.000552808 0.0017299 0.00316793 0.00429337 0.00459147 0.00387321 0.00234503 0.000524117 -0.000982031 -0.00174661 -0.00166615 -0.000957298 -5.59067e-05 0.000603237 0.000746745 0.000370627 -0.000281721 -0.000810712 -0.000810711 -6.44473e-06 0.00165467 0.00402565 0.00677674 0.00953113 0.0119345 0.0137428 0.0148586 0.0153237 0.0152906 0.0149922 0.014645 0.0144202 0.0143957 0.0145754 0.0148497 0.0150339 0.014932 0.0143456 0.0131277 0.0112054 0.00856006 0.00525937 0.00141118 -0.00282462 -0.00727564 -0.011743 -0.0160035 -0.0198087 -0.0228923 -0.0250236 -0.0260558 -0.0259617 -0.0248577 -0.0229443 -0.020446 -0.0175352 -0.0142954 -0.0107637 -0.00699079 -0.00308496 0.000809363 0.00450586 0.0078738 0.0108218 0.013298 0.0152628 0.0166685 0.017478 0.0176679 0.0172436 0.0162381 0.0147083 0.0127424 0.0104592 0.00798582 0.00546444 0.00301609 0.000731446 -0.00131276 -0.00307843 -0.00453923 -0.00570542 -0.00659619 -0.00723292 -0.00763938 -0.00784815 -0.00788071 -0.00778155 -0.00758769 -0.00734061 -0.00706724 -0.00678991 -0.00649359 -0.00613034 -0.00560596 -0.00480158 -0.00358951 -0.00187772 0.000365334 0.00306301 0.00605929 0.00911319 0.0119677 0.0143906 0.0161957 0.0173158 0.0177254 0.0174693 0.0166097 0.0151928 0.013249 0.0108042 0.00788545 0.00457711 0.000992018 -0.0027536 -0.00654704 -0.0103123 -0.0139692 -0.0174079 -0.0204589 -0.022922 -0.0246023 -0.0253474 -0.025102 -0.0238882 -0.021797 -0.0189526 -0.0154994 -0.011592 -0.00740397 -0.00311586 0.00107266 0.00496576 0.00836189 0.0111277 0.0131647 0.0144764 0.0151267 0.0152636 0.0150837 0.0147889 0.0145789 0.014579 0.0147977 0.0151565 0.01547 0.0155011 0.0149956 0.0137909 0.0118479 0.00929488 0.00641159 0.00359139 0.00122912 -0.000348982 -0.00102012 -0.00086757 -0.000183709 0.000614952 0.00111654 0.0010474 0.00037277 -0.000681777 -0.00170092 -0.00220522 -0.00187248 -0.000678621 0.0010438 0.0027064 0.00373191 0.00380828 0.00302182 0.00181836 0.000753526 0.000211695 0.000240606 0.000593975 0.000935024 0.00103669 0.000876771 0.000586535 0.000322542 0.000163846 5.46365e-05 0 0 
0 0 5.13162e-05 9.08268e-05 6.31987e-05 9.81339e-05 0.000270325 0.000593156 0.000970253 0.00121042 0.00113133 0.000708061 0.000152475 -0.000148966 0.00016941 0.00121043 0.00270563 0.00409528 0.00478621 0.00442525 0.0030575 0.00111485 -0.000767437 -0.00201856 -0.00233394 -0.00175449 -0.000608893 0.000639683 0.00159341 0.00203637 0.00197855 0.00164002 0.00135251 0.00143434 0.00210724 0.00344988 0.00536233 0.00762808 0.00995109 0.0120367 0.013645 0.0146187 0.0149264 0.0146404 0.0139114 0.0129122 0.0118196 0.0107706 0.00982128 0.0089609 0.00811856 0.0071869 0.00605789 0.00462694 0.00281946 0.000607319 -0.00200091 -0.0049437 -0.00811905 -0.0113728 -0.0145041 -0.0172758 -0.0194351 -0.0207861 -0.0212116 -0.0207209 -0.0194183 -0.0174582 -0.0149919 -0.0121287 -0.00893179 -0.00546193 -0.00182546 0.00183892 0.00536188 0.00859238 0.0114281 0.0137933 0.0156397 0.0169226 0.0176102 0.0176885 0.0171776 0.0161291 0.0146267 0.0127691 0.0106741 0.00846115 0.00624329 0.00411433 0.00214565 0.000377864 -0.00116443 -0.00247236 -0.00354887 -0.0044037 -0.00504594 -0.00549167 -0.00574856 -0.0058371 -0.00576962 -0.00556998 -0.00526327 -0.00488674 -0.00446352 -0.00401608 -0.00353091 -0.00296617 -0.002245 -0.00126574 6.63728e-05 0.0018122 0.00397327 0.00646247 0.00912229 0.0117356 0.0140777 0.0159476 0.017212 0.0177962 0.0177022 0.0169649 0.0156385 0.0137761 0.0114203 0.00862132 0.00546477 0.00205154 -0.00150511 -0.00509248 -0.00861016 -0.0119405 -0.0149406 -0.0174495 -0.0193026 -0.0203635 -0.0205622 -0.0199119 -0.0184883 -0.016425 -0.0138775 -0.01102 -0.0080164 -0.00502619 -0.00218689 0.000392083 0.00262787 0.00449233 0.00599992 0.00720757 0.00821191 0.00911605 0.0100195 0.0109857 0.0120258 0.0130952 0.0140703 0.0147866 0.0150725 0.0147717 0.0137967 0.01216 0.0100071 0.00758093 0.00519952 0.00318772 0.00179436 0.00113225 0.00112476 0.00152482 0.00199337 0.0021775 0.00184337 0.000963374 -0.000262005 -0.00147456 -0.00224015 -0.00222421 -0.00132677 0.000240876 0.00200121 0.00337296 0.00391198 0.00350702 0.00242334 0.00117916 0.000292891 3.3875e-05 0.00032458 0.000834729 0.00120628 0.00124359 0.000978369 0.000592825 0.000274873 0.000115673 8.90613e-05 3.70141e-05 0 0 
0 0 6.95866e-05 0.000120066 9.30081e-05 5.16649e-05 6.72742e-05 0.000227037 0.000565628 0.0010014 0.00133766 0.00136095 0.000993826 0.000392521 -7.78488e-05 -2.26637e-05 0.000749612 0.00208708 0.00351916 0.00446691 0.00449524 0.00351079 0.00179851 -9.44427e-05 -0.00159124 -0.00228384 -0.00205045 -0.00105213 0.000345262 0.00174656 0.00281546 0.00338122 0.00346015 0.00323308 0.00295818 0.00291682 0.00332334 0.00427286 0.00572531 0.00751678 0.00940663 0.0111222 0.0124119 0.0131057 0.0131252 0.0124947 0.0113154 0.00974824 0.007962 0.00611417 0.00431842 0.0026437 0.00111364 -0.00028074 -0.00158773 -0.00285968 -0.0041565 -0.00552182 -0.00698059 -0.00851365 -0.0100588 -0.0115038 -0.012701 -0.013496 -0.0137751 -0.0134891 -0.012673 -0.0114078 -0.0097828 -0.00787409 -0.00572138 -0.00335472 -0.000822851 0.00178051 0.00434371 0.00673981 0.00886883 0.0106566 0.0120511 0.0130048 0.0134907 0.0134978 0.013047 0.0121902 0.0110059 0.0095834 0.00801591 0.00639281 0.00479178 0.0032708 0.00187364 0.000620788 -0.00047818 -0.00142736 -0.00222341 -0.00287318 -0.00337668 -0.00374201 -0.00396592 -0.00405511 -0.00400902 -0.00383731 -0.00355731 -0.00320208 -0.00279886 -0.00238015 -0.00195501 -0.00152084 -0.00103452 -0.00042958 0.000374193 0.00144931 0.002838 0.00451843 0.0064161 0.00838298 0.0102423 0.0118226 0.012965 0.0135756 0.0136201 0.013114 0.0121148 0.0106835 0.00888152 0.00677979 0.00445984 0.0019933 -0.000537383 -0.00306286 -0.00550501 -0.00777393 -0.00976704 -0.0113717 -0.0124953 -0.0130858 -0.0131481 -0.0127387 -0.0119469 -0.0108738 -0.00962421 -0.00828158 -0.00691264 -0.00556147 -0.00424856 -0.00296427 -0.00168271 -0.000350833 0.00107848 0.00265057 0.0043744 0.00622309 0.0081161 0.00992766 0.0114991 0.0126663 0.0132767 0.0132385 0.0125345 0.0112404 0.00951927 0.00760827 0.00577326 0.00425433 0.00322959 0.00275785 0.00276558 0.0030506 0.00333202 0.00333676 0.00287136 0.00189966 0.000576458 -0.000783816 -0.00179927 -0.00213781 -0.00164505 -0.000417767 0.00120015 0.00270608 0.00361706 0.00366476 0.002911 0.001726 0.000621242 1.71863e-05 5.01688e-05 0.000540357 0.00111928 0.00144884 0.0013889 0.00102466 0.00057078 0.000222367 6.08456e-05 5.23401e-05 0.000104114 6.16053e-05 0 0 
0 0 6.83241e-05 0.000132153 0.000158646 0.000130303 6.19575e-05 2.8348e-05 0.000135795 0.000449626 0.000920301 0.00136678 0.00155857 0.00135657 0.000830499 0.00027084 4.86866e-05 0.000422711 0.00137791 0.00260374 0.00362676 0.00401738 0.00357149 0.00239645 0.000852732 -0.000591539 -0.00153206 -0.00173135 -0.00117984 -6.1233e-05 0.0013274 0.00265847 0.00367162 0.00423054 0.00434436 0.00414447 0.00384785 0.003685 0.00383907 0.00440131 0.00535132 0.00657108 0.00786553 0.00901257 0.00980681 0.0100917 0.00978656 0.00889452 0.00748367 0.00567627 0.00362139 0.00147391 -0.000626047 -0.00255758 -0.00423903 -0.00562662 -0.00671459 -0.00752493 -0.00810177 -0.00848754 -0.00871664 -0.008791 -0.00868836 -0.00836401 -0.00777829 -0.00692033 -0.00582023 -0.00454803 -0.00317726 -0.00176544 -0.00033747 0.00109979 0.00254735 0.00397454 0.00533183 0.00655255 0.00757071 0.00834029 0.00882435 0.00900373 0.00886574 0.00841922 0.00769344 0.00673632 0.00561385 0.00439667 0.0031482 0.00192637 0.000769842 -0.000291754 -0.00124665 -0.00208936 -0.00282486 -0.00346298 -0.00400335 -0.00445303 -0.00481287 -0.00508123 -0.00525549 -0.00532659 -0.00529454 -0.00516167 -0.00494283 -0.00465278 -0.00432187 -0.00397673 -0.0036408 -0.00332242 -0.0030057 -0.00265431 -0.00220477 -0.00159105 -0.000753887 0.000337429 0.00166211 0.00315703 0.00470963 0.00618818 0.00745323 0.00839841 0.00896322 0.00913362 0.00893478 0.00840842 0.00761138 0.00660858 0.00544567 0.00416122 0.00277852 0.00131663 -0.00019492 -0.00171088 -0.00316396 -0.00448309 -0.00560996 -0.00652181 -0.00722451 -0.00774667 -0.00811293 -0.00834121 -0.00842631 -0.00834092 -0.008055 -0.00753173 -0.0067376 -0.00564662 -0.00425295 -0.00256661 -0.000629897 0.00148136 0.00365379 0.00574444 0.00758856 0.00902935 0.00993898 0.0102452 0.00994882 0.00913598 0.00796977 0.00665834 0.00542258 0.00445377 0.00386545 0.00367786 0.00380511 0.00407242 0.00425888 0.00415419 0.00362657 0.00266444 0.00139615 7.12177e-05 -0.000999141 -0.00153896 -0.00138702 -0.00056861 0.000687993 0.0020134 0.00299565 0.003331 0.00294517 0.00203536 0.000991484 0.00023241 1.97744e-05 0.000342673 0.000942763 0.00146531 0.00164308 0.00142353 0.000954438 0.00046839 0.000143504 2.67243e-05 5.28543e-05 0.000118277 0.000149688 8.65892e-05 0 0 
0 0 4.45832e-05 0.000103456 0.000176875 0.000212583 0.000173894 6.9096e-05 -2.5345e-05 1.29735e-05 0.000281729 0.000770195 0.00132485 0.00170701 0.00171837 0.00133512 0.000748178 0.000280273 0.000231947 0.000718724 0.00160609 0.00256969 0.00323324 0.00332674 0.00278948 0.00177472 0.000584444 -0.000444094 -0.00102765 -0.00101741 -0.000417394 0.000626687 0.00187861 0.00308075 0.00401657 0.0045598 0.00469493 0.00450939 0.00415747 0.00381474 0.00363098 0.00369651 0.0040253 0.00455611 0.00517154 0.00572341 0.0060562 0.00604994 0.00562601 0.00476006 0.00348411 0.0018764 5.34438e-05 -0.00185155 -0.00369815 -0.00535979 -0.0067388 -0.007769 -0.00842258 -0.00869957 -0.00862094 -0.00821477 -0.00750288 -0.00650681 -0.00524819 -0.00376913 -0.0021346 -0.000432869 0.00123646 0.00279619 0.00419538 0.00542003 0.00646941 0.00734523 0.00802952 0.00849924 0.00872672 0.00869485 0.00839857 0.00784775 0.00706152 0.00607269 0.00492454 0.00367211 0.00237223 0.00108231 -0.000152816 -0.00129953 -0.00233902 -0.00326435 -0.00407645 -0.0047867 -0.00540337 -0.0059375 -0.00639833 -0.00678861 -0.00710745 -0.00735094 -0.00751361 -0.00759237 -0.00758015 -0.00748117 -0.007297 -0.00704193 -0.00673357 -0.0063941 -0.0060453 -0.00570046 -0.00535819 -0.00500274 -0.00459336 -0.0040793 -0.00340171 -0.00251396 -0.00139611 -5.90926e-05 0.00143944 0.00300645 0.00453409 0.0059169 0.00707071 0.00794322 0.0085135 0.00878938 0.00879808 0.008574 0.00813456 0.00749212 0.00663817 0.00556719 0.00428676 0.00283296 0.00126653 -0.000338779 -0.00191695 -0.00341589 -0.00480049 -0.00603706 -0.00708744 -0.00790579 -0.00842996 -0.00860378 -0.00838461 -0.0077511 -0.00671592 -0.00532336 -0.00365358 -0.00180928 8.55979e-05 0.001901 0.00351095 0.0048005 0.00568869 0.00613918 0.00616768 0.00584717 0.00529543 0.00466844 0.00411704 0.00376377 0.00367377 0.00383658 0.00416269 0.00450443 0.00468562 0.00455258 0.00401637 0.00309268 0.00190739 0.00067732 -0.000339932 -0.00091278 -0.000906684 -0.000334985 0.000629509 0.00170264 0.0025646 0.00294573 0.00273756 0.00203476 0.00111903 0.000348427 1.12418e-05 0.000200133 0.000770524 0.00141202 0.00180804 0.00178375 0.00137969 0.000804871 0.0003029 2.65635e-05 -1.68187e-05 7.22071e-05 0.000169623 0.000199839 0.000158309 8.10045e-05 0 0 
0 0 1.50467e-05 5.08608e-05 0.00012434 0.000204891 0.000248029 0.000210317 9.01932e-05 -4.30772e-05 -6.44008e-05 0.000141829 0.000597525 0.00118648 0.00168672 0.00187873 0.00167261 0.00116537 0.000607132 0.000285966 0.000387412 0.000911049 0.00167676 0.0024004 0.00281781 0.00277225 0.00226462 0.00143796 0.000525412 -0.000219566 -0.000589649 -0.00047728 0.000105076 0.00103573 0.00212191 0.00314834 0.0039309 0.00435638 0.00439686 0.00410691 0.00359975 0.00301519 0.00248417 0.0021033 0.00191601 0.00191382 0.00203533 0.00218547 0.00226175 0.00216591 0.00182899 0.0012147 0.000332337 -0.000769802 -0.00201113 -0.00329099 -0.00450297 -0.00554959 -0.00635035 -0.00685192 -0.00701903 -0.00684179 -0.00631739 -0.00545742 -0.0042845 -0.00284139 -0.00119657 0.000559763 0.00232456 0.00400158 0.00551666 0.00682459 0.00790384 0.00874405 0.00933233 0.00965207 0.00969049 0.00944295 0.00892219 0.00815243 0.00717251 0.00602886 0.00477392 0.00346276 0.00214592 0.000870404 -0.000329594 -0.00143123 -0.00242432 -0.00330791 -0.00408968 -0.00477933 -0.00538732 -0.00592136 -0.0063888 -0.00679023 -0.00712316 -0.00738134 -0.00756029 -0.00765575 -0.00766493 -0.00758585 -0.00742072 -0.00717695 -0.00686606 -0.00650208 -0.00610097 -0.00567693 -0.00523826 -0.00478156 -0.00429163 -0.00373537 -0.00307209 -0.00225822 -0.00125998 -6.79437e-05 0.00129413 0.00277191 0.00428733 0.00574995 0.00706842 0.00816921 0.00899849 0.00953442 0.00977692 0.0097357 0.00942623 0.00885267 0.00801505 0.00691497 0.00557391 0.00403828 0.00237847 0.000675184 -0.000992668 -0.00255471 -0.00395093 -0.00512779 -0.00603878 -0.00663937 -0.00689232 -0.00678196 -0.00631063 -0.00551335 -0.00445391 -0.00322603 -0.00193677 -0.000696877 0.00039429 0.0012629 0.00186604 0.00219893 0.00230008 0.00223712 0.00210445 0.00199873 0.0020094 0.00219403 0.00256043 0.00306851 0.003627 0.004112 0.00438907 0.00434922 0.00393616 0.00317449 0.00217031 0.0011032 0.000183974 -0.000393048 -0.000504547 -0.000137968 0.000593017 0.00147309 0.00223204 0.00264384 0.00258044 0.00206785 0.00128987 0.000528098 6.55032e-05 6.33364e-05 0.000493628 0.00114456 0.0017135 0.00194698 0.00175551 0.00124109 0.000633831 0.000162606 -5.34744e-05 -3.68297e-05 9.51825e-05 0.000214878 0.000250154 0.000200726 0.000111363 4.71399e-05 0 0 
0 0 -2.68782e-06 7.46924e-06 4.17255e-05 0.000112786 0.000205335 0.000275061 0.000270417 0.000172085 2.5738e-05 -6.10988e-05 3.08911e-05 0.000360204 0.000871925 0.00140229 0.00175386 0.00179418 0.00152286 0.00107712 0.000669011 0.000486949 0.000620111 0.00102465 0.00155229 0.00201567 0.00225071 0.0021716 0.00179106 0.00121042 0.000589455 0.000100626 -0.000118345 5.31709e-07 0.000441988 0.00111566 0.0018799 0.00258088 0.00308655 0.00331053 0.00322757 0.00286806 0.00230812 0.0016443 0.000976658 0.000386456 -7.26089e-05 -0.000386407 -0.000572111 -0.000671623 -0.000740367 -0.000832268 -0.000993878 -0.00124793 -0.00159733 -0.00202196 -0.00248437 -0.00293825 -0.0033319 -0.00361969 -0.00375974 -0.00372081 -0.00347919 -0.00301759 -0.00233086 -0.00142789 -0.000339783 0.000880024 0.00216364 0.00343553 0.00463078 0.00569891 0.00660686 0.00733234 0.00785725 0.00816321 0.0082366 0.00807375 0.00768443 0.0070918 0.00633123 0.00544389 0.00447467 0.00346693 0.00245948 0.00148425 0.000565057 -0.000283295 -0.00105541 -0.00175199 -0.00237952 -0.00294395 -0.00345241 -0.00390801 -0.00431211 -0.00466331 -0.00495875 -0.00519247 -0.00535859 -0.00545127 -0.00546947 -0.00541028 -0.00527667 -0.00507087 -0.00480028 -0.00447402 -0.00410339 -0.00370079 -0.00327904 -0.00284304 -0.00239195 -0.0019118 -0.0013805 -0.000768882 -4.86155e-05 0.000796742 0.00176706 0.00283997 0.00396809 0.0050885 0.0061276 0.0070152 0.00769446 0.0081302 0.00831194 0.00824262 0.00793677 0.00740845 0.00667217 0.00574833 0.00466823 0.00347877 0.00223747 0.00100458 -0.000161549 -0.00121076 -0.00210257 -0.00280831 -0.0033097 -0.00359759 -0.00367636 -0.00356301 -0.00328579 -0.00288857 -0.00242319 -0.0019486 -0.00151594 -0.00116534 -0.000916799 -0.000766261 -0.000687418 -0.000630613 -0.000538078 -0.000352344 -3.13264e-05 0.000438336 0.0010378 0.00170829 0.00236558 0.0029104 0.00324973 0.003314 0.00307945 0.00257631 0.00189124 0.00115186 0.000505406 8.54359e-05 -2.25641e-05 0.000195837 0.000673005 0.00127194 0.00181951 0.00215388 0.00217166 0.00186617 0.00133437 0.000757897 0.000337995 0.000229386 0.00046897 0.000952355 0.00147195 0.00180186 0.00179696 0.00145811 0.000924159 0.000400052 5.59531e-05 -4.88314e-05 2.92432e-05 0.000171451 0.000269843 0.000277122 0.000210192 0.000117626 4.16356e-05 9.88302e-06 0 0 
0 0 -4.43465e-06 -8.39209e-06 -1.56702e-05 1.16466e-05 9.04745e-05 0.000209503 0.00032256 0.000365111 0.000293087 0.000123559 -5.36107e-05 -0.000109004 6.14587e-05 0.00047082 0.00101874 0.00153059 0.00183344 0.00183295 0.0015537 0.0011238 0.000717814 0.00048815 0.000508066 0.000759163 0.00114546 0.00153068 0.00178412 0.00182089 0.0016218 0.00123818 0.000771424 0.000343979 6.34958e-05 -2.84279e-06 0.000156842 0.000498472 0.000939889 0.00137821 0.00171452 0.00187232 0.00180944 0.00152244 0.00104206 0.000424886 -0.00025844 -0.000935274 -0.00154369 -0.00203723 -0.00239084 -0.00259677 -0.00266476 -0.00261549 -0.00247354 -0.00226472 -0.0020107 -0.00172977 -0.00143394 -0.0011296 -0.000818662 -0.000497069 -0.000158737 0.000209023 0.000619266 0.00108394 0.00160575 0.00217585 0.00277124 0.00336145 0.00391272 0.00439879 0.00479827 0.00509782 0.00528639 0.00535396 0.00529157 0.0050969 0.00477629 0.00434613 0.00382868 0.00325095 0.00263966 0.00202119 0.00141759 0.000843519 0.000309711 -0.000180537 -0.000626545 -0.00103215 -0.00140099 -0.00173864 -0.00204842 -0.00233166 -0.00258758 -0.00281444 -0.00300753 -0.0031636 -0.00327643 -0.00334219 -0.00335719 -0.0033218 -0.00323538 -0.00310074 -0.00292038 -0.00270095 -0.00244983 -0.00217738 -0.00189332 -0.00160642 -0.00132009 -0.00103278 -0.000734872 -0.000410142 -3.77646e-05 0.000400822 0.000920045 0.00151953 0.00218352 0.00288024 0.00356569 0.00419092 0.00471238 0.0050982 0.00533195 0.00541208 0.00534598 0.00514756 0.00483299 0.00442292 0.00393967 0.00340876 0.00285297 0.00229514 0.00175268 0.00123977 0.000763984 0.000328543 -6.83749e-05 -0.000430868 -0.000767155 -0.00108291 -0.00138412 -0.00167267 -0.00194559 -0.00219308 -0.00239752 -0.00253821 -0.00258938 -0.00252693 -0.00233006 -0.00198778 -0.00150476 -0.000903438 -0.00022917 0.000456321 0.0010777 0.00156107 0.0018471 0.00190359 0.00173534 0.00138806 0.000943793 0.000504901 0.000175631 3.53155e-05 0.000123383 0.000421392 0.000858136 0.00132252 0.00169116 0.00186249 0.00178672 0.001484 0.00104828 0.00061316 0.000323426 0.000284503 0.000521094 0.000958831 0.00143761 0.00177106 0.00181997 0.00155197 0.00105841 0.000514707 9.99062e-05 -8.0954e-05 -3.69858e-05 0.000130245 0.000292647 0.000361017 0.00031826 0.000207965 9.36522e-05 1.94663e-05 -6.82351e-06 -9.48475e-06 0 0 
0 0 1.75057e-06 -2.43884e-06 -2.48416e-05 -3.29693e-05 -4.69736e-07 8.90165e-05 0.000223012 0.000352448 0.000408056 0.000339349 0.000155848 -5.92972e-05 -0.000176941 -8.20845e-05 0.00026158 0.000783271 0.00132865 0.00172247 0.00184121 0.00166173 0.00126485 0.000800926 0.000429793 0.000265419 0.000346841 0.000631911 0.00101631 0.00137041 0.00157942 0.00157328 0.00134351 0.000940366 0.000456247 -2.72818e-06 -0.00034256 -0.000503736 -0.000472393 -0.000277536 1.53361e-05 0.000323987 0.000563705 0.000666167 0.000588032 0.000318396 -0.000122513 -0.000687953 -0.00131341 -0.00192826 -0.00246505 -0.00286879 -0.00310021 -0.00314082 -0.00298939 -0.00266156 -0.0021849 -0.00159466 -0.000930938 -0.000233396 0.000460388 0.0011202 0.00172283 0.00225384 0.0027091 0.00309247 0.00341197 0.00367489 0.00388288 0.00403341 0.00412001 0.00413646 0.00408034 0.00395258 0.00375741 0.00349866 0.00318088 0.0028093 0.0023941 0.00194891 0.0014892 0.00103104 0.000589137 0.000175151 -0.000202285 -0.000539969 -0.000838273 -0.00110069 -0.00133208 -0.00153745 -0.00172183 -0.00188933 -0.00204318 -0.00218537 -0.00231568 -0.00243274 -0.00253404 -0.00261655 -0.00267748 -0.00271413 -0.00272425 -0.00270678 -0.0026617 -0.00258978 -0.00249211 -0.00237144 -0.00223254 -0.00208095 -0.00192275 -0.0017643 -0.00161004 -0.00146215 -0.00131717 -0.00116565 -0.000993806 -0.000783159 -0.000516451 -0.000181426 0.000226477 0.000698391 0.00121534 0.00174937 0.00227104 0.00275321 0.00317412 0.0035211 0.00378952 0.00397947 0.00409701 0.00414918 0.00414298 0.00408042 0.00396014 0.00377718 0.0035256 0.00319998 0.00279672 0.00231639 0.001764 0.00114985 0.000489049 -0.000197507 -0.000884036 -0.00153762 -0.00212114 -0.00259467 -0.00292178 -0.00307386 -0.00303469 -0.00280597 -0.00240758 -0.00187833 -0.0012722 -0.000655331 -9.68619e-05 0.000339991 0.000608033 0.00068626 0.000584201 0.000343551 3.27585e-05 -0.000262229 -0.000456746 -0.000483822 -0.000313945 3.80071e-05 0.000509596 0.00100387 0.00141107 0.00163603 0.00162662 0.001391 0.00100026 0.000572576 0.000248253 0.000134693 0.000280328 0.00065121 0.00113372 0.00156377 0.00178318 0.00170252 0.00133844 0.000810879 0.000295701 -4.98561e-05 -0.000151528 -4.2268e-05 0.000165103 0.000342412 0.000406839 0.000348798 0.000218652 8.58023e-05 -4.82727e-07 -2.81023e-05 -1.6033e-05 -8.30412e-06 0 0 
0 0 6.28195e-06 8.55446e-06 -2.42899e-06 -1.62012e-05 -1.91875e-05 7.04005e-06 7.45352e-05 0.000175629 0.000277857 0.000334778 0.000311151 0.000208903 7.68439e-05 -4.49726e-06 4.07132e-05 0.000244556 0.00057549 0.000947252 0.0012523 0.00140403 0.00136811 0.00117195 0.000890791 0.000617202 0.000431194 0.000376623 0.000451197 0.000611773 0.000791254 0.000919271 0.000942062 0.000835384 0.000608723 0.000299827 -3.73031e-05 -0.000346282 -0.000582318 -0.000720121 -0.000758087 -0.000716416 -0.000630778 -0.000544185 -0.00049774 -0.000523219 -0.000637262 -0.000839393 -0.00111202 -0.00142445 -0.00173769 -0.00201093 -0.00220619 -0.00229315 -0.00225173 -0.00207304 -0.00175972 -0.00132415 -0.000787577 -0.000177585 0.000474109 0.00113503 0.0017747 0.00236663 0.00289132 0.00333675 0.00369817 0.00397457 0.00416623 0.00427187 0.00428932 0.00421619 0.00405351 0.00380637 0.00348457 0.00310076 0.00266892 0.00220306 0.0017178 0.001228 0.000748395 0.000291795 -0.00013156 -0.000515257 -0.000856178 -0.00115424 -0.00141254 -0.00163536 -0.00182799 -0.00199541 -0.00214225 -0.00227199 -0.00238752 -0.00249086 -0.00258285 -0.00266322 -0.00273162 -0.00278663 -0.00282746 -0.00285274 -0.0028614 -0.00285221 -0.00282488 -0.00277902 -0.00271506 -0.0026335 -0.00253603 -0.00242451 -0.002302 -0.00217181 -0.00203743 -0.00190081 -0.00176126 -0.00161448 -0.001452 -0.00126121 -0.00102832 -0.00074013 -0.000387815 2.99837e-05 0.000506357 0.00102621 0.0015685 0.00210869 0.00262215 0.00308734 0.00348786 0.0038133 0.00405946 0.00422534 0.00431089 0.00431376 0.00422978 0.00405302 0.00377924 0.00340743 0.00294293 0.00239785 0.001791 0.00114569 0.000488607 -0.000152511 -0.000749425 -0.0012745 -0.00170249 -0.00201239 -0.00219095 -0.00223407 -0.00214974 -0.00195788 -0.00168895 -0.00138091 -0.00107465 -0.000808876 -0.0006135 -0.000505497 -0.000484619 -0.00053387 -0.000621571 -0.000706821 -0.000746551 -0.000704872 -0.000561637 -0.00031864 -1.84871e-06 0.00034298 0.000658019 0.000887764 0.000992594 0.000961398 0.000817169 0.000613539 0.000422239 0.00031319 0.00033964 0.000506665 0.000775164 0.00106707 0.00128715 0.00135423 0.00123366 0.000953718 0.00059758 0.000272531 6.71529e-05 1.61896e-05 9.06117e-05 0.000216687 0.000314721 0.000335828 0.00027753 0.000174428 7.26233e-05 4.74897e-06 -2.09664e-05 -1.6033e-05 3.45691e-07 2.02668e-06 0 0 
0 0 4.86419e-06 7.0339e-06 1.14878e-06 -1.07379e-05 -2.20619e-05 -1.96245e-05 1.04268e-05 7.21211e-05 0.000151164 0.000215805 0.000230261 0.000175736 6.67696e-05 -4.82956e-05 -0.000105468 -5.47878e-05 0.000113904 0.000362937 0.000619881 0.000805568 0.000864135 0.00078216 0.000591516 0.000355144 0.000143905 1.51769e-05 -2.52303e-06 8.44317e-05 0.000239243 0.000407962 0.000534928 0.000577425 0.000515302 0.00035456 0.000123409 -0.000136231 -0.000378985 -0.000566611 -0.00067458 -0.000696851 -0.000644507 -0.000542653 -0.00042357 -0.000320599 -0.000261469 -0.000264063 -0.000333573 -0.000462327 -0.000632008 -0.000817205 -0.000989531 -0.00112152 -0.00119019 -0.00117904 -0.00107959 -0.000891736 -0.000623252 -0.000288686 9.23649e-05 0.000497243 0.000902874 0.00128797 0.00163465 0.00192983 0.00216575 0.00233864 0.00244759 0.00249262 0.00247447 0.00239469 0.00225667 0.00206615 0.00183154 0.00156333 0.00127228 0.000968961 0.000662739 0.000362637 7.68954e-05 -0.000187812 -0.000426953 -0.000638207 -0.00082132 -0.000977139 -0.00110816 -0.00121745 -0.00130844 -0.00138452 -0.00144853 -0.00150286 -0.00154936 -0.00158941 -0.00162398 -0.00165342 -0.001678 -0.00169764 -0.00171229 -0.0017216 -0.00172511 -0.00172237 -0.00171295 -0.00169658 -0.00167325 -0.00164283 -0.00160531 -0.00156089 -0.00151031 -0.00145462 -0.00139509 -0.00133224 -0.00126568 -0.00119344 -0.00111108 -0.00101252 -0.000890165 -0.000736305 -0.000545326 -0.000314404 -4.50893e-05 0.000256912 0.000581294 0.000914924 0.00124339 0.00155272 0.00183053 0.00206803 0.0022591 0.00239948 0.0024856 0.0025134 0.00247819 0.0023757 0.00220316 0.00196137 0.00165637 0.00129958 0.000907511 0.000499695 9.76708e-05 -0.000277079 -0.00060423 -0.000866381 -0.00105025 -0.00114822 -0.00115987 -0.00109271 -0.000962631 -0.000792293 -0.000608957 -0.000441254 -0.000314994 -0.000248553 -0.000249423 -0.000312108 -0.000418061 -0.000539099 -0.000641698 -0.000693365 -0.000669096 -0.000557948 -0.000366517 -0.000119786 0.000143471 0.000377445 0.00053989 0.000602105 0.000557596 0.000425836 0.00024898 8.25657e-05 -1.88384e-05 -1.66845e-05 9.85473e-05 0.000301203 0.000536335 0.000733541 0.000828351 0.000785594 0.000615045 0.000369685 0.000127165 -3.98805e-05 -9.24395e-05 -3.8902e-05 7.24075e-05 0.000178469 0.000231247 0.000216032 0.000151138 7.18529e-05 9.68248e-06 -2.09474e-05 -2.36152e-05 -1.16268e-05 1.70858e-06 2.84189e-06 0 0 
0 0 0 0 0 0 0 0 0 0 0 0 0 0 0 0 0 0 0 0 0 0 0 0 0 0 0 0 0 0 0 0 0 0 0 0 0 0 0 0 0 0 0 0 0 0 0 0 0 0 0 0 0 0 0 0 0 0 0 0 0 0 0 0 0 0 0 0 0 0 0 0 0 0 0 0 0 0 0 0 0 0 0 0 0 0 0 0 0 0 0 0 0 0 0 0 0 0 0 0 0 0 0 0 0 0 0 0 0 0 0 0 0 0 0 0 0 0 0 0 0 0 0 0 0 0 0 0 0 0 0 0 0 0 0 0 0 0 0 0 0 0 0 0 0 0 0 0 0 0 0 0 0 0 0 0 0 0 0 0 0 0 0 0 0 0 0 0 0 0 0 0 0 0 0 0 0 0 0 0 0 0 0 0 0 0 0 0 0 0 0 0 0 0 0 0 0 0 0 0 
0 0 0 0 0 0 0 0 0 0 0 0 0 0 0 0 0 0 0 0 0 0 0 0 0 0 0 0 0 0 0 0 0 0 0 0 0 0 0 0 0 0 0 0 0 0 0 0 0 0 0 0 0 0 0 0 0 0 0 0 0 0 0 0 0 0 0 0 0 0 0 0 0 0 0 0 0 0 0 0 0 0 0 0 0 0 0 0 0 0 0 0 0 0 0 0 0 0 0 0 0 0 0 0 0 0 0 0 0 0 0 0 0 0 0 0 0 0 0 0 0 0 0 0 0 0 0 0 0 0 0 0 0 0 0 0 0 0 0 0 0 0 0 0 0 0 0 0 0 0 0 0 0 0 0 0 0 0 0 0 0 0 0 0 0 0 0 0 0 0 0 0 0 0 0 0 0 0 0 0 0 0 0 0 0 0 0 0 0 0 0 0 0 0 0 0 0 0 0 0 
</DataArray>
</PointData>
</Piece>
</ImageData>
</VTKFile>
