<?xml version="1.0"?>
<VTKFile type="ImageData" version="0.1" byte_order="LittleEndian">
<ImageData WholeExtent="0 199 0 199 0 0" Origin="0 0 0" Spacing="15 15 0">
<Piece Extent="0 199 0 199 0 0">
<PointData Scalars="Amplitude">
<DataArray type="Float32" Name="Amplitude" format="ascii">
0 0 0 0 0 0 0 0 0 0 0 0 0 0 0 0 0 0 0 0 0 0 0 0 0 0 0 0 0 0 0 0 0 0 0 0 0 0 0 0 0 0 0 0 0 0 0 0 0 0 0 0 0 0 0 0 0 0 0 0 0 0 0 0 0 0 0 0 0 0 0 0 0 0 0 0 0 0 0 0 0 0 0 0 0 0 0 0 0 0 0 0 0 0 0 0 0 0 0 0 0 0 0 0 0 0 0 0 0 0 0 0 0 0 0 0 0 0 0 0 0 0 0 0 0 0 0 0 0 0 0 0 0 0 0 0 0 0 0 0 0 0 0 0 0 0 0 0 0 0 0 0 0 0 0 0 0 0 0 0 0 0 0 0 0 0 0 0 0 0 0 0 0 0 0 0 0 0 0 0 0 0 0 0 0 0 0 0 0 0 0 0 0 0 0 0 0 0 0 0 
0 0 0 0 0 0 0 0 0 0 0 0 0 0 0 0 0 0 0 0 0 0 0 0 0 0 0 0 0 0 0 0 0 0 0 0 0 0 0 0 0 0 0 0 0 0 0 0 0 0 0 0 0 0 0 0 0 0 0 0 0 0 0 0 0 0 0 0 0 0 0 0 0 0 0 0 0 0 0 0 0 0 0 0 0 0 0 0 0 0 0 0 0 0 0 0 0 0 0 0 0 0 0 0 0 0 0 0 0 0 0 0 0 0 0 0 0 0 0 0 0 0 0 0 0 0 0 0 0 0 0 0 0 0 0 0 0 0 0 0 0 0 0 0 0 0 0 0 0 0 0 0 0 0 0 0 0 0 0 0 0 0 0 0 0 0 0 0 0 0 0 0 0 0 0 0 0 0 0 0 0 0 0 0 0 0 0 0 0 0 0 0 0 0 0 0 0 0 0 0 
0 0 4.96238e-07 1.27637e-06 2.21602e-06 -4.9097e-07 -1.72313e-05 -6.70714e-05 -0.000166615 -0.00029698 -0.000362239 -0.000190056 0.000370302 0.00127664 0.00219666 0.00264834 0.0023495 0.00149488 0.000665127 0.000392155 0.00075224 0.00134951 0.00168116 0.00153429 0.00108439 0.000676464 0.000531993 0.000621324 0.00074674 0.000723468 0.000509206 0.000205187 -4.15958e-05 -0.000145577 -0.000125086 -6.70168e-05 -5.47552e-05 -0.000114364 -0.000209148 -0.000275244 -0.000267349 -0.000184809 -6.68197e-05 3.41708e-05 8.15899e-05 7.02625e-05 2.31788e-05 -2.48666e-05 -4.59528e-05 -3.06121e-05 1.1397e-05 5.90523e-05 9.12525e-05 9.57541e-05 7.273e-05 3.27109e-05 -8.94958e-06 -3.82646e-05 -4.71624e-05 -3.5111e-05 -8.00782e-06 2.46657e-05 5.31765e-05 7.02314e-05 7.2453e-05 6.05251e-05 3.82736e-05 1.12077e-05 -1.49675e-05 -3.55678e-05 -4.7642e-05 -5.01613e-05 -4.382e-05 -3.05707e-05 -1.30357e-05 6.0432e-06 2.42128e-05 3.95938e-05 5.09602e-05 5.77462e-05 5.99525e-05 5.80265e-05 5.26996e-05 4.48514e-05 3.53596e-05 2.50068e-05 1.44619e-05 4.27127e-06 -5.17627e-06 -1.36395e-05 -2.10104e-05 -2.72697e-05 -3.24495e-05 -3.66302e-05 -3.99209e-05 -4.24378e-05 -4.42985e-05 -4.56033e-05 -4.6454e-05 -4.69312e-05 -4.70831e-05 -4.69309e-05 -4.64538e-05 -4.5603e-05 -4.42985e-05 -4.2438e-05 -3.99209e-05 -3.66298e-05 -3.24479e-05 -2.7267e-05 -2.10063e-05 -1.36348e-05 -5.17107e-06 4.27762e-06 1.44698e-05 2.5015e-05 3.53658e-05 4.48548e-05 5.26997e-05 5.80233e-05 5.9946e-05 5.77386e-05 5.09551e-05 3.95915e-05 2.42099e-05 6.03772e-06 -1.30401e-05 -3.0571e-05 -4.38147e-05 -5.01477e-05 -4.76212e-05 -3.55442e-05 -1.49445e-05 1.12299e-05 3.82969e-05 6.05496e-05 7.24755e-05 7.02539e-05 5.32073e-05 2.47256e-05 -7.88713e-06 -3.49126e-05 -4.69697e-05 -3.84234e-05 -1.03291e-05 2.84476e-05 6.30689e-05 7.77845e-05 6.29137e-05 2.10283e-05 -3.10308e-05 -6.69372e-05 -6.22756e-05 -8.46694e-06 7.79015e-05 0.000157301 0.000183262 0.000126606 -4.52916e-06 -0.000162202 -0.000279381 -0.000306061 -0.000240598 -0.000134373 -6.11491e-05 -6.54936e-05 -0.000123613 -0.000149186 -5.04638e-05 0.000194061 0.000498753 0.000714214 0.000736506 0.000606577 0.000519886 0.000664567 0.00106934 0.00151589 0.00166302 0.00133657 0.000746685 0.000390674 0.000660515 0.00148116 0.00232652 0.002622 0.00217476 0.00126397 0.000366725 -0.000188056 -0.000358555 -0.000293969 -0.000164902 -6.63389e-05 -1.7033e-05 -6.88547e-07 1.37349e-06 9.77076e-07 0 0 
0 0 1.18365e-06 1.8741e-06 -9.99157e-08 -1.96312e-05 -8.28272e-05 -0.000216396 -0.00040126 -0.000505349 -0.000269876 0.000554349 0.00193741 0.00339445 0.004186 0.00387262 0.00275925 0.00172885 0.00152495 0.00214232 0.0029106 0.00315372 0.00275673 0.00214519 0.00180748 0.00187303 0.0020903 0.00211318 0.00179184 0.00125117 0.000744515 0.000444854 0.000340615 0.00028776 0.00014556 -0.000118353 -0.00042005 -0.00063337 -0.000679465 -0.000570655 -0.000390258 -0.000234102 -0.000156621 -0.000151596 -0.000170815 -0.000161641 -9.87416e-05 5.43679e-06 0.000112491 0.000181339 0.000189084 0.000139863 6.00047e-05 -1.56625e-05 -5.86877e-05 -5.67776e-05 -1.57061e-05 4.56149e-05 0.00010377 0.000139365 0.000142522 0.00011429 6.45126e-05 7.61855e-06 -4.19654e-05 -7.3522e-05 -8.19315e-05 -6.78468e-05 -3.64689e-05 4.35297e-06 4.61871e-05 8.17395e-05 0.000105881 0.000116077 0.000112279 9.64059e-05 7.16103e-05 4.15784e-05 9.94454e-06 -2.01795e-05 -4.64784e-05 -6.74227e-05 -8.23242e-05 -9.11281e-05 -9.42653e-05 -9.25226e-05 -8.68785e-05 -7.8346e-05 -6.78658e-05 -5.63195e-05 -4.44595e-05 -3.28709e-05 -2.19965e-05 -1.21342e-05 -3.446e-06 3.98112e-06 1.01113e-05 1.49097e-05 1.83517e-05 2.04007e-05 2.10824e-05 2.04011e-05 1.83515e-05 1.49089e-05 1.011e-05 3.97991e-06 -3.44623e-06 -1.21326e-05 -2.19919e-05 -3.28635e-05 -4.44497e-05 -5.6308e-05 -6.78519e-05 -7.83286e-05 -8.68589e-05 -9.25059e-05 -9.42551e-05 -9.11233e-05 -8.23263e-05 -6.74319e-05 -4.64931e-05 -2.01935e-05 9.93519e-06 4.15691e-05 7.15974e-05 9.63976e-05 0.000112282 0.000116089 0.000105911 8.17914e-05 4.62459e-05 4.40614e-06 -3.64231e-05 -6.78016e-05 -8.18782e-05 -7.34668e-05 -4.19086e-05 7.69999e-06 6.46599e-05 0.000114567 0.000142969 0.000139808 0.000103436 4.25411e-05 -2.53112e-05 -7.86646e-05 -9.95198e-05 -8.0167e-05 -2.66112e-05 4.31691e-05 0.000106124 0.000143394 0.000147847 0.000126129 9.35082e-05 6.31925e-05 3.51716e-05 -8.34261e-06 -9.52049e-05 -0.000243588 -0.000438973 -0.000624052 -0.000715872 -0.000649513 -0.000425468 -0.000124685 0.000132563 0.000269488 0.000321376 0.000426796 0.000725632 0.00122698 0.00175859 0.00206436 0.002049 0.00184093 0.00177988 0.00211678 0.00272435 0.00311971 0.00288158 0.00212315 0.00151316 0.00171509 0.00273448 0.00383577 0.00414524 0.00336114 0.00191843 0.000549049 -0.000267018 -0.000500167 -0.000397113 -0.000214139 -8.22015e-05 -2.05641e-05 -2.96778e-06 1.02347e-06 0 0 
0 0 1.90776e-06 -9.99157e-08 -1.37399e-05 -7.60077e-05 -0.000229283 -0.00047268 -0.000656431 -0.000415947 0.000677742 0.00268838 0.00491189 0.00606402 0.00523411 0.00287445 0.000707061 0.000348007 0.00187767 0.00381636 0.00454822 0.0037432 0.00243305 0.00186674 0.00239553 0.00335913 0.00383824 0.00343338 0.00245999 0.00156161 0.00116121 0.00119768 0.00127788 0.00104101 0.000425676 -0.000329105 -0.000893152 -0.00107758 -0.000930583 -0.000663265 -0.000489056 -0.00049518 -0.000617353 -0.000710638 -0.000654346 -0.000423641 -9.48531e-05 0.000205087 0.000368202 0.000354869 0.000203308 2.104e-06 -0.000154219 -0.00020423 -0.00013818 7.21517e-06 0.000170227 0.000290278 0.00032897 0.000279209 0.000162339 1.70427e-05 -0.000114885 -0.000200542 -0.000223112 -0.000183473 -9.66933e-05 1.39921e-05 0.000123702 0.000211363 0.000263153 0.000273654 0.000245122 0.000185558 0.000106236 1.92438e-05 -6.43855e-05 -0.000136088 -0.000190108 -0.000223723 -0.000236803 -0.000231199 -0.000210115 -0.000177417 -0.000136955 -9.22499e-05 -4.63989e-05 -1.89932e-06 3.95673e-05 7.68501e-05 0.000109359 0.000136924 0.000159628 0.000177863 0.000192193 0.0002032 0.000211484 0.000217431 0.000221425 0.000223701 0.000224433 0.000223701 0.000221423 0.000217429 0.000211481 0.000203198 0.000192193 0.000177868 0.000159637 0.000136938 0.000109374 7.68694e-05 3.95923e-05 -1.86922e-06 -4.63702e-05 -9.22317e-05 -0.000136948 -0.000177416 -0.000210126 -0.00023122 -0.000236828 -0.000223739 -0.000190121 -0.00013611 -6.44067e-05 1.92462e-05 0.000106262 0.000185602 0.000245205 0.000273763 0.000263249 0.000211435 0.000123764 1.40658e-05 -9.66035e-05 -0.000183387 -0.000223008 -0.000200352 -0.000114505 1.77285e-05 0.00016324 0.000279449 0.000325932 0.000278383 0.000140235 -5.26234e-05 -0.000237923 -0.000344699 -0.000318697 -0.000147869 0.000122897 0.00039813 0.000563242 0.000533344 0.000298614 -6.0842e-05 -0.000407501 -0.000618309 -0.000658015 -0.000604304 -0.000596046 -0.000725529 -0.0009458 -0.00107102 -0.000892972 -0.000347736 0.000393717 0.00100828 0.0012511 0.00117285 0.00112817 0.00151238 0.00239381 0.00335473 0.00376157 0.00329732 0.00235148 0.00183339 0.00239727 0.00369705 0.00449762 0.00377747 0.00186212 0.000350049 0.000705754 0.00285024 0.00518465 0.00600498 0.00486365 0.002662 0.000671319 -0.000411484 -0.000649619 -0.000467984 -0.000228012 -7.86621e-05 -2.05735e-05 -1.76523e-06 0 0 
0 0 -2.36139e-06 -2.17924e-05 -7.8189e-05 -0.000223677 -0.000449141 -0.000579092 -0.000206436 0.00111356 0.00334658 0.00554973 0.00623616 0.00464659 0.00181479 5.93657e-06 0.000670681 0.00296743 0.00459543 0.00414653 0.00243034 0.00143912 0.00225629 0.00414581 0.00550795 0.00543889 0.00435117 0.00334174 0.0031446 0.0036015 0.00395909 0.00358489 0.00245746 0.0010997 0.000116272 -0.000245398 -0.000198391 -0.000176864 -0.000487942 -0.00111162 -0.00175458 -0.00207489 -0.0019049 -0.00133703 -0.000645951 -0.000121527 7.78737e-05 -2.04953e-05 -0.000252455 -0.000422578 -0.000403942 -0.000186292 0.000138813 0.00043531 0.000588118 0.000548227 0.000342903 5.53814e-05 -0.000212307 -0.000376665 -0.000396583 -0.000278983 -6.93326e-05 0.000167672 0.000368318 0.000486341 0.000500907 0.000417086 0.000259837 6.53735e-05 -0.000128301 -0.000289105 -0.00039517 -0.000436577 -0.000414578 -0.000339101 -0.000225324 -9.04804e-05 4.89114e-05 0.000178935 0.000289594 0.000374412 0.000430953 0.000459533 0.000462627 0.000444297 0.000409176 0.000362037 0.000307347 0.000249139 0.000190722 0.00013456 8.23574e-05 3.5384e-05 -5.66992e-06 -4.03525e-05 -6.85063e-05 -9.02333e-05 -0.000105594 -0.000114567 -0.000117534 -0.000114568 -0.000105596 -9.02361e-05 -6.85101e-05 -4.03533e-05 -5.66597e-06 3.53948e-05 8.2376e-05 0.000134582 0.000190748 0.000249174 0.000307389 0.000362078 0.000409198 0.000444299 0.00046262 0.000459519 0.000430919 0.000374363 0.000289549 0.0001789 4.88765e-05 -9.04992e-05 -0.000225297 -0.000339029 -0.000414485 -0.000436438 -0.000395006 -0.000288993 -0.000128239 6.54398e-05 0.00025996 0.000417264 0.000501074 0.000486522 0.000368646 0.000168295 -6.82742e-05 -0.00027784 -0.000397365 -0.000384844 -0.000238728 -6.12582e-06 0.000226744 0.00036385 0.000341785 0.000166232 -7.77625e-05 -0.000254536 -0.000242927 -9.61265e-06 0.000349676 0.000632505 0.000618669 0.000188453 -0.000590623 -0.00146428 -0.0020948 -0.00222615 -0.00182819 -0.00112941 -0.00049662 -0.00020852 -0.000254548 -0.000308904 5.89912e-05 0.00104572 0.00239186 0.00349491 0.00384407 0.00347133 0.00301045 0.0032073 0.00421585 0.00530254 0.00538365 0.00404951 0.00219237 0.00139423 0.00238367 0.00408934 0.00454019 0.00293475 0.000666156 1.09336e-05 0.00180222 0.00460466 0.00617684 0.00549606 0.00331423 0.00110311 -0.000204244 -0.000574465 -0.000448494 -0.000229226 -8.69648e-05 -2.23617e-05 0 0 
0 0 -2.18219e-05 -8.42651e-05 -0.000214504 -0.000408687 -0.000473158 3.26632e-05 0.00155068 0.00390665 0.00585868 0.00571165 0.00302147 -0.000281675 -0.00121413 0.00121505 0.00459635 0.0054462 0.00295949 -0.000112232 -0.000467406 0.00234603 0.00579582 0.00719836 0.00620334 0.00461548 0.0043152 0.0055943 0.00720722 0.0076921 0.00661081 0.00472173 0.00317481 0.00256317 0.0025895 0.00247094 0.00162934 0.000107777 -0.00152805 -0.00263384 -0.00290791 -0.00251967 -0.00192466 -0.0015441 -0.00152986 -0.00173491 -0.00186168 -0.00166731 -0.00110328 -0.000326934 0.00039467 0.000822786 0.000850842 0.000535197 5.23705e-05 -0.000385775 -0.000615107 -0.000569349 -0.000288094 0.000114534 0.000499451 0.000749585 0.000801914 0.000655888 0.000363312 6.7275e-06 -0.000327268 -0.000568683 -0.000676823 -0.000643278 -0.000487898 -0.000249467 2.50414e-05 0.000290461 0.000510178 0.00066012 0.000729351 0.000719455 0.000640359 0.000508274 0.00034142 0.000157691 -2.67514e-05 -0.000199024 -0.000350607 -0.000476785 -0.000575125 -0.000645724 -0.000691292 -0.00071518 -0.000721326 -0.000713769 -0.000696246 -0.000672794 -0.000646705 -0.000620485 -0.000596625 -0.000576432 -0.000561283 -0.00055191 -0.000548725 -0.000551915 -0.000561288 -0.000576439 -0.000596635 -0.000620491 -0.000646704 -0.000672777 -0.000696213 -0.000713725 -0.00072127 -0.000715117 -0.000691231 -0.000645688 -0.000575137 -0.000476815 -0.000350637 -0.000199073 -2.68367e-05 0.000157598 0.000341359 0.000508241 0.000640369 0.00071955 0.00072952 0.000660294 0.000510377 0.000290702 2.51745e-05 -0.000249467 -0.000487846 -0.000643083 -0.000676516 -0.000568417 -0.000327068 7.16557e-06 0.000364278 0.000657482 0.000803149 0.000746123 0.00048027 5.89868e-05 -0.000410225 -0.00079011 -0.000950752 -0.000811995 -0.000379294 0.000241511 0.000859182 0.00124826 0.00123014 0.000757966 -3.98251e-05 -0.00089742 -0.00153712 -0.00182378 -0.0018521 -0.00188337 -0.00214317 -0.00260596 -0.00293828 -0.00269133 -0.00164328 -4.1432e-05 0.00148373 0.00234121 0.0024559 0.00239645 0.00296345 0.00447874 0.00635942 0.00744648 0.00696459 0.00534461 0.00408787 0.00439692 0.00598241 0.00698597 0.00562104 0.0022312 -0.000531099 -0.000161504 0.00289304 0.00536639 0.00453588 0.00119816 -0.00119971 -0.000273211 0.00299711 0.00565908 0.005803 0.0038688 0.00153418 2.78808e-05 -0.000477204 -0.000414651 -0.000211111 -7.61005e-05 0 0 
0 0 -6.67303e-05 -0.000186229 -0.000355442 -0.000376748 0.000175648 0.0017182 0.00399062 0.00559708 0.00480021 0.00151561 -0.00164236 -0.00144243 0.0021937 0.00536641 0.00428144 -0.000166738 -0.00311961 -0.00121444 0.00375668 0.00714975 0.0066073 0.00409973 0.00323836 0.00547013 0.00908717 0.0113147 0.0108983 0.00887931 0.00727904 0.00721795 0.00813744 0.00853578 0.0073357 0.00469553 0.00175202 -0.0003154 -0.00109206 -0.00106591 -0.00112236 -0.00186371 -0.0032304 -0.00460957 -0.00527984 -0.00486439 -0.00352188 -0.00182071 -0.000414161 0.00027465 0.000205247 -0.000330514 -0.00089978 -0.00114216 -0.000909337 -0.000289023 0.000472482 0.00109169 0.00136134 0.0012142 0.000725142 6.45975e-05 -0.000566171 -0.000999343 -0.00113918 -0.000977288 -0.000578311 -5.1857e-05 0.000480782 0.000913154 0.00117348 0.0012325 0.001099 0.000811629 0.000426032 2.72251e-06 -0.000402627 -0.000746754 -0.00100104 -0.00115209 -0.00120056 -0.00115584 -0.00103547 -0.000859185 -0.000646428 -0.000415896 -0.000182256 4.22835e-05 0.000248998 0.00043225 0.000589803 0.000721504 0.000829044 0.000914483 0.000980736 0.00103035 0.001066 0.00109087 0.00110679 0.00111474 0.00111714 0.00111472 0.00110677 0.00109086 0.00106599 0.00103034 0.000980747 0.000914521 0.000829111 0.000721592 0.000589903 0.000432345 0.000249049 4.22628e-05 -0.000182318 -0.000415938 -0.00064648 -0.000859311 -0.00103564 -0.00115595 -0.00120056 -0.00115198 -0.00100081 -0.000746443 -0.000402335 2.9657e-06 0.000426284 0.000811774 0.00109893 0.00123252 0.00117381 0.000913597 0.000481046 -5.181e-05 -0.000577912 -0.000975903 -0.00113687 -0.000998467 -0.00057538 2.46655e-05 0.000617559 0.000988012 0.000967653 0.000516258 -0.000223067 -0.000939121 -0.00126175 -0.000936531 8.24059e-06 0.00119558 0.00201389 0.00188958 0.000593956 -0.00157944 -0.00389587 -0.00550286 -0.00584441 -0.00494236 -0.00338021 -0.00197884 -0.0013124 -0.00133833 -0.00138826 -0.00058838 0.00149406 0.00440868 0.00698826 0.00813672 0.00772267 0.00681674 0.0068928 0.00848962 0.0104903 0.010894 0.00870251 0.0051468 0.0029591 0.00383097 0.00633447 0.0068989 0.00357292 -0.00131441 -0.00317084 -0.000224471 0.00419692 0.00528619 0.00215897 -0.00142984 -0.00162138 0.00150666 0.0047568 0.00554203 0.00394644 0.00169122 0.000162454 -0.000371713 -0.000311714 -0.000153541 0 0 
0 0 -0.000125102 -0.000253409 -0.000287908 0.000212299 0.00160753 0.00360523 0.00482744 0.00368864 0.000479289 -0.0018221 -0.000308411 0.00377885 0.0053526 0.00139262 -0.00451489 -0.00571818 -0.000449682 0.00589737 0.00712883 0.00322491 -0.000257619 0.0012442 0.00678818 0.0117719 0.0129498 0.011104 0.0095079 0.0104811 0.0134366 0.015816 0.0155442 0.0126698 0.00901163 0.00647861 0.00562702 0.00550339 0.00463388 0.00223151 -0.00128171 -0.00466617 -0.0067332 -0.00704334 -0.00604365 -0.00466697 -0.00373655 -0.00355542 -0.00385816 -0.00407834 -0.00371748 -0.00261989 -0.0010235 0.000583145 0.00169958 0.00202665 0.0015627 0.000569764 -0.000547253 -0.00139748 -0.00172843 -0.00147954 -0.000771176 0.000162234 0.00105444 0.00168112 0.00191425 0.00173175 0.00120587 0.00046832 -0.000325579 -0.00103333 -0.00154786 -0.00181105 -0.00181122 -0.00157618 -0.00116032 -0.000632991 -6.17917e-05 0.000490478 0.000977116 0.00136786 0.00164533 0.00180544 0.00185661 0.00181576 0.0017 0.00152812 0.00131991 0.00109214 0.000858872 0.000630929 0.000415502 0.00022058 4.95809e-05 -9.67083e-05 -0.000216364 -0.000309852 -0.000376314 -0.000416146 -0.000429427 -0.000416163 -0.000376341 -0.000309876 -0.000216379 -9.66976e-05 4.96511e-05 0.000220682 0.000415627 0.00063105 0.000858969 0.00109221 0.00131986 0.00152801 0.00169994 0.00181573 0.00185647 0.00180517 0.00164512 0.0013679 0.000977417 0.000490929 -6.1274e-05 -0.000632552 -0.00116007 -0.001576 -0.00181116 -0.00181129 -0.00154802 -0.00103294 -0.000325097 0.000468309 0.00120548 0.00173206 0.00191645 0.00168454 0.00105401 0.000141996 -0.000847277 -0.00167342 -0.00212076 -0.00205734 -0.00147593 -0.000497453 0.000652288 0.00168518 0.00230802 0.00228793 0.00153329 0.000169085 -0.00146107 -0.00291929 -0.00389841 -0.0044224 -0.00483614 -0.00553179 -0.00654227 -0.00733267 -0.00704236 -0.0051002 -0.00178879 0.00175206 0.00421632 0.00509455 0.00515676 0.00593075 0.00843224 0.0121166 0.015035 0.0153265 0.0129365 0.00996735 0.00900976 0.0106483 0.0125031 0.0113611 0.00645349 0.000987824 -0.000482333 0.00297897 0.00686162 0.00566921 -0.000580288 -0.00576162 -0.00454178 0.00132801 0.00526556 0.003723 -0.000310799 -0.00180224 0.000476593 0.00364895 0.00476939 0.00355646 0.00158994 0.000246387 -0.00018753 -0.000180327 0 0 
0 0 -0.000139666 -0.000140037 0.000206881 0.00131472 0.00292994 0.00383661 0.00271216 9.48837e-05 -0.00108351 0.00136736 0.00499694 0.00432567 -0.00197099 -0.00766161 -0.00579922 0.00205083 0.00701739 0.00376527 -0.0030848 -0.00490663 0.000816312 0.00850569 0.0116 0.00943067 0.00679195 0.00826682 0.0138565 0.0196121 0.0217211 0.0197684 0.0164889 0.0149019 0.0157217 0.0171095 0.0165312 0.0128819 0.00720908 0.00176266 -0.0016741 -0.00285571 -0.00294192 -0.00347636 -0.0052858 -0.00800505 -0.0104255 -0.0112948 -0.0100557 -0.00710992 -0.00355292 -0.000612237 0.000903353 0.000867044 -0.000229721 -0.00158504 -0.00245907 -0.00243642 -0.00152283 -6.62224e-05 0.00142547 0.00248501 0.00282509 0.00240044 0.00137375 4.91094e-05 -0.00123363 -0.00219125 -0.00265113 -0.00256374 -0.0019947 -0.00109155 -3.49116e-05 0.000995909 0.00185445 0.00244262 0.00271421 0.00267473 0.00236269 0.0018409 0.00118249 0.000459329 -0.000264006 -0.000937401 -0.00152859 -0.00201424 -0.00238926 -0.00265473 -0.00282011 -0.00289827 -0.00290771 -0.00286547 -0.00278754 -0.00268771 -0.00257869 -0.00247083 -0.00237207 -0.00229103 -0.00223042 -0.00219024 -0.00217601 -0.00219024 -0.00223042 -0.00229104 -0.00237203 -0.00247073 -0.0025785 -0.00268749 -0.00278732 -0.0028653 -0.00290763 -0.00289835 -0.00282029 -0.00265483 -0.00238926 -0.00201439 -0.00152903 -0.000937814 -0.00026396 0.000459876 0.00118326 0.00184163 0.00236325 0.00267503 0.00271423 0.00244251 0.00185399 0.000995366 -3.47262e-05 -0.00109122 -0.0019953 -0.00256472 -0.0026507 -0.0021877 -0.00122861 4.56255e-05 0.00133435 0.0022661 0.00249807 0.00184496 0.000382586 -0.00148134 -0.00306654 -0.00362053 -0.00265456 -0.00027717 0.00267212 0.00483731 0.00490218 0.00228309 -0.00245209 -0.00773371 -0.0116799 -0.0130133 -0.0116615 -0.00872084 -0.00579182 -0.00406955 -0.00367853 -0.00359792 -0.00229548 0.00124764 0.00668767 0.0122755 0.0158664 0.0164708 0.0151632 0.0144033 0.015998 0.0192655 0.0212395 0.0192032 0.0135412 0.00801851 0.00657854 0.00918565 0.0113272 0.00826522 0.000658922 -0.00500393 -0.00320304 0.00357586 0.00680238 0.00190544 -0.00583745 -0.00765371 -0.00199911 0.00425022 0.00492701 0.00134214 -0.00108179 8.19343e-05 0.00267108 0.00379416 0.00292896 0.00138254 0.000322735 -3.47341e-05 0 0 
0 0 -3.29593e-05 0.000234586 0.00100841 0.00219207 0.00286758 0.00202684 0.000265683 8.32967e-05 0.00278981 0.00522052 0.00246326 -0.00465616 -0.00822688 -0.00295869 0.00531513 0.0059336 -0.00253293 -0.00988109 -0.00714088 0.00259255 0.00884973 0.00656297 0.000905417 0.000199633 0.00683373 0.0158635 0.0209249 0.0203581 0.0178727 0.018164 0.0224037 0.0275771 0.0295506 0.026618 0.0205498 0.0147536 0.011525 0.0105769 0.00971485 0.00677275 0.0012216 -0.00557924 -0.0113592 -0.0143437 -0.0141699 -0.0118516 -0.0090423 -0.00710194 -0.00652169 -0.00687168 -0.0072242 -0.00672118 -0.00499778 -0.00232548 0.000575243 0.00287022 0.00394073 0.00359457 0.0020931 5.61243e-06 -0.00199661 -0.00335606 -0.00375952 -0.003173 -0.00182385 -8.0279e-05 0.00164518 0.00300323 0.0037611 0.00383767 0.00327917 0.00223548 0.000901013 -0.000517584 -0.00183527 -0.00291035 -0.00366251 -0.00405377 -0.00409866 -0.00384373 -0.0033504 -0.00268829 -0.00192713 -0.00113349 -0.000355985 0.000369554 0.00101806 0.00157651 0.00204014 0.00241116 0.0027025 0.00291908 0.00307536 0.00318569 0.00325957 0.00330621 0.00333235 0.00334555 0.00334923 0.00334558 0.00333239 0.00330625 0.00325972 0.00318595 0.00307568 0.00291943 0.00270279 0.00241138 0.00204011 0.00157628 0.00101786 0.000369551 -0.000356113 -0.00113407 -0.00192782 -0.00268834 -0.00334951 -0.00384247 -0.00409763 -0.00405315 -0.00366224 -0.00291052 -0.00183566 -0.000518287 0.000900078 0.00223531 0.00327927 0.00383653 0.00375977 0.00300443 0.00165074 -7.36652e-05 -0.00183343 -0.00324284 -0.00398066 -0.00387455 -0.00298224 -0.00155438 4.9118e-05 0.00148065 0.00251102 0.00302512 0.00295614 0.0022217 0.000754465 -0.00136781 -0.00382079 -0.00615823 -0.00809515 -0.00974513 -0.0114951 -0.0134863 -0.0151221 -0.0151051 -0.0122531 -0.00656488 0.000366926 0.00615239 0.00921823 0.0100334 0.0108816 0.0141025 0.0199949 0.0261724 0.0291407 0.0271446 0.021971 0.0178086 0.0176434 0.0202387 0.020853 0.0158035 0.00684625 0.000260966 0.000925445 0.00648573 0.00871795 0.00250622 -0.00713772 -0.0098601 -0.00259902 0.00577405 0.00516724 -0.00300512 -0.008199 -0.0046482 0.00240832 0.00514084 0.00273586 6.02007e-05 0.000253915 0.00202762 0.00290374 0.00226147 0.00104614 0.000317195 0 0 
0 0 0.000199722 0.000712337 0.00156146 0.00208143 0.00160922 0.000676255 0.00114686 0.00354337 0.00460895 0.000649591 -0.00567024 -0.00627329 0.00111938 0.00715042 0.00221168 -0.00923358 -0.0132302 -0.00481977 0.00542278 0.00545757 -0.00332664 -0.00910464 -0.00434874 0.00661354 0.0141212 0.0139212 0.0104713 0.0111265 0.0184993 0.0284748 0.0347194 0.0344345 0.0301387 0.0266674 0.026753 0.0290548 0.0297678 0.0258941 0.0175201 0.00752673 -0.000584987 -0.00495412 -0.00620124 -0.00659328 -0.00828229 -0.0119387 -0.0164647 -0.019801 -0.020185 -0.0170879 -0.0114463 -0.00512444 -5.80473e-05 0.0025129 0.00241299 0.000402395 -0.00225919 -0.00432764 -0.00499798 -0.00407305 -0.00191141 0.000777402 0.00322969 0.00482042 0.00521145 0.00440353 0.00266306 0.000412765 -0.0018812 -0.00380188 -0.00506765 -0.00554897 -0.0052623 -0.00432806 -0.00293895 -0.00132395 0.000313977 0.00180017 0.0030178 0.00388996 0.00439503 0.00454325 0.0043875 0.00397469 0.00337405 0.00264477 0.00184983 0.00103537 0.000241273 -0.000500241 -0.0011753 -0.00177138 -0.00228556 -0.00271268 -0.00305562 -0.00331428 -0.00349488 -0.00360717 -0.00364598 -0.00360721 -0.00349482 -0.00331413 -0.00305531 -0.00271228 -0.00228511 -0.00177097 -0.00117506 -0.000500172 0.000241034 0.00103511 0.00184979 0.00264468 0.00337351 0.0039738 0.00438733 0.00454447 0.00439696 0.00389143 0.00301843 0.00180021 0.000313653 -0.00132469 -0.0029401 -0.00432953 -0.00526307 -0.00554921 -0.00506918 -0.00380304 -0.00187856 0.000420707 0.00267104 0.00438433 0.00509779 0.00447923 0.00245337 -0.000661363 -0.00412885 -0.00688309 -0.00775108 -0.00592814 -0.00149233 0.00426943 0.00904359 0.0103351 0.00666143 -0.00147891 -0.0115269 -0.0199646 -0.0240226 -0.0229936 -0.0184342 -0.0130775 -0.00926304 -0.00770773 -0.00727748 -0.0057252 -0.00104229 0.00714362 0.0170084 0.02527 0.029187 0.0286044 0.026371 0.0262504 0.0296653 0.0339959 0.0344122 0.0283088 0.0184039 0.0110427 0.0104066 0.0139254 0.0140989 0.00663817 -0.00424167 -0.00898436 -0.00331058 0.00534578 0.00528883 -0.00485104 -0.0131699 -0.00921235 0.00211542 0.00700715 0.00104721 -0.00625875 -0.00565409 0.000603698 0.00452617 0.00348631 0.00114518 0.000719842 0.00166749 0.00210101 0.0014828 0.000688183 0 0 
0 0 0.000429116 0.000976393 0.0014545 0.00134767 0.00104916 0.00180406 0.00362284 0.00368018 -0.000336922 -0.0048043 -0.0029061 0.00442674 0.00640012 -0.00290209 -0.0133682 -0.0112479 0.000851242 0.00654586 -0.00203739 -0.0140327 -0.0147291 -0.00373203 0.00646074 0.00652481 3.7953e-05 -0.00231925 0.00516621 0.018155 0.0277971 0.0296929 0.0271844 0.0269977 0.0324984 0.0409399 0.0463271 0.0446608 0.0367915 0.0272068 0.0202981 0.017301 0.0159926 0.0128835 0.00585808 -0.00444907 -0.0151383 -0.0228958 -0.0257448 -0.0238678 -0.0191818 -0.0142001 -0.0108234 -0.00965468 -0.0100559 -0.0106568 -0.0101716 -0.0079547 -0.00421042 0.000176138 0.00402023 0.00633152 0.00659956 0.004933 0.00194393 -0.00151859 -0.00456696 -0.0065499 -0.00713039 -0.006324 -0.00441289 -0.00186628 0.000813312 0.00315726 0.00484407 0.00569764 0.00567735 0.00487243 0.00346134 0.00164429 -0.000350563 -0.00233388 -0.00415223 -0.00569192 -0.00689326 -0.00773205 -0.00821785 -0.00839372 -0.00830161 -0.0079999 -0.00754447 -0.00697966 -0.00636634 -0.00574183 -0.00514432 -0.00460292 -0.00413597 -0.00375643 -0.00347591 -0.00330236 -0.00324261 -0.00330232 -0.00347576 -0.00375609 -0.00413544 -0.00460226 -0.0051437 -0.00574149 -0.00636628 -0.00698001 -0.00754487 -0.00800005 -0.00830174 -0.00839421 -0.00821894 -0.0077326 -0.00689205 -0.00568947 -0.00415032 -0.00233336 -0.000351151 0.00164351 0.00346031 0.0048707 0.00567528 0.00569613 0.00484302 0.0031554 0.000812742 -0.0018619 -0.00440271 -0.00631519 -0.0071623 -0.00672114 -0.00506347 -0.00262135 -5.48049e-05 0.00192661 0.00290762 0.00290631 0.00236533 0.00184386 0.0015396 0.0011164 -0.000129937 -0.00271301 -0.00653269 -0.0109303 -0.0152462 -0.0192388 -0.0229651 -0.0260017 -0.0269548 -0.023998 -0.0163387 -0.00543867 0.00531399 0.0126337 0.0156758 0.0167426 0.0196233 0.0266082 0.0362967 0.0441346 0.045687 0.0402498 0.0319096 0.0265764 0.026874 0.0294004 0.0275132 0.0179516 0.00511627 -0.00223675 8.54336e-05 0.00644496 0.00633329 -0.00378172 -0.0146846 -0.0140193 -0.00217066 0.00631051 0.000688213 -0.0112591 -0.0133321 -0.00295726 0.0062586 0.00431087 -0.00293947 -0.00480601 -0.000366019 0.00363992 0.00362067 0.00184476 0.00108097 0.00131471 0.00136957 0.000799173 0 0 
0 0 0.00050086 0.000925201 0.00105964 0.00119079 0.00200964 0.00328073 0.00288581 -0.000333151 -0.00275271 0.000411259 0.00591297 0.00385891 -0.00691492 -0.013143 -0.00532575 0.00596573 0.00357741 -0.0112233 -0.0199449 -0.0123317 0.000839287 0.00339035 -0.00593321 -0.0138934 -0.00968764 0.00378472 0.0150232 0.0169728 0.0134485 0.0138138 0.0229838 0.0371411 0.0479651 0.0502529 0.0457482 0.0405756 0.0395292 0.0423701 0.0445501 0.0412058 0.0308498 0.0162539 0.00231931 -0.00705817 -0.0111106 -0.0120554 -0.0131964 -0.0167357 -0.0225381 -0.0284352 -0.0315985 -0.0301203 -0.0239484 -0.0148001 -0.00535427 0.00184972 0.00533088 0.00493401 0.00171188 -0.00266679 -0.00651704 -0.00859497 -0.0084162 -0.00619468 -0.00265756 0.00121629 0.00451203 0.00655481 0.0070301 0.00595658 0.0036432 0.000568458 -0.00271431 -0.00572724 -0.00809325 -0.00955316 -0.010021 -0.00952111 -0.00819067 -0.00619949 -0.00375294 -0.00102628 0.00178452 0.00455411 0.00715988 0.00954744 0.0116659 0.0134987 0.0150711 0.0163812 0.017469 0.018349 0.0190578 0.019611 0.0200304 0.0203401 0.020551 0.020682 0.0207234 0.0206822 0.0205513 0.0203407 0.0200313 0.0196119 0.0190584 0.0183492 0.0174687 0.0163807 0.0150708 0.0134986 0.0116655 0.00954648 0.00715872 0.00455443 0.00178698 -0.00102376 -0.00375252 -0.00620071 -0.00819199 -0.00952222 -0.0100232 -0.00955627 -0.00809559 -0.00572924 -0.00271669 0.000568814 0.0036502 0.00596949 0.00703942 0.00650686 0.00426904 0.000530628 -0.00414867 -0.00884563 -0.0123169 -0.0132482 -0.0106078 -0.00423494 0.00454989 0.0128807 0.0170525 0.0140895 0.00354158 -0.0117859 -0.0267053 -0.0361258 -0.0376322 -0.0325105 -0.0246019 -0.0178891 -0.0143383 -0.0132461 -0.0119398 -0.00739188 0.00213666 0.0158066 0.0300709 0.0403436 0.0437932 0.0416518 0.0386858 0.0396019 0.0448083 0.0495007 0.0473961 0.0366387 0.0224983 0.0134063 0.0132262 0.0169435 0.015101 0.00387364 -0.00950277 -0.0137124 -0.0058977 0.00326312 0.00069699 -0.0123676 -0.0199158 -0.0113048 0.00332655 0.00569906 -0.00544917 -0.0131554 -0.00696731 0.00371291 0.00576234 0.000345984 -0.00274618 -0.000311561 0.00290049 0.00328735 0.00199925 0.00118075 0.00111315 0.00063694 0 0 
0 0 0.000431436 0.000832957 0.00108753 0.00182487 0.00273364 0.00237094 0.000305024 -0.000505283 0.00270469 0.0057714 0.00126761 -0.008025 -0.0090878 0.00123376 0.00742097 -0.00275648 -0.0178704 -0.018152 -0.00425666 0.0039864 -0.00449064 -0.0182849 -0.0200786 -0.00802604 0.00443258 0.00589411 -0.000881685 -0.0037401 0.00506163 0.0215079 0.0350456 0.0393088 0.0372131 0.0368643 0.0434756 0.0547607 0.0634742 0.0635352 0.0545113 0.0413178 0.0301137 0.023948 0.0213072 0.01797 0.0102207 -0.00259308 -0.017791 -0.031032 -0.0386024 -0.0391239 -0.0338533 -0.0257945 -0.0181979 -0.0133304 -0.0117571 -0.0125154 -0.013797 -0.0138835 -0.0117605 -0.00751637 -0.00207244 0.00317052 0.0068777 0.0082362 0.00706424 0.00382694 -0.000578782 -0.00509497 -0.00876964 -0.0109012 -0.0111525 -0.00951409 -0.00624641 -0.00181806 0.00329004 0.00856703 0.0136119 0.018165 0.022033 0.0251734 0.0276338 0.0295054 0.0309125 0.0319778 0.0328227 0.0335762 0.0342964 0.0350318 0.0358152 0.0366325 0.0374787 0.0383418 0.0391766 0.0399612 0.040653 0.0412236 0.0416562 0.0419178 0.0420043 0.0419181 0.041657 0.0412247 0.0406542 0.039962 0.039177 0.0383415 0.0374781 0.0366322 0.0358151 0.0350313 0.0342956 0.0335749 0.032822 0.0319793 0.0309151 0.0295063 0.0276325 0.0251717 0.0220315 0.0181626 0.013608 0.00856339 0.00328636 -0.00182167 -0.00624479 -0.00950267 -0.0111347 -0.0108919 -0.00883807 -0.00542255 -0.00148171 0.00190189 0.00369697 0.00337517 0.00122971 -0.00154591 -0.00341536 -0.0033067 -0.00144524 0.000513198 0.000452028 -0.003008 -0.00956502 -0.0176526 -0.0255753 -0.0324325 -0.0378511 -0.0409161 -0.0396515 -0.0322306 -0.0189937 -0.00333742 0.00992773 0.0176156 0.0205231 0.0228389 0.0290217 0.0403664 0.0535333 0.0623959 0.0622799 0.0537355 0.0427011 0.0362488 0.0366338 0.0387953 0.03473 0.0214408 0.00516638 -0.00359336 -0.000733731 0.0060975 0.0046191 -0.00773773 -0.0196974 -0.0179834 -0.00441009 0.00390401 -0.00431224 -0.0180919 -0.0178468 -0.0029251 0.0071305 0.00101285 -0.00917986 -0.00809396 0.00114309 0.00564731 0.00266149 -0.000479674 0.000332622 0.00236961 0.00273743 0.00190289 0.00124209 0.000522611 0 0 
0 0 0.000395571 0.00094823 0.00149997 0.00213297 0.00200849 0.00102617 0.00120896 0.00379266 0.00489388 -6.50126e-05 -0.00624814 -0.00349291 0.0056106 0.00518156 -0.00889347 -0.0186659 -0.0103519 0.00328204 0.00124157 -0.0149585 -0.024347 -0.0159649 -0.00173063 0.00118493 -0.00840033 -0.016435 -0.0111519 0.00456404 0.0180929 0.0212744 0.018061 0.0189935 0.0301654 0.0477537 0.0621204 0.0664487 0.0618345 0.0551114 0.0525903 0.0550944 0.057944 0.0549969 0.0432464 0.0248088 0.0052553 -0.00982193 -0.0179582 -0.020497 -0.0211758 -0.0235812 -0.0290361 -0.0361544 -0.0418455 -0.0431114 -0.0385821 -0.0289916 -0.0168529 -0.00527541 0.00306138 0.00677702 0.00593636 0.00177162 -0.0037943 -0.00877872 -0.0116368 -0.0115134 -0.00831893 -0.00256615 0.00484696 0.0129094 0.0206976 0.0275918 0.0332124 0.0375218 0.0407541 0.0432157 0.045317 0.0474768 0.0499934 0.0531056 0.0569263 0.0614583 0.0666391 0.0723281 0.0784055 0.0846716 0.0909628 0.0971507 0.103058 0.108589 0.113658 0.118208 0.122185 0.125576 0.128369 0.130539 0.13209 0.13301 0.133332 0.13301 0.132092 0.130541 0.128371 0.125577 0.122185 0.118207 0.113657 0.108589 0.103058 0.0971492 0.0909614 0.0846702 0.0784047 0.0723294 0.06664 0.0614573 0.0569246 0.0531041 0.0499906 0.0474719 0.0453116 0.04321 0.0407488 0.0375243 0.0332293 0.0276173 0.0207064 0.0128155 0.004427 -0.00370115 -0.0106992 -0.0156226 -0.017479 -0.0154079 -0.00907164 0.000762768 0.0116155 0.0194587 0.0199682 0.0106646 -0.00707301 -0.027787 -0.0443267 -0.0514427 -0.0486095 -0.0397525 -0.0304715 -0.0246031 -0.0225468 -0.0218233 -0.0187554 -0.0102686 0.00456776 0.0236287 0.0418753 0.0537798 0.0568813 0.0539391 0.0512806 0.0538677 0.0608566 0.0657046 0.0614508 0.0471141 0.0296667 0.0187702 0.0180615 0.0213599 0.0181827 0.00471804 -0.0108422 -0.0159627 -0.00800062 0.00143557 -0.00148294 -0.0155975 -0.0239313 -0.0147001 0.00124935 0.0031957 -0.0103435 -0.0186141 -0.00898829 0.00491404 0.0053407 -0.00363532 -0.00630722 -0.000130441 0.00482257 0.00375847 0.00121385 0.00105475 0.0020778 0.0022552 0.00158368 0.000657255 0 0 
0 0 0.000471595 0.00112187 0.00162538 0.00171135 0.00146544 0.00210438 0.00395718 0.00404005 7.80464e-05 -0.00293443 0.00136692 0.00706866 0.00164959 -0.0114357 -0.0136563 -0.00125353 0.00563016 -0.00636147 -0.0222786 -0.0211428 -0.00628939 0.00109272 -0.00825062 -0.0212124 -0.021038 -0.00736778 0.00566032 0.00697965 0.000360471 -0.00127197 0.00989625 0.0291086 0.0449771 0.0505612 0.0488625 0.0487771 0.0562423 0.069216 0.0797586 0.0805911 0.0703545 0.0539189 0.0384323 0.0284198 0.0234124 0.0191533 0.0109491 -0.00311269 -0.0212638 -0.0390364 -0.0515849 -0.0559737 -0.0521392 -0.0425821 -0.0311222 -0.0213506 -0.0154468 -0.0136173 -0.014421 -0.0155084 -0.014728 -0.0107187 -0.00329483 0.00672733 0.0179397 0.0288963 0.0384526 0.0461062 0.0519488 0.0565173 0.0606332 0.0652095 0.0709173 0.0782813 0.0874294 0.0983202 0.110625 0.123872 0.137551 0.151194 0.164335 0.17663 0.187832 0.197809 0.20647 0.213831 0.219959 0.224993 0.22903 0.232195 0.234656 0.236504 0.23788 0.238871 0.239567 0.240056 0.240354 0.240518 0.240572 0.240518 0.240356 0.240058 0.23957 0.238872 0.23788 0.236504 0.234657 0.232195 0.229029 0.224991 0.219956 0.213828 0.206469 0.197809 0.187832 0.17663 0.164334 0.15119 0.137546 0.123865 0.110617 0.0983131 0.0874335 0.0783044 0.0709517 0.0652187 0.0605099 0.0560041 0.050584 0.0432745 0.0336179 0.0221046 0.0103891 0.000971701 -0.00391098 -0.00359629 0.000139241 0.00357237 0.00281461 -0.00384495 -0.0152207 -0.0281824 -0.0398869 -0.0490161 -0.0551385 -0.0571 -0.0527313 -0.0407131 -0.0228064 -0.00405031 0.0102672 0.0181171 0.0219457 0.0269522 0.0372317 0.0528099 0.0690699 0.0791706 0.0784939 0.0682185 0.0553735 0.0478891 0.048026 0.0499539 0.0446334 0.0289202 0.00971604 -0.00139648 0.000388144 0.00721281 0.00600017 -0.00703325 -0.0205887 -0.0207839 -0.00800613 0.00120162 -0.0061287 -0.020846 -0.0220057 -0.00631965 0.00546999 -0.00139331 -0.0136991 -0.0115185 0.00143422 0.00682315 0.00122606 -0.00297987 4.18422e-05 0.00399265 0.00394367 0.00215523 0.00156138 0.00179117 0.00161971 0.000821749 0 0 
0 0 0.000540396 0.00111602 0.00138004 0.00155925 0.00230786 0.00358981 0.00345168 0.00104943 0.000354444 0.00442207 0.0066695 -0.000598983 -0.00952341 -0.00584664 0.00498782 0.00287181 -0.0135069 -0.0219921 -0.0113835 0.00114003 -0.00357359 -0.0193119 -0.0252207 -0.0144274 -0.000823382 0.00041931 -0.00915261 -0.0149404 -0.0066872 0.0109234 0.0249591 0.0282176 0.0257458 0.0283587 0.041782 0.0615407 0.077397 0.0821973 0.0769191 0.0687127 0.0644451 0.0654945 0.0674413 0.0637017 0.0504268 0.0289192 0.00475199 -0.0156672 -0.0284486 -0.0336891 -0.0347189 -0.0356689 -0.0390077 -0.0445274 -0.0496047 -0.0508927 -0.0459129 -0.0341316 -0.0169293 0.00294737 0.0226359 0.0398715 0.0535603 0.0638167 0.0717436 0.0789227 0.0869773 0.0972393 0.110445 0.126625 0.145333 0.165605 0.186355 0.206453 0.224898 0.241024 0.254386 0.264725 0.272202 0.277006 0.279471 0.279996 0.278949 0.276742 0.273668 0.270038 0.266064 0.261942 0.257812 0.253799 0.249979 0.246463 0.243311 0.240544 0.238216 0.236366 0.235044 0.234246 0.233952 0.234247 0.235048 0.236369 0.23822 0.240545 0.243312 0.246464 0.24998 0.253799 0.25781 0.26194 0.266061 0.270034 0.273666 0.276745 0.278954 0.279998 0.27947 0.277 0.272193 0.264716 0.254379 0.241027 0.224925 0.206495 0.186366 0.165454 0.144728 0.125045 0.107193 0.0917354 0.0793273 0.0705549 0.0655994 0.0635941 0.0619702 0.05659 0.0434321 0.0210614 -0.00735372 -0.0347242 -0.0533877 -0.0595785 -0.0553688 -0.0468634 -0.0399536 -0.0370767 -0.0367486 -0.035439 -0.0295078 -0.0165509 0.00346382 0.0273203 0.0489916 0.0625419 0.066231 0.0640083 0.0628541 0.0673129 0.0757233 0.0810128 0.0761821 0.0604605 0.0410054 0.027817 0.0252915 0.0278142 0.0246973 0.0109124 -0.00653651 -0.0147469 -0.00899994 0.000619361 -0.000636242 -0.0140846 -0.0247647 -0.0189457 -0.00342802 0.00117956 -0.0112634 -0.0218047 -0.0134703 0.00267016 0.00472128 -0.00600305 -0.00961789 -0.000753886 0.00647482 0.00428842 0.000304216 0.0010381 0.00346246 0.0036328 0.00236591 0.00160782 0.00144214 0.000780306 0 0 
0 0 0.000511679 0.00103247 0.00134249 0.00204512 0.00298644 0.00303378 0.00204203 0.00264045 0.00573831 0.00583068 -0.000552389 -0.00474617 0.00135623 0.007254 -0.00138886 -0.015544 -0.0146947 -0.0013234 0.00176925 -0.0124154 -0.0246633 -0.0190168 -0.00461583 -0.000756999 -0.0110128 -0.0205699 -0.0160728 -0.000784076 0.0110662 0.0111791 0.00560166 0.00701213 0.021205 0.0419955 0.0580625 0.06344 0.0619198 0.0622992 0.0701399 0.0830491 0.0929676 0.0925117 0.0801357 0.0604953 0.0409539 0.0267719 0.0184465 0.0123011 0.0036828 -0.00994258 -0.0276031 -0.0451842 -0.0575051 -0.0604493 -0.052444 -0.0347574 -0.0107519 0.0154414 0.0402889 0.0618992 0.0803546 0.0971484 0.114397 0.133909 0.156571 0.182114 0.209299 0.236294 0.261195 0.282404 0.298831 0.30998 0.315926 0.317148 0.314386 0.308428 0.300062 0.289913 0.27857 0.266412 0.253707 0.24056 0.227129 0.213508 0.199801 0.186097 0.172491 0.159133 0.14619 0.133844 0.122206 0.111492 0.101869 0.0934435 0.0863914 0.0807878 0.0767157 0.0742574 0.0734266 0.074258 0.0767169 0.0807889 0.086391 0.0934434 0.101869 0.111492 0.122207 0.133843 0.146187 0.159129 0.172489 0.186095 0.199802 0.213516 0.227137 0.240562 0.253702 0.266402 0.27856 0.289908 0.300064 0.308453 0.314431 0.317158 0.315749 0.309291 0.297061 0.278787 0.255119 0.227923 0.200253 0.175654 0.156685 0.143351 0.132534 0.119148 0.0989489 0.0711737 0.0391114 0.00777558 -0.018946 -0.0396594 -0.0541604 -0.0613363 -0.0592222 -0.0474763 -0.0294211 -0.0110115 0.00269001 0.0108696 0.0168138 0.0253681 0.0397284 0.0590506 0.078356 0.0906951 0.0913662 0.0815757 0.0686364 0.0608369 0.0607212 0.0625599 0.0573756 0.0413759 0.0207287 0.00678475 0.00562829 0.0113017 0.0111942 -0.00060273 -0.0157355 -0.0200675 -0.0105627 -0.000443487 -0.00426606 -0.0185278 -0.0241424 -0.0120944 0.00183606 -0.0013139 -0.01462 -0.0155132 -0.00155276 0.00697383 0.00114599 -0.0048667 -0.000679746 0.00567932 0.00563503 0.00261951 0.0020657 0.00306228 0.00302394 0.00213819 0.00150695 0.000683315 0 0 
0 0 0.000468486 0.0010701 0.00159377 0.00228567 0.00258415 0.00255852 0.00369174 0.00586743 0.00528273 0.00113452 0.000496948 0.00617001 0.00709936 -0.00347846 -0.0116749 -0.00475761 0.00436792 -0.00274522 -0.0185175 -0.0209625 -0.00825225 -0.0002929 -0.0084178 -0.0208366 -0.0205745 -0.00739196 0.00378463 0.0024924 -0.00574877 -0.0070016 0.00509887 0.0234829 0.0361723 0.0386657 0.0373595 0.0423268 0.0574513 0.0771768 0.0916473 0.0945153 0.0872862 0.0769676 0.0701918 0.0684455 0.0678359 0.0624059 0.0484993 0.0272263 0.00398107 -0.0144867 -0.0232863 -0.0212606 -0.0106782 0.00458233 0.0213038 0.0383875 0.0569072 0.0790811 0.106782 0.140466 0.178796 0.219107 0.258088 0.292569 0.32014 0.339356 0.349847 0.352044 0.346977 0.336017 0.320569 0.301726 0.280367 0.257064 0.23197 0.205203 0.176732 0.146572 0.114776 0.0815652 0.0472531 0.0121083 -0.0232483 -0.0584283 -0.0929019 -0.126209 -0.157964 -0.187812 -0.215532 -0.240806 -0.263554 -0.283703 -0.301133 -0.315851 -0.32787 -0.337169 -0.343821 -0.34778 -0.349093 -0.347781 -0.343821 -0.337171 -0.327874 -0.315853 -0.301136 -0.283706 -0.263556 -0.240813 -0.215541 -0.187818 -0.157966 -0.126207 -0.0928943 -0.0584188 -0.0232454 0.0121029 0.0472446 0.0815572 0.114772 0.146574 0.176753 0.205251 0.231981 0.256868 0.279616 0.2998 0.316661 0.329495 0.338044 0.342479 0.343139 0.339705 0.330314 0.311645 0.280777 0.237811 0.187709 0.138943 0.0993 0.0716607 0.0529271 0.0372054 0.0204164 0.00265357 -0.0130304 -0.0229279 -0.0242364 -0.0155185 0.00244313 0.0255575 0.0470404 0.0609795 0.0660831 0.0663956 0.0682107 0.075224 0.085603 0.0928142 0.0900811 0.0759402 0.0564904 0.0414718 0.0366043 0.0381249 0.0359204 0.0233959 0.00504561 -0.00702377 -0.00560341 0.00282206 0.00422121 -0.00696393 -0.0200055 -0.0202734 -0.00801307 -1.70019e-05 -0.00793015 -0.0205404 -0.0181872 -0.00265901 0.00429747 -0.00479446 -0.0116756 -0.0035971 0.00685829 0.00594369 0.00035808 0.00103487 0.0051888 0.00580774 0.00368102 0.00258312 0.00265273 0.00241946 0.00172814 0.000737758 0 0 
0 0 0.00048602 0.00114295 0.0016569 0.00205278 0.00249167 0.00371669 0.00530715 0.00499084 0.00315509 0.00448435 0.00856265 0.00661977 -0.00211363 -0.00434796 0.00366618 0.00553843 -0.00709417 -0.0174597 -0.0111077 -0.000190128 -0.00345672 -0.0171034 -0.0219812 -0.0118699 -0.00019591 -0.0006933 -0.0100737 -0.013802 -0.00424114 0.011399 0.0205939 0.019501 0.0162966 0.021727 0.0382868 0.0584141 0.0719876 0.075236 0.072904 0.0729972 0.0798045 0.0905774 0.0980096 0.0960238 0.0839136 0.0666456 0.0516121 0.0444141 0.0464433 0.055062 0.0660914 0.0764943 0.0861708 0.0973991 0.113723 0.138178 0.1716 0.212411 0.256583 0.298856 0.334004 0.358033 0.369035 0.367125 0.35397 0.331868 0.303092 0.269351 0.231518 0.190009 0.144815 0.0958349 0.043186 -0.0127703 -0.0712883 -0.131442 -0.192126 -0.252123 -0.310307 -0.36565 -0.417396 -0.464944 -0.507945 -0.546209 -0.579769 -0.60882 -0.633633 -0.654584 -0.672053 -0.686417 -0.69808 -0.70745 -0.71482 -0.720546 -0.724859 -0.727991 -0.730084 -0.731296 -0.731699 -0.731295 -0.730085 -0.727993 -0.724865 -0.720552 -0.714822 -0.707451 -0.698084 -0.686427 -0.672066 -0.654588 -0.633634 -0.608816 -0.579759 -0.5462 -0.507945 -0.464952 -0.4174 -0.365652 -0.310302 -0.252108 -0.192089 -0.131432 -0.0714882 -0.0135591 0.0411561 0.0917157 0.13798 0.180697 0.221601 0.262475 0.303573 0.342461 0.373509 0.39 0.387523 0.366543 0.332343 0.291818 0.25008 0.209313 0.170864 0.137312 0.111766 0.0952457 0.0848318 0.0757478 0.0650295 0.0534246 0.0447066 0.0428597 0.0499602 0.0646568 0.0817335 0.0940039 0.0961895 0.0887473 0.077952 0.0713436 0.0715348 0.0740662 0.0708599 0.057436 0.0375756 0.0212493 0.0159208 0.0191571 0.0203908 0.0114035 -0.00407911 -0.0136018 -0.00988111 -0.000423121 5.29822e-05 -0.0114826 -0.0214922 -0.0166916 -0.00325713 -7.51409e-05 -0.0109317 -0.0172515 -0.00703915 0.00541549 0.00352753 -0.0044344 -0.0022329 0.00641342 0.00835844 0.00435917 0.00307995 0.0049283 0.00527333 0.00374139 0.0025759 0.00216313 0.00173634 0.000825302 0 0 
0 0 0.000501839 0.00110124 0.00149958 0.00205136 0.00312212 0.00436587 0.0046011 0.00447985 0.00659429 0.00926962 0.00681631 0.00159383 0.00320879 0.00902188 0.0050895 -0.00713358 -0.00993608 -0.000666531 0.00227486 -0.00914497 -0.0193494 -0.0144083 -0.00273295 -0.000920832 -0.010098 -0.0162064 -0.00937838 0.00434153 0.011722 0.00857396 0.00360088 0.00783695 0.0227365 0.0395253 0.048844 0.0496039 0.0491973 0.0558376 0.0711427 0.089123 0.101567 0.104518 0.100878 0.0977642 0.101393 0.113371 0.130544 0.147747 0.161465 0.171892 0.182343 0.197305 0.219604 0.248782 0.28128 0.311636 0.334712 0.347134 0.347825 0.337499 0.317582 0.289299 0.253222 0.209469 0.15782 0.0982677 0.0311972 -0.0424939 -0.121368 -0.203465 -0.28657 -0.368189 -0.446067 -0.518125 -0.582705 -0.638853 -0.685944 -0.723928 -0.753187 -0.77436 -0.788369 -0.79608 -0.798531 -0.796687 -0.791408 -0.783555 -0.773827 -0.762953 -0.751414 -0.739708 -0.72826 -0.717426 -0.707466 -0.698699 -0.691193 -0.685244 -0.680872 -0.678216 -0.677308 -0.678214 -0.680869 -0.685246 -0.691197 -0.698704 -0.70747 -0.717432 -0.728267 -0.739716 -0.751418 -0.762954 -0.773822 -0.783546 -0.791395 -0.796675 -0.798529 -0.796085 -0.788367 -0.774355 -0.753171 -0.723894 -0.685944 -0.63906 -0.583517 -0.520212 -0.450302 -0.375209 -0.296082 -0.213562 -0.128336 -0.0419743 0.0418874 0.117821 0.180448 0.227478 0.261305 0.287635 0.311133 0.331917 0.345521 0.346769 0.333949 0.309851 0.279539 0.247885 0.219087 0.196246 0.180654 0.170149 0.159879 0.145991 0.12845 0.111197 0.0993963 0.0958624 0.0988735 0.102497 0.0997421 0.0875257 0.0696473 0.054409 0.0479791 0.0486815 0.0480989 0.0388704 0.0222139 0.00753503 0.00352278 0.0085835 0.0117737 0.0044796 -0.00907275 -0.0157333 -0.00965162 -0.000599014 -0.00244562 -0.0140139 -0.0189649 -0.00891455 0.00231694 -0.000644969 -0.0098473 -0.00712456 0.00493985 0.00880169 0.00304569 0.00146046 0.00664623 0.00909896 0.0064796 0.0044199 0.00458001 0.0043864 0.00318038 0.00213971 0.00162728 0.000787245 0 0 
0 0 0.000462834 0.00101929 0.00146864 0.00228973 0.00328058 0.00391065 0.00473263 0.00697256 0.0089132 0.00742819 0.00560509 0.00887667 0.0118545 0.00570245 -0.00242327 0.00020209 0.00677358 0.0015525 -0.0110745 -0.0133288 -0.00389811 0.000903152 -0.00675508 -0.0153243 -0.0120104 -0.000118307 0.00695705 0.00344582 -0.00253831 0.000282581 0.0130104 0.0262803 0.0313107 0.029102 0.0286437 0.0375709 0.0553236 0.0743919 0.0878006 0.0950661 0.102259 0.11672 0.141554 0.17377 0.206933 0.235708 0.258932 0.279436 0.301462 0.327193 0.354977 0.379976 0.395784 0.397325 0.382192 0.350819 0.305883 0.250867 0.18879 0.121666 0.0499164 -0.0269727 -0.109783 -0.198666 -0.292475 -0.388464 -0.482778 -0.571361 -0.650292 -0.716705 -0.768801 -0.806031 -0.828849 -0.838362 -0.836185 -0.824113 -0.803907 -0.777308 -0.745762 -0.710749 -0.673305 -0.634378 -0.594777 -0.555256 -0.516276 -0.478403 -0.442035 -0.407556 -0.375319 -0.345526 -0.318436 -0.294184 -0.273019 -0.254914 -0.239989 -0.228372 -0.22001 -0.21498 -0.213237 -0.214978 -0.220006 -0.228374 -0.23999 -0.254918 -0.273024 -0.294193 -0.318447 -0.345535 -0.375315 -0.407552 -0.442029 -0.478395 -0.516262 -0.55525 -0.594778 -0.634377 -0.6733 -0.710731 -0.745726 -0.777308 -0.804126 -0.824943 -0.838299 -0.842627 -0.835915 -0.815586 -0.778911 -0.723677 -0.649799 -0.560818 -0.463596 -0.366425 -0.275144 -0.191031 -0.111392 -0.0328317 0.0451788 0.120022 0.188753 0.250284 0.304436 0.349596 0.381791 0.397054 0.394803 0.37837 0.353365 0.325702 0.299732 0.277352 0.25679 0.233714 0.204894 0.171551 0.139345 0.114706 0.100412 0.093288 0.0861397 0.0730249 0.0542329 0.0366194 0.0278117 0.0284707 0.0309309 0.026047 0.0128471 0.000196234 -0.00243377 0.00374277 0.0073665 0.000316977 -0.0114817 -0.0147747 -0.00636407 0.00115826 -0.00365003 -0.0130096 -0.0108197 0.00160198 0.00672242 0.000171745 -0.00246916 0.00554429 0.0116173 0.00867899 0.0054563 0.00727991 0.0087767 0.00689059 0.00470821 0.00392087 0.00332473 0.00239971 0.00164304 0.000718197 0 0 
0 0 0.000415877 0.000985853 0.00151433 0.00223199 0.00297265 0.00410395 0.00613531 0.00781933 0.00769643 0.00830569 0.0119402 0.0131898 0.00798495 0.00470383 0.00935603 0.0111479 0.00186322 -0.00653327 -0.00253706 0.00418572 -0.000121885 -0.0104133 -0.0118189 -0.00250372 0.00489688 0.00201569 -0.00463921 -0.0035321 0.00709257 0.0179531 0.0204665 0.0164866 0.0157594 0.025088 0.0422906 0.0595548 0.0720942 0.0828635 0.100047 0.129819 0.171825 0.219788 0.26647 0.308276 0.346148 0.383166 0.42052 0.455171 0.480456 0.488681 0.474397 0.436052 0.375831 0.298307 0.208144 0.109025 0.00297357 -0.108923 -0.225225 -0.343302 -0.459141 -0.567857 -0.664548 -0.745353 -0.807795 -0.85049 -0.873559 -0.877901 -0.865289 -0.837775 -0.797841 -0.748048 -0.690662 -0.62781 -0.561245 -0.492504 -0.422818 -0.353308 -0.284846 -0.218313 -0.154438 -0.093763 -0.0368886 0.015857 0.064262 0.108124 0.147471 0.18238 0.212967 0.239499 0.262186 0.281331 0.297192 0.310155 0.320349 0.328075 0.333445 0.336616 0.337653 0.336618 0.333444 0.328075 0.320347 0.310154 0.29719 0.281321 0.262171 0.23949 0.212964 0.18238 0.147478 0.108136 0.0642762 0.0158695 -0.0368925 -0.0937626 -0.154425 -0.218279 -0.284847 -0.353524 -0.42365 -0.494625 -0.565497 -0.634821 -0.700138 -0.758034 -0.804719 -0.83736 -0.855079 -0.859356 -0.852376 -0.833971 -0.800655 -0.74691 -0.669863 -0.57188 -0.46024 -0.343072 -0.225582 -0.109973 0.00230582 0.109082 0.208151 0.297501 0.374479 0.43473 0.473125 0.487068 0.478451 0.453088 0.418498 0.381018 0.343788 0.305969 0.264358 0.217791 0.169877 0.128046 0.0985428 0.0815864 0.0709054 0.0585063 0.0414688 0.0244601 0.0152514 0.0160489 0.0202006 0.0178946 0.00717823 -0.00337444 -0.00444006 0.00232818 0.00515992 -0.00219919 -0.0114525 -0.0100925 4.01679e-05 0.00425892 -0.00240237 -0.00639729 0.00187701 0.0110139 0.00921029 0.00459469 0.00782154 0.0129644 0.0117325 0.00815515 0.00757967 0.00772867 0.00608594 0.00410302 0.00302758 0.00235079 0.00165249 0.000713018 0 0 
0 0 0.000390308 0.000929936 0.00139895 0.00200935 0.00302916 0.00467802 0.00622952 0.00713281 0.00906536 0.0125629 0.013489 0.0108227 0.0113602 0.0158264 0.0141298 0.00547619 0.0028043 0.00846999 0.00881622 -0.000670098 -0.00704132 -0.00193492 0.00546268 0.0039726 -0.00327164 -0.00460669 0.00368832 0.0129846 0.0144427 0.00994768 0.00921154 0.0186685 0.0351883 0.051214 0.0640774 0.0791662 0.105399 0.147032 0.200784 0.258812 0.314879 0.367514 0.418568 0.46874 0.514201 0.546762 0.556763 0.537335 0.486439 0.407075 0.304863 0.185688 0.0542553 -0.0862535 -0.232855 -0.381458 -0.52646 -0.660799 -0.776902 -0.868015 -0.929312 -0.958349 -0.95579 -0.924811 -0.870468 -0.798562 -0.714536 -0.622942 -0.527077 -0.429327 -0.331429 -0.234838 -0.140969 -0.0511591 0.0331831 0.110921 0.181069 0.242964 0.296233 0.340726 0.37674 0.404755 0.425448 0.439601 0.448191 0.452053 0.452241 0.449444 0.444587 0.438326 0.431292 0.423983 0.416847 0.41029 0.404583 0.399901 0.396443 0.39433 0.393651 0.394327 0.396441 0.399901 0.404575 0.41028 0.416838 0.423975 0.43128 0.438315 0.444578 0.449449 0.452248 0.452064 0.448206 0.439608 0.425448 0.404767 0.376769 0.340722 0.296007 0.242125 0.17897 0.106742 0.0263177 -0.0604079 -0.150718 -0.241568 -0.33109 -0.419565 -0.509335 -0.602765 -0.698932 -0.79192 -0.871991 -0.92966 -0.959274 -0.959069 -0.928879 -0.868165 -0.777553 -0.660979 -0.52599 -0.381177 -0.233361 -0.0872318 0.0533445 0.184725 0.303451 0.405222 0.484478 0.535343 0.554586 0.544408 0.511926 0.466607 0.416488 0.365446 0.312981 0.257129 0.199206 0.145568 0.104087 0.0780885 0.0631632 0.0503927 0.0345191 0.0181972 0.00894555 0.00979408 0.0143743 0.0130592 0.00393922 -0.00422679 -0.00290501 0.0041957 0.00563185 -0.00173948 -0.00679606 -0.000544956 0.00880574 0.00841506 0.0027777 0.0054066 0.0139318 0.0156019 0.0111715 0.0106397 0.0132832 0.012379 0.0089384 0.00704613 0.00617454 0.00467199 0.00307933 0.00210227 0.00151362 0.000687841 0 0 
0 0 0.000351508 0.000811409 0.00121844 0.00194921 0.00313215 0.00444703 0.00578583 0.0081292 0.0113164 0.0127052 0.0126784 0.015579 0.0193337 0.0167979 0.0116074 0.0132744 0.0171862 0.012293 0.00327755 0.00280158 0.00904237 0.00947847 0.00208377 -0.00220637 0.00296021 0.0109463 0.0123474 0.00785792 0.00716306 0.0167522 0.033528 0.0503585 0.0658886 0.0870929 0.122418 0.173997 0.236181 0.300556 0.362274 0.421156 0.478018 0.529877 0.568398 0.582485 0.56322 0.507341 0.417616 0.300301 0.162346 0.00942828 -0.153736 -0.322108 -0.488916 -0.645467 -0.781737 -0.888446 -0.958637 -0.989069 -0.980419 -0.936565 -0.86339 -0.767212 -0.654266 -0.530149 -0.400197 -0.269163 -0.141597 -0.0213579 0.088384 0.185414 0.268221 0.335894 0.388251 0.425486 0.448387 0.458269 0.456673 0.445437 0.426457 0.401676 0.372951 0.341825 0.309674 0.277588 0.2464 0.21676 0.189195 0.163871 0.140983 0.120651 0.102753 0.0872751 0.0741066 0.0632194 0.054477 0.0477647 0.0430589 0.0402009 0.0393004 0.0401984 0.0430534 0.0477551 0.0544686 0.0632064 0.0740953 0.0872625 0.102736 0.120645 0.140994 0.163884 0.1892 0.216764 0.246415 0.277596 0.309688 0.341856 0.372937 0.401447 0.425625 0.443365 0.452592 0.451613 0.439454 0.416079 0.381749 0.336176 0.277507 0.202254 0.107481 -0.00667773 -0.135456 -0.27066 -0.404705 -0.533243 -0.654762 -0.76666 -0.863355 -0.936906 -0.980201 -0.988271 -0.958095 -0.888624 -0.782251 -0.645924 -0.48953 -0.323264 -0.155347 0.00768336 0.160511 0.298242 0.415373 0.505178 0.561122 0.580325 0.566236 0.527843 0.476151 0.419335 0.360569 0.299064 0.2349 0.172858 0.121391 0.0862486 0.0652666 0.049897 0.0331687 0.0165527 0.00713819 0.00802167 0.0125753 0.0112251 0.00328597 -0.00186888 0.00233313 0.00961632 0.00912764 0.00292659 0.00334652 0.0122322 0.0170162 0.0131293 0.0114556 0.016574 0.0190685 0.0153551 0.0124932 0.0125292 0.0111682 0.00803207 0.00573623 0.00443764 0.00316173 0.00202762 0.00135636 0.000598026 0 0 
0 0 0.000291209 0.000695801 0.00111268 0.00184973 0.00281642 0.00408301 0.00621357 0.00894517 0.0108332 0.0126552 0.016702 0.0201123 0.018834 0.0177725 0.0217416 0.023244 0.0168009 0.0118214 0.0151508 0.0177972 0.0119152 0.00465915 0.00581722 0.0122504 0.014 0.00984798 0.00892342 0.0185693 0.0365028 0.0560901 0.0765965 0.105353 0.150185 0.211138 0.280482 0.349481 0.413883 0.473346 0.526337 0.566035 0.581087 0.560902 0.500365 0.401556 0.271729 0.119595 -0.0472411 -0.222397 -0.399099 -0.568457 -0.719604 -0.840981 -0.922859 -0.959643 -0.950668 -0.900044 -0.814914 -0.703961 -0.575676 -0.437621 -0.296198 -0.156654 -0.0233836 0.0996877 0.208958 0.301025 0.372952 0.422812 0.45 0.45572 0.4425 0.413939 0.373976 0.32661 0.275356 0.223173 0.172319 0.124512 0.0807127 0.0416378 0.00741752 -0.0219139 -0.0466959 -0.0672029 -0.0839537 -0.0974621 -0.108089 -0.116302 -0.122535 -0.127134 -0.130474 -0.132795 -0.134347 -0.135336 -0.135888 -0.136202 -0.136349 -0.136433 -0.136432 -0.136436 -0.13636 -0.136213 -0.135904 -0.135355 -0.134358 -0.132803 -0.130483 -0.127139 -0.122524 -0.116291 -0.108077 -0.0974591 -0.0839426 -0.0671869 -0.0466685 -0.0219341 0.00717722 0.0408151 0.0786849 0.12053 0.16587 0.214589 0.266353 0.320402 0.374238 0.422767 0.458469 0.473769 0.463792 0.428486 0.371437 0.296768 0.206107 0.0993266 -0.0228064 -0.156522 -0.296315 -0.437163 -0.574647 -0.703213 -0.814777 -0.900117 -0.950674 -0.95991 -0.923719 -0.842274 -0.721006 -0.570011 -0.400929 -0.22441 -0.049276 0.117557 0.269576 0.399373 0.498298 0.558941 0.579184 0.564227 0.524731 0.471909 0.412528 0.348254 0.279439 0.21028 0.149436 0.104732 0.0761502 0.0558662 0.0363766 0.0185472 0.00897802 0.0100451 0.0141388 0.0123698 0.00597047 0.00479579 0.0119362 0.0177157 0.0150686 0.0117631 0.0166508 0.023006 0.0214956 0.0175549 0.0185975 0.0198562 0.0164807 0.0124848 0.0106963 0.00884245 0.00615528 0.00406502 0.00283873 0.00193046 0.00124235 0.000514513 0 0 
0 0 0.000238345 0.000599049 0.000982656 0.00157119 0.00249814 0.00409898 0.00622296 0.00822583 0.0108443 0.0151118 0.0185469 0.0193014 0.0216299 0.0265875 0.0269729 0.0224078 0.0221599 0.0261751 0.0242042 0.0162738 0.013111 0.0171741 0.019638 0.0162585 0.0147958 0.024264 0.0440315 0.0677539 0.0946925 0.131929 0.186357 0.256309 0.332317 0.404619 0.468643 0.522679 0.562174 0.577171 0.555704 0.490023 0.380704 0.235942 0.0670711 -0.114985 -0.300862 -0.481502 -0.646205 -0.782756 -0.878873 -0.925571 -0.919604 -0.864051 -0.767219 -0.640348 -0.495105 -0.341978 -0.189555 -0.0447954 0.0866438 0.200068 0.291492 0.35798 0.398281 0.412946 0.404466 0.376714 0.334251 0.281667 0.223298 0.163059 0.104347 0.0499462 0.00184382 -0.0387393 -0.0712801 -0.0959656 -0.113469 -0.124639 -0.130432 -0.13189 -0.129796 -0.124976 -0.118076 -0.109735 -0.100383 -0.0905381 -0.0804492 -0.0704286 -0.0607305 -0.0515326 -0.0430222 -0.0353301 -0.028512 -0.0226595 -0.0177804 -0.0139895 -0.0112772 -0.00964312 -0.00903808 -0.00965117 -0.0112845 -0.0139988 -0.0177927 -0.022675 -0.0285264 -0.0353352 -0.0430151 -0.0515265 -0.0607141 -0.0704219 -0.0804388 -0.090527 -0.100359 -0.109705 -0.1181 -0.12522 -0.130618 -0.133883 -0.134307 -0.130884 -0.121736 -0.104551 -0.0771444 -0.0384453 0.0102274 0.0650738 0.121404 0.176039 0.22858 0.280135 0.33016 0.373994 0.404072 0.413452 0.398395 0.357966 0.292096 0.201203 0.0875564 -0.0444067 -0.189274 -0.341621 -0.495045 -0.640865 -0.768088 -0.865025 -0.920781 -0.927126 -0.880645 -0.784584 -0.648139 -0.483559 -0.30293 -0.116971 0.0651437 0.234017 0.378879 0.488304 0.5541 0.57562 0.560751 0.521433 0.467538 0.403632 0.331489 0.255686 0.185888 0.131567 0.0944148 0.0676207 0.0439982 0.0242831 0.0149082 0.0163221 0.0196268 0.0171582 0.0130855 0.0161951 0.0240017 0.0259223 0.0219401 0.0221627 0.026673 0.0262785 0.0213721 0.0190708 0.0183194 0.0149238 0.0107125 0.00813094 0.00615879 0.00407429 0.0025196 0.00163799 0.00107579 0.000452898 0 0 
0 0 0.00019475 0.000482659 0.000782107 0.00132543 0.0023321 0.00378199 0.00548456 0.00801961 0.0118276 0.0152394 0.0176873 0.0220691 0.0274109 0.0283725 0.0273751 0.0307672 0.0338012 0.0294671 0.0238836 0.0250756 0.0284529 0.0269455 0.0254379 0.0344264 0.056146 0.0850828 0.119355 0.165248 0.228947 0.307284 0.388906 0.462639 0.522447 0.564662 0.582003 0.562762 0.496281 0.379684 0.220141 0.0316542 -0.170392 -0.372292 -0.561719 -0.725799 -0.850632 -0.923339 -0.93549 -0.886326 -0.782919 -0.638538 -0.469202 -0.290447 -0.115419 0.0456956 0.185272 0.29749 0.378184 0.425007 0.437806 0.419057 0.373724 0.30867 0.231906 0.151396 0.0744388 0.00666734 -0.0482277 -0.0888373 -0.11574 -0.1306 -0.13581 -0.133499 -0.125522 -0.113222 -0.0976277 -0.0796312 -0.0599994 -0.0394653 -0.0186682 0.00183444 0.0215503 0.0401267 0.0572397 0.0727134 0.0864284 0.0982913 0.108448 0.116943 0.123861 0.129419 0.133768 0.137076 0.139522 0.141283 0.142569 0.143382 0.1439 0.144166 0.14428 0.14416 0.143891 0.143373 0.14256 0.141274 0.139516 0.13707 0.133774 0.129431 0.12388 0.116951 0.10846 0.0983105 0.0864532 0.0726919 0.0569942 0.0393078 0.0195873 -0.00194175 -0.0247029 -0.047396 -0.0681798 -0.085149 -0.0972867 -0.105248 -0.11121 -0.117384 -0.123546 -0.125614 -0.1172 -0.0927715 -0.0508965 0.00617776 0.0747865 0.151439 0.231872 0.309297 0.374878 0.419997 0.438352 0.425531 0.378814 0.29782 0.1851 0.045265 -0.115954 -0.291266 -0.470423 -0.64003 -0.784477 -0.887991 -0.937333 -0.925201 -0.85243 -0.727636 -0.56359 -0.374113 -0.172128 0.0299449 0.218486 0.378161 0.494896 0.561485 0.580826 0.563677 0.521639 0.46197 0.388301 0.306808 0.228535 0.164864 0.11882 0.0843571 0.0556761 0.0342304 0.0253403 0.0268057 0.0282633 0.024909 0.0236951 0.0292073 0.0334486 0.0304354 0.0270826 0.0280532 0.0270975 0.0218124 0.0174769 0.0150607 0.0116899 0.00792554 0.00542611 0.00375761 0.00234245 0.00137022 0.000867401 0.000368886 0 0 
0 0 0.000145148 0.000360236 0.000610619 0.00113784 0.00198063 0.00315812 0.00510091 0.00804078 0.0110787 0.0142793 0.0193663 0.0247426 0.0271388 0.0296617 0.0351858 0.0375183 0.034099 0.0331233 0.0372527 0.0394557 0.0396544 0.0485026 0.0723629 0.107283 0.14979 0.204375 0.276499 0.362058 0.447851 0.520288 0.571373 0.595329 0.583084 0.522885 0.40725 0.239364 0.0334688 -0.190817 -0.414167 -0.619684 -0.79178 -0.914815 -0.974893 -0.963308 -0.880624 -0.737164 -0.5509 -0.34307 -0.133567 0.0612197 0.229007 0.361324 0.452576 0.499868 0.503529 0.467421 0.398848 0.307908 0.205908 0.103939 0.0113266 -0.0653195 -0.122394 -0.159099 -0.176641 -0.177415 -0.164354 -0.140704 -0.109657 -0.0745411 -0.0381372 -0.00285078 0.0296102 0.0584439 0.0831095 0.103478 0.119511 0.131315 0.139052 0.142935 0.143332 0.140649 0.135443 0.128201 0.119469 0.109708 0.0994572 0.0890924 0.0789067 0.0692473 0.060286 0.0521407 0.0450045 0.0388468 0.0338373 0.0298951 0.0270771 0.0253785 0.0248201 0.0253707 0.0270726 0.0298879 0.0338341 0.0388465 0.0449966 0.0521408 0.0602905 0.0692619 0.0789259 0.0891046 0.0994703 0.10973 0.119441 0.127959 0.134634 0.138719 0.139635 0.137094 0.13144 0.123545 0.114344 0.103897 0.0907017 0.0719494 0.0447938 0.00875199 -0.033325 -0.0758108 -0.113358 -0.143317 -0.164961 -0.177251 -0.176752 -0.159221 -0.121859 -0.0642455 0.0122541 0.104524 0.206548 0.308695 0.399401 0.467541 0.50345 0.499701 0.452106 0.360456 0.227905 0.0600094 -0.13493 -0.344611 -0.552506 -0.738766 -0.882277 -0.965057 -0.976595 -0.916491 -0.793447 -0.621328 -0.415698 -0.192263 0.0320862 0.238123 0.40615 0.521929 0.582171 0.594483 0.570558 0.519426 0.44679 0.360674 0.274636 0.201932 0.147861 0.105967 0.0715479 0.0480229 0.039285 0.0390935 0.036907 0.0327973 0.0337656 0.0371262 0.0348139 0.0293383 0.0268443 0.0244705 0.0191458 0.0141161 0.010952 0.00794806 0.00504573 0.00313272 0.00198031 0.00117459 0.000693411 0.000274713 0 0 
0 0 9.70206e-05 0.000260632 0.000472861 0.000871058 0.00153168 0.00274936 0.00469744 0.00701634 0.010032 0.014732 0.0197201 0.0233307 0.0282032 0.0347294 0.0374655 0.0372837 0.041303 0.04803 0.0528831 0.0629146 0.0888606 0.130627 0.183032 0.247185 0.327301 0.418971 0.507136 0.575359 0.613034 0.612741 0.565053 0.459868 0.294264 0.0785382 -0.165903 -0.413786 -0.641896 -0.830631 -0.962502 -1.02239 -1.00078 -0.8982 -0.727152 -0.509455 -0.271433 -0.0377319 0.171713 0.342882 0.466959 0.53916 0.558789 0.529511 0.459352 0.360289 0.246539 0.132314 0.0296075 -0.0532182 -0.112055 -0.146504 -0.159086 -0.153832 -0.135195 -0.107474 -0.0743894 -0.0388956 -0.00318957 0.0309717 0.0620933 0.0887422 0.109446 0.12293 0.128695 0.126881 0.118272 0.104247 0.0863296 0.0660938 0.0449535 0.0239691 0.00408249 -0.0141749 -0.030329 -0.0442498 -0.0558379 -0.0653032 -0.0726729 -0.0782357 -0.0822875 -0.0850251 -0.0866885 -0.0876471 -0.0880548 -0.0880714 -0.0878557 -0.0875424 -0.0873032 -0.0871067 -0.0870167 -0.0871109 -0.0873012 -0.08754 -0.08785 -0.0880702 -0.0880607 -0.0876504 -0.0866842 -0.085004 -0.0822617 -0.0782118 -0.0726523 -0.0653334 -0.056081 -0.045044 -0.0322261 -0.0177848 -0.00158383 0.0166623 0.0375767 0.0612799 0.0868476 0.111515 0.131007 0.141136 0.13963 0.127579 0.108434 0.0853926 0.0596136 0.0302781 -0.00318502 -0.0391628 -0.0746591 -0.107096 -0.134285 -0.153024 -0.158531 -0.145866 -0.111238 -0.0525639 0.0299174 0.132487 0.246653 0.360126 0.458822 0.528784 0.557948 0.538119 0.465718 0.341588 0.170354 -0.0391754 -0.272964 -0.510972 -0.728649 -0.899754 -1.00231 -1.02386 -0.96393 -0.832024 -0.643183 -0.414952 -0.167058 0.0773844 0.2931 0.458592 0.563521 0.610755 0.610441 0.571984 0.502724 0.413446 0.322626 0.243726 0.180564 0.12895 0.087776 0.0622089 0.0523165 0.0475265 0.040868 0.0368909 0.037078 0.0343623 0.0279025 0.0230802 0.0195078 0.0145714 0.00991922 0.00693628 0.00464381 0.00272072 0.00152919 0.000900339 0.000528062 0.000201573 0 0 
0 0 6.043e-05 0.00016977 0.000311473 0.000595175 0.00120803 0.00228938 0.0037683 0.0060144 0.00964459 0.0137756 0.0177435 0.0234505 0.0301497 0.0340841 0.0379534 0.0467198 0.0577179 0.071266 0.0984085 0.145846 0.20911 0.284984 0.374809 0.473301 0.563509 0.625614 0.646224 0.617127 0.530029 0.378162 0.164466 -0.0931418 -0.365817 -0.622641 -0.837156 -0.988535 -1.06011 -1.04135 -0.931797 -0.744399 -0.504234 -0.242665 0.00998169 0.22977 0.400764 0.514518 0.568308 0.564541 0.510892 0.419772 0.307232 0.190251 0.0841189 -0.000348639 -0.0577695 -0.0881101 -0.0950916 -0.0844964 -0.0625522 -0.0347015 -0.00532184 0.0223497 0.0460925 0.0644153 0.0761403 0.0808778 0.0785797 0.069948 0.0563681 0.0392893 0.0203087 0.000635659 -0.0186783 -0.0366859 -0.052487 -0.065426 -0.0748296 -0.080495 -0.0824017 -0.0809261 -0.0766018 -0.0700419 -0.0619568 -0.0528783 -0.0434764 -0.0340627 -0.0249917 -0.0164796 -0.00872029 -0.00172619 0.00446084 0.00971394 0.014191 0.0178708 0.0208368 0.0230708 0.0246429 0.0255725 0.0259243 0.0255731 0.0246558 0.0230851 0.020844 0.017871 0.0141856 0.009716 0.00447123 -0.00170125 -0.008683 -0.0164523 -0.0250244 -0.0343126 -0.0442651 -0.0547395 -0.065488 -0.0755466 -0.0836344 -0.0879264 -0.0868633 -0.0798306 -0.0678368 -0.0534118 -0.0391773 -0.0264729 -0.0142124 -8.45536e-05 0.0173799 0.0370348 0.0556543 0.0698636 0.0782305 0.0805087 0.0763623 0.0651262 0.0467383 0.0227686 -0.00475912 -0.0339239 -0.0619125 -0.0841263 -0.0947811 -0.0878295 -0.0577316 -0.000602274 0.083737 0.189765 0.306504 0.418826 0.509879 0.563463 0.567114 0.513287 0.399548 0.228492 0.00862291 -0.244026 -0.505564 -0.745752 -0.933111 -1.04261 -1.06128 -0.98974 -0.838474 -0.624137 -0.367676 -0.0955824 0.161276 0.374035 0.524758 0.610556 0.638378 0.616778 0.555247 0.466432 0.369473 0.28103 0.206305 0.143972 0.0972023 0.0704468 0.0570827 0.04623 0.037557 0.0337269 0.029834 0.0232088 0.0175587 0.0136279 0.00954004 0.00594586 0.00372192 0.00226255 0.00120201 0.00060799 0.000345472 0.000134505 0 0 
0 0 2.85667e-05 8.05268e-05 0.000160885 0.000391677 0.000862627 0.00161414 0.00295657 0.00529793 0.00823306 0.0116813 0.016922 0.0231017 0.0282687 0.0357814 0.0491636 0.0670765 0.0945406 0.142899 0.213809 0.300879 0.401175 0.508566 0.603786 0.662061 0.665953 0.606975 0.479769 0.282571 0.0250864 -0.26652 -0.555736 -0.806376 -0.990079 -1.08668 -1.08414 -0.980329 -0.787108 -0.531064 -0.248426 0.0238404 0.255825 0.42859 0.533586 0.570647 0.546089 0.472002 0.365435 0.246332 0.134147 0.0442765 -0.0145724 -0.0410494 -0.0397135 -0.0188732 0.0125515 0.046483 0.0769639 0.100044 0.113603 0.116647 0.109224 0.0920553 0.066688 0.0353419 0.00094058 -0.0334237 -0.0647049 -0.0902774 -0.108099 -0.117015 -0.116867 -0.108624 -0.0940972 -0.0754361 -0.0547923 -0.0340027 -0.0143795 0.0034005 0.0188836 0.0319678 0.0426892 0.0511783 0.0575838 0.0622103 0.0652086 0.0669292 0.0676239 0.0675237 0.0668178 0.0657949 0.0645139 0.0630626 0.0616978 0.0603975 0.0592743 0.0583457 0.0576465 0.0572486 0.0570926 0.057257 0.057658 0.0583501 0.0592763 0.0603958 0.061694 0.0630654 0.0645417 0.0658396 0.0668628 0.0675017 0.0673747 0.066138 0.0633782 0.0587575 0.0522346 0.044391 0.0360151 0.0278438 0.019707 0.0101918 -0.00302082 -0.021606 -0.0453419 -0.0712228 -0.0945533 -0.111108 -0.118836 -0.117701 -0.108259 -0.0906492 -0.0650981 -0.033306 0.00149477 0.0358272 0.0669843 0.0924546 0.109853 0.117193 0.113936 0.100365 0.0772854 0.046604 0.0124599 -0.0190369 -0.0399611 -0.0415042 -0.0152366 0.0435616 0.133391 0.245444 0.364475 0.471033 0.545056 0.569526 0.532491 0.427494 0.254702 0.0227192 -0.249502 -0.532163 -0.788374 -0.981861 -1.08613 -1.0894 -0.993705 -0.811118 -0.561713 -0.273892 0.0165101 0.27308 0.470078 0.59769 0.656215 0.65247 0.595133 0.501359 0.395588 0.296782 0.21099 0.141089 0.0933935 0.066316 0.0486344 0.0354073 0.0279854 0.0228701 0.0167499 0.0115617 0.00814533 0.00523692 0.00291888 0.00159154 0.000850246 0.000393419 0.000188361 6.39687e-05 0 0 
0 0 -8.85196e-07 1.04536e-05 5.34494e-05 0.000187566 0.000454779 0.00106173 0.00227702 0.00398936 0.00639012 0.0103882 0.0155221 0.0213579 0.0315329 0.0493114 0.0758891 0.119217 0.188493 0.280727 0.387592 0.501221 0.602611 0.661516 0.653694 0.569151 0.406506 0.170273 -0.122344 -0.437117 -0.729852 -0.959645 -1.09752 -1.12702 -1.0438 -0.857271 -0.593133 -0.290823 0.0056281 0.258093 0.441752 0.546344 0.573357 0.533022 0.441985 0.321809 0.196117 0.0869242 0.00998963 -0.0277982 -0.0286959 -0.00173072 0.0409728 0.0875672 0.128845 0.158637 0.173922 0.173611 0.158341 0.129963 0.091425 0.0466287 0.000143183 -0.0433844 -0.0798839 -0.106379 -0.121183 -0.124211 -0.116695 -0.100851 -0.0792108 -0.0544506 -0.0288247 -0.00427225 0.0177064 0.0358576 0.0494784 0.0582862 0.0625298 0.06281 0.0600335 0.0551886 0.0490656 0.042348 0.0355152 0.0288842 0.0225652 0.0167174 0.0113645 0.00654852 0.00225756 -0.00152257 -0.00480858 -0.00764566 -0.0100199 -0.0119945 -0.0135353 -0.0147495 -0.0155833 -0.0160967 -0.0162623 -0.0160856 -0.0155764 -0.0147397 -0.0135348 -0.0119966 -0.0100202 -0.00762789 -0.00476799 -0.00147275 0.00225219 0.00631523 0.010586 0.0149119 0.0191917 0.0236782 0.0289576 0.0359768 0.0452488 0.0561885 0.066686 0.073617 0.0740704 0.066925 0.0533403 0.0356072 0.0156921 -0.00591512 -0.0294525 -0.0546711 -0.0795953 -0.101208 -0.116609 -0.123753 -0.120791 -0.106206 -0.0796262 -0.0429211 0.000536152 0.0468301 0.0916324 0.130243 0.158475 0.173554 0.173861 0.158546 0.128553 0.087142 0.0405115 -0.0022359 -0.0293056 -0.0284769 0.00928228 0.0861793 0.195315 0.320974 0.441192 0.532183 0.572536 0.545479 0.440769 0.256716 0.00372458 -0.293519 -0.5969 -0.862307 -1.05019 -1.13479 -1.10648 -0.969368 -0.739494 -0.445697 -0.128633 0.166954 0.401139 0.56137 0.644626 0.652344 0.594297 0.494402 0.382395 0.277056 0.186083 0.117767 0.0750068 0.0487706 0.0312157 0.0211452 0.0153693 0.0102862 0.00632414 0.00394418 0.00224626 0.00104075 0.000440698 0.000184491 6.35222e-05 8.19649e-06 0 0 
0 0 -2.14574e-05 -4.10292e-05 -4.36721e-05 -1.93717e-05 0.000139646 0.000585841 0.00132643 0.00261742 0.00516045 0.00900658 0.0148377 0.0264996 0.0478527 0.0825729 0.139422 0.223969 0.328774 0.441155 0.543473 0.604107 0.58968 0.484837 0.29205 0.0246523 -0.291621 -0.615327 -0.895974 -1.08912 -1.16729 -1.12068 -0.955612 -0.69467 -0.377165 -0.0524964 0.231524 0.440421 0.558597 0.587316 0.540009 0.437705 0.306165 0.172728 0.0619633 -0.00941252 -0.0355522 -0.0214624 0.0202547 0.0742355 0.126814 0.168193 0.193084 0.199708 0.188833 0.162811 0.125274 0.080917 0.0350729 -0.0068921 -0.0404728 -0.0626828 -0.0725614 -0.0710516 -0.0607679 -0.045059 -0.0274418 -0.0108496 0.00257214 0.0117505 0.016529 0.0173539 0.015385 0.011778 0.00752892 0.00329371 -0.000621279 -0.00445715 -0.00838039 -0.0125417 -0.0168824 -0.0211685 -0.0252223 -0.0287355 -0.0316147 -0.0337251 -0.0352135 -0.0360696 -0.0364176 -0.0363339 -0.0359368 -0.0352613 -0.0344393 -0.0335232 -0.0326199 -0.0317219 -0.0309302 -0.030274 -0.0297931 -0.0294887 -0.0293669 -0.0294812 -0.0297885 -0.0302635 -0.030921 -0.0317163 -0.032606 -0.033491 -0.0343922 -0.0352533 -0.0361409 -0.0370787 -0.0381846 -0.0393712 -0.0403002 -0.0400934 -0.0377284 -0.0322657 -0.0240321 -0.0145893 -0.00652121 -0.00176233 -0.0005495 -0.00106084 -0.000778982 0.0017185 0.00627137 0.0112458 0.015113 0.0169684 0.0162167 0.0118477 0.00297425 -0.010518 -0.0272851 -0.0448735 -0.0604535 -0.0708069 -0.072514 -0.0626318 -0.0403365 -0.00684392 0.0349893 0.080863 0.125224 0.162642 0.188561 0.199446 0.192771 0.167786 0.126383 0.0738059 0.0197379 -0.0220047 -0.0360758 -0.00993112 0.0614202 0.172146 0.305462 0.436694 0.538442 0.584957 0.555065 0.43547 0.225071 -0.0603304 -0.386126 -0.704207 -0.964787 -1.12839 -1.17221 -1.09007 -0.891989 -0.606465 -0.285537 0.0258533 0.289038 0.478816 0.582024 0.596167 0.536336 0.435417 0.324569 0.221182 0.137738 0.0816168 0.0473281 0.0262271 0.0146949 0.00892022 0.00510941 0.00258855 0.00130525 0.000568276 0.000126052 -3.12362e-05 -5.35504e-05 -3.21051e-05 0 0 
0 0 -3.42903e-05 -8.39512e-05 -0.000131388 -0.00016593 -0.000124682 1.90017e-05 0.000477047 0.00179331 0.00441152 0.00973445 0.021762 0.0450854 0.0848875 0.148863 0.238145 0.340061 0.434822 0.493849 0.47853 0.362057 0.145179 -0.150837 -0.488876 -0.815793 -1.07415 -1.21826 -1.22512 -1.0951 -0.848249 -0.521597 -0.166671 0.160285 0.41225 0.563161 0.609973 0.567594 0.461565 0.32219 0.180556 0.0641121 -0.00857568 -0.0313396 -0.0111495 0.0364306 0.0931625 0.143584 0.177943 0.192587 0.18805 0.16759 0.13565 0.0976679 0.0593372 0.0262308 0.00264892 -0.00894407 -0.00866411 0.00103452 0.016151 0.0319658 0.0443602 0.0504875 0.049145 0.0406815 0.0266403 0.00921477 -0.00936026 -0.0270878 -0.0424524 -0.0545555 -0.0629854 -0.0675987 -0.0685886 -0.0663927 -0.061494 -0.054852 -0.0472008 -0.0393878 -0.0319376 -0.0249924 -0.0185884 -0.0125993 -0.00690657 -0.00136991 0.0039483 0.00895526 0.0136448 0.0179574 0.0218257 0.0252426 0.0281742 0.0306944 0.0327462 0.034454 0.0357907 0.0367761 0.0374671 0.0378692 0.0380131 0.0378742 0.0374684 0.0367767 0.0357968 0.0344637 0.0327743 0.030736 0.028177 0.0250585 0.0211234 0.0162522 0.0104189 0.00397794 -0.00226487 -0.00727936 -0.0102029 -0.0112265 -0.0120108 -0.0149568 -0.0218122 -0.0323229 -0.0443503 -0.0550666 -0.0627104 -0.0672305 -0.0689211 -0.0678973 -0.0634165 -0.0548291 -0.0423361 -0.0267171 -0.00904856 0.00936804 0.0268157 0.0409214 0.0492991 0.0504679 0.0442936 0.0319558 0.0160757 0.000856372 -0.00881677 -0.00907831 0.00244867 0.0260077 0.0591624 0.0974795 0.135395 0.167308 0.187825 0.192325 0.177651 0.143314 0.0929009 0.0360946 -0.0115407 -0.0319182 -0.00960272 0.0622453 0.177541 0.317631 0.455352 0.559939 0.601206 0.554011 0.403715 0.153604 -0.170153 -0.520731 -0.842135 -1.08357 -1.20867 -1.19832 -1.05541 -0.801364 -0.479707 -0.147016 0.144424 0.357969 0.472662 0.487644 0.429352 0.335846 0.235241 0.1471 0.0839236 0.0445942 0.0215358 0.00964198 0.00437198 0.00177369 0.000465298 7.63984e-06 -0.000139571 -0.000185711 -0.000148825 -6.78313e-05 0 0 
0 0 -4.35107e-05 -0.000112659 -0.000184851 -0.00028 -0.00039694 -0.000397958 0.000128471 0.00181707 0.00638755 0.017782 0.0409163 0.0811641 0.14371 0.224624 0.305299 0.358134 0.34701 0.235079 0.0108427 -0.302673 -0.659698 -0.996871 -1.24346 -1.34644 -1.28725 -1.07876 -0.757302 -0.375497 0.0040835 0.320843 0.531985 0.622676 0.604486 0.506395 0.364544 0.215159 0.0898613 0.0103288 -0.0157498 0.0046263 0.0535516 0.109649 0.155129 0.180136 0.182387 0.165144 0.134617 0.0977106 0.0614218 0.0320296 0.0143662 0.0109938 0.0213807 0.0419481 0.0668865 0.0898473 0.105321 0.109819 0.102596 0.0850913 0.0603389 0.0320327 0.00356935 -0.0223594 -0.0439782 -0.0603797 -0.07154 -0.077669 -0.0792604 -0.077003 -0.0714087 -0.0630412 -0.0524237 -0.0400926 -0.0265272 -0.0123822 0.00141427 0.0140397 0.0247215 0.0330025 0.0387154 0.0420783 0.0435027 0.0434058 0.0421738 0.0400622 0.0374582 0.0345001 0.0313453 0.0281749 0.0251042 0.0222216 0.0196002 0.0173155 0.0154691 0.013962 0.0128415 0.0122191 0.0119815 0.0122209 0.0128426 0.0139663 0.0154813 0.0173448 0.0196384 0.0222271 0.0249253 0.0274985 0.0297014 0.0313681 0.0326152 0.0340064 0.0364273 0.0402733 0.0450207 0.0486853 0.0485535 0.0426292 0.0310871 0.0162764 0.000972646 -0.0133502 -0.0269243 -0.0401665 -0.0527087 -0.0635212 -0.0716633 -0.0768266 -0.0789082 -0.0774132 -0.0713767 -0.0601758 -0.0437146 -0.0222172 0.00351675 0.0319385 0.0602257 0.0848543 0.102289 0.109523 0.10504 0.0895397 0.0665845 0.0417402 0.0211945 0.0107763 0.014219 0.0319252 0.0613346 0.0976052 0.134525 0.165086 0.182241 0.179888 0.154555 0.108372 0.0512027 0.000754277 -0.021348 0.00306989 0.0814474 0.206457 0.356642 0.500654 0.602237 0.624995 0.539623 0.333771 0.0215004 -0.355218 -0.736238 -1.0587 -1.26543 -1.32431 -1.2233 -0.980739 -0.648801 -0.297208 0.011648 0.232593 0.342884 0.35379 0.301603 0.221945 0.14204 0.0802503 0.0404753 0.0176041 0.00632872 0.0017993 0.000122268 -0.000405341 -0.000411623 -0.000301748 -0.000210862 -9.35191e-05 0 0 
0 0 -4.71867e-05 -0.00012463 -0.000216618 -0.000374672 -0.000527262 -0.000378739 0.000727824 0.00450598 0.0145219 0.0353316 0.0713321 0.124328 0.185311 0.230275 0.226131 0.135788 -0.0667704 -0.370977 -0.728552 -1.06982 -1.31521 -1.39922 -1.29941 -1.03932 -0.670981 -0.260733 0.12046 0.411294 0.575442 0.610464 0.54218 0.411305 0.260647 0.127405 0.0379417 0.00399633 0.0205599 0.0691389 0.125411 0.168509 0.186874 0.179112 0.151081 0.111726 0.0703319 0.034997 0.0120595 0.00535278 0.0154432 0.0391748 0.0702334 0.100942 0.12409 0.134953 0.131994 0.116992 0.0936117 0.0662958 0.0391715 0.0150442 -0.00449939 -0.0191577 -0.0291432 -0.0352079 -0.0379371 -0.0379617 -0.0358551 -0.0320192 -0.0269893 -0.0212829 -0.0154155 -0.00984859 -0.00505524 -0.0012858 0.00138351 0.00299428 0.00366503 0.00335505 0.00191305 -0.000683655 -0.00435826 -0.00884732 -0.0136835 -0.018455 -0.0227431 -0.0264049 -0.0292172 -0.0312852 -0.032664 -0.0334737 -0.0338499 -0.0338605 -0.0336678 -0.0333186 -0.0329732 -0.0326029 -0.0323435 -0.0321101 -0.0320286 -0.0321093 -0.032332 -0.0325877 -0.0329473 -0.0332888 -0.0336717 -0.0340332 -0.0345002 -0.0350666 -0.0357059 -0.0360085 -0.0351284 -0.0320035 -0.0257601 -0.0168647 -0.00705218 0.000887419 0.00494313 0.00511483 0.00351977 0.00254097 0.00276571 0.00300028 0.00167399 -0.00147911 -0.00559378 -0.0101053 -0.0152081 -0.0209353 -0.0267733 -0.0318645 -0.0356295 -0.0377095 -0.0377775 -0.0352312 -0.0292544 -0.0192818 -0.00477366 0.0146378 0.0387613 0.0658977 0.0931444 0.116543 0.131656 0.134678 0.123851 0.100793 0.0701726 0.0391427 0.0154423 0.00540234 0.0120825 0.0349009 0.0699822 0.110907 0.149309 0.175998 0.182071 0.161927 0.117486 0.0608068 0.0131451 -0.00108341 0.036597 0.130756 0.269213 0.424848 0.55961 0.629941 0.59463 0.42789 0.132699 -0.253294 -0.660224 -1.02348 -1.27994 -1.37852 -1.29593 -1.05424 -0.717909 -0.365438 -0.0654633 0.134327 0.223444 0.227535 0.183134 0.1229 0.070544 0.0349604 0.0143782 0.00446337 0.000717403 -0.000385451 -0.000539741 -0.000398268 -0.000253483 -0.000105131 0 0 
0 0 -4.43923e-05 -0.000124442 -0.000226449 -0.000356886 -0.000311002 0.000485961 0.00351418 0.0116972 0.0286767 0.0571309 0.0953801 0.130303 0.134735 0.0747633 -0.0801837 -0.338334 -0.66474 -0.988703 -1.22708 -1.30508 -1.1882 -0.902289 -0.515213 -0.108455 0.241624 0.478133 0.576398 0.548721 0.435284 0.286053 0.145865 0.0467354 0.00453438 0.0174216 0.0677698 0.129176 0.176798 0.195979 0.184617 0.15054 0.105587 0.061337 0.0268891 0.00810573 0.00748599 0.0236226 0.0513679 0.0828601 0.109797 0.125748 0.128025 0.117832 0.0994428 0.0781053 0.0585024 0.0434427 0.033898 0.0290855 0.0276235 0.0278398 0.0284199 0.0284622 0.027522 0.0252259 0.021496 0.016153 0.00911993 0.000602511 -0.00919812 -0.0197987 -0.0304924 -0.0404891 -0.0490797 -0.0556054 -0.0596438 -0.0608207 -0.0590706 -0.0545603 -0.0479079 -0.0399369 -0.0314754 -0.0233053 -0.0157839 -0.00900073 -0.00304206 0.00226316 0.00695901 0.0110801 0.0146771 0.0177846 0.0203384 0.0224624 0.024176 0.025554 0.0265791 0.0273229 0.0278514 0.0281942 0.0283292 0.0282044 0.027867 0.0273496 0.0266114 0.0255499 0.0240078 0.0218391 0.0187977 0.0148396 0.01008 0.00530515 0.00148515 -0.000665716 -0.00141015 -0.00236832 -0.00610459 -0.0141882 -0.0260726 -0.0388903 -0.0492176 -0.0555878 -0.0587968 -0.0601161 -0.0596165 -0.0561728 -0.0493902 -0.0402436 -0.0301322 -0.019616 -0.00907252 0.000860976 0.00940882 0.0162982 0.0215189 0.025177 0.0273769 0.0282227 0.0280372 0.0273729 0.027136 0.0285417 0.0333162 0.0429411 0.0580776 0.0777397 0.0992246 0.11774 0.127961 0.125749 0.109861 0.0828392 0.0511242 0.0229852 0.0061375 0.00563111 0.0228833 0.0555998 0.0983479 0.142604 0.177434 0.191148 0.175863 0.133098 0.0768437 0.0310858 0.0214915 0.0649613 0.162902 0.299601 0.443625 0.551161 0.573317 0.470987 0.236159 -0.108744 -0.509433 -0.890767 -1.17247 -1.28765 -1.21072 -0.975601 -0.656024 -0.333949 -0.07916 0.0738337 0.133102 0.128772 0.0942972 0.0565078 0.028378 0.0115806 0.00347798 0.000473912 -0.000323705 -0.000381296 -0.000258763 -0.00010658 0 0 
0 0 -3.53531e-05 -9.73916e-05 -0.000155951 -8.94936e-05 0.000546737 0.00289681 0.00911473 0.0216681 0.0413863 0.063818 0.0736182 0.0437938 -0.0551344 -0.241421 -0.502978 -0.783994 -1.00162 -1.0771 -0.963323 -0.673823 -0.282919 0.112224 0.425176 0.598982 0.621035 0.521425 0.355771 0.183381 0.0495288 -0.0216154 -0.0263833 0.0199024 0.0891293 0.150874 0.183425 0.180544 0.149731 0.105485 0.0623442 0.0307429 0.0162185 0.0198409 0.0385067 0.065643 0.0926018 0.111398 0.116857 0.108758 0.0911691 0.0703942 0.0528226 0.0424523 0.040656 0.0459105 0.0554296 0.0661758 0.0755406 0.0818329 0.0840243 0.0817437 0.0748301 0.0635697 0.0484896 0.0304387 0.0106053 -0.00947794 -0.0282889 -0.0443462 -0.0565965 -0.0643071 -0.0673909 -0.0660084 -0.0607645 -0.0525284 -0.0423206 -0.0310126 -0.0194412 -0.00801547 0.00278991 0.0123433 0.0202251 0.0259479 0.0293772 0.0307912 0.0305177 0.0289409 0.0267169 0.0241415 0.0214962 0.0189546 0.016549 0.0144014 0.0125257 0.0109064 0.00963816 0.00863753 0.0079025 0.00750804 0.00740159 0.00752521 0.00793517 0.00867087 0.00964255 0.0107495 0.011931 0.012919 0.0136883 0.0144768 0.0158493 0.0187651 0.0238257 0.0305623 0.0371174 0.0404362 0.0384148 0.0311284 0.0208429 0.0105103 0.00143648 -0.00765687 -0.0183678 -0.0306611 -0.0428174 -0.052937 -0.0605451 -0.0655887 -0.067217 -0.0642204 -0.0563275 -0.0440289 -0.0281396 -0.00944717 0.0106216 0.0303494 0.0482622 0.0632292 0.0743855 0.0812239 0.0834247 0.0811868 0.0749141 0.0655877 0.0548927 0.045483 0.0403936 0.042303 0.0527045 0.0702572 0.0908959 0.108138 0.115666 0.109297 0.0892172 0.0606914 0.032037 0.0124473 0.0091597 0.0257901 0.0612073 0.109394 0.158933 0.194222 0.199931 0.167999 0.104461 0.0312051 -0.0205846 -0.0218067 0.0440584 0.174204 0.344813 0.510279 0.608867 0.587438 0.416413 0.108201 -0.281101 -0.66631 -0.951637 -1.06373 -0.989175 -0.774379 -0.496975 -0.238686 -0.054639 0.0431658 0.0727122 0.0630814 0.0409338 0.0214431 0.00902338 0.00286473 0.000530248 -0.000104971 -0.000159974 -8.37347e-05 0 0 
0 0 -1.04968e-05 -2.39604e-06 8.53164e-05 0.000605701 0.0023533 0.0067485 0.0151542 0.0269258 0.0360664 0.0272852 -0.0229173 -0.135777 -0.315136 -0.531437 -0.717377 -0.793005 -0.702123 -0.439431 -0.065845 0.31393 0.602005 0.737892 0.710923 0.562084 0.36052 0.17167 0.039247 -0.0200833 -0.0136311 0.0347003 0.092882 0.132585 0.139941 0.117861 0.080596 0.0442617 0.0205285 0.0144367 0.025476 0.0489903 0.0773674 0.101738 0.11448 0.111834 0.095681 0.0723149 0.0497371 0.0348414 0.0308606 0.0372931 0.0509222 0.0675052 0.0832969 0.0957063 0.103306 0.105516 0.102313 0.0939064 0.0809384 0.0645302 0.0461665 0.0276176 0.0106857 -0.00322779 -0.0131825 -0.0190377 -0.0211795 -0.0203704 -0.0178481 -0.0146192 -0.0117189 -0.00968785 -0.00888096 -0.00914695 -0.0103783 -0.0122946 -0.0144815 -0.0163444 -0.0174388 -0.0176682 -0.0169538 -0.0158275 -0.0147106 -0.0138323 -0.0134522 -0.0134041 -0.0135225 -0.0136323 -0.0136432 -0.0134829 -0.0132173 -0.0128768 -0.0124848 -0.0120895 -0.0117292 -0.0114379 -0.0112019 -0.0110231 -0.0109358 -0.0110026 -0.011166 -0.0114285 -0.01187 -0.0126509 -0.0139085 -0.0156512 -0.0175821 -0.0190106 -0.0189363 -0.0165081 -0.0119609 -0.00687557 -0.00383568 -0.00479694 -0.00959618 -0.0154809 -0.0192635 -0.0194881 -0.017221 -0.0149979 -0.0137346 -0.0125998 -0.0108324 -0.00899857 -0.00842025 -0.00946676 -0.011658 -0.0143722 -0.0174854 -0.0201857 -0.021148 -0.0190091 -0.0132076 -0.00341719 0.010367 0.027239 0.0456772 0.0639368 0.0802822 0.0932516 0.101638 0.104861 0.102732 0.0952372 0.0828863 0.0670972 0.0504481 0.0365486 0.0295713 0.0327955 0.0466575 0.0678955 0.0899634 0.105156 0.107712 0.0965413 0.0756338 0.0522272 0.0342638 0.0279695 0.0368728 0.0608639 0.0949861 0.127936 0.144482 0.131479 0.0870551 0.0258966 -0.0233491 -0.0290246 0.0320797 0.16612 0.353598 0.552594 0.699509 0.726221 0.592315 0.308325 -0.0661708 -0.434645 -0.693822 -0.783531 -0.708906 -0.525332 -0.311692 -0.134448 -0.0228376 0.0268756 0.0356262 0.0266258 0.014997 0.00668201 0.00233185 0.000614436 0.000143699 2.06731e-06 0 0 
0 0 5.12097e-05 0.00021597 0.000588912 0.00180787 0.00469671 0.00978223 0.0155827 0.0158911 -0.00261093 -0.0578373 -0.161561 -0.305229 -0.449168 -0.526857 -0.475493 -0.272125 0.0477837 0.394027 0.66148 0.782084 0.743569 0.58622 0.385269 0.211179 0.101519 0.0618244 0.074487 0.109391 0.13609 0.13438 0.101956 0.0525895 0.00619765 -0.0217215 -0.0251436 -0.0068256 0.025301 0.0609931 0.0902126 0.105191 0.102856 0.0861846 0.0628341 0.0419604 0.0305919 0.0310992 0.0415556 0.0573469 0.073576 0.0867036 0.0949759 0.0982433 0.0970082 0.092092 0.0843803 0.0749296 0.0651149 0.0562499 0.0494812 0.0454601 0.0440848 0.044558 0.0455638 0.0455848 0.0434096 0.0381867 0.0298513 0.0187608 0.00587982 -0.00764784 -0.0207164 -0.0322536 -0.0414497 -0.0478729 -0.0513455 -0.0520506 -0.0504332 -0.046813 -0.0414766 -0.0347493 -0.0270368 -0.0188687 -0.0110548 -0.00408428 0.00154493 0.00575758 0.00881166 0.0109054 0.012327 0.0133438 0.0140865 0.0146265 0.0150622 0.0153897 0.0156451 0.015856 0.0159612 0.0160283 0.0161017 0.0160544 0.0159707 0.0157257 0.0151096 0.0140329 0.0123896 0.0103819 0.00867639 0.0081196 0.00942901 0.0123663 0.0152132 0.0153188 0.010635 0.00109178 -0.0108063 -0.021541 -0.0293726 -0.0348859 -0.0400604 -0.0456849 -0.0504283 -0.0524743 -0.0512919 -0.0474346 -0.0411703 -0.032181 -0.020508 -0.00729131 0.00610601 0.0188046 0.0298802 0.038207 0.0432687 0.0452908 0.0452351 0.0441466 0.0435306 0.0448376 0.0488225 0.0555598 0.0644307 0.0742857 0.083741 0.0914248 0.0962262 0.0971928 0.0934645 0.0844674 0.0704299 0.0531229 0.0362783 0.0250342 0.0244128 0.036886 0.0605155 0.0883496 0.110515 0.118013 0.106373 0.0776255 0.0395136 0.00287188 -0.0209071 -0.0227327 0.001093 0.0452541 0.0943532 0.128147 0.131904 0.107125 0.0732774 0.0607053 0.100431 0.208939 0.380835 0.579087 0.734218 0.772071 0.652959 0.388933 0.0470786 -0.268835 -0.469783 -0.520677 -0.444076 -0.301954 -0.159975 -0.057384 -0.00269969 0.0156662 0.0154049 0.00968882 0.00467576 0.00186118 0.00075073 0.000197622 0 0 
0 0 0.000170909 0.000587782 0.00132681 0.00307172 0.00584348 0.00791916 0.00388039 -0.01652 -0.0651407 -0.145685 -0.242154 -0.313694 -0.305404 -0.17952 0.0547148 0.336001 0.571909 0.685471 0.656454 0.520827 0.348458 0.211061 0.144365 0.141453 0.17393 0.207535 0.213838 0.181626 0.119044 0.0479137 -0.00845599 -0.0370722 -0.0372459 -0.0167031 0.0132719 0.0415709 0.0594322 0.0625668 0.0528086 0.037209 0.0248667 0.0223223 0.0309662 0.047291 0.0652881 0.0796963 0.087675 0.0890905 0.0854801 0.0789455 0.0713395 0.0643707 0.0593766 0.0575063 0.0594465 0.0650799 0.0734062 0.0825358 0.0900209 0.0936655 0.0920462 0.0846002 0.0718797 0.0553326 0.0367732 0.0182643 0.00138083 -0.0126761 -0.0233294 -0.0304929 -0.0344607 -0.0358106 -0.0350738 -0.0329027 -0.0297487 -0.0260012 -0.0220085 -0.0180416 -0.0140151 -0.0099031 -0.00543916 -0.00067449 0.00418488 0.0086841 0.0122434 0.0147545 0.0161509 0.0166494 0.0165598 0.0160676 0.0154846 0.0147939 0.0142405 0.0136975 0.0133136 0.0129861 0.0127686 0.0126467 0.0126347 0.0126415 0.012639 0.0124716 0.0120032 0.0111262 0.0101313 0.00950446 0.0103179 0.0131248 0.0178777 0.0228773 0.025614 0.0239099 0.0175775 0.00899489 0.0013032 -0.00348878 -0.00606139 -0.00864759 -0.0126259 -0.0176364 -0.0222452 -0.0260158 -0.0293714 -0.0325762 -0.0349643 -0.0356371 -0.0341208 -0.0302427 -0.0232684 -0.0126239 0.00143833 0.0181701 0.0365298 0.0550331 0.0715216 0.0840991 0.0914532 0.0930483 0.0893411 0.0818128 0.072707 0.0643244 0.0585088 0.0562524 0.0576022 0.0618524 0.0679181 0.0745436 0.0802393 0.083284 0.0819545 0.074969 0.0628425 0.0485856 0.0372275 0.0337303 0.0401998 0.0538314 0.0674652 0.0727148 0.0639895 0.0409844 0.00908915 -0.0225315 -0.0429276 -0.0412309 -0.010578 0.0474682 0.119324 0.181603 0.212792 0.205318 0.172218 0.140662 0.144005 0.210093 0.345787 0.515827 0.649539 0.677979 0.565647 0.332553 0.0545702 -0.177018 -0.301644 -0.310086 -0.239544 -0.144248 -0.0645934 -0.0164466 0.00379758 0.00784566 0.00584434 0.00318679 0.00158766 0.0005182 0 0 
0 0 0.000341973 0.00101673 0.00193698 0.00326052 0.003468 -0.00159322 -0.0189716 -0.0553769 -0.109271 -0.162774 -0.181213 -0.126972 0.0132901 0.209152 0.394599 0.498663 0.486959 0.383611 0.250411 0.152062 0.125127 0.159288 0.215622 0.257389 0.260931 0.221505 0.155297 0.0875749 0.0391341 0.017551 0.0170408 0.0260794 0.0341122 0.0339744 0.0235497 0.00569323 -0.0123553 -0.0221916 -0.0182672 -0.000734397 0.0246591 0.0500955 0.0688916 0.0780203 0.0782699 0.0724717 0.0641452 0.0561779 0.0507912 0.0493659 0.0526443 0.0605428 0.0719276 0.0845846 0.0958785 0.103264 0.105102 0.101007 0.0919627 0.0796879 0.0663572 0.0537204 0.0430368 0.0347863 0.0286717 0.0241652 0.0204211 0.0167581 0.0127744 0.00818977 0.00318987 -0.00201238 -0.00712501 -0.0117845 -0.0156902 -0.0186007 -0.0205138 -0.0214992 -0.0216468 -0.021055 -0.0195311 -0.0169831 -0.0136161 -0.00976191 -0.00610426 -0.00299754 -0.000782483 0.000493785 0.000970576 0.000957448 0.000640029 0.000232363 -0.000153403 -0.000471142 -0.000693491 -0.000872823 -0.000967451 -0.00104384 -0.00104923 -0.00118571 -0.00147205 -0.00213489 -0.0031729 -0.00444479 -0.00531582 -0.00487283 -0.00235368 0.0021102 0.00698162 0.00981071 0.00839664 0.00253498 -0.00559564 -0.0126815 -0.0167972 -0.0181379 -0.0186411 -0.0196176 -0.0208843 -0.0214101 -0.0204822 -0.0183193 -0.0153804 -0.0116003 -0.00694701 -0.00172564 0.00344987 0.00830384 0.0128302 0.0168424 0.0203872 0.0239388 0.0284031 0.0344613 0.0425768 0.0531938 0.0657797 0.0790552 0.0912537 0.100243 0.104183 0.102003 0.0940946 0.0820075 0.0683108 0.0558653 0.0470767 0.0433666 0.0450664 0.0516598 0.0618513 0.0734278 0.0834117 0.0877632 0.0826237 0.0659083 0.0396076 0.0103213 -0.0127732 -0.0220912 -0.0159147 0.000801129 0.0191261 0.0311426 0.0330505 0.0263598 0.0177188 0.0176314 0.0380285 0.0852474 0.152085 0.217995 0.257122 0.253961 0.213171 0.158035 0.124742 0.151642 0.248868 0.380357 0.482293 0.493734 0.390834 0.207494 0.0137743 -0.125098 -0.178986 -0.160971 -0.108179 -0.0548909 -0.0188329 -0.00156876 0.00352362 0.00342194 0.00219371 0.000860788 0 0 
0 0 0.000487682 0.0012046 0.00174792 0.0012588 -0.00303372 -0.0154837 -0.0392551 -0.070569 -0.093851 -0.0842059 -0.0209627 0.0920769 0.218003 0.303619 0.310407 0.242018 0.14567 0.0782986 0.0728234 0.123572 0.191741 0.237189 0.242479 0.21021 0.159004 0.114452 0.0918883 0.0904185 0.0984479 0.101833 0.0920528 0.0677887 0.0328822 -0.00395546 -0.0325391 -0.0448824 -0.0388891 -0.0197087 0.00361057 0.0228131 0.0337651 0.0372404 0.0364228 0.0348705 0.0349715 0.0376937 0.0434463 0.0520816 0.0629187 0.0744311 0.08454 0.0912355 0.0931824 0.0905099 0.0845898 0.0775976 0.0717688 0.0685817 0.0684394 0.0705478 0.0736415 0.075914 0.0760416 0.0731418 0.0670325 0.0581572 0.0471997 0.0351439 0.0229156 0.0111543 0.000538564 -0.0086826 -0.0163551 -0.0224271 -0.0268812 -0.0298252 -0.0313972 -0.0316929 -0.0309657 -0.0293597 -0.0268157 -0.0232266 -0.0186172 -0.0130359 -0.00704125 -0.00114417 0.00409274 0.00832198 0.0114991 0.0137687 0.0152942 0.0163453 0.0171464 0.0177331 0.0182274 0.0186116 0.0189294 0.0190687 0.0190067 0.0186002 0.0177038 0.0162048 0.0143705 0.0126958 0.0121055 0.0132973 0.016268 0.0195362 0.0206295 0.0174803 0.00980781 -0.000363837 -0.00983823 -0.0164121 -0.0202542 -0.0228315 -0.0255684 -0.0283794 -0.0305057 -0.031457 -0.0311636 -0.0296022 -0.0266762 -0.0221917 -0.0160855 -0.00845235 0.000677411 0.0112499 0.0229855 0.0351162 0.0470351 0.0579124 0.0667411 0.0727305 0.0755421 0.0753914 0.0730439 0.0698443 0.0675784 0.0674477 0.0700827 0.0751313 0.0810888 0.0857974 0.0873568 0.0848426 0.0784592 0.0696962 0.0606041 0.053027 0.0481397 0.0462389 0.0469563 0.049018 0.0506165 0.0488195 0.04052 0.0241133 0.000767005 -0.0242789 -0.0428462 -0.0470787 -0.0329951 -0.00337849 0.0335977 0.0678372 0.091028 0.0997596 0.0957431 0.0876106 0.0892962 0.112066 0.156344 0.206987 0.238953 0.233911 0.189319 0.122333 0.0725268 0.0781587 0.144809 0.240009 0.307566 0.300879 0.216257 0.0916961 -0.0202341 -0.0829931 -0.0927355 -0.0698289 -0.0388753 -0.0153073 -0.00290887 0.00139841 0.00182227 0.000952998 0 0 
0 0 0.00046067 0.000789334 0.000312759 -0.00264689 -0.0104224 -0.0241161 -0.0398525 -0.046351 -0.0284399 0.0220479 0.0936559 0.154858 0.173082 0.138608 0.0756772 0.0290623 0.0299002 0.0754057 0.135501 0.173385 0.173039 0.145633 0.112552 0.0949276 0.103086 0.127721 0.150589 0.157935 0.144132 0.112927 0.0733886 0.0355735 0.00873596 -0.00322216 -0.00338036 0.00098102 0.00244797 -0.00189211 -0.00985361 -0.0169737 -0.0191859 -0.0146387 -0.0037707 0.0117274 0.0295757 0.0473123 0.062343 0.0724455 0.0765235 0.0749302 0.0697076 0.0639092 0.060453 0.0613299 0.066839 0.075686 0.0856746 0.0944139 0.0999106 0.101169 0.0981786 0.0915357 0.0823159 0.0716235 0.0603714 0.0491733 0.0383896 0.0282959 0.0189958 0.0105616 0.00313841 -0.00313153 -0.00822299 -0.0119709 -0.0144311 -0.0155398 -0.0154593 -0.014318 -0.0124335 -0.0100354 -0.00725882 -0.00412969 -0.00054188 0.00360397 0.00801589 0.0125463 0.0166424 0.0198077 0.0218594 0.0228249 0.0229333 0.0224928 0.02174 0.0209744 0.020274 0.0196835 0.0192596 0.0188749 0.0184562 0.0178347 0.0169549 0.0159244 0.0153428 0.0159918 0.0186414 0.0232757 0.0284447 0.0317397 0.030966 0.0256681 0.0177049 0.00998051 0.00460576 0.00162519 -0.000644527 -0.00324711 -0.00628423 -0.00927225 -0.0118792 -0.0139936 -0.0153116 -0.015386 -0.0141534 -0.0116743 -0.00802328 -0.00299564 0.00326895 0.0106384 0.018961 0.0281652 0.0381931 0.0489083 0.0600078 0.0711592 0.081827 0.0909607 0.0974121 0.100146 0.0984206 0.0921482 0.0823482 0.0711044 0.0610243 0.054714 0.0538896 0.0586098 0.066983 0.0757218 0.0812059 0.0806816 0.0732661 0.0597746 0.0421263 0.0225702 0.00358469 -0.0119065 -0.0207643 -0.0210021 -0.0138595 -0.00411638 0.00218288 0.00182873 -0.00253619 -0.00304938 0.00809023 0.0342429 0.0717202 0.111267 0.142688 0.156568 0.149032 0.125713 0.101397 0.0934371 0.11091 0.143587 0.170669 0.171059 0.133765 0.0745911 0.0298003 0.0290841 0.0752101 0.137448 0.171589 0.153644 0.0931423 0.0222533 -0.0278336 -0.04571 -0.0393779 -0.0238281 -0.0102669 -0.00262415 6.75852e-05 0.000502153 0 0 
0 0 0.000150376 -0.000281975 -0.0018819 -0.00614855 -0.0131719 -0.0199285 -0.0193859 -0.00374148 0.0281632 0.0645579 0.0846745 0.074725 0.0416098 0.0112212 0.010076 0.0413298 0.0823519 0.10506 0.095761 0.0660496 0.0418042 0.0409223 0.0668945 0.108022 0.142434 0.156317 0.149502 0.128618 0.10367 0.0833763 0.0716765 0.0676796 0.0651755 0.0565685 0.0384806 0.0132664 -0.0123098 -0.0312532 -0.0400213 -0.0384683 -0.0291463 -0.0152206 0.000318133 0.0148126 0.0262365 0.0333838 0.0366217 0.037796 0.0395322 0.0440846 0.0524181 0.0636168 0.0756174 0.0860467 0.0932026 0.0963575 0.0959458 0.0931581 0.089181 0.0850107 0.0811645 0.0776174 0.0740412 0.0700954 0.0654399 0.0600413 0.053907 0.0473612 0.0406007 0.0338046 0.0272321 0.0209355 0.0150173 0.00940204 0.00421576 -0.000529832 -0.00483146 -0.00849849 -0.0116082 -0.0140376 -0.0158766 -0.0170469 -0.0172406 -0.0162933 -0.0141873 -0.0109772 -0.00714096 -0.00322332 0.000186847 0.00290283 0.0047335 0.00588449 0.00658645 0.00695535 0.00720043 0.00737726 0.00738122 0.0071551 0.00650027 0.00536978 0.00386824 0.00256231 0.00225578 0.0037867 0.0071803 0.011118 0.0134137 0.0119285 0.00616844 -0.00190469 -0.00944005 -0.0142871 -0.0163486 -0.0168092 -0.0168097 -0.0163105 -0.0149943 -0.0131534 -0.0110426 -0.00834877 -0.0047569 -0.00026179 0.00455867 0.00959512 0.0151247 0.02108 0.0273452 0.033783 0.0404918 0.0472196 0.0536899 0.0597183 0.065031 0.0696111 0.07344 0.0767428 0.0798545 0.0830138 0.0861409 0.0888168 0.0902652 0.089625 0.0862361 0.0801024 0.0721918 0.0639186 0.0570163 0.0525177 0.0504539 0.0495549 0.0477174 0.042621 0.0328069 0.0180987 0.000180465 -0.0180139 -0.0328159 -0.0411305 -0.0407077 -0.0303991 -0.0111566 0.0137668 0.0381798 0.0557922 0.0643648 0.0669571 0.0710468 0.0826617 0.102604 0.126969 0.147318 0.153825 0.140035 0.106129 0.0656272 0.0400952 0.04109 0.065089 0.094475 0.103706 0.0813656 0.0409181 0.0101051 0.0112667 0.0413242 0.0741209 0.0840427 0.0642133 0.0282073 -0.0034386 -0.0190275 -0.019661 -0.0130709 -0.00629907 -0.00240922 -0.000468573 0 0 
0 0 -0.000356995 -0.00148985 -0.00343982 -0.00660231 -0.00902125 -0.00680584 0.00345138 0.0203532 0.0354406 0.0380277 0.0258442 0.00994436 0.00679095 0.0234362 0.0474024 0.0567275 0.0414754 0.0110937 -0.0117301 -0.00845427 0.0200433 0.059268 0.0910872 0.103433 0.100296 0.0933603 0.0902039 0.0949561 0.106333 0.117338 0.120199 0.109281 0.0851936 0.0552378 0.027614 0.00763473 -0.00401938 -0.00984681 -0.0125055 -0.0140542 -0.0155796 -0.0174951 -0.0197011 -0.020616 -0.0181554 -0.0103043 0.00349634 0.0213934 0.0403226 0.0567726 0.0682053 0.0741469 0.0755531 0.0746172 0.0734942 0.073761 0.0758883 0.0795816 0.0839114 0.0878516 0.0906744 0.0918688 0.0911892 0.0886636 0.0843798 0.0785367 0.0711721 0.0625672 0.0528495 0.0424577 0.031763 0.0212327 0.0113203 0.00239769 -0.00499603 -0.0108226 -0.014848 -0.0171372 -0.0177823 -0.0170358 -0.0151734 -0.0124793 -0.00905951 -0.00493806 -9.60628e-05 0.00542298 0.0114094 0.0174043 0.0228877 0.0273885 0.0307679 0.0329715 0.0342699 0.0349231 0.0351525 0.0350878 0.0348144 0.0341504 0.0330689 0.031699 0.0305169 0.0303116 0.0319317 0.0353057 0.0392212 0.0413969 0.0396952 0.0334548 0.0244312 0.0153632 0.00827478 0.00323962 -0.000882643 -0.00492771 -0.00870269 -0.0117082 -0.0140606 -0.0161307 -0.0174801 -0.0171338 -0.0146501 -0.0104391 -0.00475432 0.00246838 0.0114338 0.0213857 0.0317766 0.0423544 0.0527276 0.0623901 0.0708664 0.0781359 0.0839086 0.0879631 0.0900817 0.0901429 0.0880094 0.0839022 0.0784922 0.0728904 0.0686087 0.0671088 0.0690846 0.0739842 0.0795839 0.0826445 0.0797336 0.0690687 0.0512139 0.0295295 0.00854755 -0.00793773 -0.0179928 -0.0221538 -0.0222689 -0.0199598 -0.0169039 -0.0138701 -0.0114146 -0.00893773 -0.00385164 0.00730146 0.0273223 0.0551814 0.0851713 0.108966 0.119404 0.115976 0.104495 0.0929167 0.0882377 0.0915847 0.098389 0.10135 0.0890983 0.0577425 0.0191356 -0.00883956 -0.011935 0.0107584 0.0408828 0.0560609 0.0469325 0.0232815 0.00683091 0.00992934 0.0256674 0.0377776 0.0352861 0.0203793 0.00359618 -0.00667806 -0.00904347 -0.00689035 -0.00403374 -0.00143917 0 0 
0 0 -0.000763457 -0.00204893 -0.00326786 -0.00390522 -0.00210323 0.00342848 0.0112215 0.0167064 0.0158898 0.0107871 0.00917198 0.01654 0.0285461 0.031797 0.0166767 -0.00985538 -0.0300461 -0.0295204 -0.00789087 0.0195988 0.0370114 0.0391 0.0318536 0.0294382 0.0401402 0.0615359 0.0880446 0.111237 0.122423 0.119437 0.105923 0.0891805 0.0758277 0.0667953 0.0595282 0.0506038 0.0378076 0.0215725 0.0034215 -0.0145191 -0.0293134 -0.0385788 -0.0404342 -0.0347406 -0.0233138 -0.009141 0.00454555 0.0155256 0.0234885 0.0293868 0.0350219 0.0417703 0.0502158 0.0598067 0.0696334 0.0786252 0.08607 0.0916824 0.0953829 0.0973799 0.0976742 0.0962656 0.0931057 0.0882279 0.0818325 0.0741576 0.0657682 0.057162 0.0488766 0.0412708 0.03464 0.0290168 0.0243787 0.0205651 0.0174372 0.0148103 0.0125265 0.0105129 0.00868873 0.00700838 0.00544024 0.00406937 0.00294739 0.00226433 0.00221646 0.00306226 0.00481572 0.00735612 0.0103548 0.0132537 0.0156508 0.0172846 0.0181807 0.0184502 0.0182654 0.017766 0.0168758 0.0156665 0.0142782 0.0131191 0.0130552 0.0148612 0.0185657 0.02313 0.0263377 0.026084 0.0217897 0.0149908 0.00853172 0.00440295 0.0027116 0.0021771 0.00191618 0.0021964 0.00340728 0.00519149 0.00664269 0.00760654 0.00873837 0.0105991 0.0128593 0.0151064 0.017535 0.0206344 0.0245298 0.0290778 0.0345371 0.0411674 0.04874 0.056911 0.065384 0.0736068 0.0809581 0.0867936 0.0908167 0.0927448 0.0926441 0.0909241 0.0879973 0.0844752 0.0806373 0.0767047 0.0725127 0.0677759 0.0620929 0.0551808 0.0470708 0.0378855 0.0277618 0.0164355 0.00365209 -0.010586 -0.0247779 -0.0361204 -0.0415424 -0.0390025 -0.0289222 -0.0136796 0.00404498 0.0217565 0.0378378 0.0508361 0.0599017 0.0669176 0.0753644 0.0881922 0.104626 0.118042 0.121171 0.110191 0.0871432 0.0606569 0.0393692 0.0286518 0.0308722 0.0378876 0.0357553 0.0185698 -0.00847391 -0.029664 -0.0300084 -0.00990024 0.0164416 0.0314838 0.028338 0.0164732 0.00916269 0.010738 0.0158047 0.0166507 0.0112127 0.00340551 -0.00223749 -0.00422077 -0.00370376 -0.00174347 0 0 
0 0 -0.000803388 -0.00166175 -0.00180025 -0.000778735 0.00177674 0.00504691 0.00725439 0.00769962 0.00860417 0.0130014 0.0196277 0.0216833 0.0122258 -0.00700521 -0.0233627 -0.0254381 -0.0136211 0.00101529 0.00473602 -0.00530837 -0.0189812 -0.023725 -0.0121386 0.0119416 0.0383659 0.0604034 0.0736142 0.0776502 0.0787906 0.0827485 0.090962 0.100406 0.104841 0.100505 0.0876184 0.0683496 0.0465583 0.0252505 0.00714857 -0.00573527 -0.0130677 -0.0161603 -0.0178854 -0.0206229 -0.0247399 -0.0286836 -0.0294989 -0.0248079 -0.0141241 0.00127961 0.0186916 0.0355917 0.0501251 0.0614663 0.0698953 0.0758769 0.0801748 0.0831668 0.0850988 0.0862324 0.0865863 0.0863521 0.0857102 0.084804 0.0835889 0.0819739 0.0797532 0.0766163 0.0722926 0.0666634 0.0597156 0.0516503 0.0427857 0.0335112 0.0243457 0.015723 0.0080364 0.00152627 -0.00353648 -0.00723245 -0.0095716 -0.0106512 -0.0106465 -0.00955582 -0.00752363 -0.00453046 -0.000609862 0.00420225 0.00963488 0.0151503 0.0203747 0.0247499 0.0280316 0.0302016 0.0313379 0.0315384 0.0309643 0.0298565 0.0287195 0.028355 0.0295669 0.0325001 0.0360937 0.0382014 0.0367116 0.0309278 0.022281 0.0135142 0.00681619 0.00219326 -0.00146059 -0.0049634 -0.00793331 -0.00951824 -0.00975266 -0.00932123 -0.00864598 -0.00697337 -0.00348642 0.00177057 0.00834198 0.0158668 0.0244164 0.0336393 0.042866 0.0515876 0.0595961 0.0665638 0.0720658 0.0761963 0.0791225 0.0808744 0.0816364 0.0817032 0.0811712 0.0802239 0.0792314 0.0786584 0.0787606 0.079901 0.0816061 0.0826956 0.0814256 0.0756021 0.0637904 0.045767 0.023786 0.0016414 -0.0164893 -0.0275212 -0.0310839 -0.0291109 -0.0247278 -0.0206995 -0.0179967 -0.0160226 -0.0125973 -0.00518453 0.00759055 0.0256694 0.0470324 0.0687462 0.0875906 0.0999546 0.104004 0.0996058 0.0902836 0.0821843 0.0782427 0.0770517 0.0729492 0.0597158 0.037743 0.0115133 -0.0123915 -0.0239383 -0.0193487 -0.00587494 0.00402554 0.000430808 -0.0139233 -0.0254571 -0.0232957 -0.00702436 0.0120953 0.0215204 0.0195205 0.012943 0.00855052 0.00763733 0.00718241 0.00494516 0.00160896 -0.00101537 -0.00199595 -0.00124049 0 0 
0 0 -0.000520569 -0.000831241 -0.000469838 0.00054115 0.00189043 0.00318061 0.00473141 0.00771704 0.0122763 0.0153856 0.0126992 0.00340235 -0.00699432 -0.0102576 -0.00543537 -0.00102679 -0.00577878 -0.0214263 -0.0390099 -0.0459636 -0.0384966 -0.0218439 -0.00544219 0.00450469 0.00952716 0.0134392 0.0213839 0.0381769 0.0611329 0.0831398 0.0983141 0.103435 0.1005 0.092991 0.0830574 0.0728188 0.0630025 0.0535703 0.0435658 0.030966 0.0152659 -0.00246083 -0.0194912 -0.0324921 -0.0394445 -0.0399918 -0.0353496 -0.0275569 -0.01808 -0.00799169 0.00240389 0.0131049 0.0240229 0.0349598 0.0453661 0.0550019 0.0636272 0.0713671 0.0783768 0.0847447 0.0904049 0.0948718 0.0977738 0.0985194 0.0968248 0.0927084 0.0863919 0.0784099 0.0693704 0.0600714 0.0509899 0.042683 0.0354664 0.0293642 0.0244797 0.0206598 0.0177351 0.0156263 0.0141586 0.0131291 0.0124213 0.0119734 0.0117194 0.0117557 0.0121407 0.0129332 0.0142841 0.0163598 0.0191631 0.0225567 0.0262193 0.0296127 0.0323043 0.0339348 0.0345418 0.0340613 0.0329445 0.0317122 0.0313581 0.0326667 0.0359081 0.0400383 0.0430957 0.042827 0.0386204 0.0316866 0.0247389 0.0198462 0.0172365 0.0155834 0.0138567 0.0123342 0.0117911 0.0122516 0.01292 0.0131156 0.0130002 0.0133056 0.0143165 0.0158716 0.0179356 0.020762 0.0245712 0.0294502 0.0354681 0.0426092 0.05087 0.0598367 0.0688929 0.0775447 0.0848832 0.0901089 0.0927693 0.0928631 0.0906627 0.0870476 0.0833194 0.080223 0.0781935 0.0766926 0.0742681 0.0692134 0.0602385 0.0471862 0.031143 0.0144826 -0.0004964 -0.012364 -0.021246 -0.0283548 -0.0344278 -0.038819 -0.0389359 -0.0325812 -0.0195767 -0.00211081 0.0158926 0.031611 0.0440562 0.0539117 0.0630955 0.0725457 0.0824601 0.0923312 0.0999694 0.102944 0.0977362 0.0824339 0.0603991 0.0375418 0.0209285 0.013227 0.0092282 0.00404959 -0.00593923 -0.022237 -0.0387014 -0.0460561 -0.0391465 -0.0217134 -0.00618697 -0.00140072 -0.00564872 -0.0103134 -0.00700677 0.00333861 0.0125956 0.0152796 0.0121814 0.00762162 0.00462544 0.00306269 0.00176181 0.00043277 -0.000458523 -0.000476829 0 0 
0 0 -0.000203758 -0.000226353 4.30253e-05 0.000604095 0.00151843 0.00312203 0.00569959 0.0084937 0.00943423 0.00725238 0.00374446 0.00257618 0.00505879 0.00631633 -0.000685156 -0.0160599 -0.0326549 -0.0412129 -0.0379869 -0.0299428 -0.0257201 -0.0281132 -0.033882 -0.0355561 -0.0285952 -0.0122301 0.0105284 0.0320804 0.0475582 0.0580576 0.0659979 0.07415 0.0830128 0.0906272 0.0957076 0.0960437 0.0899592 0.0773899 0.0593313 0.0392558 0.0207597 0.00634884 -0.00338081 -0.0102486 -0.0162565 -0.0227988 -0.0296362 -0.0351234 -0.0373623 -0.0350446 -0.0280393 -0.016994 -0.00308939 0.0123702 0.0282974 0.0436499 0.0575062 0.0691882 0.0781581 0.0841346 0.0872625 0.0879994 0.0870179 0.0851021 0.0828025 0.0805673 0.0784739 0.0765432 0.0744374 0.0719275 0.0686813 0.0645021 0.0593673 0.0533582 0.0466951 0.0396355 0.0325278 0.0257087 0.0194742 0.0140432 0.00940549 0.00568299 0.00291819 0.00113585 0.00029726 0.000410366 0.00141925 0.003354 0.00621277 0.00996284 0.0143613 0.0188979 0.0229231 0.0259692 0.0276373 0.0281065 0.0278841 0.0279517 0.0292822 0.032226 0.0359538 0.0385396 0.0378471 0.0330981 0.0254562 0.0176471 0.0117387 0.00807909 0.00551041 0.0030029 0.000774041 -0.000199829 0.000387841 0.00201708 0.00404619 0.00652847 0.00985663 0.014264 0.0196326 0.025872 0.032686 0.0397607 0.0467457 0.0533593 0.0593346 0.064383 0.0683785 0.0713129 0.0732696 0.0744537 0.0750504 0.0754696 0.076064 0.0772926 0.0793493 0.0822809 0.0854929 0.0877628 0.0874754 0.0829694 0.0730564 0.0576209 0.0377827 0.0158841 -0.00498258 -0.0219693 -0.0330303 -0.0376835 -0.037069 -0.0331806 -0.0278557 -0.0221291 -0.0164085 -0.0103722 -0.00299723 0.00700794 0.0212743 0.0393924 0.059102 0.0769099 0.0893113 0.0952351 0.0948692 0.0897993 0.0820882 0.073105 0.0649316 0.0571752 0.0469505 0.0317416 0.0104324 -0.0122078 -0.0284931 -0.0355402 -0.0340373 -0.0284518 -0.0261561 -0.0303582 -0.0382749 -0.0414091 -0.0328712 -0.0163608 -0.00104101 0.00601376 0.00487257 0.00247672 0.00366667 0.00716396 0.00933432 0.00837878 0.00557803 0.00301695 0.00145522 0.000619923 0.000197306 -1.90505e-05 0 0 
0 0 -3.62694e-05 3.54578e-05 0.000228712 0.000800718 0.00191588 0.00348423 0.00487749 0.00531 0.00508665 0.00581313 0.00822718 0.0101572 0.00721698 -0.00235352 -0.0136749 -0.0204714 -0.0211994 -0.0201253 -0.0246239 -0.0358942 -0.0477573 -0.0539177 -0.0509711 -0.0405969 -0.0278173 -0.0168735 -0.00973859 -0.00293977 0.0084101 0.0248293 0.0445353 0.0641395 0.0799603 0.0904227 0.0941925 0.0917087 0.0853392 0.0774671 0.0700612 0.0627597 0.0536724 0.0412896 0.0254449 0.00792349 -0.00867442 -0.0224188 -0.0322503 -0.0382784 -0.0407779 -0.0399243 -0.0357522 -0.0282895 -0.0180929 -0.00582002 0.0073846 0.0204661 0.0326503 0.0435358 0.0532117 0.0618873 0.0698832 0.0771504 0.0836056 0.0888299 0.0923233 0.0937343 0.0928082 0.0896176 0.0844034 0.0776652 0.0699146 0.0617451 0.0536429 0.0459878 0.0389499 0.032827 0.0275996 0.0232686 0.0197637 0.017114 0.015065 0.0135531 0.0125279 0.0119659 0.0119008 0.0123256 0.0132915 0.0147863 0.016915 0.0197309 0.0231824 0.0270668 0.0307717 0.0337028 0.0356492 0.0366865 0.0376501 0.0394577 0.0426041 0.0465138 0.0493615 0.0491179 0.0449053 0.0377723 0.0303827 0.0247962 0.021394 0.0190887 0.0166578 0.0141937 0.0125589 0.0121051 0.0124019 0.0128668 0.0134504 0.0142864 0.0155095 0.0172772 0.0198311 0.0234131 0.0277782 0.0328929 0.0389394 0.045962 0.0535173 0.0613262 0.069022 0.076034 0.0815769 0.0851745 0.0866369 0.0861356 0.0843045 0.082109 0.0802305 0.0789116 0.0775716 0.0747777 0.0689643 0.0588139 0.0442755 0.0264379 0.00750397 -0.00999668 -0.0238128 -0.0328355 -0.0374684 -0.0388537 -0.0384011 -0.0363665 -0.031612 -0.0226199 -0.00882549 0.00821547 0.0257993 0.0412727 0.0531118 0.0618442 0.0690003 0.0762701 0.0839933 0.0901979 0.0925986 0.0887573 0.0783254 0.0626597 0.0433489 0.023918 0.00766792 -0.00354485 -0.0102455 -0.017242 -0.0281432 -0.0408215 -0.0510737 -0.0540052 -0.0479593 -0.0362743 -0.0251545 -0.0206845 -0.0216863 -0.0208458 -0.013993 -0.0026664 0.00692134 0.00992976 0.008067 0.00569383 0.00498882 0.00521519 0.00478487 0.00341866 0.00191424 0.000897121 0.000438307 0.000129948 0 0 
0 0 3.99411e-05 0.000198723 0.000479858 0.00107886 0.00188712 0.00262598 0.00320546 0.00412409 0.00593077 0.00785749 0.00790054 0.00477712 4.29647e-05 -0.0024517 -0.00213401 -0.00341324 -0.0105374 -0.0241044 -0.0383452 -0.0461431 -0.0469445 -0.0439093 -0.0415203 -0.0425753 -0.0451283 -0.0448245 -0.0373981 -0.0226361 -0.00487587 0.0129489 0.0290201 0.0423979 0.0538624 0.0638223 0.0733424 0.082936 0.0906721 0.0942362 0.0914297 0.0818681 0.0678019 0.0518125 0.0364606 0.0227468 0.0105616 -0.00042817 -0.0109293 -0.0207412 -0.029583 -0.0366238 -0.041072 -0.0424286 -0.0402427 -0.0341509 -0.024131 -0.0104821 0.0058094 0.023364 0.040452 0.0555321 0.0674533 0.0757095 0.0804329 0.0821922 0.0819193 0.0803102 0.0781882 0.0759227 0.0736068 0.0713469 0.0688823 0.0660701 0.0627317 0.0588234 0.0543158 0.0493784 0.044052 0.0385932 0.03325 0.0281877 0.0235442 0.019429 0.0158911 0.0130204 0.0109247 0.00954005 0.00901599 0.00927076 0.0102424 0.0119554 0.0143747 0.0173869 0.0205412 0.0235346 0.0262089 0.0287894 0.0320086 0.0360505 0.0404861 0.0436743 0.0437405 0.0396941 0.0327585 0.0253024 0.0196354 0.0162571 0.014012 0.011869 0.00976368 0.00852832 0.00861455 0.00971989 0.0114867 0.0137811 0.0167516 0.0201525 0.0238758 0.0282181 0.0333148 0.0387949 0.044177 0.0493389 0.0542345 0.058649 0.062156 0.0647967 0.0666037 0.067628 0.0680909 0.0687353 0.0701155 0.072794 0.0770224 0.0820364 0.086289 0.0873783 0.0829973 0.0717506 0.0539122 0.0315788 0.00808449 -0.0130739 -0.0293626 -0.0395404 -0.0438612 -0.0434266 -0.039807 -0.0344265 -0.0279337 -0.0202738 -0.0112399 -0.00076483 0.0104284 0.022474 0.0356356 0.0504577 0.0661751 0.0801305 0.0895335 0.0920653 0.0882822 0.0804991 0.0709629 0.0615873 0.0518268 0.0406145 0.0274214 0.0115018 -0.0061639 -0.0236588 -0.0381332 -0.0452805 -0.0455401 -0.043044 -0.0420022 -0.0443805 -0.0473458 -0.046551 -0.0388315 -0.0247059 -0.0112152 -0.00405204 -0.00265042 -0.00284553 -0.000275934 0.00450661 0.00768058 0.00768909 0.00580939 0.00404475 0.0031588 0.00261208 0.00192609 0.00119219 0.000660435 0.000229996 0 0 
0 0 0.000106289 0.000324865 0.000595803 0.00099125 0.00146859 0.00212127 0.00316631 0.00448586 0.00525311 0.0047938 0.00377161 0.00378294 0.0054651 0.00614 0.00188156 -0.00706631 -0.0169907 -0.0236208 -0.025986 -0.0287373 -0.0349819 -0.0441146 -0.0533538 -0.0577362 -0.0551242 -0.0474923 -0.0385233 -0.0307674 -0.0231886 -0.0140229 -0.00245502 0.0126063 0.0303473 0.0489628 0.0657991 0.0776002 0.0837045 0.0850688 0.0836172 0.0812793 0.0778847 0.0724465 0.0638528 0.0516859 0.0370278 0.0211225 0.00545559 -0.00923012 -0.0224456 -0.0333872 -0.0413862 -0.0455332 -0.0455185 -0.0414906 -0.0339983 -0.0240627 -0.0124247 -9.82684e-05 0.0125318 0.0249214 0.0367994 0.0478351 0.0578039 0.0664391 0.0734416 0.0786908 0.0819501 0.0831923 0.0824409 0.0799235 0.0759065 0.070745 0.0648104 0.0584365 0.0519579 0.0456021 0.0395819 0.033984 0.0289551 0.0245426 0.0206796 0.0174239 0.014734 0.0125549 0.0109738 0.0100561 0.00974016 0.0100816 0.0109415 0.0123314 0.0140815 0.0162322 0.0187254 0.0217424 0.0254206 0.030085 0.035689 0.0414531 0.0457294 0.0465212 0.0430685 0.0363993 0.0289948 0.0231697 0.0195043 0.0170926 0.0146816 0.0122194 0.0103488 0.00963124 0.00970948 0.0103065 0.0114365 0.0133115 0.0156232 0.0180191 0.0208245 0.0245497 0.0290936 0.0341399 0.0395724 0.0454416 0.0516218 0.057598 0.0630427 0.0676875 0.0711786 0.0733493 0.0744935 0.0751772 0.0758023 0.0766087 0.0772296 0.0764818 0.0726993 0.0646305 0.0518637 0.0352627 0.0168976 -0.00101904 -0.0166628 -0.0293268 -0.0384465 -0.0441776 -0.0462594 -0.0446935 -0.0398322 -0.0321469 -0.022164 -0.00977903 0.00461271 0.0203092 0.0359547 0.0500438 0.061738 0.070132 0.075465 0.0786354 0.0806591 0.0819181 0.0805574 0.0746097 0.0629562 0.0462955 0.0279086 0.0104104 -0.0043805 -0.0156153 -0.0244091 -0.0316544 -0.0391662 -0.0479416 -0.0554339 -0.0579834 -0.0536622 -0.0445578 -0.0355803 -0.0294312 -0.0266842 -0.0242712 -0.0176131 -0.00769504 0.00127959 0.00559754 0.00502246 0.00344742 0.00352929 0.00462376 0.00513323 0.00441339 0.00314104 0.00213312 0.00151691 0.00108643 0.000735339 0.000308482 0 0 
0 0 0.000141146 0.000350986 0.000547338 0.000871631 0.00139845 0.00213587 0.00285173 0.00318043 0.00325332 0.00383398 0.00520236 0.00632051 0.0052054 0.00129745 -0.00267403 -0.00450536 -0.00531779 -0.00838785 -0.0168394 -0.0288733 -0.0397356 -0.0466436 -0.0486144 -0.0482456 -0.04922 -0.0515833 -0.052947 -0.0503942 -0.0431464 -0.0318097 -0.0171981 -0.00159297 0.0130059 0.0259084 0.0373339 0.0490566 0.0616337 0.0738819 0.0837854 0.0888169 0.0884828 0.0834529 0.0748478 0.0641912 0.0518673 0.0387128 0.0252926 0.0120321 -0.000432011 -0.0122546 -0.0231509 -0.032928 -0.0411793 -0.0469562 -0.0495609 -0.0479152 -0.0415868 -0.0306406 -0.0158817 0.00111775 0.0186093 0.034692 0.04814 0.0581456 0.064828 0.0684988 0.0699452 0.0698578 0.0688229 0.067216 0.0652186 0.0629 0.0601926 0.0571029 0.0535285 0.0496199 0.0453417 0.0408411 0.0362416 0.0317396 0.0274186 0.023412 0.0198304 0.0166183 0.0140525 0.0120582 0.0107616 0.0101106 0.0100162 0.0103363 0.0109185 0.0118698 0.0135237 0.0165255 0.0212958 0.0278043 0.0350304 0.0409259 0.043339 0.0410871 0.0352245 0.0282174 0.0225408 0.0189641 0.0165865 0.0143582 0.0120705 0.0104342 0.00983454 0.0100593 0.0107951 0.0122028 0.0145332 0.017462 0.020624 0.023787 0.0274886 0.0318052 0.0363646 0.040852 0.0451094 0.0490326 0.0522686 0.0546968 0.0562 0.0570993 0.0577459 0.0589839 0.0616275 0.0659793 0.0714943 0.0765507 0.0786653 0.0751491 0.0645651 0.0471035 0.0250724 0.00177727 -0.0191418 -0.0354818 -0.0461939 -0.051392 -0.0517449 -0.0479344 -0.0410947 -0.0322007 -0.0224877 -0.012311 -0.0014317 0.0104921 0.0235956 0.0368391 0.0495276 0.0613943 0.0718438 0.0803527 0.0851956 0.0853042 0.0801791 0.0703841 0.0583203 0.0458967 0.0343433 0.0231957 0.0106669 -0.00351574 -0.0187319 -0.0329664 -0.0439852 -0.0510037 -0.0533196 -0.0517288 -0.0493266 -0.0483657 -0.0487504 -0.046832 -0.0400425 -0.0293292 -0.0174364 -0.00904594 -0.00595841 -0.00509147 -0.00323932 0.000753513 0.00472281 0.00593016 0.00492073 0.00365349 0.00314369 0.00311603 0.00282731 0.00214709 0.00144194 0.000954884 0.000669274 0.000299594 0 0 
0 0 0.000139513 0.000338026 0.000535162 0.000864222 0.00129162 0.00170096 0.00204987 0.00257162 0.00347025 0.00425876 0.0041133 0.00288134 0.00165974 0.00207127 0.00315392 0.0017999 -0.00336056 -0.0113584 -0.018745 -0.0234185 -0.0272188 -0.0322107 -0.0399146 -0.0493792 -0.0564366 -0.0589903 -0.0574357 -0.0531682 -0.0477781 -0.0416187 -0.0351202 -0.0273304 -0.0165233 -0.00224534 0.014921 0.0323661 0.0472654 0.0589235 0.0673148 0.0734827 0.0780278 0.0805546 0.0807649 0.0777663 0.0715538 0.062307 0.0503583 0.0363774 0.0208443 0.0046992 -0.0111129 -0.0252381 -0.0363441 -0.0438196 -0.0473996 -0.0476695 -0.0451648 -0.0402261 -0.0330931 -0.023706 -0.0124024 0.000449924 0.0138849 0.0270609 0.0390278 0.0490555 0.0568751 0.0622733 0.0654505 0.066655 0.0661598 0.0643122 0.0613645 0.0576383 0.0533186 0.0486258 0.0436787 0.0386714 0.0337344 0.029013 0.0244768 0.0203696 0.0165799 0.0131649 0.0102824 0.00793894 0.00616206 0.00497581 0.00417463 0.00369176 0.00342703 0.00377312 0.00524756 0.00876175 0.0146377 0.0221225 0.0291443 0.0332372 0.0328807 0.0285441 0.0225633 0.0173802 0.013971 0.0116979 0.00947424 0.00717285 0.00538604 0.00469941 0.00469935 0.00514505 0.00613862 0.00811452 0.0108971 0.0139784 0.0171722 0.0206264 0.0245645 0.0290463 0.0336659 0.0383336 0.0427875 0.0467924 0.0500974 0.0526526 0.0545482 0.0562374 0.0582812 0.0611692 0.0647434 0.0679789 0.0690563 0.0657248 0.0565659 0.0415548 0.022621 0.00288539 -0.0147149 -0.0282931 -0.0378072 -0.0440246 -0.0479747 -0.0498042 -0.0489114 -0.0445798 -0.036468 -0.0252624 -0.0117666 0.00309518 0.0185584 0.0338989 0.047831 0.0594805 0.0682893 0.0742698 0.0772655 0.077068 0.0744972 0.0700047 0.0640202 0.0558602 0.0444327 0.0297679 0.0127241 -0.00403371 -0.0179013 -0.0283709 -0.0357894 -0.041947 -0.0477544 -0.0528289 -0.0568257 -0.0582149 -0.0556762 -0.0488006 -0.0395483 -0.0320137 -0.0271393 -0.0234144 -0.0188287 -0.0115644 -0.00372118 0.0013259 0.00263612 0.00157947 0.00123806 0.00253155 0.00383897 0.0040644 0.00334518 0.00249908 0.00202143 0.00171073 0.00133306 0.000936879 0.000629415 0.000272135 0 0 
0 0 0.000137268 0.000330169 0.000510287 0.000746093 0.0010295 0.00140289 0.00194076 0.00252845 0.00274528 0.00247394 0.0022945 0.00275155 0.00360325 0.00321069 0.000375774 -0.00316886 -0.00565305 -0.00687401 -0.00849589 -0.0137128 -0.0223998 -0.0321502 -0.0404399 -0.045304 -0.0484632 -0.0519016 -0.0554707 -0.0585452 -0.0597241 -0.0578207 -0.0519201 -0.0420367 -0.0302881 -0.018361 -0.00711914 0.00398336 0.016411 0.0301372 0.04455 0.0579514 0.0687747 0.0764293 0.0804271 0.0809268 0.0779576 0.071546 0.062454 0.0513026 0.0392854 0.0268139 0.0138221 0.000464705 -0.0133699 -0.0268149 -0.0389976 -0.0486817 -0.0549442 -0.057101 -0.0547539 -0.0480644 -0.0374548 -0.0240368 -0.0090624 0.00592047 0.0196409 0.0312306 0.0401477 0.0464276 0.050319 0.0523715 0.0528814 0.0524139 0.0510532 0.0490612 0.0464997 0.0434111 0.0399243 0.0361044 0.0320527 0.0278862 0.0238216 0.0198457 0.0161013 0.0126418 0.00963581 0.00705506 0.00497491 0.00323592 0.00181563 0.000721524 8.85949e-05 0.000551341 0.00274699 0.00719593 0.0136249 0.0202974 0.0250189 0.0260557 0.0235337 0.0191256 0.015167 0.0125474 0.010711 0.00859625 0.00624779 0.0043074 0.00328745 0.00304205 0.00307538 0.00363547 0.00509999 0.00742084 0.0102823 0.0132934 0.0165607 0.020063 0.0237989 0.0276389 0.0314757 0.034821 0.0374109 0.0392441 0.0404986 0.0414344 0.0428474 0.0456399 0.0500069 0.055507 0.0603127 0.0621087 0.0582977 0.0476623 0.0308558 0.0104563 -0.010258 -0.0284247 -0.0424441 -0.0522166 -0.0579272 -0.059771 -0.0574141 -0.0508066 -0.0404267 -0.0276049 -0.0141302 -0.000865149 0.0116375 0.0240175 0.036407 0.0484783 0.0594717 0.0681999 0.0744496 0.0776039 0.077314 0.0734563 0.0659463 0.0553898 0.042294 0.0282171 0.0148382 0.00281415 -0.00789193 -0.0187905 -0.0303754 -0.0417637 -0.0512666 -0.0568233 -0.0584693 -0.0570915 -0.0539548 -0.0503739 -0.047057 -0.0440211 -0.039287 -0.0311478 -0.0215975 -0.0131185 -0.00810526 -0.00666236 -0.00561838 -0.00331508 0.000123271 0.00289376 0.00328018 0.00247217 0.00206381 0.00229152 0.00261742 0.00244994 0.00190663 0.00140805 0.00106227 0.000798863 0.000575674 0.000258851 0 0 
0 0 0.000130175 0.000296286 0.000432245 0.000635414 0.00093205 0.00129368 0.001599 0.0017272 0.00184669 0.00225329 0.00265202 0.00235759 0.000997705 -0.000790295 -0.00139559 -0.00108086 -0.00189909 -0.005058 -0.0107121 -0.016567 -0.0208211 -0.0244562 -0.0288602 -0.0357738 -0.0444393 -0.0521481 -0.057902 -0.0608924 -0.0610412 -0.0594019 -0.0568383 -0.0540562 -0.0499779 -0.0430746 -0.0327222 -0.0193618 -0.00500762 0.00912464 0.0223253 0.0344043 0.045761 0.0558327 0.0643169 0.0709073 0.0749993 0.0765303 0.0746942 0.0693033 0.0601695 0.0476479 0.0326839 0.0163294 -1.50058e-05 -0.0151671 -0.028108 -0.0384594 -0.0462387 -0.0515627 -0.0547401 -0.0555254 -0.053566 -0.0483502 -0.0398754 -0.0285721 -0.0153187 -0.00151702 0.0117498 0.0232129 0.0323312 0.038899 0.0430962 0.0452223 0.0457067 0.0449942 0.0432944 0.0409339 0.0380003 0.0346489 0.0310024 0.0271673 0.023253 0.0193463 0.015462 0.0117531 0.00826254 0.0050403 0.00211663 -0.000627984 -0.00311304 -0.00513252 -0.00603193 -0.0052085 -0.00222262 0.00256249 0.0078265 0.0115918 0.0124513 0.0105541 0.00745535 0.00497176 0.0038471 0.00332669 0.0022729 0.00053606 -0.00102585 -0.00178781 -0.00187739 -0.00169177 -0.00104746 0.00038719 0.00272679 0.005603 0.00883189 0.0122889 0.0158327 0.0193605 0.0228121 0.0262066 0.0291846 0.0313916 0.0328405 0.0339573 0.0352253 0.0373403 0.0408343 0.0456967 0.0504799 0.0528621 0.0503704 0.0412323 0.0255512 0.00556202 -0.014873 -0.0325921 -0.0453778 -0.0531561 -0.0571196 -0.0583919 -0.0575986 -0.0545222 -0.0488423 -0.040353 -0.0294751 -0.0165815 -0.00198434 0.0137472 0.0298188 0.044825 0.0574439 0.0665328 0.0717695 0.0736206 0.0723944 0.0686523 0.0623253 0.0540289 0.0442787 0.0332746 0.0215291 0.00864264 -0.00513097 -0.0191529 -0.0322295 -0.042278 -0.0488928 -0.0526826 -0.0552704 -0.0576948 -0.0592799 -0.0590837 -0.0561067 -0.050358 -0.0427952 -0.0342991 -0.0275082 -0.0231853 -0.0196724 -0.0155702 -0.0099385 -0.00454941 -0.00157391 -0.000936408 -0.00136564 -0.000855896 0.0008526 0.00218057 0.00247551 0.00210177 0.00173825 0.00165906 0.00156306 0.00128774 0.000951333 0.000675855 0.000487212 0.00022298 0 0 
0 0 0.000112681 0.000258405 0.000387109 0.000571621 0.000783037 0.000981963 0.00118274 0.00146816 0.00177007 0.0016797 0.001049 0.000322473 -1.9013e-05 5.6468e-05 -0.000725634 -0.00330368 -0.00639363 -0.00881996 -0.0100426 -0.0111059 -0.0144679 -0.0203064 -0.0274179 -0.0340886 -0.0392777 -0.0441406 -0.0490514 -0.0540832 -0.0595064 -0.0639546 -0.0659871 -0.0645315 -0.0597686 -0.053294 -0.0460666 -0.0384385 -0.0297379 -0.0192401 -0.00705204 0.00646611 0.0203671 0.0340229 0.0465566 0.057094 0.0650941 0.0697297 0.0709939 0.0689985 0.0641918 0.0572389 0.048213 0.0372788 0.0242641 0.00930044 -0.00675436 -0.0228699 -0.0374542 -0.0496072 -0.0584783 -0.0638802 -0.0656798 -0.0638801 -0.05869 -0.0502382 -0.0392537 -0.0264224 -0.013032 -0.00011059 0.0113118 0.0206475 0.027586 0.032284 0.0350605 0.0361122 0.0359887 0.0348095 0.0329275 0.0303653 0.0274286 0.0241214 0.0206544 0.0171057 0.0135118 0.00999583 0.00658129 0.0032836 0.00010348 -0.00293584 -0.0055711 -0.0073213 -0.0073423 -0.00520308 -0.00129204 0.00305726 0.00590545 0.00590916 0.00333742 5.05289e-05 -0.00193307 -0.00199298 -0.00111948 -0.0007911 -0.00149077 -0.00253243 -0.00317848 -0.00338679 -0.00350785 -0.0033775 -0.00251027 -0.000854491 0.00140477 0.00406896 0.00714969 0.0104418 0.0135892 0.0165157 0.019233 0.0215927 0.0233013 0.0242837 0.0252167 0.0267376 0.0296306 0.0340106 0.0394438 0.0438504 0.0446846 0.0395591 0.0275423 0.00987565 -0.0103857 -0.0295255 -0.0450728 -0.0559698 -0.0630025 -0.0670111 -0.0685812 -0.0670959 -0.0618166 -0.0525221 -0.0396237 -0.0245778 -0.00858646 0.00701137 0.0216619 0.0347329 0.0459152 0.0550786 0.0620463 0.066864 0.0690195 0.0680816 0.0637799 0.0559983 0.0456624 0.0334145 0.0201207 0.00643585 -0.00686167 -0.0188401 -0.0290999 -0.0375898 -0.045027 -0.0520616 -0.0583875 -0.0630844 -0.0644913 -0.0624798 -0.0580497 -0.0526948 -0.0477034 -0.0428167 -0.0379837 -0.0328526 -0.0262516 -0.0192612 -0.0135383 -0.0103012 -0.00933802 -0.00823227 -0.00594443 -0.00299326 -0.000557522 0.000130271 -2.58766e-05 0.000256609 0.000961221 0.0015863 0.0016886 0.00141196 0.00115017 0.000972326 0.000796388 0.000603854 0.000425918 0.000189552 0 0 
0 0 9.94269e-05 0.000226818 0.000330441 0.000456442 0.00061405 0.000810778 0.00101449 0.00110608 0.00093489 0.000664921 0.000570668 0.000355304 -0.000434367 -0.00209276 -0.00410307 -0.00510454 -0.00547804 -0.00646152 -0.00881355 -0.0127561 -0.0164735 -0.0190497 -0.0214779 -0.0248031 -0.0301681 -0.0369161 -0.0439151 -0.0505674 -0.0554866 -0.058656 -0.0608975 -0.0627424 -0.0642346 -0.0641383 -0.061472 -0.0559463 -0.0479602 -0.0386286 -0.0282202 -0.0171296 -0.00548081 0.00653475 0.0184671 0.0301855 0.0412107 0.051202 0.0594745 0.064965 0.0668866 0.0644761 0.0580124 0.0480832 0.035696 0.021819 0.00721841 -0.00725432 -0.0210727 -0.0336299 -0.0447004 -0.0539396 -0.0611207 -0.0659943 -0.0678612 -0.0664018 -0.0612459 -0.0526308 -0.0411257 -0.0278691 -0.0141903 -0.00134613 0.00967955 0.018408 0.0246484 0.0286888 0.0308032 0.0314894 0.0310011 0.0296641 0.0276438 0.025114 0.0221656 0.0189554 0.0154106 0.011699 0.0077837 0.00365024 -0.000516037 -0.00450414 -0.00768931 -0.00937779 -0.0089204 -0.00660107 -0.00363808 -0.00203328 -0.00315346 -0.00697843 -0.011494 -0.0145322 -0.014883 -0.0134933 -0.011795 -0.010825 -0.0101583 -0.00941612 -0.00850097 -0.00777689 -0.00703047 -0.00581067 -0.00380882 -0.001317 0.00158709 0.00489071 0.00849988 0.0118645 0.0146958 0.01705 0.0188154 0.0200096 0.0207263 0.0216365 0.0235835 0.0271878 0.0321579 0.0372173 0.0398473 0.0373658 0.0278696 0.0116845 -0.00867127 -0.0293424 -0.0468304 -0.0592572 -0.0666506 -0.0701609 -0.0707829 -0.0690886 -0.064656 -0.0574854 -0.0476669 -0.0358203 -0.0227849 -0.00902296 0.00507811 0.0195253 0.0336788 0.0465352 0.0567104 0.0631486 0.0655312 0.0637829 0.0585396 0.0505151 0.0406707 0.0297792 0.0182773 0.00655448 -0.0053168 -0.0168787 -0.0278241 -0.0380658 -0.0472585 -0.0551129 -0.0605436 -0.0631186 -0.0631721 -0.0616884 -0.0599077 -0.0577819 -0.0547202 -0.0498727 -0.0431693 -0.0360987 -0.0293391 -0.0240195 -0.0207316 -0.0183434 -0.0157918 -0.0121488 -0.00826169 -0.00599356 -0.00509268 -0.00479775 -0.0038887 -0.00196594 -0.000380688 0.000358397 0.000545037 0.000622879 0.000889024 0.00107005 0.000992178 0.000802941 0.000622043 0.000477291 0.000356112 0.00016441 0 0 
0 0 8.36601e-05 0.000185177 0.000263031 0.000374356 0.000505597 0.000607231 0.000643309 0.000613179 0.000581781 0.000481254 -6.72808e-05 -0.00105327 -0.00203545 -0.00275122 -0.00318731 -0.00434075 -0.00661568 -0.00887408 -0.0105394 -0.0111899 -0.0117976 -0.0140474 -0.0175952 -0.0218907 -0.0260997 -0.0299069 -0.0340275 -0.0385505 -0.0440817 -0.0505946 -0.0566374 -0.0612498 -0.0635772 -0.0640689 -0.0635506 -0.0620073 -0.0594461 -0.0553378 -0.0493616 -0.0415224 -0.0318386 -0.0206684 -0.00818493 0.00482545 0.0174857 0.029064 0.0387519 0.0464876 0.0519608 0.0550956 0.0556118 0.0532933 0.0479804 0.0395059 0.0281522 0.0143078 -0.000836367 -0.0161552 -0.0304594 -0.0428666 -0.0530794 -0.0608019 -0.0661187 -0.0686915 -0.0684001 -0.0648706 -0.0581585 -0.0485599 -0.0367617 -0.0240069 -0.0114085 -0.000231414 0.00890157 0.015577 0.0199346 0.0220726 0.0225183 0.0215915 0.019673 0.0170326 0.0138695 0.0103089 0.00635333 0.00213986 -0.00245155 -0.00722064 -0.0119427 -0.0160164 -0.0187392 -0.0194635 -0.0182907 -0.0164333 -0.015706 -0.0175617 -0.0221479 -0.0276799 -0.0320007 -0.0336833 -0.0331971 -0.0317349 -0.0301976 -0.0284357 -0.0263659 -0.0241541 -0.0224291 -0.021028 -0.0194694 -0.0174526 -0.0150068 -0.0122035 -0.00897416 -0.00532666 -0.00170867 0.00150889 0.00406927 0.00615382 0.00780462 0.00946184 0.0118277 0.0155766 0.0209839 0.0272672 0.0324434 0.0334888 0.028176 0.0156396 -0.00252027 -0.0229663 -0.0415831 -0.0557836 -0.064824 -0.0696918 -0.0717467 -0.0716118 -0.0693346 -0.0643858 -0.0565439 -0.04567 -0.0324157 -0.0174833 -0.00208491 0.0127692 0.02642 0.0379873 0.0469989 0.0526809 0.0549546 0.0542325 0.0511016 0.0458371 0.0382758 0.0286511 0.0171489 0.00460045 -0.00820098 -0.0205772 -0.0316592 -0.0412355 -0.0489409 -0.0547988 -0.0588281 -0.0612684 -0.0627257 -0.0632452 -0.0628018 -0.0605868 -0.0561039 -0.050141 -0.0436203 -0.0380145 -0.0333914 -0.0292161 -0.0253987 -0.0212547 -0.0170162 -0.0135039 -0.0112397 -0.0106211 -0.0100114 -0.00842565 -0.00627034 -0.0040726 -0.00298234 -0.00260076 -0.00193677 -0.00101071 -5.99595e-05 0.000472717 0.00056511 0.000597987 0.000632672 0.000602514 0.000510835 0.00039102 0.000284624 0.000130457 0 0 
0 0 6.62118e-05 0.00014844 0.000212788 0.000282085 0.000338929 0.000389604 0.000419518 0.000371785 0.000157759 -0.000317867 -0.000830736 -0.00120831 -0.00183569 -0.00287463 -0.00437621 -0.00584994 -0.00640663 -0.00678625 -0.00773058 -0.00944556 -0.0118554 -0.013594 -0.0147523 -0.0161449 -0.0182264 -0.0217374 -0.0262732 -0.0313865 -0.036506 -0.0408929 -0.0452283 -0.0498959 -0.0548705 -0.0598157 -0.0634676 -0.0654343 -0.0655503 -0.0639401 -0.060844 -0.0561396 -0.0500377 -0.0424489 -0.0335583 -0.0234198 -0.0119713 0.00048244 0.0134168 0.0258553 0.0368794 0.0453037 0.0504992 0.052239 0.0505132 0.0460007 0.0389079 0.0295995 0.0184141 0.00567578 -0.00776847 -0.0213414 -0.0341948 -0.0460464 -0.0562174 -0.0645194 -0.0703946 -0.0734275 -0.0733537 -0.0698243 -0.063059 -0.0535308 -0.0423755 -0.0307226 -0.0198134 -0.0105425 -0.00351113 0.00116822 0.00366411 0.00430551 0.00347838 0.00155983 -0.00116231 -0.00459983 -0.00867116 -0.0133886 -0.0186102 -0.0240997 -0.0291964 -0.033213 -0.0354272 -0.0359138 -0.0355234 -0.0362332 -0.0393476 -0.0451359 -0.0518733 -0.057459 -0.0605525 -0.0614528 -0.0612413 -0.060444 -0.058805 -0.0559978 -0.0524587 -0.0490331 -0.0459321 -0.043017 -0.039857 -0.036696 -0.0333405 -0.0297327 -0.0257829 -0.0219017 -0.0183801 -0.0155121 -0.0132211 -0.0112871 -0.00900989 -0.00557405 -0.000420315 0.00613249 0.0127555 0.0169674 0.0158455 0.00754244 -0.00747902 -0.0263985 -0.0453244 -0.0606554 -0.0708275 -0.0760104 -0.0775889 -0.0764917 -0.0732656 -0.0676709 -0.0595158 -0.0490937 -0.0365985 -0.0228172 -0.0085078 0.00512183 0.0175536 0.0283757 0.0376908 0.0452015 0.0501435 0.0518356 0.0498078 0.0444481 0.0361489 0.0253329 0.0129906 8.31637e-05 -0.0122375 -0.0234928 -0.0334878 -0.0422607 -0.0497286 -0.0557 -0.0602872 -0.0632756 -0.0648029 -0.0646207 -0.0626778 -0.0591161 -0.0543064 -0.0494251 -0.0448054 -0.0404328 -0.0359635 -0.0307775 -0.0256455 -0.0211415 -0.0176763 -0.0156201 -0.0141923 -0.0129907 -0.0112337 -0.00887665 -0.00723901 -0.00637942 -0.006063 -0.00555176 -0.00414035 -0.00270088 -0.00171695 -0.00114047 -0.000790134 -0.000294776 0.000163259 0.000370192 0.000418411 0.000391346 0.000346032 0.000294986 0.000224615 0.000103891 0 0 
0 0 5.03674e-05 0.000108841 0.00014543 0.000182659 0.000223324 0.000228981 0.000150518 -2.2996e-06 -0.000236533 -0.000509868 -0.000900057 -0.00168988 -0.00257526 -0.00324319 -0.0038004 -0.00428719 -0.00538745 -0.0069006 -0.00792809 -0.0086086 -0.00887111 -0.00957483 -0.0113151 -0.0133353 -0.0155734 -0.0177783 -0.019967 -0.0226847 -0.0261788 -0.0308864 -0.0363393 -0.0416805 -0.0467021 -0.051129 -0.055325 -0.0592668 -0.0626081 -0.0650981 -0.0660954 -0.0655267 -0.063006 -0.0583494 -0.0515749 -0.0427934 -0.0324624 -0.0209644 -0.00895945 0.00310011 0.0149524 0.0259871 0.0357575 0.0432635 0.047916 0.0492128 0.0470392 0.0413298 0.0323229 0.0206187 0.00693015 -0.00771439 -0.0225044 -0.0368008 -0.0501459 -0.0621833 -0.0725827 -0.0810097 -0.0869389 -0.0899716 -0.0896674 -0.0860064 -0.07919 -0.0700608 -0.0596946 -0.0493854 -0.0403103 -0.033173 -0.0283629 -0.0258475 -0.0253052 -0.0263312 -0.0286295 -0.031892 -0.0360479 -0.0409375 -0.0462758 -0.0514998 -0.0558425 -0.0586022 -0.0597389 -0.0601231 -0.0614283 -0.0652086 -0.0716346 -0.0792911 -0.0858149 -0.0899546 -0.0919217 -0.0928217 -0.0932982 -0.0929607 -0.091122 -0.0878674 -0.0839868 -0.0800441 -0.0759333 -0.0718161 -0.0678798 -0.0642516 -0.0606824 -0.0569895 -0.0533864 -0.0501356 -0.0473466 -0.0448753 -0.0424 -0.0391779 -0.0343443 -0.0275706 -0.0198142 -0.0130891 -0.0102364 -0.0138475 -0.0247903 -0.0413287 -0.0598091 -0.0761264 -0.0875628 -0.0935849 -0.095128 -0.0936337 -0.0897378 -0.0836463 -0.0753118 -0.0649108 -0.0525856 -0.0386313 -0.023448 -0.00788581 0.00694223 0.0201874 0.0313132 0.0401158 0.0461237 0.0487108 0.0474776 0.0425588 0.0348744 0.0252216 0.0144306 0.00271309 -0.00929369 -0.0211446 -0.032395 -0.0425859 -0.0512957 -0.0579442 -0.0624878 -0.0648801 -0.0653842 -0.0643433 -0.0618482 -0.058597 -0.0547937 -0.0507243 -0.0463936 -0.041392 -0.0359878 -0.0304647 -0.0256682 -0.0221941 -0.0195088 -0.0173891 -0.0151962 -0.0129203 -0.0108562 -0.00908472 -0.00838501 -0.00815777 -0.00751908 -0.00653898 -0.00507268 -0.00401874 -0.0035818 -0.00305912 -0.00243495 -0.00159192 -0.000834272 -0.000469142 -0.000213242 1.26753e-05 0.00016069 0.000235764 0.000230763 0.000192498 0.000154305 7.45635e-05 0 0 
0 0 3.17416e-05 6.72958e-05 8.66844e-05 0.000100318 8.56283e-05 3.19161e-05 -3.80903e-05 -0.000186554 -0.000461468 -0.000823293 -0.00131316 -0.00173419 -0.00211959 -0.0028529 -0.00365153 -0.00446378 -0.00506029 -0.00520352 -0.00580023 -0.00674866 -0.0078791 -0.00914178 -0.00990979 -0.0107976 -0.0120536 -0.0136871 -0.0160297 -0.0186632 -0.0215362 -0.0244875 -0.027598 -0.03146 -0.0358787 -0.0408492 -0.0459302 -0.0506736 -0.0551423 -0.0588438 -0.0617656 -0.0636116 -0.064082 -0.0630834 -0.060282 -0.0556705 -0.0489802 -0.0402583 -0.0297403 -0.0180552 -0.00597207 0.005848 0.0164974 0.0254259 0.0319148 0.0357051 0.0365923 0.0344939 0.0292998 0.0210034 0.00979077 -0.00376803 -0.0188893 -0.0346621 -0.0504085 -0.0654854 -0.0795959 -0.0921671 -0.102739 -0.110955 -0.116364 -0.118435 -0.116975 -0.112119 -0.10429 -0.0945511 -0.0840812 -0.0741862 -0.0657711 -0.0595159 -0.055523 -0.0537129 -0.053794 -0.0555286 -0.0586034 -0.0626993 -0.0671451 -0.0711501 -0.0738877 -0.0753328 -0.0761645 -0.0780265 -0.0824028 -0.0894965 -0.0980465 -0.105721 -0.111041 -0.114092 -0.116012 -0.117546 -0.118366 -0.11786 -0.115828 -0.112731 -0.108881 -0.104259 -0.0990646 -0.0938328 -0.0891269 -0.0848366 -0.0809182 -0.0774669 -0.074556 -0.0721948 -0.0699156 -0.06737 -0.063807 -0.0585606 -0.0516374 -0.044514 -0.0397456 -0.0402547 -0.047887 -0.0623065 -0.0805319 -0.0984806 -0.112455 -0.120826 -0.123887 -0.123092 -0.119465 -0.11333 -0.10485 -0.0941836 -0.0815948 -0.0673151 -0.0517208 -0.0351811 -0.0187305 -0.00354446 0.0094503 0.019962 0.0279384 0.0333604 0.0358311 0.0351171 0.0312442 0.0246837 0.0158667 0.00541584 -0.00621545 -0.0182191 -0.0297759 -0.0401156 -0.0487289 -0.0553371 -0.0598643 -0.0625504 -0.0634703 -0.0629573 -0.061089 -0.0582113 -0.0546314 -0.0503449 -0.0457343 -0.0407291 -0.035734 -0.0311974 -0.0272265 -0.0240647 -0.0211505 -0.0183525 -0.0157877 -0.0134324 -0.011779 -0.0104445 -0.00954395 -0.00877526 -0.00754191 -0.00643535 -0.00550849 -0.00493414 -0.00480767 -0.00423928 -0.00345111 -0.00268465 -0.00199311 -0.00163497 -0.0012353 -0.000767525 -0.000422531 -0.00015992 -2.02795e-05 4.49907e-05 9.62644e-05 0.000108949 9.24676e-05 4.54253e-05 0 0 
0 0 1.37111e-05 2.49315e-05 2.16146e-05 8.71578e-06 -2.75966e-05 -9.00268e-05 -0.000222987 -0.00041859 -0.000603464 -0.000896211 -0.00128319 -0.00170951 -0.00226714 -0.00260461 -0.00292898 -0.00357402 -0.00418781 -0.00496444 -0.00557246 -0.00596146 -0.00680043 -0.00773878 -0.0089346 -0.0102225 -0.0112973 -0.0126047 -0.0138374 -0.0152736 -0.0170596 -0.0190457 -0.0213779 -0.0238654 -0.0266059 -0.0298886 -0.033587 -0.0378842 -0.0424162 -0.047122 -0.0517411 -0.0559005 -0.0595247 -0.0619525 -0.0630295 -0.0624546 -0.0600825 -0.0560122 -0.0500927 -0.0427606 -0.034162 -0.0248445 -0.0153127 -0.00622788 0.00162311 0.00757141 0.0110906 0.0119888 0.0100052 0.00513181 -0.00268144 -0.0132711 -0.0261014 -0.0404645 -0.0555575 -0.0708075 -0.0857053 -0.0997724 -0.112474 -0.123432 -0.132081 -0.13809 -0.141055 -0.140579 -0.136671 -0.129563 -0.12015 -0.109479 -0.0989258 -0.0895652 -0.0823059 -0.0774367 -0.0750619 -0.0749782 -0.0767067 -0.0795554 -0.0824925 -0.0847347 -0.0858795 -0.0866805 -0.0886125 -0.0931647 -0.100636 -0.109779 -0.118307 -0.12468 -0.128764 -0.131743 -0.134236 -0.136101 -0.136643 -0.135863 -0.13405 -0.131409 -0.127589 -0.122648 -0.116929 -0.111219 -0.105855 -0.101079 -0.0970653 -0.093978 -0.0915136 -0.0891006 -0.0859861 -0.0815954 -0.0754463 -0.0682291 -0.0618754 -0.0593103 -0.0631406 -0.0742729 -0.0912573 -0.110227 -0.127031 -0.138786 -0.145004 -0.146573 -0.144903 -0.140595 -0.133829 -0.124774 -0.113691 -0.10106 -0.0870379 -0.0718295 -0.0559206 -0.040309 -0.0259493 -0.0137047 -0.00382572 0.00367661 0.00872381 0.0111165 0.0104422 0.00694303 0.00100411 -0.00668055 -0.0155601 -0.0249691 -0.0342274 -0.0427267 -0.0499379 -0.0557233 -0.059751 -0.0620466 -0.062516 -0.0613624 -0.0589005 -0.0553209 -0.0512229 -0.0467575 -0.0422224 -0.0378001 -0.0335096 -0.0297312 -0.0263181 -0.0234592 -0.0209617 -0.0186885 -0.0167641 -0.0150044 -0.0135536 -0.0122776 -0.0109416 -0.00985093 -0.00859966 -0.00740797 -0.00649322 -0.00567313 -0.00531598 -0.00472781 -0.00397426 -0.00339014 -0.00277164 -0.00246939 -0.00215318 -0.00161484 -0.00120553 -0.00083627 -0.000559881 -0.000385194 -0.000196666 -7.16049e-05 -1.6681e-05 1.66259e-05 2.713e-05 1.48209e-05 0 0 
0 0 -1.00041e-05 -2.03382e-05 -3.33526e-05 -7.85483e-05 -0.000141614 -0.000222352 -0.000330203 -0.000471009 -0.000772854 -0.00107112 -0.00116456 -0.0014527 -0.00192489 -0.00253622 -0.00314533 -0.00319496 -0.0035094 -0.0043764 -0.00549553 -0.00673391 -0.00725745 -0.00756447 -0.00830986 -0.00931736 -0.0107062 -0.0117748 -0.012269 -0.012503 -0.0126374 -0.0133722 -0.0146803 -0.0163334 -0.0182347 -0.0201656 -0.0227448 -0.0261281 -0.0306141 -0.0362471 -0.0425213 -0.0491894 -0.0556682 -0.0617105 -0.0669785 -0.0711386 -0.0740495 -0.0753328 -0.0749133 -0.072571 -0.068313 -0.0623556 -0.0549098 -0.0466739 -0.0381911 -0.0303876 -0.02391 -0.0194912 -0.017302 -0.017585 -0.020527 -0.0261182 -0.0343685 -0.0447308 -0.0567505 -0.0696699 -0.0831785 -0.0967355 -0.109925 -0.122327 -0.133302 -0.142542 -0.149389 -0.153627 -0.154646 -0.152258 -0.14654 -0.138039 -0.127829 -0.117247 -0.1075 -0.0998157 -0.0946834 -0.0922487 -0.0919484 -0.0927476 -0.0936705 -0.0941753 -0.0946356 -0.0964325 -0.101121 -0.109068 -0.118995 -0.128601 -0.136178 -0.14144 -0.14554 -0.149204 -0.152291 -0.154021 -0.154268 -0.153465 -0.151927 -0.149315 -0.145386 -0.140212 -0.134375 -0.128178 -0.12213 -0.116718 -0.112317 -0.108652 -0.105078 -0.100737 -0.0949299 -0.0876162 -0.0799278 -0.0743611 -0.0740356 -0.0810461 -0.0951879 -0.113861 -0.132501 -0.147221 -0.156178 -0.159837 -0.159588 -0.156554 -0.151119 -0.143507 -0.133812 -0.122836 -0.110751 -0.0978019 -0.0841124 -0.0701139 -0.0567027 -0.0447243 -0.0349474 -0.0273355 -0.0220367 -0.0188992 -0.0181725 -0.0200889 -0.024508 -0.0309709 -0.0385616 -0.0468249 -0.0549429 -0.0623662 -0.068247 -0.0723607 -0.0746045 -0.0749717 -0.0736324 -0.0706177 -0.0663831 -0.0611169 -0.055115 -0.0487663 -0.0422707 -0.0361821 -0.0306311 -0.0261115 -0.0225805 -0.0198623 -0.0178332 -0.0159586 -0.0143918 -0.0131644 -0.0124218 -0.0122447 -0.0119659 -0.0114625 -0.010408 -0.00903631 -0.00804867 -0.00729388 -0.00699918 -0.00650057 -0.0052816 -0.00419044 -0.0033251 -0.00303883 -0.00300694 -0.00241405 -0.00182376 -0.00137026 -0.00109505 -0.00101278 -0.000726511 -0.000434346 -0.000301495 -0.000202237 -0.000127208 -7.10114e-05 -3.84171e-05 -1.45649e-05 0 0 
0 0 -3.02814e-05 -6.42822e-05 -9.27956e-05 -0.000153201 -0.000208237 -0.000322127 -0.000468282 -0.000522307 -0.000767366 -0.00104876 -0.00119904 -0.00161099 -0.00167854 -0.00201161 -0.00298336 -0.00344032 -0.00422818 -0.00464608 -0.00493344 -0.00629503 -0.00721618 -0.00813045 -0.00866388 -0.00836342 -0.00862589 -0.00875568 -0.00910913 -0.00961058 -0.00925335 -0.00905119 -0.00870463 -0.0091343 -0.0107685 -0.0130425 -0.0165438 -0.0205384 -0.0254559 -0.0315803 -0.0386669 -0.0471841 -0.0563589 -0.066227 -0.0759269 -0.0847281 -0.0922068 -0.0976098 -0.101052 -0.102006 -0.100815 -0.0974386 -0.0921322 -0.0852511 -0.0767309 -0.0674933 -0.0580295 -0.04939 -0.0420817 -0.0366503 -0.0337292 -0.0338342 -0.0374503 -0.0441626 -0.0537247 -0.0650108 -0.0776576 -0.0910129 -0.104692 -0.118208 -0.131012 -0.142763 -0.152905 -0.161173 -0.166809 -0.169332 -0.168067 -0.163062 -0.154828 -0.144683 -0.134105 -0.124753 -0.117683 -0.113437 -0.111324 -0.110297 -0.109323 -0.108187 -0.108218 -0.111237 -0.118801 -0.13008 -0.142314 -0.152202 -0.158647 -0.162866 -0.167007 -0.171364 -0.174954 -0.176495 -0.176497 -0.175672 -0.174424 -0.171877 -0.167876 -0.162624 -0.156794 -0.150337 -0.143674 -0.137543 -0.132459 -0.127657 -0.122221 -0.115189 -0.106477 -0.0968068 -0.0889372 -0.0868266 -0.0934949 -0.109359 -0.131076 -0.152999 -0.169308 -0.177339 -0.177972 -0.174229 -0.168382 -0.16136 -0.152677 -0.142297 -0.13057 -0.11831 -0.105531 -0.0921649 -0.0784092 -0.0650147 -0.0533942 -0.0443368 -0.0385978 -0.0356881 -0.0354892 -0.0376721 -0.0424934 -0.0497422 -0.0586067 -0.0680389 -0.0768965 -0.0851242 -0.0920067 -0.0973942 -0.10066 -0.10163 -0.100592 -0.0971309 -0.0916567 -0.0840318 -0.0752172 -0.0656025 -0.0559126 -0.0469403 -0.0386865 -0.0317605 -0.0256049 -0.0204845 -0.0162464 -0.0126009 -0.0103263 -0.00882326 -0.00852376 -0.00889722 -0.0090289 -0.00931024 -0.00879311 -0.00846695 -0.00839534 -0.00814283 -0.00844006 -0.00789566 -0.00701451 -0.00610758 -0.00477165 -0.00448441 -0.00406933 -0.00330853 -0.00286203 -0.00191356 -0.00159642 -0.00154111 -0.00113838 -0.000995596 -0.000722924 -0.000483877 -0.000436851 -0.000301292 -0.000193188 -0.000147665 -0.000101652 -4.30902e-05 0 0 
0 0 -4.68186e-05 -0.000103008 -0.000149001 -0.000220105 -0.000253396 -0.000379042 -0.000576087 -0.000610829 -0.000792698 -0.000952431 -0.00111944 -0.00184228 -0.00189927 -0.00196892 -0.00278431 -0.00325462 -0.00465795 -0.00535893 -0.00513496 -0.00574648 -0.00580287 -0.00661873 -0.00725215 -0.00664314 -0.00646981 -0.0056037 -0.00511626 -0.00549899 -0.00563307 -0.00638084 -0.00677091 -0.00760467 -0.00963189 -0.0124109 -0.0169569 -0.0222966 -0.0288143 -0.0364895 -0.0449201 -0.0547999 -0.065207 -0.0766033 -0.0881184 -0.0991891 -0.109503 -0.117927 -0.124562 -0.128257 -0.1291 -0.12696 -0.122002 -0.114753 -0.105131 -0.0941863 -0.0824322 -0.0710604 -0.0604668 -0.0511282 -0.043872 -0.0393231 -0.0386495 -0.041575 -0.0482953 -0.0575973 -0.0691954 -0.0824405 -0.096911 -0.112261 -0.127654 -0.142897 -0.157017 -0.169966 -0.180471 -0.188079 -0.191577 -0.190687 -0.185271 -0.176554 -0.165951 -0.155488 -0.146663 -0.140157 -0.135633 -0.132041 -0.128478 -0.125184 -0.124208 -0.127954 -0.137889 -0.151905 -0.165952 -0.175801 -0.181108 -0.184155 -0.188171 -0.193024 -0.197057 -0.198365 -0.198089 -0.197332 -0.196437 -0.193967 -0.190073 -0.185016 -0.179504 -0.172934 -0.165939 -0.159211 -0.153362 -0.147154 -0.139704 -0.13044 -0.120144 -0.110613 -0.105698 -0.109524 -0.12379 -0.146312 -0.171562 -0.192795 -0.204761 -0.206667 -0.200895 -0.191278 -0.179915 -0.167986 -0.154912 -0.14118 -0.126772 -0.112545 -0.0981128 -0.0837594 -0.0698077 -0.0571984 -0.0475478 -0.041709 -0.0401685 -0.0416487 -0.0457883 -0.0518728 -0.0604781 -0.0712507 -0.0830562 -0.0947117 -0.105114 -0.114388 -0.121716 -0.126811 -0.128784 -0.127671 -0.123916 -0.117317 -0.108814 -0.0983891 -0.0873863 -0.076106 -0.0649608 -0.0548004 -0.0451822 -0.0368104 -0.0289838 -0.022147 -0.0165761 -0.0119337 -0.00925167 -0.00738866 -0.00668341 -0.00626447 -0.00541612 -0.00521594 -0.00483115 -0.00536908 -0.00626667 -0.00645778 -0.00706112 -0.00643644 -0.00563999 -0.00559064 -0.00498567 -0.00522276 -0.00452954 -0.00315902 -0.00270448 -0.00190328 -0.00184035 -0.00178694 -0.00106733 -0.000903021 -0.00075066 -0.000573553 -0.000543082 -0.000357001 -0.000239064 -0.000217906 -0.000159213 -6.76786e-05 0 0 
0 0 -6.37303e-05 -0.000134271 -0.000185393 -0.000275695 -0.000323215 -0.000428155 -0.000582935 -0.000658046 -0.00097382 -0.00108932 -0.00101692 -0.00170208 -0.00210819 -0.00264092 -0.00327506 -0.00285372 -0.00373312 -0.00464493 -0.00488513 -0.00537791 -0.00415559 -0.00351262 -0.00355826 -0.00345157 -0.00427934 -0.00412048 -0.00395706 -0.00430933 -0.00499979 -0.00749406 -0.0104041 -0.0139206 -0.0178554 -0.0217228 -0.0269846 -0.0329864 -0.0404535 -0.0492195 -0.0586432 -0.0691301 -0.0795768 -0.0906333 -0.101625 -0.112448 -0.122962 -0.132245 -0.140215 -0.145448 -0.147784 -0.146618 -0.142117 -0.134585 -0.123989 -0.111556 -0.0979599 -0.084585 -0.0717594 -0.0599641 -0.0499859 -0.0424995 -0.0390541 -0.039586 -0.0443272 -0.0523086 -0.0632803 -0.0764986 -0.0918114 -0.108805 -0.126799 -0.145272 -0.163255 -0.180255 -0.194968 -0.206812 -0.214487 -0.217495 -0.215284 -0.208697 -0.198998 -0.188181 -0.177916 -0.169117 -0.161759 -0.154877 -0.147916 -0.141708 -0.138936 -0.142677 -0.15405 -0.17001 -0.185094 -0.194513 -0.19833 -0.20004 -0.203614 -0.208656 -0.212734 -0.213774 -0.213266 -0.212625 -0.212142 -0.210104 -0.206601 -0.202125 -0.197242 -0.191031 -0.183999 -0.176923 -0.170206 -0.162622 -0.153505 -0.143302 -0.133739 -0.127589 -0.128768 -0.140053 -0.160716 -0.186201 -0.210342 -0.22751 -0.23464 -0.232434 -0.223224 -0.209909 -0.193987 -0.177094 -0.159702 -0.142656 -0.125893 -0.109626 -0.093556 -0.0780173 -0.0636751 -0.051401 -0.0430724 -0.0394679 -0.0407461 -0.0451502 -0.0519605 -0.060462 -0.0714325 -0.0846253 -0.0986209 -0.112095 -0.123827 -0.133985 -0.141647 -0.146307 -0.147268 -0.144648 -0.139383 -0.131513 -0.122174 -0.111623 -0.100963 -0.0903546 -0.0796108 -0.069398 -0.0590395 -0.0495604 -0.0405219 -0.0327532 -0.0266204 -0.021365 -0.0176111 -0.01377 -0.0103009 -0.00733473 -0.00478186 -0.00409239 -0.00373683 -0.00392989 -0.00409669 -0.00330691 -0.00342754 -0.00339755 -0.00404979 -0.0052461 -0.00477963 -0.0045447 -0.00365519 -0.0027915 -0.00321845 -0.00259008 -0.00206234 -0.00165878 -0.000969566 -0.00104587 -0.000935431 -0.000620935 -0.000550718 -0.00040654 -0.00030778 -0.000274562 -0.000199759 -8.54308e-05 0 0 
0 0 -8.03094e-05 -0.000163611 -0.000213854 -0.000308086 -0.000385728 -0.000508967 -0.000620473 -0.000664846 -0.00104738 -0.00132455 -0.00132713 -0.00174652 -0.00189746 -0.00256617 -0.00346683 -0.00301686 -0.0029567 -0.00261073 -0.00233128 -0.00304928 -0.00250563 -0.00216252 -0.00195173 -0.00171911 -0.00322468 -0.00509765 -0.00772489 -0.0107697 -0.0134744 -0.017237 -0.0214219 -0.0267243 -0.0328409 -0.0390327 -0.0457729 -0.0521246 -0.0588491 -0.0660349 -0.0738002 -0.0828404 -0.0923835 -0.102816 -0.113216 -0.123236 -0.132521 -0.140437 -0.147302 -0.152115 -0.154855 -0.154878 -0.151941 -0.145921 -0.136197 -0.123871 -0.10942 -0.0944875 -0.0796922 -0.0657416 -0.0535466 -0.0441889 -0.039219 -0.0388641 -0.043205 -0.0511633 -0.0623638 -0.0761676 -0.09238 -0.110645 -0.130359 -0.150864 -0.171038 -0.190141 -0.207009 -0.220979 -0.230868 -0.236207 -0.236287 -0.231552 -0.222859 -0.211835 -0.200137 -0.188766 -0.177919 -0.166918 -0.155673 -0.145581 -0.140192 -0.14288 -0.154655 -0.171503 -0.186878 -0.195368 -0.197446 -0.197606 -0.200267 -0.205104 -0.209024 -0.209782 -0.20916 -0.208628 -0.208613 -0.207206 -0.204445 -0.200986 -0.197029 -0.191545 -0.184751 -0.177368 -0.169892 -0.16128 -0.151666 -0.142524 -0.136762 -0.137316 -0.146994 -0.166016 -0.190986 -0.216024 -0.23602 -0.248058 -0.251675 -0.24827 -0.239028 -0.22506 -0.207108 -0.187299 -0.167161 -0.147897 -0.129474 -0.111858 -0.094604 -0.0778796 -0.0624875 -0.0496821 -0.0414095 -0.0385596 -0.0410499 -0.0469848 -0.0554865 -0.0659729 -0.0790809 -0.0943324 -0.109998 -0.124341 -0.135911 -0.145172 -0.151324 -0.154466 -0.154206 -0.151155 -0.146332 -0.139595 -0.131678 -0.122428 -0.11267 -0.10271 -0.092589 -0.0831888 -0.074164 -0.066217 -0.0587522 -0.0518372 -0.0455028 -0.0388766 -0.0327601 -0.0266255 -0.0212909 -0.0170295 -0.0132918 -0.0106074 -0.00759333 -0.00492192 -0.00307962 -0.00160663 -0.00187209 -0.00210916 -0.00245896 -0.0029861 -0.00229405 -0.00256747 -0.00291779 -0.00298463 -0.00342929 -0.00252942 -0.0018571 -0.00170288 -0.00128582 -0.0012853 -0.00101015 -0.000628756 -0.000589778 -0.000488456 -0.000369757 -0.000305966 -0.000229226 -0.000102952 0 0 
0 0 -9.15335e-05 -0.000193133 -0.000253701 -0.000331837 -0.000409474 -0.000579306 -0.000749165 -0.000786448 -0.00101818 -0.00132988 -0.00168414 -0.00211565 -0.00183061 -0.00178689 -0.00224823 -0.00226863 -0.00240359 -0.00149763 -0.000432474 -0.000720174 -0.00143687 -0.00324853 -0.00512057 -0.00685875 -0.00958897 -0.0129874 -0.0179979 -0.0239473 -0.0297803 -0.0357474 -0.0410841 -0.0465798 -0.0524525 -0.0585123 -0.0649809 -0.0711145 -0.077066 -0.0828145 -0.0884884 -0.094768 -0.101514 -0.109402 -0.117948 -0.126933 -0.135747 -0.143613 -0.150279 -0.154822 -0.157173 -0.15699 -0.154307 -0.148965 -0.140577 -0.129594 -0.116597 -0.102701 -0.0884451 -0.0743812 -0.0613348 -0.0507586 -0.0442158 -0.0424663 -0.0455124 -0.0526346 -0.0632294 -0.0767602 -0.0931366 -0.111821 -0.132303 -0.153565 -0.174526 -0.19399 -0.210986 -0.224692 -0.234358 -0.239581 -0.239803 -0.235099 -0.22602 -0.213652 -0.199474 -0.184389 -0.168651 -0.15207 -0.135 -0.119591 -0.110128 -0.110442 -0.121291 -0.137863 -0.152616 -0.159756 -0.160003 -0.158467 -0.160002 -0.164236 -0.167728 -0.168341 -0.16758 -0.167317 -0.167714 -0.167175 -0.16544 -0.163123 -0.16025 -0.155577 -0.149155 -0.141674 -0.133781 -0.125206 -0.11719 -0.112309 -0.113965 -0.124422 -0.144163 -0.170584 -0.198204 -0.221439 -0.237505 -0.246347 -0.249447 -0.247886 -0.241519 -0.229839 -0.213039 -0.193001 -0.1718 -0.151015 -0.13144 -0.113049 -0.0955301 -0.0785657 -0.063125 -0.0506783 -0.0433309 -0.0420528 -0.046093 -0.0535957 -0.0631264 -0.0743216 -0.0874923 -0.102295 -0.11702 -0.129932 -0.140158 -0.148064 -0.153594 -0.15644 -0.156399 -0.153735 -0.149208 -0.142709 -0.134939 -0.126253 -0.117643 -0.109547 -0.101877 -0.0951096 -0.0886947 -0.0827853 -0.076855 -0.070866 -0.0648941 -0.0585427 -0.0524813 -0.0464969 -0.0409011 -0.03552 -0.0295964 -0.0238082 -0.017836 -0.0127642 -0.00938733 -0.00670461 -0.00502985 -0.00320077 -0.00143177 -0.000728951 -0.000442265 -0.00149069 -0.0023794 -0.00224922 -0.00222281 -0.00176225 -0.00179979 -0.00208101 -0.00164865 -0.00129392 -0.000982093 -0.000749757 -0.000718169 -0.000559286 -0.000396424 -0.000330639 -0.000262934 -0.000123517 0 0 
0 0 -9.8365e-05 -0.000216408 -0.000292596 -0.000372187 -0.000447993 -0.000605135 -0.000817346 -0.00100801 -0.00118751 -0.00124857 -0.00149419 -0.001934 -0.00192625 -0.00162334 -0.000997569 -0.00061512 -0.00123725 -0.00191077 -0.00274056 -0.00384496 -0.00558512 -0.00915224 -0.0139826 -0.0196512 -0.0255381 -0.0309823 -0.0367011 -0.042832 -0.0496278 -0.0567552 -0.0631787 -0.0687191 -0.0731009 -0.0768524 -0.0806039 -0.0845154 -0.0889816 -0.0936175 -0.0984973 -0.103281 -0.1081 -0.113471 -0.119434 -0.12638 -0.133831 -0.141493 -0.148606 -0.154025 -0.157186 -0.157556 -0.155291 -0.150211 -0.142484 -0.132454 -0.120985 -0.108895 -0.096543 -0.0840163 -0.0719072 -0.0614311 -0.0541661 -0.0509784 -0.0519754 -0.0566615 -0.0645532 -0.0752964 -0.0889207 -0.105036 -0.123007 -0.141668 -0.159902 -0.176403 -0.190313 -0.200893 -0.207735 -0.210443 -0.208892 -0.202844 -0.192611 -0.178807 -0.162331 -0.143913 -0.123701 -0.101817 -0.0790092 -0.0584854 -0.045008 -0.0429044 -0.0524455 -0.0684332 -0.0824943 -0.088657 -0.087548 -0.0848785 -0.0854245 -0.0890646 -0.0922779 -0.0928494 -0.0921305 -0.0921344 -0.092914 -0.0930083 -0.0920893 -0.0906214 -0.0882073 -0.0837754 -0.0770431 -0.0689608 -0.0605093 -0.0526429 -0.0475737 -0.0488986 -0.0594918 -0.0800738 -0.108192 -0.139054 -0.166622 -0.187095 -0.200243 -0.208183 -0.21298 -0.214941 -0.213185 -0.206348 -0.194284 -0.178046 -0.159495 -0.140446 -0.122499 -0.106169 -0.0911711 -0.0769787 -0.0642271 -0.0543915 -0.0495252 -0.0504371 -0.0560596 -0.0642627 -0.0735673 -0.0836912 -0.0952853 -0.108236 -0.121161 -0.132561 -0.141875 -0.149174 -0.154397 -0.15681 -0.15622 -0.152796 -0.147462 -0.140593 -0.133161 -0.125962 -0.11943 -0.113825 -0.108562 -0.103549 -0.0985222 -0.0934529 -0.0887489 -0.0844271 -0.0806777 -0.0769857 -0.0731025 -0.0685601 -0.0629107 -0.0564543 -0.0493235 -0.0425172 -0.0363071 -0.0305121 -0.0251049 -0.0193231 -0.0137375 -0.00900848 -0.00551045 -0.00381382 -0.00272413 -0.00190076 -0.00123104 -0.000630268 -0.00100455 -0.001617 -0.00190853 -0.00191127 -0.00146484 -0.00121589 -0.0011507 -0.000970477 -0.00078599 -0.000583544 -0.000437763 -0.00037517 -0.000298057 -0.000138527 0 0 
0 0 -0.000108549 -0.000234876 -0.000312741 -0.000413338 -0.000536427 -0.000661179 -0.000788838 -0.00107701 -0.00136775 -0.00135659 -0.00129116 -0.00119072 -0.00136645 -0.00180426 -0.00159446 -0.00164549 -0.00265103 -0.00497887 -0.00918592 -0.0137106 -0.0187333 -0.0244569 -0.0305799 -0.0380746 -0.045874 -0.0534103 -0.0603135 -0.0657762 -0.0709174 -0.0755504 -0.0800552 -0.0844598 -0.087896 -0.0906865 -0.0925914 -0.0941083 -0.0959971 -0.0982004 -0.101607 -0.105698 -0.110529 -0.115871 -0.121324 -0.127074 -0.132633 -0.138442 -0.144006 -0.149089 -0.153085 -0.155245 -0.155442 -0.152778 -0.14724 -0.138765 -0.1284 -0.11688 -0.104719 -0.0922057 -0.0797111 -0.0685975 -0.0598752 -0.0546406 -0.0526739 -0.053579 -0.0567728 -0.0621525 -0.06974 -0.07936 -0.0906672 -0.102483 -0.113954 -0.123801 -0.131602 -0.136628 -0.138798 -0.137983 -0.134054 -0.126968 -0.116493 -0.102969 -0.0866202 -0.067686 -0.0458696 -0.0215595 0.00412909 0.0271921 0.0425068 0.045215 0.0354578 0.0187152 0.00406144 -0.00269041 -0.0018915 0.000615105 0.000105831 -0.00349826 -0.00674506 -0.00775321 -0.00734198 -0.00756177 -0.00827483 -0.00850629 -0.00758862 -0.00578562 -0.00240405 0.00352468 0.0123553 0.0226686 0.0329801 0.0407918 0.0431028 0.036098 0.0184785 -0.0084028 -0.0396223 -0.0694918 -0.0930355 -0.10917 -0.119713 -0.127565 -0.134073 -0.13925 -0.141994 -0.141245 -0.136504 -0.127785 -0.116286 -0.103408 -0.0913392 -0.0808024 -0.0717363 -0.0634144 -0.0560798 -0.0510754 -0.0500811 -0.0540109 -0.0617223 -0.0713795 -0.0812875 -0.0917671 -0.103313 -0.115979 -0.128271 -0.138579 -0.146376 -0.15151 -0.154285 -0.154252 -0.151936 -0.147773 -0.142836 -0.137631 -0.132182 -0.126961 -0.12158 -0.116344 -0.110898 -0.10578 -0.101424 -0.0979365 -0.0958114 -0.0941487 -0.0927242 -0.0907784 -0.0877595 -0.0841771 -0.0796486 -0.0751197 -0.0704211 -0.0652128 -0.0596301 -0.0526602 -0.0451791 -0.0375122 -0.0301117 -0.0241116 -0.0184757 -0.013558 -0.00909002 -0.00494243 -0.00264419 -0.00165876 -0.00160745 -0.0018109 -0.00137112 -0.00118396 -0.0012654 -0.00132166 -0.00132724 -0.00103971 -0.000759309 -0.000637983 -0.000525663 -0.000419288 -0.000321739 -0.00014707 0 0 
0 0 -0.000123576 -0.000260863 -0.000334626 -0.000429879 -0.000602638 -0.000771221 -0.000828918 -0.00099904 -0.00120091 -0.00136115 -0.00157384 -0.0012266 -0.0012715 -0.0024311 -0.00404408 -0.00697228 -0.0102289 -0.014218 -0.0207295 -0.028263 -0.037097 -0.0458519 -0.053104 -0.060258 -0.0666183 -0.0732116 -0.0797402 -0.0846558 -0.0885241 -0.0905983 -0.0919903 -0.0934934 -0.0947351 -0.0965612 -0.0978883 -0.0991243 -0.100342 -0.101368 -0.103325 -0.105756 -0.10956 -0.114396 -0.119981 -0.126229 -0.132182 -0.138132 -0.143235 -0.147787 -0.15142 -0.153711 -0.154833 -0.153719 -0.150388 -0.144046 -0.135403 -0.124619 -0.111899 -0.0975647 -0.0816583 -0.0659004 -0.0512943 -0.0392757 -0.0298832 -0.0230182 -0.0183127 -0.0158003 -0.0156628 -0.0177746 -0.0218511 -0.0268384 -0.0320574 -0.0363792 -0.0395082 -0.0408471 -0.0403659 -0.0380478 -0.0338499 -0.0278334 -0.0197154 -0.00950535 0.00329181 0.018987 0.0383867 0.0611585 0.0859404 0.108065 0.121931 0.122582 0.110378 0.0910609 0.073899 0.0646576 0.0631352 0.0637536 0.0620761 0.0577794 0.0538346 0.0520088 0.0517213 0.051501 0.0512573 0.0517988 0.0537772 0.0573603 0.0635457 0.0730401 0.085933 0.1003 0.113775 0.122592 0.123268 0.112921 0.0922961 0.0649542 0.0372079 0.0140152 -0.00197307 -0.0122081 -0.0193452 -0.0256789 -0.0316191 -0.0369999 -0.0411882 -0.0436544 -0.0439385 -0.0414585 -0.0365737 -0.0303296 -0.024635 -0.0202945 -0.017724 -0.0165757 -0.0170958 -0.0201918 -0.0272209 -0.0386222 -0.0530395 -0.0685472 -0.0831486 -0.097162 -0.110525 -0.123555 -0.134951 -0.143535 -0.149301 -0.15227 -0.153443 -0.152434 -0.150087 -0.146445 -0.142131 -0.137438 -0.131913 -0.126336 -0.120328 -0.114745 -0.109654 -0.10555 -0.102966 -0.101084 -0.100251 -0.0992066 -0.0979679 -0.0964757 -0.0944587 -0.0930798 -0.0914885 -0.0900113 -0.0878254 -0.0838474 -0.0788442 -0.0722553 -0.0657377 -0.0594688 -0.052425 -0.0452698 -0.0366468 -0.0279365 -0.0205116 -0.0141017 -0.0101596 -0.00695075 -0.00403334 -0.00243686 -0.00127283 -0.00121303 -0.0015441 -0.00132234 -0.00115852 -0.00096186 -0.000800578 -0.000748814 -0.0005925 -0.000435833 -0.000343999 -0.000163463 0 0 
0 0 -0.000135418 -0.000294404 -0.00038218 -0.000449482 -0.000603065 -0.000813895 -0.000927401 -0.00106108 -0.00104692 -0.00118915 -0.00202439 -0.0026392 -0.00372561 -0.00588326 -0.00903266 -0.0150071 -0.0219766 -0.0293099 -0.037886 -0.0459142 -0.0550446 -0.064497 -0.0726059 -0.0799334 -0.0846936 -0.0882709 -0.0915317 -0.0940559 -0.0968975 -0.0985019 -0.0991243 -0.0990857 -0.097991 -0.0976552 -0.0974786 -0.0982898 -0.099986 -0.101799 -0.104297 -0.106567 -0.109519 -0.113216 -0.117967 -0.12431 -0.131225 -0.138796 -0.145655 -0.151471 -0.155664 -0.157652 -0.157696 -0.15507 -0.150002 -0.141894 -0.131084 -0.117499 -0.101127 -0.0819933 -0.0601045 -0.0371035 -0.0140265 0.00715907 0.0262344 0.0426277 0.0563566 0.0673595 0.0749604 0.0793191 0.080412 0.0792176 0.0761143 0.0723501 0.0681591 0.0643245 0.0609226 0.0582992 0.0564783 0.0555058 0.0556793 0.0572894 0.0613482 0.068793 0.0809946 0.0978808 0.117858 0.135854 0.145878 0.142779 0.127158 0.104787 0.0846503 0.0723699 0.0678496 0.0659881 0.062838 0.0578064 0.0531948 0.050486 0.0494741 0.0491778 0.0495651 0.0511522 0.054595 0.0604878 0.0701096 0.0837932 0.101084 0.119479 0.135714 0.14529 0.145031 0.133814 0.114918 0.0934726 0.0755423 0.0641627 0.0593458 0.0581294 0.0582123 0.0585585 0.0594085 0.0606582 0.062091 0.0636576 0.0653622 0.0678114 0.070649 0.0735136 0.0750259 0.0748457 0.0721021 0.0667233 0.0581505 0.0458996 0.0290226 0.00785016 -0.0156256 -0.0395076 -0.0614404 -0.0816538 -0.0998956 -0.116389 -0.130337 -0.141108 -0.148811 -0.153581 -0.156189 -0.156208 -0.154196 -0.150167 -0.144642 -0.138183 -0.131061 -0.124433 -0.118168 -0.113199 -0.109161 -0.106 -0.103752 -0.101445 -0.0998691 -0.0982177 -0.0972977 -0.0972577 -0.0974926 -0.0985316 -0.0985273 -0.0977938 -0.0960742 -0.0931118 -0.0905288 -0.0872269 -0.0836967 -0.0790004 -0.0717689 -0.0637727 -0.0544318 -0.0454228 -0.0374971 -0.0290323 -0.0217814 -0.0148893 -0.00896723 -0.0058371 -0.00368644 -0.00259845 -0.00197925 -0.00114671 -0.00100215 -0.00102019 -0.000898876 -0.000795313 -0.000599283 -0.00045793 -0.000384681 -0.000190108 0 0 
0 0 -0.000142328 -0.000320342 -0.000429631 -0.000504272 -0.000620724 -0.000767094 -0.000920783 -0.00128882 -0.00148239 -0.00173444 -0.003046 -0.00501295 -0.00840467 -0.0129907 -0.0178453 -0.0251836 -0.0339434 -0.0436161 -0.0540108 -0.0622433 -0.0699158 -0.0768242 -0.08277 -0.089068 -0.0933502 -0.0961908 -0.0977363 -0.0976627 -0.0981095 -0.0982544 -0.0985471 -0.0987929 -0.0980598 -0.0974392 -0.096222 -0.0955548 -0.0960428 -0.0976331 -0.101147 -0.105478 -0.110785 -0.116434 -0.122206 -0.128604 -0.135031 -0.142008 -0.148563 -0.154312 -0.158132 -0.15904 -0.156583 -0.149797 -0.138945 -0.123495 -0.10426 -0.0815735 -0.0558229 -0.0276537 0.00274765 0.033627 0.0638259 0.0914996 0.116093 0.137045 0.154364 0.167853 0.176893 0.181551 0.181619 0.177857 0.170623 0.16105 0.149736 0.137363 0.124563 0.111786 0.0993516 0.0874042 0.0762754 0.066482 0.0593653 0.0563639 0.0594181 0.0686426 0.0823586 0.0953148 0.101136 0.0947552 0.0766136 0.0524373 0.0306936 0.016423 0.00968008 0.00606666 0.00218841 -0.00285489 -0.00745105 -0.0107145 -0.0124005 -0.012852 -0.0119565 -0.0096519 -0.00516035 0.00246507 0.0147471 0.0315726 0.051737 0.0720038 0.0886479 0.0971409 0.0953835 0.0847977 0.0706403 0.0586018 0.0530594 0.0545361 0.0612304 0.0699534 0.0796204 0.0902754 0.102128 0.114559 0.126925 0.13857 0.14909 0.158223 0.165642 0.171112 0.17408 0.17474 0.172363 0.1666 0.156349 0.140746 0.119174 0.0923182 0.062448 0.031583 0.00162547 -0.0273525 -0.0547732 -0.080525 -0.103352 -0.122523 -0.137719 -0.148434 -0.155167 -0.157527 -0.156697 -0.153126 -0.147718 -0.141541 -0.134845 -0.128549 -0.122011 -0.115851 -0.109901 -0.104538 -0.100379 -0.0970729 -0.0956332 -0.0950788 -0.0955655 -0.0966445 -0.0972384 -0.0980177 -0.0977379 -0.0974091 -0.0971766 -0.0966932 -0.0967231 -0.0951746 -0.0923382 -0.088116 -0.0818771 -0.0760143 -0.0691755 -0.0615946 -0.0534384 -0.0431549 -0.0335822 -0.0249138 -0.0176514 -0.0128338 -0.00828524 -0.00492614 -0.00297591 -0.0016795 -0.00143238 -0.001246 -0.000893254 -0.00075174 -0.000624391 -0.000521246 -0.000432035 -0.000208286 0 0 
0 0 -0.000155585 -0.000339249 -0.000444468 -0.000557504 -0.000714812 -0.000827081 -0.00095766 -0.00155806 -0.00241539 -0.00360275 -0.00577138 -0.00870092 -0.0136983 -0.0206769 -0.0279486 -0.036279 -0.0443577 -0.0526633 -0.0620553 -0.0700405 -0.0771191 -0.082174 -0.0852231 -0.088493 -0.0911885 -0.0939483 -0.0959791 -0.0961646 -0.0956398 -0.0940426 -0.0927479 -0.0920213 -0.0916644 -0.0920815 -0.0922943 -0.0928023 -0.0938439 -0.0957343 -0.0996758 -0.105276 -0.112848 -0.121393 -0.129997 -0.138044 -0.144488 -0.149342 -0.151776 -0.15178 -0.148777 -0.14196 -0.131098 -0.115539 -0.0953487 -0.0704983 -0.0415312 -0.00926293 0.0255811 0.0618045 0.0986294 0.134262 0.167076 0.195165 0.217879 0.234779 0.246222 0.252273 0.252741 0.247979 0.238027 0.223745 0.205748 0.185356 0.163282 0.140519 0.117765 0.0957304 0.0746789 0.054829 0.0363079 0.0195893 0.0058922 -0.00297255 -0.00496841 0.000483298 0.0114531 0.0226143 0.0274942 0.0211054 0.00393555 -0.0187153 -0.0391131 -0.0528099 -0.0598175 -0.0636359 -0.0668907 -0.0706879 -0.0743601 -0.0775548 -0.0796715 -0.0804463 -0.0794384 -0.0769506 -0.0723662 -0.0643025 -0.0511197 -0.0335829 -0.0138385 0.00435998 0.0171063 0.0206793 0.0149559 0.00359329 -0.00698864 -0.0120101 -0.00959319 -0.00108626 0.0109462 0.0244978 0.0396587 0.0571855 0.0769778 0.0982921 0.120472 0.142911 0.164571 0.184654 0.202311 0.21736 0.229536 0.239323 0.24621 0.249559 0.247567 0.238458 0.221211 0.196313 0.166151 0.132689 0.0978378 0.0621386 0.0264455 -0.00831218 -0.0405684 -0.0694575 -0.0942483 -0.114409 -0.129876 -0.140573 -0.147473 -0.150867 -0.151186 -0.148974 -0.144204 -0.137656 -0.129266 -0.120198 -0.111437 -0.104028 -0.0986806 -0.0949049 -0.0929967 -0.0918474 -0.0911839 -0.0909586 -0.0906023 -0.0910571 -0.0917561 -0.0930655 -0.0946777 -0.0952232 -0.0950529 -0.0930156 -0.0902659 -0.0875661 -0.0843282 -0.0813033 -0.0762897 -0.0692723 -0.0613588 -0.0520486 -0.0438204 -0.0358371 -0.0275882 -0.0204 -0.0134963 -0.00855001 -0.00565879 -0.0035226 -0.00235425 -0.00151717 -0.000935637 -0.00081427 -0.000720526 -0.000581922 -0.000459617 -0.00021399 0 0 
0 0 -0.000180285 -0.000372907 -0.000461112 -0.0005829 -0.000820719 -0.00109882 -0.00142091 -0.00219492 -0.00362192 -0.00608896 -0.00973152 -0.0138665 -0.0193584 -0.0264283 -0.0343833 -0.0432121 -0.0507426 -0.0569586 -0.0628324 -0.0678993 -0.0733656 -0.0779857 -0.0809746 -0.0828841 -0.0834283 -0.0841535 -0.0850967 -0.0857903 -0.0863084 -0.0856325 -0.0843827 -0.0829295 -0.0819772 -0.0825934 -0.0847176 -0.0886035 -0.0936111 -0.0994542 -0.10601 -0.112997 -0.120732 -0.128568 -0.13609 -0.142226 -0.145568 -0.145188 -0.139936 -0.129743 -0.114272 -0.093946 -0.0691864 -0.0406242 -0.00925389 0.0246087 0.059933 0.0960544 0.131878 0.166468 0.19895 0.227909 0.25214 0.270039 0.281326 0.285942 0.28462 0.277837 0.265893 0.249169 0.227968 0.203186 0.175661 0.146679 0.117147 0.0882432 0.0606134 0.0349653 0.0114942 -0.00958829 -0.0284941 -0.0448872 -0.0578597 -0.0655317 -0.0660694 -0.0586602 -0.0453484 -0.0313964 -0.0232945 -0.0256931 -0.0380689 -0.0554748 -0.071253 -0.0816762 -0.0867806 -0.0891263 -0.0905114 -0.0919323 -0.09372 -0.0960899 -0.0984014 -0.0995874 -0.0989729 -0.0969225 -0.0931129 -0.0859037 -0.0738662 -0.0584281 -0.0427412 -0.0309197 -0.0263661 -0.0310845 -0.0432108 -0.0574318 -0.0675744 -0.0708032 -0.0676735 -0.0603622 -0.0508265 -0.0394201 -0.0253399 -0.00763777 0.0133006 0.0369715 0.0630204 0.0910532 0.119687 0.147797 0.174181 0.198296 0.219976 0.239818 0.257793 0.273346 0.284491 0.288737 0.284428 0.271569 0.251948 0.22707 0.198595 0.166811 0.132558 0.0968352 0.060864 0.0256538 -0.00832121 -0.0398311 -0.0682595 -0.092798 -0.113237 -0.12911 -0.13963 -0.144859 -0.145076 -0.141408 -0.134836 -0.126877 -0.118995 -0.111549 -0.104848 -0.0983348 -0.0923681 -0.0872316 -0.0832829 -0.0812483 -0.0807518 -0.0818002 -0.0832647 -0.0845742 -0.085321 -0.0848785 -0.0842398 -0.0833454 -0.0825967 -0.0820242 -0.0800929 -0.0771385 -0.0725304 -0.0671257 -0.0620723 -0.0562523 -0.0500831 -0.0426396 -0.0339021 -0.0260488 -0.0190687 -0.0136497 -0.00957056 -0.00597498 -0.00354836 -0.0021539 -0.00140293 -0.0010916 -0.000827823 -0.000607275 -0.000485813 -0.000232556 0 0 
0 0 -0.000203796 -0.000428005 -0.000538647 -0.000661979 -0.000939348 -0.00146254 -0.00229391 -0.00356099 -0.00541052 -0.00848582 -0.0130411 -0.0184534 -0.0244673 -0.0303635 -0.0364431 -0.0433596 -0.0497452 -0.0552744 -0.0591417 -0.0612129 -0.0633592 -0.0655594 -0.0681161 -0.0702592 -0.0708216 -0.0705095 -0.0694678 -0.0687716 -0.0689579 -0.0695596 -0.070845 -0.0722607 -0.0741997 -0.0770902 -0.0813845 -0.0877736 -0.0957564 -0.105222 -0.114903 -0.123643 -0.130562 -0.134212 -0.134381 -0.130242 -0.121583 -0.108254 -0.0897566 -0.0666661 -0.038742 -0.00688004 0.0282257 0.0649638 0.101757 0.137411 0.170603 0.200517 0.225997 0.246781 0.262479 0.273079 0.278191 0.277482 0.271436 0.260641 0.246386 0.229185 0.209783 0.18801 0.164217 0.138732 0.112266 0.0856544 0.0596715 0.0351713 0.0125368 -0.00759852 -0.0253733 -0.0405947 -0.0537598 -0.0644758 -0.0723093 -0.0753266 -0.0717154 -0.0606542 -0.0442241 -0.0273988 -0.0163728 -0.0150703 -0.0230252 -0.0353635 -0.0467474 -0.0541665 -0.0578409 -0.0591538 -0.0592128 -0.0585527 -0.0585278 -0.0599943 -0.0624313 -0.0638964 -0.0635261 -0.0615716 -0.058052 -0.0512522 -0.0404384 -0.0274882 -0.0165955 -0.0116918 -0.0151489 -0.0266249 -0.0428359 -0.0578745 -0.0673291 -0.0707136 -0.0703088 -0.0680119 -0.0644364 -0.0588694 -0.050594 -0.0387771 -0.0240381 -0.00628308 0.0143664 0.0377944 0.062623 0.087905 0.112516 0.135806 0.157815 0.179304 0.201215 0.223343 0.244414 0.26174 0.273577 0.278989 0.27871 0.273202 0.262792 0.247233 0.226387 0.201048 0.171511 0.138441 0.102532 0.0654457 0.0288343 -0.00598178 -0.0379894 -0.0663318 -0.0896548 -0.107867 -0.120727 -0.128936 -0.132683 -0.132299 -0.128762 -0.122187 -0.113628 -0.103854 -0.0942284 -0.0861956 -0.0798747 -0.0756999 -0.0729296 -0.0710675 -0.0697184 -0.0685321 -0.0680551 -0.067964 -0.0687553 -0.0698913 -0.0701873 -0.0695665 -0.0673903 -0.0648389 -0.0626196 -0.0604919 -0.0584195 -0.0545778 -0.0490855 -0.0427643 -0.0359168 -0.0299179 -0.02411 -0.0181777 -0.0128406 -0.00834615 -0.00531901 -0.00351012 -0.00227449 -0.00146341 -0.000955237 -0.000686846 -0.000561267 -0.000277174 0 0 
0 0 -0.000219597 -0.000488245 -0.000665074 -0.000880777 -0.00123732 -0.00190618 -0.00319482 -0.0051927 -0.00769318 -0.0109543 -0.0151152 -0.0203327 -0.026463 -0.0318172 -0.0362629 -0.0400277 -0.0431204 -0.0468628 -0.0497568 -0.0512459 -0.0515493 -0.0502662 -0.0496688 -0.04972 -0.0500996 -0.0508297 -0.0503703 -0.0499046 -0.0499999 -0.0512805 -0.0551142 -0.0606402 -0.0681325 -0.0766443 -0.0855475 -0.0947779 -0.103497 -0.111676 -0.118211 -0.122051 -0.122087 -0.116487 -0.104912 -0.0864513 -0.0618504 -0.0319388 0.00193206 0.0376905 0.0743414 0.110062 0.144135 0.174913 0.201432 0.223236 0.239715 0.251063 0.256587 0.256983 0.252468 0.244024 0.232168 0.217357 0.200464 0.182271 0.164293 0.146815 0.130456 0.114648 0.0992196 0.083899 0.0688736 0.0544805 0.0409776 0.0287189 0.0177185 0.0084531 0.000335409 -0.00637771 -0.0123857 -0.017206 -0.0204533 -0.0201847 -0.014675 -0.00300688 0.0127793 0.0282799 0.0378717 0.0384537 0.0309729 0.0199131 0.00980693 0.00253238 -0.0021694 -0.00487363 -0.00542125 -0.00423695 -0.00325267 -0.00430503 -0.00681407 -0.00839545 -0.00758151 -0.00466796 0.000222527 0.00821025 0.0195664 0.0315169 0.0395604 0.0403259 0.0333567 0.0207802 0.00683451 -0.00371848 -0.00900149 -0.0105058 -0.0111735 -0.0119406 -0.01239 -0.0114476 -0.00898455 -0.0045588 0.00126452 0.00915669 0.0189699 0.0308454 0.0436919 0.0570653 0.0701662 0.0826294 0.0947605 0.107692 0.122871 0.140745 0.160937 0.181383 0.200826 0.218011 0.232983 0.245087 0.253609 0.257674 0.256732 0.251312 0.240501 0.224309 0.202162 0.175207 0.144478 0.110701 0.0748729 0.0378024 0.00196127 -0.0314602 -0.0606859 -0.0848143 -0.103027 -0.114603 -0.120462 -0.120709 -0.116885 -0.110185 -0.101859 -0.0932337 -0.0841127 -0.075353 -0.0669007 -0.0594941 -0.0540688 -0.0503974 -0.0492653 -0.0493132 -0.0499136 -0.0505065 -0.0497575 -0.0493013 -0.0491836 -0.0497071 -0.0509428 -0.0506166 -0.0491412 -0.0462504 -0.0425518 -0.0394767 -0.0357494 -0.0313561 -0.0260725 -0.0200281 -0.0148884 -0.0107954 -0.00758606 -0.00512904 -0.00316872 -0.00191051 -0.00126574 -0.000917854 -0.000693524 -0.000326581 0 0 
0 0 -0.000249803 -0.000560632 -0.000790252 -0.00118244 -0.0017782 -0.00260624 -0.00405129 -0.00635552 -0.0093836 -0.0130848 -0.0166764 -0.0203607 -0.0249249 -0.0291929 -0.0331505 -0.0355858 -0.0356651 -0.0357584 -0.0353272 -0.0351265 -0.0348963 -0.0325056 -0.0298968 -0.0270296 -0.0250818 -0.0255396 -0.026935 -0.0300531 -0.0341139 -0.0390528 -0.0461605 -0.0546877 -0.0656572 -0.0777379 -0.0896106 -0.100109 -0.106577 -0.108486 -0.104428 -0.0941832 -0.078259 -0.0562142 -0.0291182 0.0030634 0.0390257 0.0773296 0.116163 0.152592 0.185191 0.211603 0.231259 0.24303 0.247161 0.244579 0.236305 0.224135 0.208567 0.191341 0.173376 0.156254 0.140647 0.126838 0.115133 0.105595 0.0989053 0.0946 0.0926292 0.091588 0.0908783 0.0896532 0.0877394 0.0851154 0.0818857 0.078374 0.0745076 0.0706614 0.0664524 0.0621157 0.057215 0.0523588 0.0481717 0.0466265 0.0492213 0.0569883 0.0677731 0.0777105 0.0818437 0.0780793 0.0679326 0.0556567 0.0446962 0.0360227 0.0289 0.0236917 0.0215318 0.0224296 0.0237981 0.0230697 0.0205623 0.0190762 0.0206375 0.0251596 0.0321439 0.0420712 0.0543028 0.0656634 0.0717795 0.070841 0.0642133 0.0555665 0.0488394 0.046684 0.0484196 0.0515626 0.0536105 0.0549438 0.0562659 0.0584252 0.0609407 0.0639397 0.0671027 0.0709926 0.075271 0.0798875 0.0840307 0.0874415 0.0893051 0.0893546 0.0881126 0.0867629 0.0870376 0.0896455 0.0953068 0.103188 0.113459 0.125868 0.140835 0.157693 0.175192 0.192425 0.208703 0.224139 0.237028 0.245805 0.248062 0.243348 0.231428 0.21196 0.18549 0.152599 0.116245 0.0780373 0.0404667 0.00486784 -0.027306 -0.0546129 -0.0769407 -0.0930161 -0.103151 -0.107005 -0.105055 -0.098717 -0.0884043 -0.076613 -0.0646279 -0.0537367 -0.045376 -0.0384037 -0.0336604 -0.0297565 -0.026846 -0.0255914 -0.0251425 -0.0269795 -0.0297456 -0.0322463 -0.034552 -0.0347364 -0.0349104 -0.0353158 -0.0352123 -0.0351099 -0.0326873 -0.0287641 -0.0245444 -0.0200504 -0.0164338 -0.0129076 -0.00926832 -0.00628865 -0.00401943 -0.00260653 -0.00181215 -0.00123857 -0.000849032 -0.000373185 0 0 
0 0 -0.00031939 -0.000690242 -0.000944597 -0.00146119 -0.0023388 -0.00348739 -0.00506715 -0.00714524 -0.00986765 -0.0136323 -0.0172091 -0.0200378 -0.0225429 -0.0240219 -0.0260189 -0.0275367 -0.0266478 -0.0246396 -0.0202358 -0.0157401 -0.0127191 -0.00963964 -0.00765853 -0.00534004 -0.00336534 -0.00381285 -0.00638239 -0.0127683 -0.021961 -0.0328497 -0.045282 -0.056972 -0.0681924 -0.0773994 -0.0835318 -0.0859515 -0.0820843 -0.0716153 -0.0529432 -0.026412 0.0064377 0.0442173 0.0836302 0.122841 0.159138 0.190864 0.216596 0.234717 0.245161 0.247361 0.242116 0.229823 0.211756 0.189946 0.166112 0.142498 0.119925 0.100137 0.0840956 0.0732222 0.0678039 0.067411 0.0714219 0.0788575 0.0894096 0.101847 0.115262 0.127821 0.138506 0.146246 0.150686 0.152002 0.150424 0.146486 0.140501 0.133035 0.124158 0.114367 0.103464 0.0924434 0.0821275 0.0746369 0.0712839 0.072777 0.0768654 0.0798962 0.0775953 0.0688414 0.0557574 0.0423239 0.0310033 0.0215557 0.01295 0.00594555 0.00274337 0.00349188 0.00542447 0.00531726 0.00311561 0.00186734 0.00408301 0.00994402 0.0185386 0.0292261 0.0407616 0.0497988 0.0532633 0.0510921 0.0464781 0.0436226 0.0452293 0.0514965 0.0599938 0.0684176 0.0755741 0.0826877 0.0903658 0.0988992 0.107429 0.116172 0.124655 0.133161 0.140955 0.147487 0.151941 0.153784 0.151933 0.146124 0.136767 0.124891 0.111986 0.0989301 0.0868736 0.0760696 0.0681792 0.0645493 0.0665571 0.0740867 0.0860111 0.101527 0.120252 0.142592 0.166938 0.19137 0.21292 0.230273 0.242196 0.247471 0.245218 0.234688 0.216871 0.191822 0.160747 0.124578 0.085133 0.0453912 0.00745685 -0.0253727 -0.0516742 -0.0702328 -0.0807458 -0.0847935 -0.0825058 -0.0764547 -0.0673797 -0.0563044 -0.0448162 -0.0325474 -0.0218507 -0.0128254 -0.00665463 -0.00423521 -0.00378213 -0.0056531 -0.00788909 -0.00974856 -0.0127267 -0.0156431 -0.020066 -0.0243754 -0.0263416 -0.027185 -0.0256546 -0.0236633 -0.0221963 -0.0197336 -0.0169596 -0.0134483 -0.00975079 -0.00707918 -0.005035 -0.00348673 -0.00237324 -0.00152932 -0.00104012 -0.000458891 0 0 
0 0 -0.000413406 -0.000893202 -0.0012159 -0.00175965 -0.00271439 -0.0041166 -0.00600422 -0.00798666 -0.00995307 -0.0126814 -0.0155819 -0.0181981 -0.0199722 -0.0191727 -0.0176697 -0.0158296 -0.0129692 -0.0101656 -0.0048337 0.00191411 0.0081726 0.0136988 0.0156839 0.015331 0.0130331 0.00834338 0.00236956 -0.00654697 -0.0179001 -0.0306251 -0.044035 -0.0547707 -0.061318 -0.0613444 -0.0536183 -0.0384261 -0.0155883 0.0131926 0.0472731 0.0849037 0.123915 0.162279 0.196607 0.224921 0.244632 0.254725 0.254956 0.245489 0.228265 0.204847 0.177923 0.149262 0.121207 0.0958447 0.0747629 0.0591913 0.0488867 0.0441801 0.0448943 0.0511208 0.0621661 0.0767941 0.0936122 0.111336 0.129458 0.146881 0.163057 0.176537 0.186605 0.192435 0.194056 0.191775 0.186029 0.177565 0.16679 0.154408 0.140617 0.125893 0.110284 0.0947883 0.0805465 0.069432 0.0627168 0.0606433 0.0607136 0.0591197 0.0524884 0.0404465 0.0259102 0.0127578 0.00246248 -0.00623207 -0.0149239 -0.0225349 -0.0262341 -0.0253159 -0.0226388 -0.0218967 -0.0234017 -0.024162 -0.0212915 -0.0145783 -0.00537612 0.00463378 0.0134358 0.0183874 0.018222 0.0149249 0.012629 0.0150026 0.0227838 0.0339812 0.0456797 0.0563638 0.0664066 0.0772365 0.0890263 0.101551 0.114377 0.127697 0.141094 0.154489 0.167042 0.178178 0.187051 0.192916 0.194668 0.192008 0.185224 0.174843 0.161813 0.146319 0.128817 0.109359 0.0898736 0.0724827 0.0592129 0.0505903 0.0460699 0.0454039 0.0494559 0.0597081 0.0760165 0.0976356 0.122599 0.149808 0.177913 0.204777 0.228208 0.245543 0.255456 0.255886 0.2462 0.226386 0.197671 0.163056 0.124695 0.08589 0.0484802 0.0143883 -0.0145304 -0.0375481 -0.0528298 -0.0606584 -0.0607961 -0.0544563 -0.0439355 -0.0307298 -0.0181788 -0.00700353 0.00176745 0.00762312 0.0123056 0.0146427 0.0150631 0.0131956 0.0078086 0.00170082 -0.00489517 -0.0101126 -0.0128384 -0.0156306 -0.01743 -0.0189093 -0.0196869 -0.0179287 -0.0153458 -0.0124966 -0.00982775 -0.00791487 -0.00597731 -0.00412876 -0.00276006 -0.00183641 -0.00132903 -0.000615628 0 0 
0 0 -0.000491189 -0.00110894 -0.00157686 -0.00218606 -0.00304964 -0.00432985 -0.00627302 -0.00845634 -0.0102261 -0.0117337 -0.0127358 -0.0137779 -0.014778 -0.0134523 -0.0101246 -0.00463716 0.00224763 0.00775944 0.0133178 0.0186762 0.0237145 0.0286844 0.0303078 0.0282207 0.0220407 0.0120374 0.000843712 -0.0109293 -0.0211835 -0.0286247 -0.0323902 -0.0303576 -0.0219853 -0.0054382 0.0196115 0.0521804 0.0908799 0.131971 0.172175 0.207988 0.236344 0.255653 0.264473 0.263241 0.252268 0.23324 0.207921 0.178229 0.146864 0.115737 0.0874733 0.0633166 0.0448467 0.0330095 0.0282882 0.0302815 0.0377546 0.0496498 0.0648373 0.0827855 0.102262 0.121873 0.140117 0.156067 0.169582 0.180542 0.188891 0.194094 0.196076 0.194441 0.189721 0.182197 0.172694 0.161706 0.149763 0.137101 0.124027 0.110486 0.0966378 0.0832682 0.0713332 0.062672 0.0582788 0.0577971 0.0583187 0.0561234 0.0482325 0.0354297 0.0211168 0.00950903 0.00126437 -0.00569578 -0.0135935 -0.0211673 -0.0252064 -0.024337 -0.0212702 -0.0195587 -0.0200759 -0.0198218 -0.0161892 -0.0088111 0.000167501 0.00827999 0.0130858 0.0132546 0.00961445 0.00588111 0.00598693 0.0120221 0.0223314 0.034021 0.0442629 0.0529522 0.0612548 0.0703698 0.0800382 0.0901615 0.100771 0.112367 0.124587 0.137153 0.149857 0.162107 0.173394 0.182817 0.189682 0.193456 0.194546 0.192953 0.189005 0.181958 0.171049 0.155666 0.136999 0.117144 0.0980702 0.0807152 0.0646793 0.0501113 0.0382276 0.031173 0.0300965 0.0352499 0.0464905 0.0638917 0.0873281 0.1155 0.146786 0.17849 0.208667 0.234462 0.25358 0.264259 0.265118 0.256148 0.236994 0.208902 0.17325 0.13291 0.0916276 0.0527601 0.0200775 -0.00512373 -0.0218821 -0.030458 -0.0326696 -0.0290987 -0.0217997 -0.0116866 1.29207e-06 0.01115 0.0211202 0.0272897 0.0294342 0.0279117 0.0230714 0.0181876 0.0129667 0.00754765 0.00215163 -0.00462207 -0.0100151 -0.0132915 -0.0145724 -0.0135692 -0.0125367 -0.0115556 -0.0100882 -0.00837205 -0.00624725 -0.00435994 -0.00312423 -0.00228965 -0.00170152 -0.000794004 0 0 
0 0 -0.00054889 -0.00127185 -0.00185779 -0.00264473 -0.00355369 -0.00454816 -0.00595962 -0.00783645 -0.00969939 -0.0109367 -0.0104982 -0.00886626 -0.00702376 -0.00434103 -0.000774405 0.00523039 0.0136913 0.0221397 0.0295868 0.0336326 0.0345052 0.0335779 0.0301533 0.0249942 0.0172299 0.00709878 -0.00288627 -0.0110578 -0.0135695 -0.00839675 0.00563556 0.0291608 0.0601925 0.0972684 0.137443 0.177935 0.215943 0.248065 0.272051 0.285149 0.286253 0.275259 0.253044 0.222484 0.186317 0.148685 0.112795 0.081627 0.0571684 0.0401045 0.0307893 0.0280393 0.0311282 0.0387727 0.0500327 0.0635833 0.0778286 0.0920304 0.105515 0.118801 0.131186 0.142426 0.151656 0.158649 0.163734 0.167404 0.169975 0.171133 0.17077 0.168351 0.164322 0.158635 0.152046 0.144554 0.136657 0.128275 0.119452 0.109992 0.100004 0.090002 0.0812768 0.0753955 0.0732146 0.0741186 0.0747053 0.071352 0.0614081 0.0466626 0.0312643 0.0196958 0.0121575 0.00583754 -0.00203271 -0.0103076 -0.0154848 -0.0156362 -0.012897 -0.0106447 -0.0097942 -0.00800686 -0.00305317 0.00491673 0.0133849 0.0193735 0.0206896 0.0176058 0.0131222 0.0118573 0.0165271 0.0268938 0.0395718 0.0515736 0.0608842 0.0685014 0.0756177 0.083027 0.0900613 0.0969131 0.104209 0.112023 0.120078 0.128264 0.136687 0.144898 0.152544 0.158887 0.163792 0.16682 0.168842 0.170029 0.170795 0.170146 0.166849 0.159869 0.149786 0.138299 0.12686 0.1159 0.10413 0.0913716 0.0775781 0.0643014 0.0520179 0.0412902 0.0329827 0.0286722 0.0305893 0.039799 0.0571988 0.0821659 0.113807 0.149844 0.187244 0.222987 0.253338 0.275626 0.286859 0.285959 0.272863 0.248685 0.216348 0.17822 0.137593 0.0972011 0.0598875 0.0286903 0.005037 -0.00912417 -0.0143854 -0.0119394 -0.00378843 0.00619097 0.0162853 0.0240156 0.0291988 0.0326552 0.0336702 0.0328984 0.0289826 0.0216944 0.0134054 0.00508651 -0.000805195 -0.00430057 -0.00692731 -0.00873616 -0.0103427 -0.0107749 -0.00956175 -0.00774252 -0.00592333 -0.00458102 -0.00365629 -0.00279864 -0.00202493 -0.000913918 0 0 
0 0 -0.000632546 -0.00140968 -0.00197445 -0.00288099 -0.00402223 -0.00505068 -0.00588659 -0.00665864 -0.00761669 -0.00856906 -0.00805448 -0.0053067 -0.000476946 0.00555657 0.0110086 0.0165294 0.022507 0.0286988 0.0347904 0.0374118 0.0353878 0.0289706 0.0192702 0.00996877 0.00262927 -0.000677111 0.00179593 0.0105667 0.0278759 0.0538442 0.0884755 0.130578 0.17627 0.222053 0.262239 0.292798 0.310569 0.31361 0.303071 0.280042 0.247938 0.209859 0.16918 0.129564 0.0933154 0.0635869 0.0417485 0.0290156 0.0252103 0.0290672 0.0390455 0.0523573 0.0673302 0.0818117 0.094847 0.105408 0.112699 0.116974 0.118744 0.119664 0.12013 0.120833 0.121436 0.122301 0.124014 0.126961 0.131465 0.136731 0.142297 0.147056 0.150801 0.153024 0.153876 0.153108 0.150935 0.147088 0.141558 0.134125 0.125035 0.114951 0.105298 0.0979503 0.0936769 0.0917452 0.0885633 0.0805099 0.0653004 0.0455346 0.0261627 0.0117655 0.00243557 -0.00522069 -0.0146264 -0.0247728 -0.0322108 -0.0343025 -0.0327504 -0.0301906 -0.0277822 -0.0238962 -0.0174139 -0.00893233 -0.00131721 0.00291181 0.00218799 -0.0012921 -0.0030108 0.00171265 0.0136417 0.0301411 0.0471117 0.0622206 0.0745616 0.0854804 0.0956592 0.10542 0.11402 0.12187 0.129365 0.136307 0.142203 0.147036 0.150967 0.153456 0.154287 0.153063 0.14994 0.145148 0.14005 0.135468 0.132445 0.13024 0.127966 0.124674 0.120914 0.118004 0.116778 0.117108 0.116997 0.115397 0.111346 0.105184 0.0961773 0.0840262 0.0691705 0.0531317 0.0390117 0.0288656 0.0253979 0.0297941 0.0429122 0.0646231 0.0938324 0.129651 0.169281 0.210236 0.248547 0.280691 0.303565 0.313853 0.310614 0.29273 0.26204 0.221623 0.175647 0.129831 0.087662 0.0529656 0.0270146 0.00972183 0.000992993 -0.00150689 0.00182619 0.00912729 0.0183944 0.028059 0.0344883 0.0365565 0.0340585 0.0281136 0.0220682 0.0162266 0.01082 0.00546775 -0.000482606 -0.00524206 -0.00794857 -0.00844957 -0.00750306 -0.00656469 -0.00583081 -0.00506157 -0.00412457 -0.00307779 -0.00221463 -0.00098637 0 0 
0 0 -0.000755927 -0.00159214 -0.00208851 -0.00288432 -0.00405751 -0.00535042 -0.00625016 -0.00615713 -0.00536653 -0.0045455 -0.00328102 -0.000987659 0.00383017 0.0114432 0.0192938 0.0259427 0.0292727 0.0292393 0.0277776 0.0240553 0.018978 0.0121147 0.00418675 -0.000488882 0.000609706 0.0116839 0.0344382 0.0678372 0.111028 0.159341 0.20905 0.255885 0.294983 0.323672 0.338313 0.337673 0.321622 0.291322 0.250634 0.203401 0.155522 0.111683 0.0758366 0.0507193 0.0361518 0.0320616 0.0360845 0.0462271 0.0598565 0.0741917 0.0876291 0.0978791 0.10479 0.10779 0.107683 0.104966 0.100098 0.094321 0.0885797 0.0848953 0.0833671 0.0844899 0.087327 0.091888 0.0981011 0.106097 0.115788 0.126132 0.136556 0.145639 0.153292 0.158684 0.162128 0.163195 0.1622 0.158802 0.153026 0.144806 0.134316 0.122468 0.110742 0.101154 0.094338 0.0895143 0.0828194 0.0706193 0.0508537 0.0267104 0.00366599 -0.013337 -0.0245449 -0.0335257 -0.0442903 -0.0559608 -0.0653268 -0.0693509 -0.0689755 -0.0660046 -0.0618058 -0.0556957 -0.0480337 -0.0399929 -0.0342777 -0.0324165 -0.0346131 -0.0370351 -0.0346617 -0.0236033 -0.00549682 0.0155566 0.0354532 0.0531539 0.0685587 0.0828253 0.0959876 0.108335 0.119301 0.129466 0.138834 0.147089 0.153685 0.158761 0.162272 0.163577 0.162527 0.15863 0.152284 0.143538 0.134092 0.124717 0.116672 0.109346 0.102185 0.0947151 0.0877426 0.0830895 0.0817053 0.0838103 0.087603 0.0925678 0.0977912 0.103256 0.107452 0.108822 0.1061 0.0987249 0.0879852 0.0744123 0.0602928 0.0471303 0.0372113 0.0328882 0.0363822 0.0506049 0.0759157 0.112066 0.156018 0.203753 0.25075 0.291204 0.32131 0.337244 0.337757 0.322986 0.29423 0.25512 0.208285 0.158565 0.110298 0.0671366 0.0337311 0.0108884 -7.81388e-05 -0.00115974 0.00351363 0.0114023 0.0182455 0.0233393 0.0270936 0.028623 0.0287241 0.0255042 0.018971 0.0112531 0.00374772 -0.000993903 -0.00324667 -0.00448513 -0.00528801 -0.00607271 -0.00617891 -0.0053288 -0.00412541 -0.00307573 -0.00237643 -0.00111231 0 0 
0 0 -0.000817658 -0.00174788 -0.00238274 -0.00303148 -0.00380865 -0.00490819 -0.00607119 -0.00615308 -0.00458629 -0.0015513 0.00237904 0.00559988 0.00902533 0.0139362 0.0192681 0.0246432 0.0261422 0.0215961 0.0130285 0.00186749 -0.00636786 -0.00885232 -0.00418763 0.0103926 0.0343043 0.0690926 0.114327 0.166777 0.223247 0.276612 0.321005 0.350856 0.362003 0.354561 0.329417 0.291007 0.244519 0.194791 0.147589 0.106047 0.0738651 0.0524657 0.0421072 0.042377 0.0503661 0.0639918 0.079633 0.0947323 0.106852 0.114027 0.115979 0.112259 0.104326 0.0933339 0.0813937 0.0700392 0.0603104 0.0532985 0.0496758 0.0504984 0.055333 0.0636517 0.0736782 0.084665 0.0959729 0.1075 0.119005 0.129755 0.139157 0.146453 0.151513 0.15402 0.154541 0.152869 0.149503 0.144108 0.136817 0.127459 0.116292 0.104184 0.0925496 0.0832088 0.0768446 0.0721946 0.0653508 0.0523536 0.0315057 0.00610666 -0.0179786 -0.0355958 -0.0471016 -0.0562218 -0.0669942 -0.0789639 -0.089081 -0.0941977 -0.0944293 -0.0908263 -0.0847277 -0.0767177 -0.0686247 -0.0623767 -0.0599512 -0.0612703 -0.0647488 -0.0657843 -0.0597049 -0.0444257 -0.0234393 -0.00155918 0.0179476 0.0352963 0.0509193 0.0652239 0.0781357 0.0900561 0.100992 0.111311 0.120995 0.1298 0.137494 0.144136 0.149644 0.153291 0.154971 0.154002 0.150513 0.144307 0.136628 0.128237 0.119688 0.110404 0.0996965 0.0873587 0.0745076 0.0634198 0.0554374 0.0513458 0.0502206 0.0522843 0.0577275 0.0670883 0.07932 0.0924297 0.104281 0.112701 0.116694 0.114889 0.107763 0.0957567 0.0805599 0.0644912 0.0503513 0.0422097 0.042243 0.0528014 0.074096 0.10596 0.147299 0.194349 0.243955 0.290347 0.328656 0.353799 0.361271 0.350238 0.320444 0.276066 0.222687 0.166119 0.113475 0.0679827 0.0334108 0.00974748 -0.00468883 -0.00928016 -0.00680553 0.0014067 0.0124954 0.0210483 0.0256002 0.0241688 0.0189038 0.0136761 0.00886105 0.00550323 0.00233802 -0.00154047 -0.00453698 -0.00608264 -0.00600101 -0.00486727 -0.00382789 -0.00316134 -0.00264122 -0.00130836 0 0 
0 0 -0.000644771 -0.00159314 -0.00266255 -0.0035747 -0.00402499 -0.00430183 -0.00482582 -0.00508286 -0.0042549 -0.00112234 0.0046532 0.0102611 0.0141924 0.0155368 0.0136055 0.0111287 0.00693197 0.000306571 -0.00718826 -0.014921 -0.016201 -0.0058425 0.0186786 0.0590925 0.110845 0.169758 0.229949 0.284221 0.328443 0.357003 0.367596 0.359259 0.332371 0.291119 0.239947 0.185924 0.135739 0.0946526 0.0669612 0.0529384 0.0518385 0.0604226 0.0748771 0.091572 0.10641 0.117529 0.122937 0.122714 0.117227 0.107427 0.0952191 0.081691 0.0686854 0.0570001 0.0478734 0.0416684 0.0382312 0.0375362 0.039381 0.0441562 0.051254 0.0602272 0.06953 0.0787127 0.0875147 0.0960923 0.104679 0.112753 0.119991 0.125704 0.12978 0.132142 0.13305 0.13244 0.130599 0.127069 0.121953 0.114836 0.105957 0.0960681 0.0865967 0.0792897 0.0746727 0.0712983 0.0651187 0.052155 0.0307433 0.00448377 -0.0205812 -0.0393073 -0.0517476 -0.0617217 -0.0730469 -0.085509 -0.0963757 -0.102488 -0.10339 -0.0993412 -0.0917441 -0.082289 -0.0743763 -0.0704027 -0.071236 -0.0746685 -0.0775469 -0.0752679 -0.0645805 -0.0455619 -0.0226989 -0.000754193 0.0182533 0.0353133 0.0506026 0.0640819 0.0755867 0.0858131 0.0949962 0.103401 0.110836 0.117218 0.122679 0.127202 0.130803 0.132907 0.133582 0.132256 0.128886 0.123607 0.117457 0.111188 0.105145 0.0985933 0.0907407 0.0810049 0.070411 0.0606918 0.0526739 0.0466789 0.0416209 0.0378488 0.0362339 0.0383013 0.0443141 0.0540148 0.0666893 0.0809763 0.0958195 0.108781 0.118701 0.12395 0.12373 0.117771 0.106235 0.0914337 0.0750491 0.0606527 0.0516914 0.0523957 0.0662375 0.0939191 0.135002 0.185181 0.239239 0.290501 0.331845 0.358844 0.367198 0.356572 0.32784 0.283327 0.22861 0.167955 0.109385 0.0581395 0.0181158 -0.00616199 -0.0164171 -0.0151419 -0.00747227 -3.14457e-05 0.00656351 0.0107604 0.0132621 0.0152245 0.0139415 0.0100856 0.00455816 -0.00114054 -0.00422768 -0.0050345 -0.00477102 -0.00425625 -0.00400217 -0.00361951 -0.00282739 -0.0013692 0 0 
0 0 -0.000152982 -0.000837095 -0.00232723 -0.00401607 -0.00500073 -0.00485066 -0.00397593 -0.00295679 -0.00230521 -0.00100764 0.00265566 0.00752465 0.0116599 0.0116143 0.00459636 -0.00626546 -0.0180118 -0.0255159 -0.0239395 -0.0129975 0.0104239 0.0468209 0.0952047 0.1548 0.218528 0.279696 0.329957 0.3611 0.370233 0.355756 0.321521 0.273893 0.219547 0.166744 0.120715 0.0860125 0.0646167 0.0562923 0.0600051 0.0723357 0.089897 0.108452 0.124473 0.135305 0.138921 0.135349 0.12511 0.110321 0.0929448 0.075418 0.0600337 0.0478102 0.0397822 0.0352417 0.0342042 0.0354235 0.0380169 0.0410051 0.0438066 0.0468758 0.0499457 0.0532619 0.0560382 0.0587222 0.061562 0.0655604 0.0710672 0.0779548 0.0858844 0.0939998 0.1021 0.109485 0.116355 0.122009 0.126533 0.129053 0.129481 0.127051 0.12215 0.115286 0.108129 0.102231 0.0982514 0.0945607 0.0872258 0.0723148 0.0484375 0.0193439 -0.00885272 -0.0308556 -0.0466119 -0.0595041 -0.0732156 -0.087477 -0.0998444 -0.107438 -0.109452 -0.105652 -0.0972801 -0.087115 -0.07969 -0.0777071 -0.080478 -0.0836929 -0.0829872 -0.0746375 -0.057716 -0.0340041 -0.00837978 0.0154752 0.0364686 0.0556464 0.072637 0.0870215 0.0987427 0.108494 0.116589 0.122827 0.127176 0.129537 0.130323 0.129304 0.126843 0.12259 0.117086 0.109793 0.1013 0.0919512 0.083396 0.0763221 0.0713174 0.0677709 0.0644265 0.0606648 0.056787 0.0539207 0.0519222 0.0503214 0.0472479 0.0426619 0.0372298 0.0326267 0.0301569 0.0308193 0.0359016 0.0455787 0.05986 0.0766617 0.0945947 0.111666 0.125886 0.135547 0.138738 0.135124 0.124459 0.10836 0.0893829 0.0714921 0.0590865 0.055451 0.0638499 0.0853645 0.120228 0.166412 0.219286 0.273589 0.321084 0.35506 0.369178 0.359532 0.327832 0.277017 0.21621 0.153091 0.0940707 0.0461456 0.0100858 -0.0131351 -0.0239825 -0.0255538 -0.0181152 -0.00645798 0.00432628 0.0113048 0.0113882 0.0073273 0.0025395 -0.00105384 -0.00231206 -0.00293586 -0.00393171 -0.0047956 -0.00494482 -0.00399012 -0.00239462 -0.000984688 0 0 
0 0 0.00053097 0.000494732 -0.000883135 -0.00325987 -0.00564327 -0.00666491 -0.00557079 -0.00279206 -0.000306454 0.000420361 -0.000103143 -0.00135064 -0.00244732 -0.00483055 -0.0113353 -0.0203917 -0.0285515 -0.028029 -0.0105485 0.0257618 0.0800307 0.145051 0.21166 0.272833 0.320371 0.349974 0.358199 0.343654 0.30934 0.25926 0.20139 0.144167 0.0952697 0.0614927 0.0448272 0.0453868 0.0591761 0.0804997 0.104098 0.12431 0.138404 0.144416 0.142791 0.13507 0.122855 0.108611 0.0936722 0.0797111 0.0672904 0.0572298 0.0498973 0.0449582 0.042046 0.0400219 0.0386165 0.0371068 0.0353828 0.0330969 0.0305733 0.0288622 0.0280832 0.0287096 0.0301529 0.0327885 0.0366719 0.042686 0.0508651 0.0610523 0.0725233 0.0844012 0.0962346 0.107362 0.117823 0.126814 0.134318 0.139514 0.14209 0.141403 0.137672 0.131506 0.124669 0.118658 0.114047 0.109195 0.10009 0.0829038 0.05641 0.0244621 -0.00685885 -0.032243 -0.0515542 -0.0676336 -0.0838064 -0.0996945 -0.113255 -0.121915 -0.124903 -0.121673 -0.113449 -0.103611 -0.0973902 -0.0972176 -0.10091 -0.102371 -0.0968579 -0.0821068 -0.0596051 -0.03233 -0.00464404 0.0212365 0.0447244 0.0663834 0.0853119 0.101168 0.11408 0.124739 0.133225 0.139257 0.142877 0.144068 0.143129 0.139923 0.134779 0.127609 0.118803 0.107857 0.0954929 0.082318 0.0699608 0.0593094 0.0510555 0.0448627 0.0393935 0.0345479 0.0307159 0.0291751 0.0299337 0.0323558 0.0344309 0.0356211 0.0358442 0.0354834 0.0351554 0.0352633 0.0371488 0.0414687 0.0486198 0.0576808 0.0683573 0.0806625 0.0942964 0.108919 0.122886 0.134944 0.14251 0.143894 0.137578 0.123395 0.103263 0.0798036 0.0585759 0.0449138 0.0445305 0.0612867 0.0950171 0.143666 0.200515 0.257879 0.307401 0.341148 0.355235 0.346658 0.317231 0.270137 0.209562 0.143572 0.0791568 0.0253579 -0.0106293 -0.0279851 -0.0285202 -0.0204417 -0.0114705 -0.00501684 -0.00262854 -0.00150816 -0.000231501 0.000330995 -0.000353106 -0.00278603 -0.00551513 -0.00658409 -0.00555685 -0.00318687 -0.000886118 -4.31481e-05 0 0 
0 0 0.00111727 0.00195104 0.00147514 -0.0006054 -0.00407117 -0.00755355 -0.00907491 -0.0073127 -0.00360368 -0.00129009 -0.00321623 -0.0104674 -0.0200698 -0.0279041 -0.031115 -0.0263755 -0.0121756 0.0146689 0.0574812 0.115446 0.184738 0.25458 0.31264 0.34886 0.356276 0.335901 0.292199 0.233779 0.17134 0.113343 0.0679327 0.0387037 0.0265636 0.0305316 0.0461489 0.0695545 0.094952 0.11794 0.135032 0.143496 0.143689 0.136028 0.123409 0.108501 0.0939181 0.0819972 0.0729237 0.0671633 0.0631863 0.0604701 0.0580856 0.0550676 0.0511184 0.0452189 0.0381753 0.0299892 0.0217165 0.0139287 0.00757477 0.00387261 0.00317065 0.00574554 0.0105317 0.0175669 0.0263275 0.0372246 0.0499057 0.0638519 0.0781604 0.0918 0.104382 0.115438 0.125015 0.132712 0.138615 0.142058 0.142909 0.140592 0.135444 0.128077 0.120287 0.113587 0.108438 0.102855 0.0927936 0.0744533 0.0466595 0.0133011 -0.0195988 -0.0468484 -0.0683537 -0.086515 -0.104209 -0.120723 -0.134437 -0.14317 -0.146604 -0.144095 -0.137052 -0.12872 -0.124496 -0.125915 -0.129653 -0.128557 -0.118413 -0.0986489 -0.0728263 -0.044299 -0.0163006 0.0103736 0.0352318 0.0580465 0.077637 0.094131 0.107968 0.119561 0.128949 0.135985 0.140898 0.143574 0.144205 0.142701 0.139352 0.13379 0.126202 0.116011 0.10358 0.0896036 0.0754607 0.0620267 0.0501577 0.0395175 0.0291698 0.019307 0.0108696 0.00582327 0.00447857 0.00681856 0.0110946 0.0166399 0.0229447 0.0295105 0.0358972 0.0412647 0.0464559 0.0512466 0.0560185 0.0597744 0.0629698 0.0669838 0.0729207 0.0822319 0.0941982 0.108548 0.12301 0.13524 0.1427 0.142674 0.134468 0.117549 0.0946425 0.0692649 0.0458555 0.0300555 0.0258104 0.0375131 0.0662194 0.111053 0.168556 0.230621 0.288927 0.332667 0.352937 0.345576 0.309714 0.252183 0.182986 0.114307 0.0568461 0.0143896 -0.0122554 -0.0263466 -0.0310708 -0.0278873 -0.0201145 -0.0105759 -0.0033508 -0.00140109 -0.00365711 -0.00729368 -0.00899671 -0.00745015 -0.00396044 -0.000493819 0.0015251 0.00118108 0 0 
0 0 0.00134035 0.00290185 0.00382311 0.00337375 0.00056669 -0.00462533 -0.0105503 -0.0143715 -0.014741 -0.0131251 -0.0133236 -0.0192597 -0.0293788 -0.0371186 -0.0334378 -0.00985559 0.0346605 0.0962061 0.166246 0.233727 0.290334 0.327276 0.339311 0.324707 0.28426 0.225213 0.156584 0.0900149 0.0366896 0.00284544 -0.00810927 0.00105089 0.0243993 0.0546132 0.0835197 0.106521 0.120225 0.124918 0.12278 0.116012 0.108268 0.100538 0.0945434 0.0901785 0.0869206 0.0847301 0.0819888 0.0785555 0.0732632 0.0664527 0.0585347 0.0498013 0.0409953 0.0317651 0.0233046 0.0156153 0.00934012 0.00447768 0.00143849 0.000767172 0.00240325 0.00642525 0.0115769 0.0179271 0.0251902 0.0339218 0.0443551 0.0561142 0.0686618 0.0810416 0.0929421 0.103747 0.113692 0.122244 0.129327 0.134289 0.136707 0.136133 0.13259 0.12685 0.120507 0.115113 0.110862 0.10571 0.0955011 0.0763839 0.0475591 0.0127999 -0.0216314 -0.0509433 -0.0747341 -0.0953026 -0.114861 -0.132447 -0.146408 -0.155307 -0.159292 -0.1583 -0.153493 -0.147726 -0.145443 -0.147305 -0.148999 -0.143686 -0.128293 -0.10417 -0.0758132 -0.0463841 -0.0176398 0.0101713 0.0364805 0.0600288 0.0797991 0.0961669 0.109828 0.120926 0.129219 0.134941 0.138391 0.139514 0.138352 0.135267 0.130403 0.123587 0.114991 0.104274 0.0920042 0.0786217 0.0657668 0.0543415 0.0448474 0.0364764 0.0281803 0.0196483 0.0116501 0.00597135 0.00303103 0.00287097 0.004147 0.00668479 0.0105718 0.0158513 0.0222651 0.0293216 0.0377027 0.0467717 0.0564185 0.0648205 0.0714973 0.0767605 0.0807459 0.0843511 0.0871374 0.0903689 0.0943577 0.0999339 0.107579 0.115508 0.122505 0.124739 0.120028 0.106205 0.0828644 0.0534712 0.0226737 -0.00118853 -0.0108276 -0.000185894 0.0335427 0.0869814 0.153899 0.222992 0.281717 0.321763 0.33621 0.324273 0.28766 0.231554 0.164661 0.0952293 0.034202 -0.00995259 -0.0333484 -0.0370119 -0.0293429 -0.0193049 -0.0134006 -0.0131742 -0.0147405 -0.0143261 -0.0104773 -0.00453898 0.000678518 0.00352589 0.00395619 0.00215975 0 0 
0 0 0.00112862 0.00294602 0.00508756 0.00697775 0.00685568 0.00272605 -0.00597537 -0.0172245 -0.0276191 -0.0337069 -0.0346235 -0.0326312 -0.0278282 -0.0175435 0.00499769 0.0480072 0.111194 0.187225 0.260592 0.312578 0.332382 0.315711 0.268577 0.203176 0.131268 0.0656811 0.0142498 -0.0180826 -0.0296483 -0.0237963 -0.00408513 0.0228547 0.0509197 0.0755408 0.0923167 0.10096 0.101602 0.0968666 0.0901962 0.0840062 0.0811789 0.0816296 0.0849362 0.0894074 0.0927896 0.0939677 0.0912899 0.0848812 0.0746928 0.0623392 0.0494089 0.0372992 0.0272415 0.0192398 0.0139201 0.0106877 0.00934133 0.00888602 0.00896477 0.00973892 0.0109396 0.012696 0.0140523 0.0155518 0.0172801 0.0206423 0.0261615 0.0341478 0.0441248 0.0554936 0.0678332 0.0803862 0.0931739 0.105363 0.116789 0.126319 0.133504 0.137375 0.138104 0.136114 0.133082 0.130281 0.127889 0.123689 0.113515 0.0935821 0.0633703 0.0270061 -0.00940111 -0.0409933 -0.0675867 -0.0910504 -0.113038 -0.132284 -0.146981 -0.156314 -0.161443 -0.162721 -0.161193 -0.158655 -0.157971 -0.158527 -0.156131 -0.145124 -0.124305 -0.0964674 -0.0659571 -0.0350855 -0.00484905 0.024881 0.0527514 0.0772031 0.0972077 0.113355 0.126291 0.135838 0.141739 0.144383 0.144326 0.141227 0.135573 0.127686 0.118205 0.106916 0.094456 0.0807237 0.0666543 0.052872 0.041176 0.0325066 0.026941 0.0234744 0.0203885 0.0171641 0.0137862 0.0117796 0.0109417 0.0110219 0.0106342 0.0100834 0.00999596 0.0110546 0.0138955 0.0184712 0.025834 0.035817 0.0480138 0.0604443 0.0718755 0.0816009 0.0885529 0.0924462 0.0922921 0.0894249 0.0850113 0.0816014 0.0811415 0.0839892 0.0900977 0.0965389 0.101024 0.100046 0.0908837 0.0734496 0.0482358 0.0197937 -0.00731506 -0.0268705 -0.0322943 -0.020074 0.0130022 0.0651105 0.130353 0.201534 0.266264 0.312912 0.329388 0.30973 0.258189 0.185458 0.110075 0.0474266 0.00476804 -0.0175979 -0.0278037 -0.0325731 -0.0345386 -0.0336093 -0.0275405 -0.0171839 -0.00596635 0.00273888 0.00693239 0.00716019 0.00533396 0.00245792 0 0 
0 0 0.000628293 0.00214535 0.0047454 0.00847695 0.0117759 0.0115113 0.00449451 -0.0102748 -0.0302746 -0.0482383 -0.055661 -0.0470993 -0.0198574 0.0230139 0.076913 0.138194 0.198653 0.250679 0.28388 0.287121 0.258194 0.199506 0.123394 0.0469908 -0.0162762 -0.0548822 -0.0666435 -0.0554787 -0.0287022 0.00255315 0.0309166 0.0508446 0.0608438 0.0634203 0.0613047 0.0590412 0.0588757 0.0620091 0.0681772 0.0755581 0.0831269 0.0887461 0.0918295 0.0917826 0.0886036 0.0834323 0.076365 0.0686754 0.0603788 0.0522846 0.0450074 0.0385242 0.0331895 0.028272 0.0240525 0.0200553 0.0161872 0.0119858 0.00761127 0.00380743 0.000900297 -0.000786144 -0.00167638 -0.00157121 -0.000248839 0.00340895 0.00987886 0.0193086 0.0311474 0.0446047 0.0591115 0.0739882 0.088922 0.103223 0.116647 0.127978 0.13685 0.142303 0.144359 0.143648 0.141674 0.139623 0.137639 0.133219 0.12231 0.101148 0.0695411 0.031618 -0.0063093 -0.0396931 -0.0684058 -0.0942803 -0.118361 -0.13886 -0.154056 -0.163774 -0.170067 -0.174107 -0.176459 -0.17755 -0.178005 -0.176211 -0.168575 -0.151774 -0.126727 -0.0966563 -0.0650018 -0.0329955 -0.00113224 0.0302067 0.0593929 0.08471 0.105508 0.122259 0.135505 0.144806 0.150207 0.152103 0.150982 0.14663 0.139378 0.129733 0.118338 0.104841 0.0900728 0.0740893 0.0576713 0.0418447 0.028265 0.0179188 0.0109529 0.00639122 0.00282113 -0.000227612 -0.00230089 -0.00207128 0.000369188 0.0043365 0.00827587 0.0120452 0.0159329 0.0201294 0.0246422 0.028906 0.0336051 0.0387252 0.0446813 0.0507441 0.0573032 0.0647639 0.0726846 0.0807773 0.0870302 0.0911121 0.0918074 0.0891501 0.0836871 0.0759658 0.0680803 0.0612448 0.0574647 0.0571007 0.0588269 0.0605242 0.0577351 0.0478272 0.0282257 0.000462024 -0.0299892 -0.0558958 -0.0662791 -0.0539377 -0.0155212 0.0470661 0.122653 0.19797 0.256031 0.284639 0.281355 0.248409 0.196803 0.136847 0.0760648 0.0226089 -0.0199073 -0.0469181 -0.0553985 -0.0480227 -0.0301808 -0.0103073 0.0043902 0.0114196 0.0117889 0.00865544 0.00508077 0.00200161 0 0 
0 0 8.5572e-05 0.000929282 0.00308103 0.00720998 0.0127338 0.0170249 0.0159094 0.00561545 -0.0144111 -0.0374826 -0.0511834 -0.0426639 -0.00339863 0.0618316 0.137709 0.20524 0.244586 0.247782 0.216224 0.15792 0.0885901 0.0199728 -0.0366249 -0.0734579 -0.0896 -0.0848192 -0.0647185 -0.0364245 -0.00636269 0.0176973 0.0332311 0.0392052 0.0378 0.0336987 0.0301134 0.0311178 0.0374195 0.0483399 0.0617095 0.0739912 0.0831823 0.0870774 0.0858477 0.0804285 0.0724098 0.0642492 0.0571585 0.0524821 0.049705 0.0484434 0.0477654 0.0464805 0.0439996 0.0394046 0.0332141 0.0253811 0.0166678 0.00724295 -0.00198187 -0.00976222 -0.0153115 -0.0180509 -0.0186215 -0.0169077 -0.0130074 -0.00628512 0.00332367 0.0158111 0.0303714 0.0461108 0.0624119 0.0785656 0.0942065 0.10884 0.122183 0.133236 0.141614 0.146531 0.148134 0.146957 0.144528 0.142026 0.139464 0.134247 0.122303 0.0999053 0.0670178 0.0279712 -0.0109846 -0.0455333 -0.0756559 -0.103179 -0.128755 -0.150245 -0.165747 -0.175876 -0.183607 -0.190745 -0.197292 -0.201777 -0.202713 -0.197634 -0.18432 -0.162264 -0.134186 -0.10331 -0.0713551 -0.0383988 -0.0051012 0.0273659 0.0573025 0.0834252 0.105218 0.122917 0.136877 0.146804 0.152914 0.155546 0.155062 0.151241 0.144519 0.135264 0.123967 0.110393 0.0951865 0.0784512 0.0608287 0.0433434 0.0276232 0.0146416 0.00453155 -0.00333835 -0.0101551 -0.015864 -0.0195451 -0.0196529 -0.0162225 -0.00987525 -0.00224796 0.00624434 0.0155182 0.0251186 0.0341498 0.0410549 0.0457203 0.0478836 0.0483291 0.0475585 0.0472342 0.0490358 0.0536014 0.061098 0.0699079 0.0787579 0.0851594 0.0871619 0.0836003 0.0742261 0.0612657 0.0469987 0.0352118 0.0282969 0.0269562 0.0305775 0.0350835 0.0371825 0.0319951 0.0173003 -0.00597783 -0.0353941 -0.0632606 -0.083094 -0.0878751 -0.0719933 -0.0356454 0.0203024 0.0881526 0.156744 0.214401 0.245609 0.242374 0.203331 0.136352 0.0611103 -0.00356746 -0.0424983 -0.0509331 -0.0373326 -0.0144341 0.00545329 0.015694 0.0168485 0.0126807 0.00733855 0.00341681 0.00107281 0 0 
0 0 -0.000306124 -0.000208854 0.000887751 0.00386727 0.00927951 0.0163308 0.0224271 0.0238239 0.0175908 0.00595381 -0.00280288 0.00266556 0.0320868 0.0830326 0.140383 0.182612 0.188036 0.150361 0.0785653 -0.00729386 -0.0815013 -0.128147 -0.1411 -0.125378 -0.0938716 -0.0580184 -0.0284036 -0.00961123 -0.000858486 0.000118933 -0.00079528 -0.000366534 0.00379586 0.0122764 0.0228245 0.0342661 0.0440736 0.0513651 0.0561046 0.0579413 0.0583581 0.0574318 0.0564575 0.0556533 0.0550153 0.0549228 0.0547805 0.0547602 0.0539209 0.0520988 0.0488547 0.0441003 0.038098 0.030883 0.0235785 0.0162307 0.00934165 0.00258111 -0.00372373 -0.00876888 -0.0123553 -0.0139574 -0.0143429 -0.0133491 -0.0110661 -0.00636087 0.00091835 0.0111208 0.0236439 0.037933 0.0534389 0.0694832 0.0858123 0.101791 0.116886 0.130143 0.140992 0.148455 0.152611 0.153736 0.153419 0.152546 0.151171 0.146556 0.134759 0.112032 0.0785006 0.0387332 -0.00105265 -0.0367094 -0.0681837 -0.0973618 -0.124601 -0.147328 -0.163715 -0.17499 -0.18483 -0.195477 -0.206062 -0.21325 -0.2136 -0.204382 -0.185114 -0.158168 -0.127706 -0.0961581 -0.0636042 -0.0293211 0.0055519 0.0388932 0.0691326 0.0955899 0.117671 0.135139 0.148294 0.156987 0.161683 0.162421 0.159664 0.153287 0.144065 0.132281 0.11861 0.103174 0.0866472 0.0693076 0.0518544 0.035275 0.0210419 0.0100159 0.00209936 -0.00359107 -0.00850902 -0.0126389 -0.0155769 -0.0158171 -0.0135922 -0.00939377 -0.00470669 0.000778181 0.00758298 0.0157487 0.0247724 0.0331607 0.0404911 0.0459806 0.0497668 0.0517479 0.0524595 0.0526857 0.0524184 0.052308 0.0522361 0.0531361 0.0546162 0.0562464 0.0575009 0.0570392 0.0548499 0.0495217 0.0416835 0.0315212 0.0201312 0.0100264 0.00234904 -0.000839435 -0.000363955 0.00129672 0.000786765 -0.00774968 -0.0265196 -0.0561507 -0.0918623 -0.123214 -0.138931 -0.126243 -0.080175 -0.00679347 0.0781631 0.149195 0.186445 0.180989 0.139078 0.0821922 0.0316727 0.00250068 -0.00291284 0.00578108 0.0173314 0.0235266 0.0221549 0.0161286 0.00918448 0.00391237 0.00111652 8.36753e-05 0 0 
0 0 -0.000488866 -0.000975555 -0.00104968 -5.86018e-05 0.00331344 0.0104438 0.0220657 0.0375451 0.0541865 0.0689359 0.0796918 0.0856196 0.0882924 0.0873305 0.0793882 0.0599805 0.0239554 -0.0266239 -0.083554 -0.134735 -0.166413 -0.172767 -0.154385 -0.119218 -0.0799401 -0.0461351 -0.0250022 -0.0170447 -0.0180659 -0.0227466 -0.0242813 -0.0200141 -0.00917245 0.00618994 0.0216688 0.0343569 0.0410857 0.0420536 0.03855 0.0330047 0.0287979 0.0269672 0.0292318 0.0344855 0.0412784 0.0480068 0.05261 0.0549799 0.0539281 0.0502402 0.0441196 0.0364936 0.0285654 0.0208408 0.0147379 0.0100923 0.00708087 0.00458684 0.00228404 0.000366645 -0.0012331 -0.00246259 -0.00391711 -0.00523011 -0.00623966 -0.00543407 -0.00224575 0.00405164 0.0133231 0.025174 0.0393075 0.0551214 0.0723512 0.0902012 0.108002 0.124519 0.13901 0.150174 0.157938 0.162399 0.164931 0.166443 0.166762 0.16335 0.152064 0.129371 0.0955244 0.0551239 0.014536 -0.0221256 -0.0549357 -0.0856418 -0.114481 -0.138634 -0.1565 -0.169569 -0.182191 -0.196302 -0.210371 -0.219097 -0.218029 -0.20435 -0.17976 -0.14869 -0.116308 -0.0839513 -0.0504036 -0.0145418 0.0217581 0.0558878 0.0864423 0.11308 0.135193 0.15206 0.163809 0.170749 0.173127 0.171034 0.164877 0.154858 0.141959 0.12652 0.109542 0.0914401 0.0731745 0.0550238 0.0378075 0.0226206 0.010809 0.00289474 -0.0012735 -0.00291733 -0.0039594 -0.00481731 -0.00539505 -0.00457245 -0.00281414 -0.000652722 0.000837722 0.00232136 0.00502253 0.0096239 0.0162246 0.0234353 0.0310913 0.0382339 0.0448604 0.0501942 0.0535492 0.0546533 0.0520821 0.0466935 0.0389797 0.0315937 0.0262599 0.0240089 0.0258298 0.0301662 0.0359709 0.0397818 0.0391106 0.0327671 0.0206174 0.00579102 -0.0088492 -0.0190253 -0.0227378 -0.0208515 -0.0160132 -0.0150223 -0.023054 -0.0442425 -0.0779343 -0.116985 -0.151966 -0.170318 -0.164177 -0.132932 -0.0823492 -0.0260586 0.023959 0.0595765 0.0787482 0.0865732 0.0874988 0.0848283 0.0789471 0.0682843 0.0536593 0.0371588 0.0218063 0.0102745 0.00320916 -0.000101758 -0.000990746 -0.000664868 0 0 
0 0 -0.000520728 -0.00133744 -0.00227797 -0.00307329 -0.00209611 0.00362101 0.0180009 0.0443212 0.0818084 0.123858 0.157853 0.168018 0.143693 0.0837034 -0.000906891 -0.0895392 -0.1626 -0.205524 -0.215237 -0.199273 -0.168654 -0.136465 -0.109791 -0.0910056 -0.079427 -0.070845 -0.0631048 -0.0538151 -0.0423841 -0.0302621 -0.0178655 -0.00750248 0.000177896 0.00525395 0.00751226 0.00879836 0.00915262 0.00989373 0.011333 0.0131258 0.0159153 0.0186129 0.0219999 0.0254748 0.0286666 0.0316017 0.0336334 0.0355649 0.0365765 0.0371439 0.0366167 0.0350362 0.0324115 0.02872 0.0248526 0.0207002 0.0164577 0.0115074 0.00607041 0.000804129 -0.00392021 -0.00741822 -0.0102905 -0.012043 -0.0125992 -0.0107189 -0.00602808 0.00193061 0.0127 0.0258711 0.0409271 0.0574112 0.075055 0.0931643 0.111062 0.127713 0.142242 0.153406 0.161106 0.165447 0.167855 0.169083 0.169149 0.165447 0.153807 0.130688 0.0963672 0.055474 0.0143384 -0.0229272 -0.0564255 -0.0878902 -0.117518 -0.142713 -0.161983 -0.177208 -0.192643 -0.20994 -0.226346 -0.235411 -0.232205 -0.214836 -0.186419 -0.152851 -0.119315 -0.0864191 -0.0520598 -0.0151412 0.022013 0.0566272 0.0875518 0.114679 0.137255 0.154423 0.16634 0.173424 0.175994 0.173891 0.167714 0.157703 0.144798 0.129346 0.112366 0.0943448 0.0759482 0.0574489 0.0395894 0.0234037 0.0101256 0.000598023 -0.0052849 -0.00845549 -0.010635 -0.0119015 -0.0119888 -0.00977278 -0.00572149 -0.000513912 0.00432575 0.00911487 0.0145037 0.0205187 0.026661 0.0314342 0.0346802 0.036243 0.0369586 0.0372447 0.0370815 0.0367015 0.0347188 0.0316424 0.0271617 0.0226714 0.01831 0.0142207 0.0111177 0.00854376 0.00760864 0.00737781 0.00790776 0.00872865 0.00844262 0.00682825 0.002085 -0.00553833 -0.0159654 -0.0284561 -0.0406232 -0.0520473 -0.0612286 -0.0688396 -0.077425 -0.0890362 -0.107776 -0.134335 -0.166375 -0.196816 -0.212771 -0.203256 -0.160832 -0.0885003 -0.000720476 0.0830957 0.142529 0.166614 0.156518 0.122797 0.0810893 0.0439069 0.0177924 0.00350779 -0.00218779 -0.00317981 -0.00237048 -0.00107476 0 0 
0 0 -0.000492952 -0.00139472 -0.00265958 -0.00419331 -0.00431359 0.000476351 0.0154051 0.0454968 0.0910074 0.144247 0.188201 0.200411 0.164596 0.0784363 -0.040664 -0.160065 -0.248438 -0.284789 -0.268996 -0.219047 -0.158421 -0.109898 -0.0837093 -0.0782337 -0.0852115 -0.0919501 -0.0908283 -0.0786842 -0.0575795 -0.0343909 -0.0142687 -0.00231761 0.000551307 -0.00336578 -0.0111897 -0.0177724 -0.0208412 -0.0187512 -0.0121033 -0.00336701 0.00569848 0.012294 0.0161229 0.017139 0.0162247 0.0149509 0.0144261 0.0160764 0.0196381 0.0248976 0.0303391 0.0347283 0.0370767 0.036526 0.0338534 0.0289558 0.0226395 0.0147639 0.00616101 -0.00205518 -0.00906485 -0.0140696 -0.0175045 -0.0190225 -0.0185477 -0.0151664 -0.00866624 0.00116893 0.0136765 0.0282265 0.0444441 0.0616289 0.0796722 0.0979373 0.115827 0.132341 0.146596 0.15738 0.16458 0.168367 0.170154 0.170849 0.17039 0.166155 0.154089 0.130537 0.0957367 0.05428 0.0126458 -0.0251334 -0.0590811 -0.0909053 -0.121109 -0.147317 -0.16838 -0.186309 -0.204815 -0.224745 -0.242198 -0.250258 -0.244456 -0.224196 -0.193511 -0.158607 -0.124131 -0.09021 -0.0548726 -0.0171362 0.0205648 0.0556215 0.0871808 0.114901 0.137904 0.155419 0.167805 0.175345 0.178266 0.176522 0.170727 0.16111 0.148566 0.133524 0.116897 0.0990873 0.0806527 0.0617777 0.0431963 0.0257468 0.0109614 -0.000356953 -0.0081306 -0.0131156 -0.0167808 -0.0190806 -0.019417 -0.016652 -0.0110876 -0.00349596 0.00442291 0.0125514 0.0210378 0.0291949 0.035941 0.0391484 0.0389297 0.0354063 0.0303837 0.0251289 0.0206783 0.0179646 0.0162833 0.0156972 0.0152809 0.0146525 0.0124104 0.00756177 0.000365071 -0.00844104 -0.0161197 -0.0212109 -0.0216389 -0.0170446 -0.00932744 -0.000900787 0.00310519 -1.40428e-05 -0.0123456 -0.0327892 -0.0560989 -0.0771561 -0.0890831 -0.0899666 -0.0833125 -0.076527 -0.0820553 -0.108134 -0.156307 -0.216494 -0.266071 -0.281821 -0.245875 -0.158355 -0.0400712 0.0779499 0.163323 0.198798 0.186667 0.143063 0.0902496 0.0451006 0.0152376 0.000400198 -0.00438894 -0.00431883 -0.00281231 -0.00117748 0 0 
0 0 -0.000447809 -0.00120742 -0.00218031 -0.00308399 -0.00231626 0.00298919 0.0167782 0.0423043 0.0786614 0.119482 0.152003 0.160419 0.1348 0.0735105 -0.0122994 -0.101404 -0.174709 -0.217097 -0.225909 -0.209434 -0.177982 -0.145079 -0.118095 -0.0990853 -0.088435 -0.081266 -0.075069 -0.0679219 -0.0582888 -0.0484885 -0.038891 -0.0312258 -0.0261565 -0.0230889 -0.022359 -0.0223274 -0.0229031 -0.0230051 -0.0220567 -0.0201292 -0.016616 -0.0125226 -0.00748397 -0.0022475 0.00275864 0.00750731 0.0114745 0.015443 0.0189263 0.0221623 0.0248136 0.0262148 0.0263058 0.0247712 0.0224208 0.0194113 0.0160241 0.0118745 0.00723261 0.00253817 -0.00177847 -0.00524673 -0.00835595 -0.0108967 -0.0124188 -0.0118578 -0.0085562 -0.00195794 0.00766226 0.0199608 0.0345152 0.0510549 0.0692233 0.0885456 0.108193 0.126976 0.14384 0.157463 0.167435 0.173905 0.178095 0.180953 0.182357 0.179609 0.168659 0.145865 0.111518 0.070107 0.0282109 -0.00994042 -0.0442532 -0.0765417 -0.107386 -0.135024 -0.158576 -0.179827 -0.201665 -0.22361 -0.24072 -0.246588 -0.23788 -0.215544 -0.183971 -0.148457 -0.112752 -0.0770983 -0.0401827 -0.00174853 0.0361539 0.0714687 0.103254 0.130651 0.15277 0.169074 0.180009 0.185627 0.186107 0.181676 0.173081 0.16065 0.145225 0.127676 0.108996 0.0895848 0.0702 0.0512291 0.0332337 0.0173977 0.0048355 -0.00360482 -0.00815679 -0.0100004 -0.0108059 -0.0110779 -0.01046 -0.00797834 -0.00388187 0.00106301 0.00564582 0.010098 0.015006 0.0201692 0.0247237 0.0272303 0.0277418 0.0265499 0.0248037 0.0225535 0.0200963 0.0171737 0.0130082 0.00803959 0.00190302 -0.00429641 -0.0104856 -0.0162653 -0.0207444 -0.0240105 -0.0251667 -0.0250325 -0.0237409 -0.0220145 -0.0211449 -0.0213179 -0.0241472 -0.0291854 -0.0370029 -0.0467459 -0.0566705 -0.0663333 -0.0734473 -0.0795402 -0.0867314 -0.0973777 -0.116317 -0.143137 -0.17584 -0.207083 -0.223489 -0.21482 -0.172874 -0.10026 -0.0119845 0.0730549 0.133793 0.159175 0.150811 0.118541 0.0780378 0.0419604 0.016619 0.00291191 -0.00238071 -0.00317664 -0.00227291 -0.0010041 0 0 
0 0 -0.000345182 -0.000717725 -0.000846492 -5.70372e-05 0.00290537 0.0092647 0.0197577 0.0336873 0.0481782 0.0605131 0.0685018 0.0712762 0.0712714 0.067758 0.0576546 0.037185 0.000367356 -0.0501795 -0.106335 -0.156955 -0.18767 -0.193428 -0.175202 -0.140446 -0.10256 -0.0705862 -0.051847 -0.047128 -0.0516207 -0.0601803 -0.0656478 -0.0651468 -0.058172 -0.0463922 -0.0342755 -0.0245767 -0.0199603 -0.0205596 -0.0247843 -0.0304749 -0.0343526 -0.0349156 -0.0310273 -0.0232502 -0.0131339 -0.00248865 0.00666301 0.013484 0.017194 0.0184216 0.0177248 0.0157272 0.0132605 0.010625 0.00881491 0.00778944 0.00765251 0.00741313 0.00668621 0.00549984 0.00386581 0.0019182 -0.000776199 -0.00386054 -0.00682215 -0.00811336 -0.00700194 -0.00265738 0.00488262 0.0154169 0.0287215 0.0444562 0.0624647 0.0819706 0.102373 0.122166 0.14048 0.155687 0.167464 0.175706 0.181738 0.186303 0.189317 0.18799 0.178278 0.156492 0.122781 0.0817892 0.0400032 0.00194322 -0.0322393 -0.0643473 -0.095474 -0.124366 -0.150541 -0.175138 -0.199967 -0.222848 -0.238446 -0.241155 -0.229795 -0.206549 -0.175664 -0.140567 -0.10402 -0.0666149 -0.0284483 0.0102177 0.0478337 0.0830955 0.114773 0.141639 0.162594 0.177567 0.187117 0.191036 0.189559 0.18311 0.172689 0.158416 0.141395 0.122466 0.102895 0.0827911 0.0632095 0.0444792 0.0273649 0.0127657 0.00198689 -0.00437398 -0.00670047 -0.00634146 -0.00527036 -0.00410197 -0.00294959 -0.000911587 0.00168156 0.00412207 0.00549711 0.00626471 0.00736475 0.00908414 0.0112359 0.0128145 0.0142895 0.0159478 0.0178932 0.0189617 0.0180139 0.0142557 0.00697413 -0.0028549 -0.0142094 -0.024739 -0.0327252 -0.0366818 -0.0360905 -0.0320305 -0.0262002 -0.021865 -0.0210957 -0.0253889 -0.0346754 -0.0462816 -0.0574833 -0.063876 -0.0639634 -0.0582634 -0.049663 -0.0452938 -0.0502096 -0.0690875 -0.100944 -0.13855 -0.173068 -0.191188 -0.18558 -0.155211 -0.105131 -0.049526 0.000532899 0.0370025 0.0572768 0.0672939 0.0707785 0.0707763 0.0680191 0.0600807 0.0478265 0.0334336 0.0195935 0.00916532 0.00285355 -7.04851e-05 -0.000785896 -0.000523856 0 0 
0 0 -9.52473e-05 0.000173676 0.00120993 0.00392272 0.00875531 0.014763 0.0192762 0.0184509 0.00926425 -0.00586383 -0.0185177 -0.0172021 0.00813815 0.0552748 0.109581 0.149552 0.153172 0.114286 0.0418961 -0.0441717 -0.118388 -0.165445 -0.179378 -0.164859 -0.134965 -0.101159 -0.07426 -0.0588361 -0.0538606 -0.0568681 -0.0619345 -0.0656977 -0.0658718 -0.0618664 -0.0557348 -0.0482237 -0.0417289 -0.0369192 -0.0340455 -0.0332237 -0.032959 -0.0331691 -0.0324055 -0.0303608 -0.0269672 -0.0219375 -0.0162328 -0.00986744 -0.00388684 0.00169326 0.00655207 0.0101372 0.0123446 0.012588 0.0117203 0.00982348 0.00736824 0.00419259 0.000593729 -0.00286786 -0.00592824 -0.00811135 -0.0100403 -0.0112835 -0.011819 -0.0102974 -0.00620724 0.00086134 0.010711 0.0229783 0.0373926 0.0534866 0.0712843 0.0900097 0.109084 0.127327 0.143874 0.157368 0.167524 0.174472 0.179379 0.183163 0.18561 0.18395 0.174134 0.152322 0.118668 0.0776888 0.0359841 -0.00193035 -0.0356639 -0.0673263 -0.0984721 -0.128589 -0.157246 -0.185039 -0.212075 -0.234839 -0.247804 -0.247034 -0.233461 -0.210479 -0.181329 -0.147586 -0.110628 -0.0718125 -0.0325602 0.00620433 0.0436336 0.0789018 0.110811 0.137693 0.158543 0.173518 0.183415 0.187821 0.18694 0.181551 0.17246 0.15981 0.144502 0.127306 0.109226 0.0904563 0.0716802 0.0532289 0.0358874 0.0202463 0.00776971 -0.000867027 -0.00593416 -0.00850713 -0.010236 -0.0115351 -0.0122168 -0.0109665 -0.00805989 -0.003989 -6.84378e-05 0.00382537 0.00788374 0.0116405 0.0141418 0.0144079 0.0130354 0.0102633 0.00682312 0.00210318 -0.00385676 -0.0105002 -0.017353 -0.023206 -0.0280314 -0.0309739 -0.0325081 -0.0327577 -0.0322617 -0.0324733 -0.0337677 -0.0373627 -0.0428707 -0.0497765 -0.0573813 -0.0632186 -0.0665787 -0.0655537 -0.0610303 -0.055392 -0.0520531 -0.0569685 -0.0725149 -0.0995947 -0.13323 -0.162909 -0.177352 -0.163597 -0.117036 -0.0435391 0.041703 0.113408 0.151926 0.148339 0.108707 0.0548745 0.0081419 -0.0169807 -0.018289 -0.00575309 0.00923578 0.018332 0.0191369 0.0146601 0.00873419 0.00401511 0.00144484 0.000295805 0 0 
0 0 0.000359438 0.00143407 0.00353821 0.00737007 0.0122 0.0152744 0.0122267 -0.000838951 -0.0243926 -0.0518396 -0.0704914 -0.0670302 -0.0331476 0.0270292 0.0985722 0.161975 0.198165 0.198756 0.164772 0.104865 0.0338698 -0.0362724 -0.0942825 -0.133135 -0.151414 -0.149077 -0.132001 -0.106724 -0.0803938 -0.0604073 -0.0491823 -0.0479609 -0.0540067 -0.062829 -0.0709275 -0.074045 -0.0716771 -0.0638904 -0.0529488 -0.0420644 -0.0329081 -0.0280878 -0.0269844 -0.0290707 -0.0324941 -0.034837 -0.035305 -0.0323843 -0.02694 -0.0190674 -0.00997847 -0.00119757 0.006155 0.0103651 0.0118678 0.0104691 0.00712202 0.00213639 -0.00362132 -0.0091046 -0.0135713 -0.016439 -0.0184195 -0.0189364 -0.0181175 -0.0148889 -0.0088981 5.46574e-05 0.0116457 0.0253674 0.0408927 0.0578201 0.0759892 0.0947371 0.113617 0.13141 0.147389 0.160396 0.170197 0.17687 0.181677 0.18538 0.187871 0.186413 0.176759 0.155224 0.121754 0.0808483 0.0391255 0.00141371 -0.0319151 -0.0632254 -0.0947497 -0.126404 -0.157883 -0.188543 -0.217129 -0.238805 -0.248623 -0.244282 -0.229071 -0.206884 -0.179942 -0.147597 -0.110493 -0.0704287 -0.0301378 0.0090449 0.0465426 0.0819489 0.113889 0.140609 0.161151 0.175916 0.185538 0.189809 0.188984 0.183734 0.174954 0.162704 0.147851 0.13111 0.113389 0.0947452 0.0759459 0.0572291 0.0391826 0.0225301 0.00868429 -0.00166759 -0.00859535 -0.0130121 -0.0163969 -0.0190334 -0.0204868 -0.0192532 -0.0155847 -0.00982916 -0.00354998 0.00271005 0.00846661 0.0126774 0.0141535 0.011686 0.0063291 -0.00138297 -0.00989586 -0.0191355 -0.0278695 -0.0342273 -0.0373427 -0.0363184 -0.0329875 -0.0285925 -0.0256582 -0.0261498 -0.0306746 -0.039967 -0.0515369 -0.0634696 -0.0722039 -0.0752778 -0.0725985 -0.0646027 -0.0555275 -0.048946 -0.0495524 -0.0601187 -0.0795113 -0.105392 -0.130416 -0.147388 -0.149713 -0.131629 -0.0931794 -0.0357253 0.03374 0.104092 0.163432 0.197118 0.196527 0.160665 0.0978109 0.0268806 -0.0327895 -0.0664064 -0.0698528 -0.0513682 -0.0241566 -0.000798592 0.0121685 0.0152188 0.0122376 0.00756303 0.00388669 0.00135911 0 0 
0 0 0.000960362 0.00276979 0.00535075 0.00878997 0.0113518 0.00978039 0.000607868 -0.0173124 -0.041275 -0.0642839 -0.0776044 -0.0751546 -0.0545089 -0.0180172 0.0299153 0.0852288 0.14093 0.188928 0.21827 0.21852 0.186561 0.125352 0.0472286 -0.031955 -0.0981529 -0.140139 -0.155703 -0.14813 -0.125578 -0.0988414 -0.0752933 -0.0606642 -0.0557025 -0.0578823 -0.0644143 -0.0704722 -0.0741594 -0.0738068 -0.0694629 -0.0627855 -0.0544882 -0.0469466 -0.0406072 -0.0362936 -0.0339367 -0.0325403 -0.0320569 -0.0313579 -0.0305961 -0.0288095 -0.0258242 -0.0217436 -0.0169796 -0.0127253 -0.00889674 -0.00622515 -0.00437243 -0.0039714 -0.00467116 -0.00600863 -0.00778438 -0.00952832 -0.0118211 -0.0139824 -0.0157575 -0.0155184 -0.0126837 -0.00648765 0.00286102 0.0150839 0.0298719 0.0468403 0.065796 0.0859139 0.106714 0.126738 0.145209 0.160859 0.173293 0.182524 0.189706 0.195516 0.199934 0.200072 0.191839 0.171459 0.138769 0.0983431 0.0568835 0.019495 -0.0135814 -0.0448144 -0.0771609 -0.11078 -0.145152 -0.178358 -0.207623 -0.227563 -0.233912 -0.226559 -0.210194 -0.189069 -0.164052 -0.133017 -0.0960414 -0.0551588 -0.0139111 0.0261021 0.0639441 0.099288 0.130678 0.15661 0.176126 0.189527 0.197417 0.199664 0.196809 0.18926 0.177925 0.163048 0.145569 0.126251 0.106122 0.0855045 0.0654227 0.0459357 0.0278818 0.0121022 -0.000151274 -0.00821411 -0.012287 -0.0134489 -0.0138109 -0.0138714 -0.0137365 -0.0121739 -0.00953482 -0.00616972 -0.00369271 -0.00242514 -0.00227889 -0.00379001 -0.0070229 -0.0121616 -0.0175584 -0.0225083 -0.0262386 -0.0294982 -0.0322228 -0.0337382 -0.0341096 -0.0334279 -0.0334789 -0.0347944 -0.0384603 -0.0444587 -0.051885 -0.0603584 -0.067506 -0.0725162 -0.0735524 -0.0704886 -0.0650624 -0.0590533 -0.0572231 -0.0622767 -0.0767505 -0.0998862 -0.126009 -0.147908 -0.154879 -0.138906 -0.0971155 -0.031544 0.0469196 0.124323 0.184997 0.216689 0.216472 0.187416 0.139867 0.0846538 0.0298132 -0.0177333 -0.0539505 -0.0744557 -0.0769147 -0.0637237 -0.0409121 -0.0171347 0.000670796 0.00982025 0.0114671 0.00904656 0.00570674 0.00236608 0 0 
0 0 0.00151231 0.00368311 0.00584322 0.00747396 0.00663918 0.00117366 -0.0097696 -0.0243385 -0.0390778 -0.0507009 -0.058165 -0.0633668 -0.0663616 -0.0637973 -0.0487184 -0.0129436 0.0438707 0.114269 0.182758 0.230613 0.246587 0.22624 0.17546 0.106265 0.0304204 -0.0396274 -0.0957292 -0.13318 -0.150058 -0.149485 -0.135154 -0.113497 -0.0905934 -0.0709101 -0.0584588 -0.0534593 -0.0555232 -0.061823 -0.0691367 -0.0747329 -0.0759883 -0.0727668 -0.0652636 -0.0553086 -0.0450742 -0.0360671 -0.0299909 -0.0269584 -0.0273574 -0.0295847 -0.0322623 -0.0340805 -0.0341952 -0.0329754 -0.0301206 -0.0264884 -0.0222094 -0.0183169 -0.0151628 -0.012568 -0.0108984 -0.00995685 -0.0104559 -0.0116755 -0.0132562 -0.0132549 -0.0111066 -0.00579226 0.00256455 0.0136981 0.0276113 0.0436644 0.0619596 0.0815145 0.102068 0.122082 0.14081 0.156922 0.170086 0.180117 0.188266 0.195091 0.200544 0.201959 0.194978 0.175873 0.144295 0.104857 0.064278 0.0278555 -0.00429 -0.0350264 -0.0678437 -0.103173 -0.139597 -0.174128 -0.202757 -0.220151 -0.223278 -0.213665 -0.197016 -0.177278 -0.1542 -0.124903 -0.0889836 -0.0487365 -0.00754859 0.032806 0.0707574 0.105517 0.135744 0.160572 0.179101 0.191441 0.197941 0.199028 0.195215 0.186762 0.174576 0.158958 0.141048 0.121429 0.101248 0.0808613 0.0613402 0.04252 0.0254004 0.0105651 -0.000546675 -0.00757458 -0.0106382 -0.0109825 -0.011019 -0.0112685 -0.0121438 -0.0123458 -0.0122055 -0.0119745 -0.0131591 -0.0157716 -0.019582 -0.0242577 -0.029062 -0.0334963 -0.0357818 -0.035613 -0.0332499 -0.0306349 -0.0290378 -0.0288454 -0.0311214 -0.0358767 -0.0437625 -0.0533667 -0.0630794 -0.0705448 -0.0738181 -0.0726109 -0.0670468 -0.059907 -0.0538472 -0.0522309 -0.0578156 -0.0709994 -0.0913897 -0.114856 -0.136853 -0.151185 -0.151518 -0.134181 -0.0961906 -0.0395614 0.030104 0.105296 0.173869 0.224236 0.244433 0.228667 0.181288 0.113446 0.0436941 -0.0126147 -0.0481002 -0.0630826 -0.0656702 -0.0627445 -0.0576235 -0.0502463 -0.0387259 -0.0240894 -0.00959626 0.00131853 0.00682386 0.00774335 0.00611977 0.00290106 0 0 
0 0 0.00176492 0.00373349 0.00471141 0.00405344 0.000612267 -0.00588571 -0.0140139 -0.0211059 -0.0260546 -0.0302558 -0.0373272 -0.0512978 -0.0700524 -0.086609 -0.0917896 -0.0762917 -0.0394768 0.0147668 0.0787092 0.140565 0.192095 0.224155 0.230718 0.210889 0.16517 0.10074 0.0267638 -0.0458382 -0.105301 -0.145099 -0.161794 -0.157762 -0.139451 -0.113936 -0.0892049 -0.0698102 -0.0583624 -0.0547645 -0.0566925 -0.0620263 -0.0674649 -0.0715687 -0.0726456 -0.0706454 -0.0660911 -0.0594864 -0.0523502 -0.0453523 -0.0399225 -0.0360514 -0.0335244 -0.0320834 -0.031218 -0.0313195 -0.0317728 -0.0326699 -0.0336076 -0.0345551 -0.0351331 -0.0346326 -0.0331568 -0.0305827 -0.0278258 -0.0247696 -0.0212211 -0.0161544 -0.00902108 0.000367653 0.011868 0.0248953 0.0394566 0.0550987 0.0720027 0.0895296 0.107546 0.124995 0.141112 0.154821 0.165758 0.173972 0.180548 0.186282 0.191096 0.192358 0.185764 0.167432 0.136755 0.0982853 0.0588084 0.02353 -0.00746541 -0.0377153 -0.0709961 -0.107651 -0.145407 -0.179995 -0.206824 -0.221187 -0.221593 -0.210743 -0.19456 -0.176204 -0.154744 -0.127182 -0.0932041 -0.0546625 -0.0142734 0.0260877 0.0642238 0.0983984 0.127571 0.15156 0.169748 0.181986 0.188572 0.19017 0.187401 0.180482 0.170062 0.156619 0.141136 0.124224 0.106671 0.0888012 0.0712808 0.0538416 0.0371145 0.0216142 0.00862534 -0.00145688 -0.00849265 -0.0137171 -0.0187168 -0.0240262 -0.029153 -0.0325426 -0.0338183 -0.0331242 -0.0321196 -0.0312949 -0.0309535 -0.0312275 -0.0319728 -0.0331611 -0.0337901 -0.0341875 -0.0347085 -0.0368671 -0.0408462 -0.0460551 -0.0521763 -0.0583454 -0.0644237 -0.068822 -0.0708658 -0.0698494 -0.0658207 -0.0602373 -0.0546893 -0.0525474 -0.0561802 -0.0678333 -0.087644 -0.112923 -0.139096 -0.158084 -0.162725 -0.146505 -0.106969 -0.0475908 0.0252003 0.0994644 0.163565 0.208898 0.228634 0.222181 0.190493 0.139475 0.078224 0.0148676 -0.0388841 -0.0753896 -0.0907844 -0.0856891 -0.0693148 -0.0507567 -0.0369369 -0.0299458 -0.0257836 -0.0208572 -0.013785 -0.00567376 0.000833107 0.004298 0.0048868 0.00267252 0 0 
0 0 0.00156581 0.00284367 0.00245708 0.000229875 -0.00375146 -0.00842174 -0.0119895 -0.0132692 -0.0140531 -0.0175514 -0.0264118 -0.0420331 -0.0606493 -0.0779868 -0.0912061 -0.0957054 -0.0905746 -0.0724794 -0.037332 0.0129563 0.0752176 0.138641 0.190057 0.220078 0.22107 0.194144 0.1444 0.0798949 0.0116895 -0.0520655 -0.1034 -0.138121 -0.155307 -0.155638 -0.143524 -0.123079 -0.0997138 -0.0781551 -0.0610997 -0.0512831 -0.0482781 -0.051396 -0.0582568 -0.0660938 -0.0729126 -0.0762884 -0.075783 -0.0711284 -0.0638427 -0.0552306 -0.0465613 -0.0390986 -0.0335795 -0.0308648 -0.0306369 -0.0327582 -0.0363714 -0.0407805 -0.0448173 -0.0472998 -0.0479062 -0.0464375 -0.0438603 -0.0400959 -0.0351723 -0.0282404 -0.0189569 -0.00726962 0.00641318 0.0215809 0.0379048 0.0551265 0.0733774 0.0920596 0.11106 0.12928 0.146159 0.160371 0.171687 0.180104 0.186681 0.192313 0.196957 0.198261 0.191855 0.173858 0.143574 0.105478 0.0662897 0.0313482 0.000346762 -0.0305306 -0.0652892 -0.103896 -0.14294 -0.177015 -0.201618 -0.213153 -0.211702 -0.20053 -0.185032 -0.167335 -0.146389 -0.119648 -0.0871776 -0.0502004 -0.0103264 0.0307932 0.0699341 0.104593 0.133607 0.157482 0.175793 0.188142 0.194723 0.196336 0.193461 0.186394 0.175697 0.161887 0.145989 0.128431 0.110198 0.0913976 0.07271 0.0538975 0.0355732 0.0182449 0.00308223 -0.00917433 -0.0184524 -0.0257158 -0.0324367 -0.038966 -0.0447029 -0.0477799 -0.0477468 -0.0448424 -0.0410152 -0.0372895 -0.0343836 -0.032671 -0.0323785 -0.0338558 -0.0366738 -0.0411808 -0.0472819 -0.0552283 -0.0635525 -0.0704664 -0.0745439 -0.0747247 -0.0714283 -0.0647629 -0.0569055 -0.0499921 -0.0469147 -0.0497657 -0.0593216 -0.0761024 -0.0975667 -0.120954 -0.141488 -0.153821 -0.153856 -0.137208 -0.103132 -0.0525087 0.0106066 0.0782849 0.142509 0.192169 0.218959 0.218041 0.188385 0.137516 0.0747235 0.0130778 -0.0367353 -0.0715682 -0.0895289 -0.0946428 -0.0902189 -0.0771521 -0.0599882 -0.0415622 -0.0260913 -0.0173159 -0.0138488 -0.0130589 -0.011767 -0.00820137 -0.00353337 0.000438757 0.00256437 0.00174207 0 0 
0 0 0.000980696 0.00140204 0.00014248 -0.00230475 -0.00505843 -0.00703622 -0.00768889 -0.0076094 -0.0091827 -0.0138696 -0.0211454 -0.0306447 -0.0408289 -0.0531101 -0.0702969 -0.0899704 -0.108737 -0.118275 -0.110335 -0.0834916 -0.037979 0.0187585 0.0777574 0.131898 0.172237 0.194963 0.196605 0.175846 0.135994 0.0804227 0.0172817 -0.044991 -0.098626 -0.136336 -0.156215 -0.158116 -0.145967 -0.125442 -0.101566 -0.0801449 -0.0634603 -0.0535606 -0.0498515 -0.0509854 -0.0557702 -0.0616337 -0.0675644 -0.0717832 -0.0739338 -0.0739235 -0.0713705 -0.0670096 -0.0610222 -0.0548186 -0.0487889 -0.0440634 -0.0411846 -0.0403036 -0.0410507 -0.0422154 -0.0435016 -0.0442475 -0.0450747 -0.0452589 -0.0443094 -0.0409838 -0.0345394 -0.0248922 -0.0121792 0.00292389 0.0201876 0.039081 0.0596736 0.0812628 0.103458 0.125098 0.145252 0.162795 0.177036 0.188133 0.196846 0.20426 0.210269 0.212879 0.207664 0.190928 0.161746 0.12457 0.0860436 0.0514995 0.0203523 -0.0114705 -0.0480626 -0.0884053 -0.12811 -0.160852 -0.182689 -0.191656 -0.189218 -0.178617 -0.164065 -0.146645 -0.125517 -0.0991487 -0.0681945 -0.032933 0.0059265 0.0472374 0.0870383 0.122077 0.15091 0.174227 0.191721 0.203168 0.208465 0.208516 0.203561 0.194125 0.180712 0.164077 0.144917 0.124168 0.10267 0.0807483 0.0591744 0.0380327 0.0180152 -0.000326674 -0.0155343 -0.0268725 -0.0340995 -0.038443 -0.0413681 -0.0437392 -0.0453268 -0.0448236 -0.0424731 -0.0389704 -0.0369279 -0.0372986 -0.0405126 -0.045684 -0.0519036 -0.0583217 -0.0637634 -0.0682107 -0.0710678 -0.0728177 -0.0725718 -0.0701924 -0.0658488 -0.0601438 -0.0547057 -0.0500679 -0.0487158 -0.0522293 -0.0621746 -0.0788592 -0.100135 -0.123809 -0.144172 -0.156175 -0.15412 -0.134197 -0.0965777 -0.0432353 0.0185838 0.081091 0.136018 0.175171 0.195348 0.193232 0.170634 0.130742 0.0771707 0.0187724 -0.0374056 -0.0824901 -0.109084 -0.116972 -0.107534 -0.0889776 -0.0694969 -0.0524963 -0.0403407 -0.0302681 -0.0208562 -0.0136417 -0.00899786 -0.00743187 -0.00750294 -0.00684736 -0.00486708 -0.00212881 0.000212868 0.000535887 0 0 
0 0 0.000273418 3.59403e-05 -0.00130328 -0.00296175 -0.00415281 -0.00464529 -0.00507224 -0.00631042 -0.00906898 -0.0124653 -0.0151048 -0.0179725 -0.0227684 -0.0329947 -0.0509036 -0.0732692 -0.0968016 -0.115704 -0.125381 -0.125079 -0.111532 -0.0848904 -0.045369 0.00586707 0.0618338 0.116188 0.159659 0.184521 0.187828 0.167959 0.129358 0.0777317 0.0198299 -0.0361191 -0.0850839 -0.121856 -0.144416 -0.15291 -0.148239 -0.134523 -0.11461 -0.0930836 -0.0730963 -0.0570925 -0.0474683 -0.0438123 -0.0462651 -0.0526269 -0.0614603 -0.0706563 -0.0780975 -0.0829687 -0.0838454 -0.0814699 -0.0760541 -0.0692177 -0.062398 -0.0565942 -0.0523292 -0.0490025 -0.0467104 -0.045035 -0.0444938 -0.0443371 -0.043773 -0.0414477 -0.0363354 -0.0282911 -0.0172582 -0.00381932 0.0120041 0.0297055 0.0492812 0.0702161 0.0920555 0.113637 0.134037 0.152075 0.167143 0.179179 0.188909 0.197446 0.204729 0.208824 0.205488 0.190925 0.164078 0.12923 0.0927737 0.0598457 0.0294906 -0.00236658 -0.0397063 -0.0805185 -0.119288 -0.14925 -0.167656 -0.174183 -0.171516 -0.162217 -0.149033 -0.132004 -0.111013 -0.0855436 -0.0567753 -0.0243544 0.0119237 0.0515484 0.0902376 0.124431 0.152229 0.174124 0.189873 0.199587 0.203409 0.202017 0.195595 0.184854 0.170496 0.153186 0.133612 0.112649 0.0913169 0.0698783 0.0490292 0.0289342 0.0101269 -0.00683437 -0.020526 -0.0302906 -0.0359916 -0.0389202 -0.0406136 -0.042373 -0.0440929 -0.0449043 -0.0450824 -0.0455029 -0.0485902 -0.0547387 -0.0633785 -0.0723264 -0.0797724 -0.0844292 -0.0852924 -0.0827645 -0.0767111 -0.0688083 -0.059586 -0.0507544 -0.0445167 -0.0425285 -0.0466377 -0.0563261 -0.071973 -0.0917765 -0.113385 -0.133392 -0.147063 -0.151587 -0.14293 -0.120168 -0.083198 -0.0341104 0.0218765 0.0797429 0.131181 0.169459 0.188872 0.184998 0.159474 0.115362 0.0613105 0.00591711 -0.0447844 -0.0839156 -0.110293 -0.123722 -0.124036 -0.114458 -0.0957385 -0.072438 -0.0502914 -0.0325572 -0.0224301 -0.017692 -0.0148582 -0.0122436 -0.00888086 -0.00614584 -0.00491584 -0.00449029 -0.00399566 -0.0028292 -0.00128379 -0.000418178 0 0 
0 0 -0.000261644 -0.000792926 -0.00167206 -0.00243441 -0.00291077 -0.00349669 -0.00480766 -0.00676153 -0.00860712 -0.00932285 -0.00907246 -0.0103065 -0.0148372 -0.0236118 -0.0361947 -0.0503634 -0.0669096 -0.0857267 -0.105652 -0.124975 -0.137098 -0.137559 -0.122942 -0.0919141 -0.0486597 0.00287127 0.0561385 0.104331 0.14306 0.166835 0.173466 0.16182 0.132331 0.0890424 0.0361269 -0.0189467 -0.069835 -0.111053 -0.138141 -0.150952 -0.149915 -0.138666 -0.120905 -0.100454 -0.0814291 -0.0655733 -0.0548905 -0.0490909 -0.0481656 -0.0513275 -0.0572344 -0.0651123 -0.0728585 -0.079855 -0.0847536 -0.0875499 -0.0885099 -0.0878096 -0.0855363 -0.0810714 -0.0749631 -0.067518 -0.0601378 -0.0529964 -0.0459579 -0.0383292 -0.0294767 -0.0193102 -0.00775205 0.00482775 0.0187509 0.0337609 0.0503629 0.0680879 0.0868097 0.10557 0.123644 0.139851 0.153676 0.164855 0.174265 0.182803 0.190497 0.195507 0.193623 0.181141 0.156691 0.124268 0.0899776 0.0584819 0.0288947 -0.00316588 -0.0408835 -0.0815225 -0.118435 -0.145014 -0.159817 -0.164523 -0.162219 -0.154697 -0.142816 -0.12623 -0.105314 -0.0807091 -0.0538706 -0.024231 0.00924918 0.0462539 0.0832539 0.116425 0.143511 0.164328 0.178521 0.186835 0.18969 0.187717 0.180977 0.170293 0.15678 0.140824 0.123144 0.104586 0.0861678 0.0679199 0.0503405 0.0333305 0.017271 0.0021644 -0.010788 -0.0212401 -0.029132 -0.0357457 -0.0425775 -0.0506232 -0.0592577 -0.0669871 -0.0732339 -0.0779916 -0.0828156 -0.0874265 -0.0909463 -0.0913336 -0.0879095 -0.0812904 -0.0724831 -0.0635824 -0.0552467 -0.0493683 -0.0463581 -0.0473105 -0.0532651 -0.0643396 -0.0805966 -0.0996476 -0.119826 -0.137447 -0.148774 -0.149884 -0.137052 -0.109896 -0.0685982 -0.0175507 0.0376549 0.0906729 0.134062 0.163684 0.175374 0.168676 0.144712 0.105644 0.0569611 0.00316706 -0.0480973 -0.0909253 -0.121646 -0.136118 -0.135668 -0.123669 -0.104537 -0.0848027 -0.0661648 -0.0497658 -0.0357295 -0.023265 -0.0145635 -0.0100831 -0.00887047 -0.00913004 -0.00842969 -0.00660154 -0.00466023 -0.00336129 -0.00279484 -0.00237583 -0.00174398 -0.000837811 0 0 
0 0 -0.000489481 -0.00104323 -0.00145009 -0.00184003 -0.00245228 -0.00355039 -0.00502611 -0.00613361 -0.00641573 -0.00634674 -0.00690617 -0.00941398 -0.0134599 -0.0177978 -0.0226174 -0.0286914 -0.0392642 -0.0561458 -0.0776349 -0.101074 -0.121302 -0.135148 -0.140809 -0.13617 -0.121142 -0.0943511 -0.0562843 -0.00968407 0.041805 0.0909978 0.13193 0.158922 0.168011 0.159137 0.133263 0.0946711 0.0480557 -0.00141258 -0.0483659 -0.0890129 -0.119822 -0.139525 -0.147571 -0.144987 -0.134235 -0.117751 -0.098989 -0.0803995 -0.0646401 -0.0535024 -0.0477698 -0.0480156 -0.0527761 -0.0610262 -0.0705226 -0.0803152 -0.0893188 -0.0967833 -0.101847 -0.1032 -0.100983 -0.095398 -0.0879805 -0.0791485 -0.0692763 -0.0579769 -0.0451903 -0.0310657 -0.0158027 7.32242e-05 0.0168533 0.0341906 0.0526139 0.0715819 0.0911769 0.110376 0.128732 0.144905 0.158541 0.169467 0.178399 0.186438 0.193623 0.198296 0.196574 0.184656 0.161226 0.12982 0.096002 0.0643575 0.0336492 0.000125077 -0.0388861 -0.0795277 -0.114642 -0.138156 -0.150101 -0.153702 -0.152423 -0.146622 -0.135825 -0.119196 -0.0978668 -0.0733149 -0.0471109 -0.0185249 0.0133385 0.0487968 0.0848188 0.118265 0.146175 0.167659 0.182083 0.190318 0.193354 0.191694 0.18522 0.174809 0.161474 0.145757 0.128211 0.109437 0.0906213 0.0715653 0.052849 0.034125 0.0157947 -0.00216385 -0.0184695 -0.0327627 -0.0447259 -0.0552761 -0.0657066 -0.0765307 -0.086961 -0.0950184 -0.099862 -0.101194 -0.100468 -0.0976375 -0.0923388 -0.0835867 -0.0721008 -0.0604189 -0.050762 -0.0457812 -0.0458628 -0.0519356 -0.0631578 -0.0788232 -0.0973981 -0.116417 -0.133263 -0.144084 -0.146602 -0.138436 -0.118743 -0.0879012 -0.0472553 -0.000355627 0.0490946 0.0957871 0.134448 0.160395 0.16935 0.160453 0.133562 0.0926963 0.0434787 -0.00809885 -0.054909 -0.0932437 -0.119898 -0.134796 -0.139396 -0.133796 -0.120083 -0.100057 -0.0768257 -0.0555263 -0.0387969 -0.0283017 -0.0222833 -0.017503 -0.0132032 -0.00920137 -0.00672665 -0.00618399 -0.00625986 -0.00598216 -0.00488346 -0.00343503 -0.00239317 -0.00187945 -0.00162016 -0.00082564 0 0 
0 0 -0.000488527 -0.000996424 -0.00124211 -0.00171253 -0.00254376 -0.0035437 -0.00435815 -0.00459807 -0.0047526 -0.0059374 -0.00791208 -0.0101365 -0.0114963 -0.0114979 -0.0128728 -0.0169559 -0.0248946 -0.0369607 -0.0508578 -0.066979 -0.084613 -0.102909 -0.121411 -0.136048 -0.14373 -0.140914 -0.125223 -0.0975707 -0.0593339 -0.0147777 0.0318622 0.0762948 0.113906 0.141469 0.155674 0.15503 0.139133 0.109204 0.0688502 0.0222288 -0.0250856 -0.068394 -0.103671 -0.128274 -0.141913 -0.144921 -0.139534 -0.127972 -0.112963 -0.0971927 -0.0826242 -0.0713362 -0.0637485 -0.0601883 -0.0599417 -0.0627772 -0.0683531 -0.076096 -0.0847201 -0.0924887 -0.0983318 -0.101636 -0.102863 -0.101613 -0.0976241 -0.0901777 -0.0791155 -0.064719 -0.0473997 -0.0280747 -0.00690052 0.0154704 0.0390613 0.063122 0.0873236 0.110723 0.132576 0.151753 0.167734 0.180391 0.190547 0.199253 0.206822 0.211879 0.210785 0.199941 0.177826 0.147445 0.113996 0.0816309 0.0494991 0.014211 -0.025773 -0.0659388 -0.0987848 -0.119238 -0.128827 -0.132036 -0.131985 -0.127845 -0.117846 -0.101283 -0.0797888 -0.0552039 -0.0289427 -0.000694573 0.0301459 0.0638266 0.0985334 0.131659 0.160204 0.182298 0.196833 0.204765 0.207229 0.204854 0.19749 0.185766 0.17062 0.152513 0.13203 0.109869 0.086888 0.0632626 0.0395464 0.0157632 -0.00752155 -0.0298213 -0.0495775 -0.0660394 -0.0783951 -0.0873077 -0.0939781 -0.09909 -0.102262 -0.102107 -0.0984147 -0.0917855 -0.0844176 -0.0773458 -0.0708146 -0.0645532 -0.0595206 -0.0578072 -0.0608671 -0.0691454 -0.0812318 -0.0961041 -0.111702 -0.12646 -0.137943 -0.143509 -0.140758 -0.127317 -0.102743 -0.0674091 -0.024015 0.0233963 0.0699796 0.110204 0.140023 0.155949 0.156629 0.142443 0.114903 0.0773905 0.0330391 -0.0135019 -0.0579757 -0.0961246 -0.123775 -0.139504 -0.142335 -0.134748 -0.120266 -0.101951 -0.0838186 -0.066344 -0.050349 -0.0365504 -0.0245693 -0.0166805 -0.0126254 -0.0112677 -0.0112736 -0.00993078 -0.007734 -0.00577721 -0.0046052 -0.00445985 -0.00423673 -0.00346971 -0.00255406 -0.00183308 -0.00145515 -0.000689457 0 0 
0 0 -0.000430986 -0.000937783 -0.0012521 -0.00181173 -0.00247899 -0.00294634 -0.00333792 -0.00382767 -0.00486526 -0.00676902 -0.00807454 -0.00847373 -0.00843473 -0.00821908 -0.0104282 -0.0142163 -0.0182851 -0.02335 -0.0286759 -0.0375756 -0.0514769 -0.0690168 -0.0893922 -0.108431 -0.124266 -0.135371 -0.139527 -0.136624 -0.124334 -0.10207 -0.0702488 -0.0299819 0.0145665 0.059303 0.0990148 0.129187 0.146959 0.150188 0.139658 0.116598 0.083933 0.0450676 0.00325981 -0.0375068 -0.0745999 -0.105079 -0.127493 -0.141018 -0.145667 -0.142682 -0.133622 -0.121209 -0.10744 -0.0942751 -0.0827845 -0.0742141 -0.0696696 -0.0692266 -0.072289 -0.0770921 -0.0825124 -0.0875789 -0.0921241 -0.0954577 -0.0965953 -0.0947211 -0.0890609 -0.0797834 -0.0669563 -0.0513878 -0.0331691 -0.0126986 0.00976364 0.0337451 0.0586279 0.0834734 0.107375 0.129258 0.148265 0.164277 0.177726 0.189798 0.200722 0.209302 0.212276 0.205921 0.188495 0.162129 0.131519 0.100513 0.0687637 0.0336975 -0.00518594 -0.042755 -0.0718496 -0.0885645 -0.0957977 -0.0987135 -0.0998331 -0.0971846 -0.0882317 -0.0725505 -0.0521223 -0.0286474 -0.0033639 0.0235955 0.0519871 0.0818914 0.112428 0.141881 0.167537 0.186919 0.198629 0.203213 0.201988 0.195789 0.184825 0.169741 0.151139 0.129979 0.106882 0.0827474 0.0583252 0.0340359 0.0104864 -0.0120575 -0.0333174 -0.0525869 -0.0685708 -0.0806061 -0.0880695 -0.0918668 -0.0932514 -0.0935809 -0.0924968 -0.089298 -0.0839116 -0.0773943 -0.0722392 -0.0698508 -0.0707088 -0.0741169 -0.0806968 -0.090931 -0.104489 -0.119512 -0.132709 -0.141759 -0.144406 -0.139557 -0.12601 -0.103678 -0.0733426 -0.0364368 0.00421326 0.045991 0.0849587 0.117704 0.140755 0.151138 0.147794 0.130009 0.0998316 0.0601008 0.015315 -0.0292109 -0.0694574 -0.101192 -0.123363 -0.135532 -0.138382 -0.134144 -0.123155 -0.107483 -0.0886453 -0.0684495 -0.0510536 -0.037251 -0.0283786 -0.0230807 -0.0180216 -0.0139724 -0.0102106 -0.00802849 -0.0082494 -0.00829292 -0.00789808 -0.006599 -0.00471637 -0.00370693 -0.00325665 -0.00293057 -0.00254666 -0.00195749 -0.00143426 -0.000639354 0 0 
0 0 -0.000417977 -0.000941796 -0.00130049 -0.00173918 -0.00210148 -0.00234949 -0.00298144 -0.00404143 -0.00526611 -0.00642058 -0.00640076 -0.0063508 -0.00756892 -0.00902736 -0.0113057 -0.0124039 -0.0121764 -0.013604 -0.0162266 -0.0225059 -0.0320214 -0.0429042 -0.0564101 -0.070794 -0.0866662 -0.104029 -0.120041 -0.133745 -0.140968 -0.139484 -0.128334 -0.106588 -0.0769117 -0.0406966 -0.00113451 0.0385756 0.0760719 0.107376 0.130411 0.142333 0.141751 0.128818 0.104232 0.0709833 0.0320603 -0.00842831 -0.0470498 -0.0812025 -0.108426 -0.128143 -0.139931 -0.145167 -0.145007 -0.140565 -0.133035 -0.12354 -0.113982 -0.105282 -0.0981087 -0.0918581 -0.0866434 -0.0823903 -0.0795326 -0.0778732 -0.0764964 -0.0746593 -0.071209 -0.0661728 -0.0589153 -0.0497818 -0.0383453 -0.0244516 -0.00808164 0.010632 0.0313096 0.0530775 0.07501 0.0960838 0.115299 0.132335 0.147407 0.161618 0.175037 0.186932 0.19394 0.192579 0.180231 0.158517 0.131083 0.10177 0.070776 0.0368288 0.000303676 -0.0334782 -0.058091 -0.0709868 -0.0761406 -0.0789431 -0.0810724 -0.0795892 -0.0717724 -0.0575632 -0.0389739 -0.0172509 0.00671933 0.032206 0.0579604 0.0838104 0.109385 0.13403 0.155394 0.171423 0.180143 0.181876 0.177339 0.168119 0.154649 0.137848 0.118244 0.0968664 0.0745968 0.0524989 0.0311762 0.0111167 -0.00710959 -0.0234412 -0.0379699 -0.0503485 -0.0599239 -0.0666062 -0.0702094 -0.0722119 -0.07399 -0.0771384 -0.0811781 -0.0852922 -0.0888201 -0.0923097 -0.0974478 -0.104637 -0.113411 -0.121966 -0.130054 -0.137043 -0.14241 -0.143933 -0.139206 -0.127161 -0.107104 -0.0798691 -0.0457443 -0.00705816 0.0334689 0.0722407 0.105228 0.129725 0.14265 0.143334 0.131434 0.108314 0.0769032 0.0393052 -0.000464863 -0.0400807 -0.0763466 -0.106054 -0.127813 -0.138929 -0.140371 -0.13309 -0.119334 -0.103222 -0.0860058 -0.0702996 -0.0560609 -0.0426473 -0.03182 -0.022333 -0.0160557 -0.0134136 -0.0119803 -0.0121901 -0.0111097 -0.00885228 -0.00740238 -0.0061894 -0.00623455 -0.00625529 -0.00512793 -0.00394838 -0.00294427 -0.00237999 -0.00219014 -0.00185921 -0.00142446 -0.000661486 0 0 
0 0 -0.000430246 -0.000929226 -0.00121343 -0.00148807 -0.00178808 -0.00225621 -0.00316144 -0.00407111 -0.00460935 -0.00509459 -0.00531194 -0.00640002 -0.00839471 -0.00933034 -0.0099001 -0.00917308 -0.00844999 -0.010453 -0.0129934 -0.016714 -0.0205521 -0.0240535 -0.0308252 -0.0405415 -0.0541904 -0.0710615 -0.0878224 -0.104525 -0.118593 -0.129389 -0.13632 -0.136749 -0.130363 -0.114917 -0.0907206 -0.0591021 -0.0216913 0.0174208 0.0555387 0.0887418 0.114269 0.130461 0.135664 0.130392 0.114963 0.0912782 0.0611973 0.0266799 -0.00931908 -0.0449144 -0.0773372 -0.105724 -0.12869 -0.145459 -0.155671 -0.159326 -0.158176 -0.153183 -0.145899 -0.136404 -0.125689 -0.114575 -0.104017 -0.0944829 -0.0853876 -0.0766137 -0.0673689 -0.0578129 -0.0475467 -0.0367565 -0.0249779 -0.0119316 0.00259179 0.0187838 0.0362565 0.0546577 0.0730394 0.0907587 0.106734 0.120898 0.133273 0.145123 0.156709 0.167723 0.174999 0.175129 0.16489 0.144846 0.117988 0.0879653 0.0560155 0.0221125 -0.012526 -0.0428864 -0.0636039 -0.0736501 -0.0776509 -0.0807958 -0.0837014 -0.0830165 -0.0759971 -0.0631387 -0.0461815 -0.0257318 -0.00214865 0.0231644 0.0480896 0.0720128 0.0949536 0.116782 0.136043 0.151209 0.160458 0.163423 0.160085 0.152263 0.1407 0.126451 0.109757 0.091649 0.0727595 0.0542465 0.0363147 0.0194985 0.00387511 -0.0104947 -0.0239854 -0.0366273 -0.0480559 -0.0581541 -0.0668438 -0.0752902 -0.0843339 -0.095103 -0.106639 -0.117867 -0.12764 -0.136046 -0.14406 -0.151264 -0.156511 -0.157137 -0.152547 -0.142213 -0.126423 -0.104646 -0.0765121 -0.0437397 -0.00800569 0.0278327 0.0622888 0.0926288 0.116477 0.131763 0.13673 0.131349 0.115099 0.0896011 0.0564444 0.0183051 -0.0209078 -0.0584693 -0.090179 -0.114434 -0.129906 -0.136344 -0.135966 -0.129072 -0.118293 -0.104217 -0.0875029 -0.0706712 -0.0539467 -0.0404119 -0.0307743 -0.0239886 -0.0204414 -0.0165556 -0.0128207 -0.0102772 -0.00830213 -0.0090208 -0.00974908 -0.0091766 -0.00822984 -0.00623994 -0.00515806 -0.00495513 -0.00450594 -0.00401665 -0.00315681 -0.00229998 -0.00186355 -0.00157512 -0.00130911 -0.000646076 0 0 
0 0 -0.000412567 -0.000851712 -0.00105132 -0.00131333 -0.00174327 -0.00235896 -0.00307568 -0.00346421 -0.00369396 -0.00452664 -0.0056381 -0.00704086 -0.0078775 -0.00721619 -0.00731843 -0.00796821 -0.0091726 -0.0111663 -0.0113483 -0.0115267 -0.0123207 -0.0139549 -0.0186851 -0.0248521 -0.0331004 -0.0433279 -0.0543897 -0.0679659 -0.0828425 -0.0988348 -0.114951 -0.12807 -0.137147 -0.139227 -0.133628 -0.120361 -0.0994458 -0.0729392 -0.04155 -0.0075765 0.0270684 0.0605045 0.0896138 0.112653 0.126955 0.131543 0.125888 0.110125 0.086406 0.0563259 0.0230961 -0.0117102 -0.0458333 -0.0775257 -0.10522 -0.127746 -0.145702 -0.158736 -0.167609 -0.171477 -0.171024 -0.16647 -0.15857 -0.148075 -0.134798 -0.119455 -0.101948 -0.0835871 -0.0644763 -0.0455127 -0.0265185 -0.00757263 0.0114642 0.0306911 0.0499804 0.0689832 0.0871248 0.103941 0.118474 0.13084 0.141148 0.150778 0.160446 0.170247 0.177396 0.178389 0.169416 0.150153 0.122776 0.0911475 0.0575723 0.0235145 -0.00923616 -0.0362389 -0.0536394 -0.0616809 -0.0653339 -0.0689669 -0.072438 -0.0720789 -0.0657221 -0.054091 -0.0386641 -0.019183 0.00429577 0.0299561 0.0549188 0.0782181 0.0997303 0.119597 0.137003 0.15144 0.161447 0.166162 0.164766 0.158668 0.148847 0.136403 0.121508 0.104985 0.087055 0.0687296 0.0502291 0.0317143 0.0131428 -0.00560864 -0.0248552 -0.0447768 -0.0647806 -0.0844328 -0.102681 -0.119883 -0.135476 -0.14976 -0.161279 -0.168937 -0.171668 -0.169829 -0.16476 -0.156184 -0.143768 -0.125579 -0.102329 -0.0745256 -0.0437524 -0.0105951 0.0241142 0.0576249 0.0877271 0.111153 0.126868 0.132859 0.128452 0.114025 0.0906971 0.0614443 0.027876 -0.00682661 -0.0408005 -0.0721583 -0.0987406 -0.119794 -0.133187 -0.138824 -0.136809 -0.127792 -0.114749 -0.0987085 -0.0827476 -0.0679127 -0.0543506 -0.0432852 -0.0331272 -0.0249195 -0.0187261 -0.0139376 -0.0122143 -0.0113786 -0.0111655 -0.0110049 -0.00904176 -0.00786661 -0.0072197 -0.00709826 -0.00772784 -0.00688214 -0.00549878 -0.00442395 -0.00363559 -0.00344375 -0.00308428 -0.00239272 -0.00179915 -0.00139288 -0.00115318 -0.000566159 0 0 
0 0 -0.000363111 -0.00075881 -0.00095903 -0.00129323 -0.00175095 -0.00219523 -0.00259853 -0.00296757 -0.00360129 -0.00474498 -0.00560531 -0.00602446 -0.00611447 -0.00594634 -0.00712169 -0.00864638 -0.00944864 -0.00971021 -0.00847324 -0.00808775 -0.00931418 -0.0114356 -0.0146453 -0.0170357 -0.0195552 -0.0237389 -0.0301468 -0.0404394 -0.0532721 -0.067747 -0.0828081 -0.0969518 -0.11054 -0.122243 -0.131571 -0.137044 -0.13647 -0.129259 -0.113982 -0.0916597 -0.0635876 -0.0314316 0.00179696 0.0344656 0.0638468 0.0886887 0.107327 0.118295 0.121409 0.116062 0.103265 0.0831929 0.057141 0.026803 -0.00577134 -0.0384595 -0.0702504 -0.0996184 -0.125978 -0.147692 -0.164347 -0.17559 -0.181463 -0.181994 -0.177082 -0.167215 -0.152811 -0.135209 -0.115105 -0.0936366 -0.0709874 -0.0475123 -0.0233647 0.001291 0.0260243 0.0505274 0.0738814 0.0957113 0.11489 0.131487 0.14546 0.15842 0.171131 0.184238 0.195233 0.200534 0.195737 0.179533 0.153516 0.12193 0.0884411 0.0557892 0.0264102 0.0036768 -0.0102662 -0.0165887 -0.0200749 -0.0240249 -0.0276044 -0.0273882 -0.021746 -0.0116428 0.00187446 0.0197986 0.0421615 0.0669385 0.0909476 0.112652 0.131647 0.147784 0.160643 0.170762 0.177483 0.179705 0.175907 0.166968 0.153589 0.137151 0.117888 0.0968497 0.0740419 0.0504968 0.0265285 0.00269838 -0.0211613 -0.0449295 -0.0687583 -0.0926107 -0.115767 -0.137296 -0.155509 -0.169757 -0.179213 -0.183844 -0.182992 -0.17613 -0.163173 -0.144945 -0.122792 -0.0972376 -0.0686368 -0.0365865 -0.0031542 0.0295979 0.0591537 0.0843912 0.104423 0.117505 0.122751 0.119275 0.108253 0.089908 0.0652542 0.0357573 0.00292872 -0.0304117 -0.0627461 -0.0910047 -0.113378 -0.128595 -0.135824 -0.136522 -0.131168 -0.121921 -0.110299 -0.0967687 -0.0826916 -0.0676987 -0.0533066 -0.0405288 -0.0303097 -0.0239039 -0.0197267 -0.017119 -0.0146344 -0.0113234 -0.00916194 -0.00791996 -0.00834933 -0.00961255 -0.00939711 -0.00859294 -0.00704533 -0.00584723 -0.00598191 -0.00589693 -0.00550136 -0.00467659 -0.00357083 -0.00296243 -0.00260814 -0.00222027 -0.00180263 -0.00138129 -0.00106241 -0.000491372 0 0 
0 0 -0.000323276 -0.000707919 -0.000945407 -0.00126467 -0.00160461 -0.00188031 -0.00227515 -0.00298406 -0.00378958 -0.00443342 -0.00458745 -0.00460201 -0.00542537 -0.00664125 -0.00768046 -0.00785081 -0.00695968 -0.00671652 -0.00736028 -0.00868326 -0.0100639 -0.0103219 -0.0104438 -0.0108087 -0.0122671 -0.015428 -0.0197328 -0.0255151 -0.032508 -0.0407307 -0.0510134 -0.0628543 -0.0767707 -0.0917102 -0.106665 -0.12038 -0.13087 -0.137142 -0.137868 -0.132821 -0.122036 -0.105536 -0.08432 -0.0587757 -0.0303276 -0.000157309 0.0300414 0.0580215 0.0820327 0.100139 0.111497 0.114778 0.109938 0.0974694 0.0787555 0.0553844 0.02855 -0.000324696 -0.0301145 -0.0591912 -0.0867521 -0.111804 -0.133409 -0.150722 -0.162709 -0.169051 -0.169628 -0.165224 -0.15626 -0.143515 -0.127203 -0.107701 -0.0853773 -0.0605924 -0.0340583 -0.00640885 0.0211856 0.0480112 0.0726583 0.0948638 0.114543 0.133101 0.151613 0.17081 0.188501 0.200754 0.202633 0.191757 0.169407 0.140069 0.108944 0.0801198 0.0561145 0.0389938 0.0292693 0.0248628 0.0218638 0.0180533 0.0148085 0.0150093 0.0196564 0.0276237 0.0384775 0.0535312 0.0731148 0.0950532 0.116154 0.134675 0.14958 0.160054 0.166076 0.168894 0.168903 0.165199 0.156184 0.142029 0.123126 0.100697 0.0756303 0.0492121 0.0215759 -0.00615003 -0.0332078 -0.0586848 -0.0825622 -0.104575 -0.124702 -0.142781 -0.158028 -0.16922 -0.174609 -0.173428 -0.165349 -0.151453 -0.132663 -0.109927 -0.0840314 -0.0561077 -0.0274258 0.00142459 0.0297804 0.0570713 0.0812231 0.100023 0.111801 0.116047 0.112836 0.101737 0.0834734 0.0590047 0.030919 0.000956667 -0.0290808 -0.057581 -0.0831983 -0.104461 -0.121172 -0.132231 -0.137362 -0.13659 -0.130298 -0.119908 -0.106285 -0.0914402 -0.0765857 -0.0627431 -0.0509393 -0.0407716 -0.0326417 -0.0257521 -0.0199854 -0.015672 -0.0124168 -0.0108307 -0.010318 -0.0101177 -0.00984245 -0.00854429 -0.00730693 -0.00673742 -0.00697495 -0.00782422 -0.00759997 -0.00652731 -0.00531743 -0.00451755 -0.00453128 -0.00439847 -0.00376952 -0.00297721 -0.00228371 -0.00190988 -0.00166328 -0.00134979 -0.0010247 -0.000468996 0 0 
0 0 -0.000310625 -0.000685121 -0.000912591 -0.00113245 -0.00141027 -0.0017601 -0.00226748 -0.00296997 -0.00336691 -0.00355957 -0.00399075 -0.00453064 -0.00565505 -0.00642597 -0.00615472 -0.00591504 -0.0056348 -0.00648715 -0.00798511 -0.00854682 -0.00866704 -0.00787834 -0.00750086 -0.00861277 -0.0104666 -0.0130637 -0.0151517 -0.0168192 -0.0191825 -0.0230506 -0.0297825 -0.0389995 -0.0502614 -0.0626335 -0.0751266 -0.0877684 -0.100289 -0.11264 -0.124191 -0.133519 -0.13933 -0.139796 -0.134303 -0.122479 -0.104977 -0.0829602 -0.0576046 -0.0308785 -0.00381463 0.0221175 0.0461109 0.0669433 0.0833025 0.0944557 0.0997998 0.0992571 0.0926439 0.0802631 0.0626361 0.0408289 0.0156718 -0.0114523 -0.0389424 -0.0650586 -0.0878834 -0.106454 -0.120168 -0.129198 -0.133749 -0.134112 -0.130379 -0.122557 -0.110921 -0.0957469 -0.0775045 -0.0568591 -0.0348133 -0.0122719 0.0095406 0.0300075 0.0491704 0.0682421 0.0886057 0.110935 0.133132 0.150907 0.158604 0.152826 0.134264 0.107987 0.0805506 0.056917 0.039669 0.0289942 0.0238251 0.0215266 0.0193283 0.0162241 0.013691 0.0139001 0.0172011 0.0226348 0.0302394 0.0415095 0.0570205 0.0746651 0.0917939 0.106351 0.116957 0.122149 0.121864 0.118082 0.112118 0.103883 0.0922654 0.0769989 0.05801 0.0360835 0.0126018 -0.0109874 -0.0342078 -0.0562045 -0.0761336 -0.0932981 -0.107647 -0.119204 -0.12815 -0.134424 -0.137321 -0.135358 -0.127046 -0.111659 -0.0897538 -0.0636225 -0.0355282 -0.00755753 0.0190467 0.0433647 0.0643792 0.08143 0.0937802 0.100913 0.102034 0.0966657 0.0849489 0.0682587 0.0476053 0.0238726 -0.00232248 -0.0298446 -0.0567027 -0.0819267 -0.103858 -0.121423 -0.133249 -0.138718 -0.138422 -0.132914 -0.123708 -0.112183 -0.0998111 -0.0873678 -0.0747535 -0.0623826 -0.0501136 -0.0389429 -0.0297864 -0.023166 -0.0194037 -0.0170885 -0.0153964 -0.0132104 -0.0104705 -0.00846023 -0.00725428 -0.00761257 -0.00848057 -0.0084901 -0.00802766 -0.00656744 -0.00567602 -0.00588757 -0.00606918 -0.00632746 -0.0055758 -0.00448487 -0.00396827 -0.00354689 -0.00335348 -0.00296391 -0.00228126 -0.00179661 -0.00146936 -0.0012004 -0.000964863 -0.000464781 0 0 
0 0 -0.000301653 -0.000645751 -0.000828165 -0.00100138 -0.00133127 -0.00177253 -0.00218493 -0.00259169 -0.00273111 -0.0031636 -0.00421068 -0.00469999 -0.00499686 -0.00477757 -0.00436721 -0.00558996 -0.00651575 -0.00705523 -0.00702124 -0.00565489 -0.00579316 -0.0066559 -0.00799593 -0.0096679 -0.00984753 -0.00997408 -0.0102806 -0.0111895 -0.0138331 -0.0169369 -0.0209825 -0.0254974 -0.0307632 -0.0377938 -0.0462903 -0.0570134 -0.0693699 -0.0827258 -0.0966275 -0.109714 -0.121674 -0.131189 -0.137709 -0.140623 -0.139206 -0.133515 -0.123007 -0.10832 -0.0897261 -0.0679688 -0.0438643 -0.0185036 0.00651146 0.0299654 0.0505307 0.0674131 0.0797704 0.0872197 0.0896725 0.0867804 0.07886 0.065946 0.0494854 0.030873 0.0119635 -0.00609311 -0.0224944 -0.036998 -0.0495516 -0.0597092 -0.0672232 -0.0715282 -0.072619 -0.0701197 -0.0644636 -0.0557952 -0.0449233 -0.0326121 -0.019895 -0.00730708 0.00532053 0.0191688 0.0358728 0.0560268 0.0778299 0.0964146 0.1057 0.101143 0.0832939 0.0576315 0.0318795 0.0119687 -0.000159502 -0.00599228 -0.00821868 -0.00959074 -0.0115647 -0.0141148 -0.0158607 -0.015518 -0.0132115 -0.00965011 -0.00431347 0.00428056 0.0167961 0.0315998 0.0464356 0.0593793 0.0685474 0.0720909 0.0699018 0.0638813 0.05626 0.0476716 0.0381012 0.0270305 0.0139397 -0.00103667 -0.0165522 -0.0310997 -0.0440102 -0.0546319 -0.0625137 -0.0672309 -0.0692128 -0.06856 -0.0660552 -0.0617398 -0.0551587 -0.0449234 -0.0302096 -0.0107773 0.01194 0.0348424 0.0551408 0.0708914 0.0819269 0.0882592 0.0904876 0.0881256 0.0810705 0.0691273 0.0524588 0.031714 0.0079269 -0.0171167 -0.0422315 -0.0661788 -0.08819 -0.107204 -0.122007 -0.132451 -0.138183 -0.139704 -0.136754 -0.130157 -0.120742 -0.109051 -0.0961436 -0.0823299 -0.069019 -0.0566735 -0.0459643 -0.0375437 -0.0306597 -0.0255375 -0.0210916 -0.0171448 -0.0140841 -0.0114302 -0.010422 -0.00997518 -0.00964565 -0.00934574 -0.00766334 -0.00645706 -0.00575026 -0.0057718 -0.00714915 -0.0071451 -0.00651579 -0.00553385 -0.00428957 -0.00472125 -0.00496188 -0.00468475 -0.00420301 -0.00315644 -0.00272763 -0.00259812 -0.00220679 -0.00180701 -0.00138083 -0.0010584 -0.000875772 -0.000432159 0 0 
0 0 -0.000277524 -0.000588373 -0.000752137 -0.00096073 -0.00131354 -0.00164039 -0.00187135 -0.00227809 -0.00261689 -0.00321657 -0.00400999 -0.00380311 -0.00386739 -0.00417752 -0.00447352 -0.00593655 -0.00591492 -0.00529696 -0.00512082 -0.00447833 -0.00574402 -0.00697057 -0.00751677 -0.00814955 -0.00747836 -0.00769029 -0.00869197 -0.0101298 -0.0126081 -0.0141428 -0.0156897 -0.0171729 -0.0191959 -0.023396 -0.0290745 -0.0370492 -0.046313 -0.0563129 -0.0671092 -0.077996 -0.0899262 -0.102154 -0.114726 -0.126845 -0.137002 -0.144379 -0.147438 -0.146044 -0.139836 -0.12917 -0.114867 -0.0973185 -0.0779737 -0.0570887 -0.035879 -0.0146579 0.00606809 0.0258873 0.0443343 0.0599807 0.0719561 0.0789521 0.0814155 0.0797817 0.0753302 0.0687513 0.0606866 0.051473 0.0415452 0.0316756 0.0223444 0.0146163 0.00870185 0.00523122 0.00416584 0.00546959 0.00860343 0.0129632 0.0178115 0.0227609 0.0282175 0.0354784 0.0463555 0.0616326 0.0796556 0.095419 0.102312 0.0952116 0.0746355 0.0464422 0.0196951 0.000829257 -0.00873952 -0.0123699 -0.0139348 -0.0160437 -0.0187107 -0.0211548 -0.0222321 -0.0216365 -0.0197183 -0.0168837 -0.0121658 -0.00435938 0.00728976 0.0215502 0.0368314 0.0510485 0.0621909 0.0680033 0.068274 0.0643455 0.0586146 0.0525562 0.0469973 0.0417516 0.0359632 0.0289907 0.0215628 0.01496 0.0100214 0.00720042 0.00663983 0.00827777 0.0115744 0.0163361 0.0217368 0.0276786 0.034353 0.0429093 0.0535044 0.065695 0.0775146 0.0858097 0.0882928 0.0839411 0.0741351 0.0603431 0.0445534 0.0269054 0.0077078 -0.0129004 -0.03433 -0.0557772 -0.076699 -0.0958867 -0.113226 -0.127431 -0.138291 -0.144751 -0.146245 -0.143276 -0.136012 -0.125999 -0.113848 -0.101188 -0.08903 -0.0772972 -0.0666135 -0.055936 -0.0460634 -0.0368099 -0.0288375 -0.0232196 -0.0191593 -0.0173015 -0.0158842 -0.014423 -0.0128468 -0.0103029 -0.0086933 -0.00753329 -0.00714291 -0.00779038 -0.00726458 -0.00693667 -0.00587556 -0.00470986 -0.00529879 -0.00536216 -0.00588208 -0.00586542 -0.00442723 -0.00416264 -0.00387581 -0.00381194 -0.00400876 -0.00321515 -0.00262292 -0.0022965 -0.00189791 -0.00166784 -0.00135559 -0.00102114 -0.000807628 -0.000383234 0 0 
0 0 -0.000251174 -0.000546032 -0.000719408 -0.000937736 -0.00122401 -0.00141598 -0.00164027 -0.0022455 -0.00268084 -0.00293441 -0.00314094 -0.00289224 -0.00373389 -0.00468874 -0.00455231 -0.00473284 -0.00378837 -0.00369833 -0.00511827 -0.00547539 -0.00625516 -0.00569985 -0.00472146 -0.00536942 -0.00606331 -0.00803792 -0.00966508 -0.010026 -0.0104631 -0.0101322 -0.0110583 -0.0130608 -0.015551 -0.0190343 -0.0219203 -0.025408 -0.0294882 -0.0348611 -0.0425174 -0.0517737 -0.0631521 -0.0752909 -0.0879332 -0.10065 -0.112542 -0.123986 -0.133762 -0.142235 -0.148256 -0.151443 -0.15133 -0.147193 -0.139318 -0.127489 -0.112751 -0.0953494 -0.0759125 -0.0548539 -0.0325732 -0.0107854 0.00961286 0.0268754 0.0413636 0.0530452 0.0628422 0.0708669 0.0771604 0.0817426 0.0844475 0.085912 0.0862738 0.0864904 0.0865426 0.0871475 0.0882524 0.0900705 0.0920952 0.0942339 0.0959374 0.0973207 0.0989036 0.102224 0.109335 0.121091 0.136175 0.149431 0.154185 0.144681 0.121581 0.0911605 0.063645 0.0457174 0.0381953 0.0360591 0.0345076 0.0313837 0.0280021 0.025753 0.0253954 0.0260089 0.0275915 0.0300622 0.0345575 0.0419356 0.0529678 0.0668849 0.0826534 0.0980169 0.11105 0.119254 0.122301 0.120699 0.116749 0.112163 0.108715 0.106583 0.105093 0.103017 0.100081 0.0970104 0.0942732 0.0923446 0.0908923 0.0897243 0.0881235 0.0862546 0.083554 0.0803529 0.0767757 0.0739129 0.0716843 0.0698519 0.0667672 0.0601226 0.0484332 0.0312779 0.0107822 -0.0112783 -0.0326628 -0.053656 -0.0739215 -0.0935144 -0.111461 -0.126456 -0.138168 -0.145769 -0.149748 -0.149846 -0.146717 -0.140817 -0.132456 -0.122815 -0.111587 -0.0997971 -0.0871067 -0.0744276 -0.0623292 -0.0510888 -0.0419834 -0.0345035 -0.0292913 -0.0252928 -0.0218302 -0.0189853 -0.0156273 -0.0132667 -0.0113621 -0.0104476 -0.0107006 -0.0100794 -0.00952315 -0.00773279 -0.00571877 -0.00513472 -0.00470351 -0.00589863 -0.00654055 -0.00574859 -0.00525472 -0.00373587 -0.00375936 -0.00470646 -0.00455586 -0.0047121 -0.00376039 -0.00291492 -0.00315454 -0.00294506 -0.00269568 -0.00226672 -0.00166574 -0.00144295 -0.00126797 -0.00100014 -0.000770783 -0.00035714 0 0 
0 0 -0.000239026 -0.000525543 -0.000693413 -0.000856395 -0.00108715 -0.00132982 -0.00163486 -0.0021176 -0.00230346 -0.00242318 -0.00280305 -0.00297359 -0.00375442 -0.0040621 -0.00332893 -0.0034681 -0.0034231 -0.00418515 -0.00529669 -0.00465638 -0.00437241 -0.00375533 -0.0037586 -0.00531659 -0.00622958 -0.00740287 -0.00780886 -0.00761098 -0.00825598 -0.00888315 -0.0105573 -0.0124033 -0.0137926 -0.0153993 -0.0163289 -0.0180632 -0.0205567 -0.0243233 -0.0299653 -0.0365017 -0.0445351 -0.0531817 -0.0626551 -0.0730318 -0.0839398 -0.0960347 -0.108328 -0.120938 -0.132763 -0.143144 -0.151488 -0.156757 -0.158842 -0.157079 -0.152446 -0.144709 -0.134295 -0.120876 -0.104539 -0.0865692 -0.0679082 -0.0499918 -0.03261 -0.0158443 0.000969535 0.0174814 0.0334258 0.0482767 0.0617587 0.0740057 0.085125 0.095694 0.105521 0.115075 0.124098 0.132824 0.140777 0.147918 0.153925 0.159028 0.163903 0.170134 0.179677 0.193609 0.21066 0.22577 0.232177 0.223913 0.201615 0.172205 0.146595 0.13159 0.127356 0.127509 0.126687 0.123287 0.119979 0.118329 0.118584 0.119094 0.120023 0.121687 0.125423 0.131471 0.140674 0.152655 0.166818 0.180755 0.192597 0.200057 0.202512 0.199786 0.193655 0.185837 0.178541 0.172708 0.168126 0.163644 0.158204 0.151535 0.143802 0.135478 0.126327 0.116362 0.105141 0.0932597 0.0806965 0.0679562 0.0549921 0.0423099 0.0300316 0.0180675 0.00567008 -0.00871659 -0.0259978 -0.0462866 -0.0674784 -0.0876678 -0.104826 -0.119422 -0.131959 -0.142815 -0.151335 -0.15625 -0.157711 -0.155302 -0.150047 -0.141737 -0.131328 -0.119464 -0.10694 -0.0948546 -0.0829672 -0.0721941 -0.0619115 -0.0524662 -0.0438341 -0.0358475 -0.02941 -0.0239561 -0.0204031 -0.0180561 -0.0164015 -0.0155182 -0.0139833 -0.0126792 -0.0108818 -0.00916371 -0.00837475 -0.00750678 -0.00752222 -0.00707328 -0.00598456 -0.00530689 -0.00398359 -0.004144 -0.00472359 -0.00489157 -0.00536104 -0.00418292 -0.00341958 -0.00350577 -0.00339277 -0.00411296 -0.0037959 -0.00300282 -0.00283273 -0.00245269 -0.00232617 -0.00213855 -0.00165979 -0.00136211 -0.00113444 -0.00090966 -0.000730618 -0.00035231 0 0 
0 0 -0.000233541 -0.000501136 -0.000644242 -0.000775948 -0.0010047 -0.00132165 -0.00160216 -0.00179267 -0.00184474 -0.0022355 -0.00298095 -0.00309928 -0.00292352 -0.00261418 -0.00257728 -0.00373409 -0.00420581 -0.00397495 -0.00348967 -0.00256115 -0.00311727 -0.00403074 -0.0047176 -0.00529486 -0.00478104 -0.00464792 -0.00514267 -0.00620576 -0.00815458 -0.00950102 -0.0104872 -0.0107537 -0.010656 -0.0113907 -0.0126078 -0.0150726 -0.017989 -0.021058 -0.0243846 -0.0275877 -0.0317447 -0.0370392 -0.0441589 -0.0530987 -0.0634002 -0.07501 -0.0866893 -0.098438 -0.109486 -0.119907 -0.129773 -0.138648 -0.146448 -0.152365 -0.15673 -0.158881 -0.158368 -0.154209 -0.146094 -0.134867 -0.121737 -0.108149 -0.0940387 -0.0795808 -0.0643308 -0.0485952 -0.0328425 -0.0174558 -0.0027011 0.0118891 0.0263562 0.0414177 0.0567573 0.0727564 0.088912 0.105168 0.120997 0.136276 0.150549 0.164023 0.177108 0.191169 0.208015 0.228655 0.251837 0.272678 0.284299 0.280776 0.262766 0.237679 0.216679 0.206781 0.207116 0.21065 0.211469 0.208942 0.206405 0.205888 0.206686 0.206928 0.206757 0.207246 0.209295 0.212963 0.218849 0.227268 0.237516 0.247418 0.254946 0.258307 0.256691 0.249437 0.237648 0.22287 0.207333 0.192624 0.179436 0.167149 0.154409 0.140366 0.124627 0.107754 0.0900274 0.0720942 0.0541796 0.0372608 0.0213209 0.00668749 -0.00745619 -0.021186 -0.0346106 -0.0473521 -0.0597717 -0.07294 -0.087996 -0.10503 -0.121909 -0.136421 -0.146452 -0.152523 -0.155731 -0.156886 -0.155765 -0.151633 -0.145252 -0.137166 -0.128441 -0.118754 -0.10822 -0.0970086 -0.0853363 -0.0738406 -0.0624161 -0.0522387 -0.043458 -0.0364738 -0.0311967 -0.027045 -0.0239267 -0.0207552 -0.017875 -0.0151333 -0.0128028 -0.0116538 -0.0109364 -0.0110423 -0.0107252 -0.00962573 -0.00808074 -0.00595321 -0.00479359 -0.00439302 -0.00471908 -0.00549275 -0.00508536 -0.00443851 -0.0034188 -0.00271203 -0.00352563 -0.00399873 -0.00426076 -0.00382755 -0.00268491 -0.00269593 -0.00298408 -0.00314555 -0.00302388 -0.00227376 -0.00187396 -0.00181797 -0.00163093 -0.00135717 -0.00104806 -0.000820534 -0.000678932 -0.000335478 0 0 
0 0 -0.000220948 -0.000463412 -0.000593506 -0.00076151 -0.000974933 -0.0012017 -0.0013935 -0.00161062 -0.00188938 -0.0021943 -0.00248056 -0.00247204 -0.00238154 -0.0025717 -0.00287609 -0.00331312 -0.00319756 -0.0026205 -0.00242823 -0.00264174 -0.00346201 -0.0039803 -0.00377551 -0.00333351 -0.00298558 -0.00359507 -0.00496408 -0.00630793 -0.00740532 -0.00775415 -0.007855 -0.00824966 -0.00906381 -0.0106945 -0.0123997 -0.0141179 -0.0156313 -0.0170523 -0.0190542 -0.0216746 -0.0255583 -0.0306387 -0.0367629 -0.0438909 -0.0514709 -0.0597946 -0.0685314 -0.0779407 -0.087663 -0.097771 -0.108157 -0.118228 -0.127363 -0.135033 -0.141347 -0.146215 -0.149316 -0.149731 -0.147219 -0.142528 -0.13669 -0.130697 -0.124367 -0.117256 -0.108829 -0.0992523 -0.0888908 -0.0782117 -0.0673512 -0.0558661 -0.0436983 -0.03012 -0.0152471 0.000969414 0.0182034 0.0362106 0.0546122 0.0731873 0.0915727 0.10981 0.128169 0.147716 0.169994 0.195825 0.224064 0.249962 0.266471 0.268046 0.255189 0.235598 0.220297 0.216077 0.221344 0.228462 0.231459 0.230341 0.229145 0.22986 0.231171 0.231014 0.229713 0.228715 0.228725 0.229404 0.23144 0.23555 0.241147 0.246036 0.248354 0.246899 0.240757 0.229187 0.212618 0.192485 0.170734 0.149108 0.129236 0.111365 0.0943326 0.0768484 0.0580104 0.0379988 0.0176558 -0.00182422 -0.0195156 -0.0347973 -0.0478665 -0.0591173 -0.0698446 -0.0802103 -0.0899388 -0.098191 -0.104926 -0.111264 -0.118767 -0.128015 -0.137309 -0.144381 -0.147621 -0.147799 -0.146431 -0.144197 -0.140509 -0.134325 -0.126087 -0.11668 -0.106965 -0.0968716 -0.0865913 -0.0766349 -0.0672814 -0.0587605 -0.0505212 -0.043012 -0.0360742 -0.0301319 -0.0251064 -0.0212259 -0.0186774 -0.0168006 -0.0155409 -0.0142215 -0.0126954 -0.011065 -0.00939876 -0.00848171 -0.00793882 -0.00768493 -0.00717319 -0.00602588 -0.00469812 -0.00353148 -0.00313838 -0.00370804 -0.00419399 -0.0043387 -0.00367298 -0.00274449 -0.00249968 -0.00271072 -0.00332343 -0.00343475 -0.00298976 -0.00266185 -0.00246183 -0.00254334 -0.00253496 -0.00223599 -0.00192438 -0.00164456 -0.0014278 -0.00123528 -0.00101116 -0.000808335 -0.000639542 -0.000301696 0 0 
0 0 -0.000205734 -0.000434573 -0.000568146 -0.000755076 -0.000917882 -0.00106137 -0.00123406 -0.00155965 -0.00200332 -0.00196942 -0.00170742 -0.00192643 -0.00244702 -0.00312634 -0.00283989 -0.0017384 -0.00154222 -0.00206948 -0.00319641 -0.00373537 -0.00286705 -0.00201777 -0.00160705 -0.00218508 -0.00357761 -0.00437118 -0.0048224 -0.00462282 -0.00449648 -0.00517108 -0.00642576 -0.00810458 -0.0095255 -0.010396 -0.0109137 -0.0112372 -0.0121603 -0.0138327 -0.0165428 -0.0201074 -0.0240472 -0.0284097 -0.0329813 -0.0380535 -0.0437116 -0.0503248 -0.0580499 -0.0665968 -0.0757572 -0.0849192 -0.0940965 -0.102523 -0.10965 -0.115328 -0.119742 -0.123561 -0.126461 -0.127871 -0.127513 -0.126045 -0.124413 -0.123273 -0.122411 -0.121003 -0.118505 -0.114752 -0.110348 -0.105661 -0.100931 -0.0957471 -0.08977 -0.0824239 -0.0734288 -0.0627675 -0.0504749 -0.036703 -0.0215946 -0.00542658 0.0116998 0.0295596 0.0482848 0.0686883 0.0920734 0.119139 0.148616 0.176015 0.194588 0.198963 0.189682 0.174264 0.163379 0.163355 0.171951 0.181362 0.185722 0.185678 0.185511 0.187187 0.188813 0.188359 0.186246 0.184249 0.18276 0.181265 0.180424 0.181399 0.183613 0.184946 0.183727 0.179197 0.170684 0.157368 0.139537 0.118263 0.0949045 0.0711501 0.0490949 0.0298142 0.0127163 -0.00347694 -0.0197848 -0.0365763 -0.0528551 -0.0671112 -0.0782041 -0.0861475 -0.0918671 -0.0966328 -0.101623 -0.10691 -0.111556 -0.114332 -0.115288 -0.115551 -0.117256 -0.120977 -0.125359 -0.128025 -0.127827 -0.125811 -0.123491 -0.121618 -0.118966 -0.114574 -0.108244 -0.100941 -0.0930105 -0.0842014 -0.0748844 -0.0654641 -0.0570257 -0.0494732 -0.0428637 -0.03719 -0.0322675 -0.0279342 -0.0236418 -0.0197309 -0.0162438 -0.0136387 -0.0120751 -0.01134 -0.011195 -0.0107595 -0.0097732 -0.00821898 -0.00631936 -0.00493561 -0.00417354 -0.00438164 -0.00469438 -0.00446952 -0.00384885 -0.00258858 -0.001974 -0.00229695 -0.00300508 -0.0038128 -0.0032801 -0.00219845 -0.00169177 -0.00188111 -0.00295569 -0.00322695 -0.00254381 -0.0020114 -0.00177272 -0.00201943 -0.00204565 -0.00159917 -0.00127083 -0.00109472 -0.000953042 -0.000805658 -0.000617462 -0.000280807 0 0 
0 0 -0.000199346 -0.000425987 -0.00055829 -0.000699505 -0.000824475 -0.00105585 -0.00126833 -0.0013737 -0.00164506 -0.00169373 -0.00178901 -0.00217835 -0.00196231 -0.0021119 -0.00213599 -0.00165608 -0.00216403 -0.00209511 -0.00209528 -0.00239813 -0.0016748 -0.00186518 -0.00203543 -0.00231234 -0.00306618 -0.0029495 -0.00308602 -0.00325973 -0.00368382 -0.00505689 -0.00610314 -0.00723438 -0.00786505 -0.00808443 -0.00872126 -0.00952671 -0.0112774 -0.0134085 -0.0159415 -0.0188773 -0.021697 -0.0251693 -0.0292259 -0.0344162 -0.0405625 -0.0475566 -0.0555211 -0.0634617 -0.0713494 -0.0785989 -0.0854011 -0.091493 -0.0963752 -0.10019 -0.103113 -0.105698 -0.107478 -0.107897 -0.106546 -0.103969 -0.101526 -0.0998621 -0.0991923 -0.098704 -0.098209 -0.0975242 -0.0972889 -0.0977738 -0.0990895 -0.10083 -0.102256 -0.102763 -0.101629 -0.0986217 -0.0933831 -0.0859957 -0.0762773 -0.0645358 -0.0509077 -0.0358695 -0.0193668 -0.000915999 0.0205034 0.0454419 0.0727956 0.0981858 0.115475 0.119693 0.111405 0.0978756 0.0890055 0.0904861 0.0997119 0.109121 0.113252 0.113246 0.113228 0.115254 0.11687 0.116373 0.114081 0.112127 0.110359 0.108334 0.106672 0.106738 0.107958 0.108295 0.106264 0.10152 0.0934856 0.0814312 0.0656052 0.0466862 0.0256165 0.00344722 -0.0177592 -0.0363868 -0.052107 -0.0656219 -0.0775005 -0.0882898 -0.0972813 -0.103273 -0.105296 -0.104337 -0.101875 -0.0997694 -0.0989175 -0.0990776 -0.0990157 -0.0976982 -0.0955247 -0.0938075 -0.0945486 -0.0979494 -0.102658 -0.105882 -0.106736 -0.105759 -0.104609 -0.103903 -0.102415 -0.0994213 -0.0949039 -0.0898909 -0.0843762 -0.077987 -0.0705746 -0.0624859 -0.0546884 -0.0468905 -0.039838 -0.0336094 -0.0285637 -0.0247281 -0.0212989 -0.0185588 -0.0157056 -0.0132945 -0.0111973 -0.00957626 -0.00889868 -0.00830162 -0.00799065 -0.00719061 -0.00590182 -0.00474384 -0.00340552 -0.00313038 -0.00313974 -0.00316632 -0.00339064 -0.00265325 -0.00232777 -0.00207427 -0.00183498 -0.00251851 -0.00224301 -0.00224917 -0.00231789 -0.00179743 -0.00226715 -0.00222716 -0.00206676 -0.00226402 -0.0018591 -0.00175635 -0.00169832 -0.00141587 -0.00130435 -0.00109369 -0.000863828 -0.000745319 -0.000596338 -0.000282031 0 0 
0 0 -0.000199124 -0.00041845 -0.000540261 -0.000653139 -0.000768859 -0.00106155 -0.0012704 -0.00118695 -0.00133506 -0.00152128 -0.00195243 -0.0023506 -0.00135103 -0.00103166 -0.00163223 -0.00208196 -0.0030145 -0.00186287 -0.000446 -0.000710575 -0.00115646 -0.002878 -0.00315564 -0.00204978 -0.00141074 -0.000643666 -0.00178765 -0.00353133 -0.00462422 -0.00543712 -0.00481171 -0.00463062 -0.00510197 -0.00620089 -0.00839758 -0.0100883 -0.0117867 -0.0128616 -0.0139176 -0.0158676 -0.0185164 -0.0229213 -0.0281688 -0.034432 -0.0410553 -0.0476522 -0.0547315 -0.0614534 -0.0684066 -0.0749634 -0.0815032 -0.087515 -0.0920767 -0.0951625 -0.0964116 -0.0966685 -0.0953973 -0.0924863 -0.0878787 -0.0823676 -0.0774903 -0.0739065 -0.0720445 -0.0710201 -0.0707623 -0.0708038 -0.0718167 -0.0738703 -0.0772731 -0.0816794 -0.0863695 -0.0909259 -0.0944023 -0.0965445 -0.0965516 -0.0944653 -0.0897455 -0.082761 -0.073618 -0.0629123 -0.0506463 -0.0365406 -0.0197139 0.000337935 0.0224675 0.0428897 0.0560789 0.0577674 0.0485175 0.0350857 0.0262166 0.0270295 0.0346416 0.0423489 0.0450177 0.0442846 0.0438981 0.045686 0.0470821 0.0466943 0.0448016 0.0435189 0.0424622 0.0412714 0.0402783 0.041194 0.0432284 0.0446994 0.0441297 0.0415182 0.0363237 0.0280037 0.0167529 0.00316835 -0.0125796 -0.0300486 -0.0476389 -0.0636968 -0.0771681 -0.0876912 -0.0949742 -0.0995269 -0.1012 -0.100009 -0.0956877 -0.0899097 -0.0839835 -0.0795714 -0.0769942 -0.0755345 -0.0738992 -0.0712917 -0.0685395 -0.0667876 -0.0680754 -0.0723604 -0.0786059 -0.0840822 -0.0879511 -0.0904636 -0.0927175 -0.0950343 -0.095755 -0.0943763 -0.090609 -0.0859218 -0.0804828 -0.0743552 -0.0676702 -0.0605851 -0.0540542 -0.0471524 -0.0404699 -0.033732 -0.0275743 -0.0225094 -0.0181454 -0.015584 -0.0137735 -0.0128375 -0.0117529 -0.0100819 -0.00842622 -0.00622542 -0.00505334 -0.00450092 -0.00459971 -0.0051912 -0.00446634 -0.00353778 -0.00194851 -0.000905981 -0.00171264 -0.00233276 -0.00339628 -0.00307799 -0.00134569 -0.000865627 -0.00062034 -0.00201441 -0.00316007 -0.00222122 -0.00177637 -0.00116828 -0.00146113 -0.00244163 -0.00202937 -0.00159083 -0.00139507 -0.00123133 -0.00130919 -0.00110462 -0.000808418 -0.000693445 -0.000573463 -0.000277731 0 0 
0 0 -0.000195382 -0.000400789 -0.000515613 -0.000665134 -0.000779748 -0.00095676 -0.00108822 -0.00118362 -0.00153744 -0.00144543 -0.00129442 -0.00168662 -0.00151269 -0.0018272 -0.00177473 -0.000875255 -0.00140749 -0.00136403 -0.00146052 -0.00192017 -0.000945356 -0.00116708 -0.00132283 -0.00129556 -0.00215302 -0.00190246 -0.00214748 -0.00237459 -0.00250349 -0.00350912 -0.0039431 -0.00489227 -0.00568261 -0.00621973 -0.00742795 -0.0081431 -0.00961281 -0.0112394 -0.0132273 -0.0159923 -0.0189419 -0.0230754 -0.0276862 -0.0332208 -0.0395395 -0.0463028 -0.053975 -0.0616042 -0.0693601 -0.0764174 -0.0828522 -0.0881577 -0.091518 -0.0930895 -0.0925447 -0.0908988 -0.0876832 -0.0830116 -0.0766907 -0.0694909 -0.0627411 -0.0569674 -0.052762 -0.0492751 -0.0468008 -0.0447412 -0.0439383 -0.0445429 -0.046783 -0.0506563 -0.0556136 -0.0612654 -0.0667259 -0.0715682 -0.0746682 -0.0758778 -0.0744102 -0.0707295 -0.0648393 -0.0574697 -0.0486493 -0.0383284 -0.0257208 -0.0105382 0.00626301 0.0213798 0.0301943 0.0292108 0.0190643 0.00564986 -0.00361527 -0.00442818 0.000575812 0.00559678 0.00653033 0.00490187 0.00391123 0.00512026 0.00625064 0.00596518 0.00476648 0.00446132 0.00451813 0.00461689 0.0051345 0.00743625 0.0108575 0.0139401 0.0153792 0.01526 0.0131301 0.00858344 0.00181518 -0.00676967 -0.0173343 -0.0301858 -0.0443032 -0.0582871 -0.0704719 -0.0793869 -0.0835378 -0.0833234 -0.0792459 -0.0728925 -0.0651494 -0.0580017 -0.0522052 -0.0485102 -0.0467482 -0.0462648 -0.0459426 -0.0452971 -0.0449994 -0.045831 -0.0495707 -0.0558097 -0.0637253 -0.0709327 -0.0767101 -0.0811698 -0.085345 -0.0894293 -0.0919157 -0.0922897 -0.0900704 -0.0866112 -0.0818283 -0.0757563 -0.0685902 -0.0607682 -0.0533551 -0.0459306 -0.0390812 -0.0326891 -0.0271888 -0.0227359 -0.0186313 -0.0157532 -0.0131358 -0.0112403 -0.00955896 -0.00806735 -0.00727997 -0.0060527 -0.00545077 -0.00470333 -0.003794 -0.00342345 -0.00248817 -0.00245428 -0.00229521 -0.00209033 -0.00238356 -0.00153814 -0.00156635 -0.00139225 -0.0011536 -0.00207914 -0.00162827 -0.00153504 -0.00158455 -0.00104793 -0.00192645 -0.00196174 -0.00162657 -0.00178666 -0.00138218 -0.00151785 -0.00159625 -0.00123292 -0.00113523 -0.00100099 -0.000814863 -0.000708778 -0.000558584 -0.000256303 0 0 
0 0 -0.000189932 -0.000393749 -0.000510555 -0.000674115 -0.000784258 -0.00088754 -0.000969262 -0.00115661 -0.00159448 -0.00141607 -0.000976676 -0.00120134 -0.00143422 -0.0021825 -0.00195362 -0.000377958 -0.000370259 -0.000784937 -0.00185507 -0.00265455 -0.0011552 -0.000241183 0.000149341 -0.000555178 -0.00241892 -0.0028165 -0.00263928 -0.00173869 -0.00089202 -0.00180327 -0.00314675 -0.00513228 -0.00644034 -0.00659498 -0.00674023 -0.00666196 -0.00791981 -0.010159 -0.0132795 -0.0170306 -0.0203283 -0.0239931 -0.0277337 -0.0324649 -0.0385071 -0.0456702 -0.0542667 -0.0628991 -0.0714822 -0.0787612 -0.0847258 -0.0889821 -0.0911036 -0.091462 -0.0899461 -0.0874467 -0.0835792 -0.0783714 -0.071463 -0.0633905 -0.0552352 -0.0474266 -0.0406048 -0.0342825 -0.0288688 -0.0241296 -0.020819 -0.0190478 -0.0192616 -0.021439 -0.0252155 -0.0303177 -0.0358728 -0.0412556 -0.0452696 -0.047498 -0.0471482 -0.0447262 -0.0401226 -0.0341765 -0.0270422 -0.0187703 -0.00884988 0.00283016 0.0153818 0.0261887 0.031569 0.028925 0.0188666 0.00627128 -0.00296296 -0.00551257 -0.00337825 -0.0010499 -0.00170881 -0.0040622 -0.00554852 -0.00505046 -0.00432319 -0.00440333 -0.00481661 -0.00423409 -0.00305682 -0.00161505 0.000350201 0.00391716 0.00848956 0.0128113 0.0158442 0.0176248 0.0177158 0.0158607 0.0121731 0.00693082 -0.000315045 -0.0101621 -0.0221554 -0.0351586 -0.047147 -0.055821 -0.0588017 -0.0562545 -0.0492472 -0.0405328 -0.0320934 -0.025784 -0.0216722 -0.0196754 -0.0193998 -0.0204638 -0.022347 -0.0245641 -0.0275358 -0.0316653 -0.0381824 -0.0466102 -0.056093 -0.0645558 -0.0714282 -0.076832 -0.0816066 -0.0861641 -0.0892724 -0.0906045 -0.0897571 -0.0875322 -0.0836857 -0.0780185 -0.070667 -0.0620916 -0.053689 -0.0453341 -0.0381666 -0.0320678 -0.0273926 -0.0237355 -0.020094 -0.0168302 -0.013171 -0.0100966 -0.00776882 -0.00643028 -0.00641765 -0.00623128 -0.00610436 -0.00492293 -0.00311195 -0.00186192 -0.000995881 -0.00184191 -0.00274347 -0.00294494 -0.00261751 -0.000817145 -0.000128302 -0.000491591 -0.00136498 -0.00281721 -0.00202735 -0.000974129 -0.000557037 -0.000557576 -0.00210275 -0.00230977 -0.00155667 -0.00130915 -0.00106858 -0.00148942 -0.0016546 -0.00121317 -0.00102235 -0.000931404 -0.000820395 -0.000723424 -0.000554865 -0.000248907 0 0 
0 0 -0.000196209 -0.000413259 -0.000536658 -0.00064037 -0.000737726 -0.000928689 -0.00106699 -0.00104478 -0.0011446 -0.00126495 -0.00151362 -0.00163395 -0.00092831 -0.000764155 -0.00126789 -0.0016396 -0.00194185 -0.000853982 5.30424e-05 -0.000381679 -0.00100516 -0.00206684 -0.00185996 -0.000768299 -0.000316668 -0.000256283 -0.00146028 -0.00270801 -0.00318188 -0.00325682 -0.00261451 -0.00271627 -0.00367253 -0.00535858 -0.0075519 -0.00916646 -0.0105749 -0.0116054 -0.012945 -0.0153876 -0.0187849 -0.0237128 -0.0293169 -0.035674 -0.0422652 -0.0489234 -0.0559117 -0.0628011 -0.0698515 -0.0765102 -0.0826723 -0.0876725 -0.0908154 -0.0918856 -0.0905368 -0.0872882 -0.0820017 -0.0749096 -0.0662632 -0.0567154 -0.0472003 -0.0383161 -0.0305342 -0.0235418 -0.0174985 -0.0121903 -0.00801413 -0.00503666 -0.00351743 -0.00355924 -0.0049071 -0.00755828 -0.0107971 -0.0141451 -0.0165442 -0.0175318 -0.0165669 -0.013869 -0.00955387 -0.00424514 0.00185007 0.00853404 0.0161657 0.0246468 0.0332255 0.0399199 0.0421553 0.0382658 0.0289103 0.0175852 0.00858178 0.00430904 0.0034752 0.00310562 0.00114212 -0.00166454 -0.00359202 -0.00382424 -0.00356258 -0.00337467 -0.00304893 -0.00164567 0.000518311 0.00318101 0.0065589 0.0112432 0.0167166 0.0220885 0.0265604 0.0299586 0.0320067 0.0324545 0.0312604 0.0284619 0.0236068 0.0160413 0.00598393 -0.00568547 -0.0169326 -0.025293 -0.0283914 -0.0260887 -0.0198423 -0.0125306 -0.00639568 -0.00293058 -0.00167597 -0.0020965 -0.00348301 -0.00585294 -0.00892101 -0.0124184 -0.0165864 -0.0217243 -0.0288646 -0.0377998 -0.0478389 -0.0575272 -0.066219 -0.0737909 -0.0804937 -0.0861786 -0.0897929 -0.090982 -0.0895873 -0.0863844 -0.0816376 -0.0756774 -0.0690034 -0.0620033 -0.0553324 -0.0485592 -0.0419755 -0.0354179 -0.0291397 -0.0236035 -0.0186461 -0.0152402 -0.0128205 -0.0114373 -0.0103003 -0.00874628 -0.00707196 -0.00486824 -0.0033035 -0.00252889 -0.00261868 -0.00333957 -0.00326771 -0.00276637 -0.00151031 -0.000362279 -0.00051264 -0.0010209 -0.00210653 -0.00226988 -0.00119733 -0.000558399 -0.000135295 -0.00104356 -0.00210943 -0.00179911 -0.00141859 -0.000905555 -0.00105467 -0.00173812 -0.00160227 -0.00134279 -0.00121409 -0.00110578 -0.00111941 -0.000976685 -0.000786633 -0.000692356 -0.000562618 -0.000277039 0 0 
0 0 -0.000225762 -0.000482631 -0.000573047 -0.000628055 -0.000716383 -0.000924067 -0.00110834 -0.00106664 -0.000944563 -0.00105619 -0.00152018 -0.00178247 -0.00120774 -0.000512 -0.000566639 -0.00138149 -0.0021635 -0.00164955 -0.000381158 0.000314755 -7.67867e-05 -0.00139771 -0.0021994 -0.00181375 -0.00080283 4.04591e-05 -0.000286627 -0.00158901 -0.00304985 -0.00397399 -0.00390492 -0.00353592 -0.00359717 -0.00469562 -0.00685885 -0.00944977 -0.0119913 -0.0140205 -0.0156979 -0.0176299 -0.0203783 -0.0245369 -0.0300409 -0.036688 -0.0438994 -0.0511295 -0.0580739 -0.0644249 -0.0702176 -0.0754088 -0.0800129 -0.0837465 -0.0862384 -0.0871456 -0.0861637 -0.0832467 -0.0782685 -0.071327 -0.0627291 -0.0530364 -0.0429978 -0.0332758 -0.0243519 -0.0163239 -0.00932703 -0.00336614 0.00143238 0.00499678 0.00725219 0.00819293 0.00798819 0.00681471 0.0051371 0.00346303 0.00248697 0.00268514 0.00436242 0.00747535 0.0118193 0.0169722 0.0226502 0.0286269 0.0348997 0.0411826 0.0468112 0.050458 0.0506407 0.0465699 0.0388645 0.0296577 0.0215291 0.015983 0.0125932 0.0099642 0.00708021 0.00417477 0.00204534 0.00112882 0.000995755 0.00138142 0.00237718 0.00434503 0.00717198 0.0107586 0.0151603 0.0204499 0.0262873 0.0320736 0.0372396 0.0414775 0.0444894 0.0460639 0.0460087 0.0441247 0.0401029 0.0335868 0.0248732 0.014852 0.00522511 -0.00201581 -0.0052534 -0.00430166 -0.000366284 0.00448144 0.00844358 0.0105005 0.0107845 0.00972456 0.00774474 0.00487536 0.00116193 -0.00331729 -0.00871326 -0.0152669 -0.0234197 -0.0329753 -0.0433001 -0.0534197 -0.0626509 -0.0706443 -0.077285 -0.0823316 -0.0853623 -0.0862563 -0.0851833 -0.0826475 -0.0790103 -0.0745137 -0.0693663 -0.0636539 -0.0574645 -0.0507049 -0.0436051 -0.0365153 -0.0299753 -0.0245359 -0.0203484 -0.0175382 -0.0155234 -0.0137311 -0.0115731 -0.00891842 -0.00630169 -0.00419239 -0.00324842 -0.00336444 -0.00388181 -0.00400617 -0.00307542 -0.00159867 -0.000314501 -5.33803e-05 -0.000966905 -0.00201799 -0.00240125 -0.00158516 -0.000268155 0.000126692 -0.000567848 -0.0018244 -0.00232234 -0.00153659 -0.000720933 -0.000655179 -0.00133023 -0.00188508 -0.00161166 -0.0011415 -0.00101951 -0.00112763 -0.00116216 -0.000981363 -0.000779787 -0.000690221 -0.000622935 -0.000316151 0 0 
0 0 -0.000238731 -0.000506748 -0.000607513 -0.000629964 -0.000675384 -0.000884674 -0.00115275 -0.00116658 -0.000899867 -0.000811334 -0.00127822 -0.0018552 -0.001675 -0.00077115 -0.00015023 -0.000624983 -0.00177366 -0.00221694 -0.00139132 -4.74973e-05 0.000570858 -0.000163612 -0.00151532 -0.00227362 -0.00188891 -0.000791992 -5.31306e-05 -0.0004453 -0.00190635 -0.00369421 -0.00487744 -0.00522326 -0.00510644 -0.00537101 -0.00665547 -0.00904915 -0.0121972 -0.0154538 -0.0183375 -0.0208502 -0.023415 -0.0266827 -0.0311443 -0.0369618 -0.0438897 -0.0513469 -0.0586903 -0.0653359 -0.0709201 -0.0753249 -0.078585 -0.0807362 -0.0817555 -0.0816044 -0.0801296 -0.0772071 -0.0726919 -0.0664856 -0.0587303 -0.0497604 -0.0400458 -0.0301934 -0.0206265 -0.0116967 -0.00365277 0.00335864 0.00918068 0.0137078 0.0169076 0.0187973 0.0195419 0.0193609 0.0186558 0.0178921 0.0176459 0.0183224 0.0201872 0.0232579 0.0273128 0.0320682 0.037156 0.042334 0.0473582 0.0519379 0.0554846 0.0571347 0.0560584 0.0518721 0.0451207 0.03712 0.0294522 0.0231417 0.0182234 0.0141165 0.0104138 0.00716909 0.00477321 0.00343363 0.00309282 0.00360191 0.00501224 0.00743408 0.0108268 0.0150913 0.0202134 0.026002 0.0321993 0.0383472 0.0440015 0.0488364 0.0525649 0.0549167 0.0556306 0.0544335 0.0510868 0.0454637 0.0379046 0.0293821 0.0212733 0.0152279 0.0123142 0.0126321 0.0152224 0.0185222 0.0211515 0.0223319 0.0219988 0.0204003 0.0177466 0.0140511 0.00933057 0.00356796 -0.00321273 -0.0111009 -0.0201423 -0.0300589 -0.0402337 -0.0499663 -0.0586729 -0.0660704 -0.0720332 -0.0764866 -0.0793841 -0.0807869 -0.0808388 -0.0797623 -0.0776359 -0.0744142 -0.0700608 -0.0645524 -0.0580506 -0.0508767 -0.0435953 -0.0368479 -0.031174 -0.0267994 -0.0234973 -0.0208158 -0.0181285 -0.0150585 -0.0116462 -0.00840827 -0.00603102 -0.00485594 -0.00477469 -0.00506492 -0.00483543 -0.00368542 -0.00188308 -0.000414842 -5.39469e-05 -0.00087635 -0.00203472 -0.00245914 -0.00169703 -0.000350291 0.000385784 -0.00024175 -0.0015695 -0.00238617 -0.00192904 -0.000780084 -0.000310175 -0.000914428 -0.00179354 -0.0019545 -0.00137288 -0.000902444 -0.000977774 -0.00122686 -0.00120609 -0.000948537 -0.000750617 -0.00069722 -0.000645848 -0.000343744 0 0 
0 0 -0.00023722 -0.000519892 -0.000643063 -0.000653711 -0.000637329 -0.000801338 -0.00114784 -0.00131451 -0.00103473 -0.000672082 -0.000885295 -0.00165275 -0.00205528 -0.00142812 -0.000316703 4.58914e-05 -0.000839 -0.00202452 -0.00222033 -0.00113712 0.000270324 0.000707138 -0.000186236 -0.00162751 -0.00245159 -0.00211178 -0.00108072 -0.000414017 -0.000921418 -0.00259866 -0.00471371 -0.00640618 -0.00725102 -0.00755746 -0.0080628 -0.0094504 -0.0120144 -0.0155259 -0.0194092 -0.0231352 -0.0265235 -0.0297989 -0.0334569 -0.037969 -0.0435698 -0.050098 -0.0571082 -0.0639178 -0.0698953 -0.0745285 -0.0775815 -0.0789849 -0.0788434 -0.0773504 -0.074648 -0.0708585 -0.065975 -0.0600101 -0.0529873 -0.0450045 -0.0363367 -0.0272664 -0.0181339 -0.00919826 -0.000734654 0.00700177 0.0138492 0.0196028 0.0241464 0.0274345 0.0295338 0.0306328 0.0310239 0.0311283 0.0314095 0.0322925 0.0339897 0.0365709 0.0399141 0.0437368 0.047748 0.0516202 0.0551298 0.0578904 0.0595226 0.0594431 0.0571714 0.0525656 0.0460094 0.0383626 0.0306793 0.0237188 0.0177266 0.0125631 0.008091 0.00438313 0.00162954 3.84938e-06 -0.000496823 0.000121222 0.0018328 0.00468466 0.00858471 0.0134664 0.0191929 0.0255513 0.0322687 0.0389562 0.0452403 0.0508248 0.0553968 0.0587049 0.060428 0.0602397 0.0579635 0.0535405 0.0474624 0.0405929 0.0342067 0.0295329 0.0273365 0.027577 0.0293982 0.0315865 0.0330293 0.0331247 0.0317578 0.0290813 0.0252197 0.0202626 0.01426 0.00732094 -0.000412751 -0.00886899 -0.0179234 -0.0272825 -0.0365169 -0.0451834 -0.0529732 -0.0597608 -0.0655356 -0.0703046 -0.0740196 -0.0766378 -0.0780477 -0.0781239 -0.076688 -0.073634 -0.0690229 -0.0631122 -0.0564197 -0.0495905 -0.0432655 -0.0378889 -0.0335693 -0.0300142 -0.0267076 -0.0231438 -0.0191663 -0.0150241 -0.0113271 -0.00869393 -0.00736466 -0.0070259 -0.00693147 -0.00626535 -0.00466876 -0.00256711 -0.000867036 -0.000363885 -0.00108037 -0.00220622 -0.00260953 -0.00182406 -0.000377836 0.000518431 8.00575e-05 -0.00132687 -0.00240261 -0.00219416 -0.000999152 -0.000115307 -0.0004746 -0.00156722 -0.00216684 -0.00174889 -0.000981607 -0.000765711 -0.00111472 -0.00137389 -0.00119891 -0.000867104 -0.000721119 -0.000728314 -0.000675468 -0.000363643 0 0 
0 0 -0.000222682 -0.000518145 -0.000670729 -0.000703966 -0.000635552 -0.000695927 -0.00104936 -0.00141989 -0.00131607 -0.000782187 -0.000553087 -0.00114365 -0.00202704 -0.00211233 -0.00109096 6.16863e-05 0.00011272 -0.00102768 -0.00220184 -0.002194 -0.000927216 0.000486306 0.000809244 -0.000252258 -0.00185214 -0.00287275 -0.00273384 -0.00185985 -0.00131327 -0.00192771 -0.00380609 -0.00631858 -0.00858285 -0.0100644 -0.01085 -0.0115346 -0.0128887 -0.0153798 -0.0189944 -0.023299 -0.0277675 -0.0320208 -0.0360033 -0.0399553 -0.0442554 -0.0491714 -0.0547236 -0.0606397 -0.0663925 -0.0713601 -0.074964 -0.0768102 -0.0767405 -0.0748416 -0.0713223 -0.0664737 -0.0605886 -0.053916 -0.0466296 -0.0389117 -0.0309003 -0.0227494 -0.0145674 -0.00646339 0.00142076 0.00896646 0.0160175 0.0224077 0.0279718 0.032585 0.0362179 0.0388922 0.0407863 0.0421825 0.0434479 0.0448937 0.0467528 0.0490806 0.0517833 0.0546713 0.0574333 0.0598167 0.0615629 0.0624014 0.0620457 0.0601514 0.0564436 0.0508724 0.0437716 0.0357306 0.0274895 0.0196677 0.0126116 0.0064074 0.00111649 -0.00321019 -0.00638482 -0.00832843 -0.00894684 -0.00823699 -0.00620723 -0.00293152 0.00157855 0.00715865 0.0136716 0.0208532 0.0284042 0.0359794 0.0432614 0.0499594 0.0557987 0.0604435 0.063553 0.0647716 0.0639025 0.0609911 0.0564598 0.0511911 0.0462663 0.0426811 0.0409456 0.0408864 0.0417746 0.0425991 0.0425152 0.0410914 0.0382905 0.0342678 0.0292181 0.0232796 0.0166087 0.00935301 0.00167633 -0.00630978 -0.0145446 -0.0228919 -0.0311467 -0.0391293 -0.046698 -0.0537877 -0.0603053 -0.066056 -0.0708032 -0.0742339 -0.0760527 -0.0760472 -0.074144 -0.0704977 -0.0655239 -0.0598047 -0.0540007 -0.0486356 -0.043956 -0.0399209 -0.0361979 -0.0323532 -0.0280587 -0.0233759 -0.018735 -0.0147927 -0.0120649 -0.0106528 -0.01006 -0.00950502 -0.00826048 -0.00619142 -0.0037516 -0.00187171 -0.00121918 -0.00177928 -0.00272103 -0.0029718 -0.00202817 -0.000460814 0.000616233 0.000307172 -0.00109782 -0.00238032 -0.00238551 -0.00120316 -5.20398e-05 -9.45656e-05 -0.00124151 -0.00224407 -0.00213682 -0.00123845 -0.000646938 -0.000875438 -0.00139632 -0.00147941 -0.00109799 -0.000758613 -0.000723667 -0.000790069 -0.000706638 -0.000370186 0 0 
0 0 -0.000199438 -0.000497773 -0.000672585 -0.000768668 -0.000697977 -0.000625928 -0.000865121 -0.00137502 -0.0016051 -0.00116886 -0.000527529 -0.000576616 -0.00149751 -0.00234172 -0.0020519 -0.000726149 0.000374551 0.000150795 -0.0011714 -0.00231766 -0.00218319 -0.000827724 0.000561147 0.000748833 -0.000511319 -0.00239516 -0.00374533 -0.00393322 -0.00331144 -0.00285828 -0.00352441 -0.00554239 -0.00841341 -0.0112448 -0.0133445 -0.0145438 -0.0153151 -0.016436 -0.0186085 -0.0220455 -0.0265626 -0.0316271 -0.0366702 -0.041331 -0.0455618 -0.0495235 -0.0535187 -0.0577147 -0.062116 -0.0663771 -0.0700377 -0.0725185 -0.0733545 -0.0722814 -0.0692322 -0.06437 -0.0579888 -0.0505381 -0.0423877 -0.0339384 -0.0255051 -0.0172779 -0.00940138 -0.00187579 0.00530182 0.0121122 0.0186186 0.0247184 0.0303383 0.0354101 0.0398272 0.0435798 0.0467076 0.0493646 0.0517671 0.054151 0.0566272 0.0592507 0.0618903 0.0643197 0.0663185 0.0675849 0.0679509 0.067168 0.0651214 0.0615929 0.0564678 0.049758 0.0417283 0.032835 0.0236832 0.0148127 0.00665643 -0.000588973 -0.00678087 -0.0117941 -0.0154969 -0.0177597 -0.0185072 -0.0176823 -0.0153475 -0.0115553 -0.00639582 1.61753e-06 0.00742404 0.0155915 0.0242067 0.0328988 0.0413845 0.0493715 0.0565777 0.0626171 0.0671108 0.0696702 0.0700638 0.0683159 0.0649234 0.0606256 0.0564683 0.0532533 0.0513713 0.0506284 0.0503658 0.0498113 0.0483016 0.0456163 0.0418153 0.0371279 0.0317215 0.0257479 0.019329 0.0125459 0.00550893 -0.00184298 -0.00951841 -0.0175337 -0.0258366 -0.0342324 -0.0425363 -0.0505162 -0.0578204 -0.0640669 -0.0688162 -0.0717701 -0.0727592 -0.0718448 -0.069281 -0.0655642 -0.0612546 -0.0568677 -0.052759 -0.048962 -0.0452676 -0.0413383 -0.0369475 -0.0320506 -0.026952 -0.0221823 -0.0183443 -0.0157661 -0.0143567 -0.0135138 -0.0124468 -0.0106275 -0.00808579 -0.0054217 -0.00346621 -0.00276862 -0.00317028 -0.00380847 -0.00370803 -0.00248931 -0.000696885 0.000528851 0.000369673 -0.000989708 -0.0023396 -0.00250056 -0.00136079 -3.31702e-05 0.000212022 -0.000867197 -0.00218324 -0.00246377 -0.00160514 -0.000669629 -0.000614693 -0.0012562 -0.00168682 -0.00144007 -0.000913193 -0.000680743 -0.000783542 -0.000867647 -0.000724157 -0.000354656 0 0 
0 0 -0.000177337 -0.000462228 -0.000633632 -0.000817759 -0.000823418 -0.00065466 -0.000671782 -0.001145 -0.00171124 -0.00167219 -0.000936382 -0.000323844 -0.000703356 -0.00185627 -0.00256294 -0.00191791 -0.000368277 0.000645491 0.000178811 -0.00132964 -0.00252587 -0.00235258 -0.000990109 0.000296429 0.000321389 -0.00120662 -0.00346068 -0.00521665 -0.0057877 -0.0053996 -0.00499082 -0.00557512 -0.00757848 -0.0106525 -0.0138745 -0.0164122 -0.0179158 -0.0186868 -0.0195147 -0.0212398 -0.024369 -0.0289217 -0.0343881 -0.040097 -0.0454008 -0.0499384 -0.0536651 -0.05678 -0.0596067 -0.0622937 -0.0647968 -0.0668375 -0.0679945 -0.0678226 -0.0659675 -0.0622352 -0.0566725 -0.0495111 -0.0411508 -0.0320803 -0.0227662 -0.0136087 -0.00490532 0.00318785 0.0106024 0.0173997 0.0236132 0.0293256 0.0345425 0.0392859 0.0435535 0.0473343 0.0506856 0.0537143 0.0565735 0.059402 0.062292 0.0651901 0.0679156 0.0702458 0.0718619 0.072523 0.0720204 0.0702271 0.0670747 0.0624396 0.0563005 0.0486995 0.0398581 0.030186 0.0201966 0.0104067 0.00128253 -0.00685854 -0.0138402 -0.0194989 -0.0236554 -0.026216 -0.0270557 -0.0261618 -0.0235351 -0.0193166 -0.0135418 -0.00639865 0.0018517 0.01094 0.0204866 0.0301444 0.0396385 0.0486606 0.0569055 0.0639804 0.0694643 0.0729211 0.0740972 0.0730614 0.0702501 0.0664245 0.062557 0.0594219 0.057354 0.0561987 0.0553644 0.054202 0.0522312 0.0492838 0.04551 0.0410324 0.0360251 0.0304887 0.0244311 0.017886 0.0107915 0.00314465 -0.00513701 -0.0139794 -0.0232129 -0.0324828 -0.041419 -0.0495965 -0.0566075 -0.0620325 -0.0656408 -0.067385 -0.0674607 -0.06621 -0.0640813 -0.0615022 -0.0587542 -0.0559157 -0.0528838 -0.0493651 -0.045132 -0.0401679 -0.0347665 -0.0294652 -0.0248649 -0.0214388 -0.0192581 -0.0179454 -0.016831 -0.0152236 -0.0128426 -0.00994858 -0.00722326 -0.00545421 -0.00493624 -0.00527752 -0.0055938 -0.00502248 -0.00336791 -0.00125793 0.00014758 9.54336e-05 -0.00116636 -0.00248254 -0.00266293 -0.00149556 -1.51535e-05 0.000467388 -0.000512143 -0.00203257 -0.00267239 -0.00197529 -0.000814727 -0.000417648 -0.0010146 -0.0017499 -0.00179436 -0.00121868 -0.000722928 -0.000699367 -0.000897577 -0.000925193 -0.000710776 -0.000314022 0 0 
0 0 -0.00017016 -0.000425929 -0.00055629 -0.000814836 -0.000966738 -0.00081098 -0.000590549 -0.00080978 -0.00151131 -0.00200415 -0.00162323 -0.000649303 -0.000172527 -0.000881981 -0.00217321 -0.00269216 -0.0017417 -7.78139e-05 0.000814173 9.90095e-05 -0.00165048 -0.00296941 -0.00287 -0.00163526 -0.000497332 -0.000670276 -0.00243004 -0.00498526 -0.0070986 -0.00799262 -0.00776997 -0.00732175 -0.00768291 -0.00946311 -0.0123975 -0.0157149 -0.0184797 -0.0202277 -0.0211064 -0.0218227 -0.0232731 -0.0261644 -0.0306319 -0.0363101 -0.0424667 -0.0482968 -0.0531816 -0.056861 -0.0594084 -0.0610427 -0.0620916 -0.0626787 -0.0628139 -0.0622837 -0.0608047 -0.0580439 -0.0537651 -0.0479055 -0.0405653 -0.0320438 -0.0227254 -0.0130305 -0.00339326 0.00585104 0.014477 0.0223479 0.0294364 0.0357127 0.0411971 0.0459407 0.0499998 0.053413 0.0563278 0.0588701 0.0612269 0.0635436 0.065929 0.0683218 0.0705308 0.0722565 0.0732289 0.0731291 0.0717996 0.0691263 0.0650942 0.0596465 0.0527904 0.0445657 0.03516 0.0249078 0.0142885 0.00383241 -0.00596061 -0.0147601 -0.0223012 -0.0284299 -0.0329538 -0.0357327 -0.0366609 -0.0356858 -0.03286 -0.0282921 -0.0220765 -0.0143935 -0.00550632 0.00422953 0.0144619 0.0248066 0.0349925 0.0447369 0.0537275 0.0615713 0.0678224 0.0720448 0.0739859 0.0736591 0.0715552 0.0684202 0.0652092 0.0626626 0.0611498 0.0604842 0.0601177 0.0593939 0.057865 0.0553531 0.0519482 0.0477343 0.0427609 0.0369757 0.0303513 0.0228941 0.0146747 0.00576524 -0.00370303 -0.0134952 -0.0232805 -0.0325713 -0.0409677 -0.0481257 -0.0538132 -0.0579417 -0.0605651 -0.0619185 -0.0623303 -0.0620828 -0.0613867 -0.0602566 -0.0585408 -0.0559723 -0.0523681 -0.0477072 -0.0422217 -0.0364556 -0.0311301 -0.0268408 -0.0238887 -0.0221033 -0.0208731 -0.0194322 -0.0172752 -0.0143676 -0.0112151 -0.00864542 -0.00727796 -0.00719539 -0.00773004 -0.00786446 -0.00686285 -0.00472082 -0.00226363 -0.000670668 -0.000638786 -0.00181924 -0.0030263 -0.00308043 -0.00176516 -5.3683e-05 0.00063453 -0.000238356 -0.00186278 -0.00278387 -0.00227386 -0.00100222 -0.000294264 -0.00074388 -0.00169074 -0.002072 -0.00159483 -0.000893802 -0.000648393 -0.000846303 -0.0010219 -0.000919611 -0.000659866 -0.000258353 0 0 
0 0 -0.000189525 -0.000410723 -0.000467909 -0.000741707 -0.00105368 -0.00104781 -0.000709866 -0.000557632 -0.00106119 -0.00191345 -0.00220455 -0.00145614 -0.000332273 -5.9329e-05 -0.00107425 -0.00245888 -0.00278677 -0.00163872 2.16805e-05 0.000722267 -0.0002886 -0.00227449 -0.00379344 -0.00389976 -0.00287427 -0.00190448 -0.002155 -0.00393505 -0.00654893 -0.00884164 -0.00995087 -0.00984507 -0.00928152 -0.00931385 -0.0105572 -0.0130374 -0.0161466 -0.0190412 -0.0211845 -0.0225347 -0.0236398 -0.0252886 -0.0281452 -0.0324822 -0.038089 -0.0443332 -0.0503951 -0.0555513 -0.0593279 -0.0615622 -0.0623476 -0.0619562 -0.0606505 -0.0586793 -0.0560824 -0.0528421 -0.0487816 -0.0437298 -0.0375933 -0.0303773 -0.0221843 -0.0132154 -0.00377128 0.00583661 0.0152945 0.0243597 0.032792 0.0404618 0.0471958 0.0529659 0.057734 0.0615028 0.0644101 0.066625 0.0683782 0.0698744 0.0712703 0.0725373 0.0734996 0.0739347 0.0735312 0.0720342 0.0692883 0.0652715 0.0599958 0.0534312 0.045611 0.0365845 0.0264614 0.0155429 0.00427265 -0.00683317 -0.0172423 -0.0265995 -0.0346349 -0.0411568 -0.0459706 -0.0489299 -0.0499065 -0.0488976 -0.0459037 -0.0410535 -0.03444 -0.0262806 -0.0168367 -0.00649926 0.00436554 0.0153983 0.0263208 0.0368781 0.0467627 0.0556267 0.063024 0.0684596 0.0716773 0.0726945 0.0719335 0.070145 0.0682242 0.0669203 0.0665177 0.0668412 0.0672848 0.0671515 0.0659512 0.0634369 0.0596979 0.0547916 0.0488295 0.0418272 0.0338115 0.0249925 0.0155425 0.00575258 -0.00411885 -0.0137596 -0.0228467 -0.0310548 -0.038158 -0.0441201 -0.0489838 -0.0528713 -0.0559482 -0.058387 -0.0602064 -0.061362 -0.0616228 -0.0607304 -0.0584132 -0.0545924 -0.0495282 -0.0437067 -0.0378531 -0.0327038 -0.0287643 -0.0261186 -0.0243917 -0.0229182 -0.0209879 -0.01823 -0.014852 -0.0115618 -0.00922755 -0.00838528 -0.00881767 -0.00972478 -0.009936 -0.00873843 -0.00629953 -0.00362104 -0.0019236 -0.00184843 -0.0029832 -0.00407707 -0.00395135 -0.00238486 -0.00039529 0.000583748 -0.000142578 -0.00179284 -0.00290154 -0.00254878 -0.00117613 -0.000184543 -0.000457191 -0.00155067 -0.00226616 -0.00197141 -0.00114086 -0.000648079 -0.000777162 -0.00107972 -0.00108748 -0.000829331 -0.000585925 -0.000211011 0 0 
0 0 -0.000236775 -0.000435532 -0.000415668 -0.000618797 -0.00101773 -0.00124939 -0.00101414 -0.00057106 -0.000603368 -0.00138674 -0.00227059 -0.00227553 -0.00120232 -3.01234e-05 9.33463e-07 -0.00129716 -0.00277295 -0.00304125 -0.00184349 -0.000271693 0.000193956 -0.00104333 -0.00323796 -0.00500727 -0.00539251 -0.00457536 -0.00360813 -0.00362581 -0.00505575 -0.00741122 -0.00968991 -0.0109661 -0.0110457 -0.0104465 -0.0100418 -0.0106051 -0.0124164 -0.0152084 -0.0183368 -0.0212269 -0.0236366 -0.0257789 -0.0281353 -0.0312099 -0.035353 -0.0405003 -0.0462867 -0.0520605 -0.0571297 -0.0608585 -0.0628849 -0.0630688 -0.0615369 -0.0585878 -0.0545659 -0.0497765 -0.044441 -0.0386442 -0.0323981 -0.0256834 -0.0184524 -0.0106718 -0.00236134 0.00635908 0.015354 0.0244204 0.0333244 0.0418214 0.0497 0.0567392 0.0627718 0.0676646 0.0714733 0.0742849 0.076303 0.0777004 0.0786524 0.0791381 0.0790756 0.0782133 0.0763169 0.0731755 0.0687131 0.0629728 0.0560192 0.047924 0.0387026 0.0284378 0.0172049 0.00527417 -0.00695724 -0.0189414 -0.0301431 -0.0401987 -0.0488063 -0.0557793 -0.0609339 -0.0640934 -0.0651568 -0.0640645 -0.0608841 -0.0556892 -0.0486174 -0.0398775 -0.0297446 -0.0186129 -0.00688368 0.00509865 0.0170629 0.0287853 0.0399909 0.0503387 0.0593006 0.066434 0.0713773 0.0740917 0.0749245 0.0745684 0.0738772 0.0735189 0.0738257 0.0745588 0.0751222 0.0747661 0.0730113 0.0696341 0.0647638 0.058596 0.0513802 0.0432689 0.0344483 0.025147 0.0156756 0.00631665 -0.0027013 -0.011245 -0.0191888 -0.0264743 -0.0331332 -0.0392151 -0.0448365 -0.0499762 -0.054579 -0.0584081 -0.061172 -0.0624998 -0.0621462 -0.0599776 -0.056137 -0.0510309 -0.0453345 -0.0398148 -0.0350916 -0.031473 -0.0288526 -0.0267495 -0.0245214 -0.0217095 -0.0181871 -0.0143781 -0.0110541 -0.00901375 -0.00858209 -0.0094039 -0.0105128 -0.0108383 -0.00971678 -0.00736475 -0.00483701 -0.00329693 -0.00332272 -0.00446621 -0.00546687 -0.00518701 -0.00341671 -0.00116722 9.3188e-05 -0.000387195 -0.00198862 -0.00318852 -0.00290147 -0.00139959 -0.000107208 -0.000149841 -0.00132366 -0.00236908 -0.00233185 -0.0014385 -0.000674324 -0.00066047 -0.00109065 -0.00128773 -0.00103702 -0.000677492 -0.000524797 -0.000200387 0 0 
0 0 -0.000298331 -0.00050287 -0.000442771 -0.000506423 -0.000851556 -0.00128624 -0.00135496 -0.000900762 -0.000441143 -0.00070178 -0.00170479 -0.00254382 -0.00226277 -0.000943898 0.000185013 -6.77851e-05 -0.001647 -0.00329108 -0.00364911 -0.00252293 -0.00105833 -0.000701068 -0.00202663 -0.00434965 -0.0063155 -0.00691502 -0.00612743 -0.00486644 -0.00427419 -0.00501581 -0.00690994 -0.00911508 -0.0106718 -0.011126 -0.010635 -0.00995088 -0.00991298 -0.0111295 -0.0137064 -0.0172725 -0.0212937 -0.025279 -0.0289667 -0.0324262 -0.0358957 -0.0396902 -0.0439712 -0.0486666 -0.0534444 -0.0577422 -0.060958 -0.0625599 -0.0622333 -0.0599149 -0.0557599 -0.0501454 -0.0434701 -0.0361178 -0.0284441 -0.0206748 -0.0129258 -0.00520313 0.00253614 0.0103716 0.018318 0.0263774 0.0344587 0.0424643 0.0501689 0.0574107 0.063936 0.0695516 0.0741936 0.0778574 0.0806664 0.0827297 0.0841192 0.0847803 0.0845757 0.0832739 0.0806379 0.0765024 0.0708349 0.0637645 0.0554263 0.0459683 0.0354528 0.0239503 0.0115544 -0.00149438 -0.014784 -0.0277334 -0.0398254 -0.0506422 -0.0598849 -0.0673679 -0.0728655 -0.0762612 -0.0773835 -0.0762364 -0.0728207 -0.0672652 -0.0596644 -0.0502752 -0.0393768 -0.0273825 -0.014715 -0.00169788 0.0113785 0.0243117 0.0368288 0.0485455 0.0589397 0.0675099 0.0738101 0.0777377 0.0795504 0.0798684 0.0794939 0.0791586 0.0791768 0.079387 0.079304 0.0782228 0.0756794 0.0715305 0.0659596 0.0593071 0.0518959 0.0439799 0.0356941 0.0272238 0.0187524 0.010413 0.00224093 -0.00576867 -0.013707 -0.0215742 -0.0293397 -0.0368949 -0.0440812 -0.050559 -0.0559676 -0.0598945 -0.0619745 -0.0620517 -0.0602146 -0.0568065 -0.0523643 -0.0475281 -0.0429192 -0.0389138 -0.0355845 -0.0326849 -0.0297528 -0.0263437 -0.0222906 -0.0178316 -0.0135937 -0.0102722 -0.00847759 -0.00824466 -0.00905207 -0.00996488 -0.0100719 -0.00897723 -0.00699547 -0.00505178 -0.00412356 -0.00455724 -0.00582308 -0.00676517 -0.006376 -0.00454846 -0.00224726 -0.000863438 -0.00116393 -0.00263163 -0.00378804 -0.00345846 -0.00180557 -0.000191253 7.76781e-05 -0.00104901 -0.00236922 -0.00263692 -0.00177037 -0.000748555 -0.000495402 -0.000978073 -0.00143849 -0.00134212 -0.000871711 -0.000534793 -0.000517981 -0.000243751 0 0 
0 0 -0.000348765 -0.000591649 -0.000560153 -0.000478269 -0.000626831 -0.00110054 -0.00152638 -0.00138972 -0.00072975 -0.000296577 -0.000797022 -0.00199988 -0.00279171 -0.00227391 -0.000811536 0.00019688 -0.000377412 -0.00230348 -0.00417452 -0.00466572 -0.00358772 -0.00208852 -0.00160354 -0.00280293 -0.00506641 -0.00706615 -0.00765944 -0.00666564 -0.00486361 -0.00349446 -0.00348116 -0.00494722 -0.00722362 -0.00929087 -0.0103738 -0.0103287 -0.00968732 -0.00940071 -0.0102983 -0.0128831 -0.0170676 -0.0223628 -0.0280207 -0.0333718 -0.0380224 -0.041898 -0.0452323 -0.0483249 -0.0513953 -0.0544318 -0.0571795 -0.0591644 -0.0598911 -0.0589384 -0.0560642 -0.0512576 -0.0447489 -0.0368926 -0.0281274 -0.0189167 -0.00966363 -0.000614151 0.00809374 0.0163971 0.0243301 0.0319289 0.0392269 0.046213 0.0528644 0.0590877 0.0647571 0.0697467 0.0740315 0.0776053 0.0805376 0.0828737 0.0846079 0.0856274 0.085718 0.0845772 0.0819215 0.077585 0.0715422 0.063972 0.0550435 0.0449664 0.0338095 0.0216687 0.00860755 -0.00508899 -0.0190299 -0.0326319 -0.0453334 -0.0566756 -0.0663797 -0.0742015 -0.0799721 -0.0835251 -0.0846908 -0.0834847 -0.079906 -0.0740653 -0.0661028 -0.0562312 -0.0448052 -0.0322301 -0.0189529 -0.00530903 0.00840465 0.0220053 0.0352112 0.0476589 0.0587529 0.0679901 0.0748655 0.0792221 0.0812286 0.0814896 0.0808328 0.0800128 0.0794974 0.0792659 0.0788812 0.0777597 0.0754192 0.0717121 0.0668131 0.0610028 0.0546153 0.0477853 0.040552 0.0329094 0.0249032 0.016558 0.0078907 -0.00112375 -0.0104327 -0.0198745 -0.0291535 -0.0378661 -0.0455934 -0.0519244 -0.0565018 -0.0591343 -0.0597977 -0.0587723 -0.0564882 -0.0534778 -0.0502546 -0.0470964 -0.0440915 -0.0410387 -0.0376607 -0.0336122 -0.0288263 -0.0234814 -0.0181273 -0.0134833 -0.0101824 -0.00848566 -0.00814155 -0.0084781 -0.00862393 -0.00798249 -0.0065138 -0.00477506 -0.0035986 -0.00360626 -0.00479585 -0.00639821 -0.00734229 -0.00687145 -0.00509843 -0.00300819 -0.00185898 -0.00228142 -0.00370474 -0.00476596 -0.00430942 -0.00247641 -0.000550525 6.40984e-05 -0.000902438 -0.00235021 -0.00287558 -0.00208953 -0.000870509 -0.000341753 -0.000765302 -0.00144586 -0.00161007 -0.00118038 -0.000666448 -0.000489172 -0.000588273 -0.000333379 0 0 
0 0 -0.000362395 -0.000663236 -0.000729052 -0.000575571 -0.000471058 -0.000765621 -0.00138614 -0.00174002 -0.00133486 -0.000478442 -0.000134984 -0.000928756 -0.00235965 -0.00313089 -0.00246237 -0.000947503 -0.000108023 -0.00100075 -0.00321046 -0.00525382 -0.00572822 -0.00452831 -0.00275425 -0.00189859 -0.00268339 -0.00462826 -0.00639806 -0.00682959 -0.00558507 -0.00334509 -0.00142466 -0.000929295 -0.00221913 -0.00474107 -0.00749077 -0.00946442 -0.0102349 -0.0101365 -0.0100603 -0.0110224 -0.0138007 -0.0185656 -0.0248607 -0.0318305 -0.0384885 -0.0440874 -0.0482805 -0.0511264 -0.0529471 -0.0541513 -0.0549863 -0.0555314 -0.0555865 -0.0548494 -0.0529095 -0.0494959 -0.0444177 -0.0376908 -0.0295308 -0.0202433 -0.0102657 1.38e-05 0.0102091 0.0200603 0.0293456 0.0379549 0.0458054 0.0528799 0.0591115 0.0645165 0.0690836 0.0728043 0.0757989 0.0781365 0.0799954 0.0814443 0.08251 0.0829881 0.0826591 0.081182 0.0782304 0.0736201 0.0673322 0.0594974 0.0503296 0.0400662 0.0288028 0.0165613 0.00340204 -0.0104143 -0.0245125 -0.0382768 -0.0511522 -0.0626475 -0.0724766 -0.080413 -0.0862484 -0.0898474 -0.0910273 -0.0898056 -0.0861446 -0.0802096 -0.072112 -0.0620895 -0.0505121 -0.037796 -0.0244092 -0.0106705 0.00314592 0.0168722 0.0302308 0.0428534 0.0542121 0.0637595 0.0709908 0.075685 0.0780058 0.0785167 0.0780512 0.0774385 0.0772332 0.0775096 0.0779795 0.0779833 0.0770083 0.0747121 0.0711423 0.0664557 0.0608784 0.0544805 0.0472188 0.0390694 0.0300881 0.0203831 0.0101368 -0.000396938 -0.0109783 -0.0212114 -0.030643 -0.0388368 -0.0454904 -0.0504184 -0.0536173 -0.0552818 -0.0557135 -0.055297 -0.0544045 -0.0532344 -0.051782 -0.0498374 -0.0470705 -0.0431658 -0.0380864 -0.0320639 -0.0256878 -0.019716 -0.0148973 -0.011641 -0.00991986 -0.00914007 -0.00854884 -0.00742496 -0.00552579 -0.00321424 -0.00133696 -0.000658109 -0.0015209 -0.00350637 -0.00557745 -0.00659902 -0.00606618 -0.00437541 -0.00265643 -0.00206979 -0.00301749 -0.00473652 -0.0058584 -0.00534258 -0.00332871 -0.00115673 -0.000274653 -0.00106673 -0.00252748 -0.00317219 -0.00241757 -0.00101169 -0.000213348 -0.000525473 -0.00135558 -0.00177314 -0.00146114 -0.000865386 -0.000544111 -0.00059378 -0.000718847 -0.000433826 0 0 
0 0 -0.000328861 -0.000680974 -0.000871811 -0.000772278 -0.000494143 -0.000465698 -0.000973525 -0.00169487 -0.00188099 -0.00117789 -0.000201946 -5.5427e-05 -0.00121289 -0.00288397 -0.00367164 -0.00291526 -0.00139449 -0.000682003 -0.00167838 -0.00392983 -0.00585341 -0.00610975 -0.00457428 -0.00235907 -0.000917289 -0.00104401 -0.00240906 -0.00384992 -0.00423567 -0.00307621 -0.000948106 0.0009642 0.00148498 0.000158123 -0.00270047 -0.00611524 -0.00906852 -0.0109563 -0.0118567 -0.0125177 -0.0139432 -0.0170086 -0.0220337 -0.028701 -0.0361842 -0.0434127 -0.0494822 -0.0538402 -0.0562831 -0.0570603 -0.0565536 -0.0551698 -0.0532385 -0.0509118 -0.0481301 -0.0447155 -0.0404311 -0.0350386 -0.0283925 -0.0205082 -0.0115077 -0.00161556 0.00886099 0.0195523 0.030099 0.0402015 0.0495634 0.0579411 0.0651408 0.0710512 0.0756397 0.0789632 0.0811765 0.0824843 0.0830975 0.083212 0.0828732 0.0819868 0.0803467 0.0775778 0.0734308 0.0677104 0.0604178 0.0517161 0.0418542 0.0310535 0.0194314 0.00694684 -0.00634135 -0.0202497 -0.0343932 -0.0482184 -0.0611237 -0.0726425 -0.0824549 -0.0903788 -0.0962083 -0.099778 -0.100939 -0.0996895 -0.0960338 -0.0900959 -0.0819835 -0.0719516 -0.0603531 -0.0476496 -0.0342546 -0.0205111 -0.0066315 0.00721508 0.0208483 0.0338983 0.0458735 0.0562169 0.0644176 0.0702176 0.073714 0.0754045 0.0760984 0.0765774 0.0774787 0.0789295 0.0806292 0.0819164 0.0821188 0.0807593 0.0776899 0.0730006 0.0669054 0.0595528 0.051031 0.0414513 0.0310215 0.0200661 0.00896363 -0.00187902 -0.0121142 -0.0214222 -0.0295421 -0.0363146 -0.0417096 -0.0458997 -0.0491051 -0.0516155 -0.053599 -0.0551488 -0.0561318 -0.0562427 -0.0551637 -0.0525443 -0.0482548 -0.0424725 -0.0357848 -0.028954 -0.0228892 -0.018192 -0.0150549 -0.0131323 -0.0116684 -0.00987025 -0.00723286 -0.00386851 -0.000478369 0.00194927 0.0026063 0.0014032 -0.000963225 -0.00323633 -0.00425839 -0.00364189 -0.00203877 -0.000720254 -0.000783351 -0.00245743 -0.00479265 -0.00632003 -0.00597856 -0.00400347 -0.00175276 -0.00079308 -0.00151538 -0.00300821 -0.00371387 -0.00289838 -0.00124523 -0.000121199 -0.000278475 -0.0012289 -0.0019 -0.00171288 -0.00103248 -0.000571674 -0.000601658 -0.000824269 -0.00085412 -0.000496499 0 0 
0 0 -0.000263091 -0.000634324 -0.000911222 -0.000974847 -0.000714578 -0.000397922 -0.0005176 -0.00122381 -0.00197333 -0.00196005 -0.00103028 -4.84479e-05 -0.000180911 -0.00170298 -0.00359859 -0.00439093 -0.00352708 -0.00188516 -0.000981923 -0.00171627 -0.00356917 -0.00511461 -0.00503819 -0.00316295 -0.000473974 0.00163666 0.0022658 0.00148044 0.000135389 -0.000632224 -0.000246224 0.00103571 0.00231515 0.00258262 0.00117785 -0.00180294 -0.00566304 -0.00949547 -0.0126251 -0.0149006 -0.0167719 -0.0190335 -0.0224265 -0.0273308 -0.0335899 -0.040599 -0.0474955 -0.0533991 -0.0576216 -0.0598053 -0.0598816 -0.0581318 -0.0549201 -0.0507491 -0.0459726 -0.0408679 -0.0354997 -0.0297874 -0.0236248 -0.0167904 -0.00919989 -0.00074282 0.00848116 0.0183458 0.0286014 0.0389032 0.048928 0.0583119 0.0666618 0.0737254 0.0793541 0.0834652 0.0861819 0.0876718 0.0881548 0.0878195 0.0867742 0.0849132 0.0820521 0.0779298 0.0723123 0.0650871 0.0563085 0.046202 0.0350459 0.0231238 0.0105795 -0.0026377 -0.0164993 -0.0308659 -0.0454044 -0.0595229 -0.0726732 -0.0843616 -0.0943106 -0.102294 -0.108165 -0.11175 -0.112898 -0.111633 -0.107925 -0.101897 -0.0936909 -0.0835151 -0.0717604 -0.0588535 -0.0452257 -0.0311472 -0.0168355 -0.00239321 0.0120081 0.0260203 0.0391798 0.0508808 0.0606004 0.0680265 0.0731373 0.0763306 0.0782769 0.0797242 0.0813119 0.0832059 0.0851918 0.0866154 0.0867549 0.0850608 0.0813381 0.0756781 0.0684338 0.059922 0.050431 0.0402485 0.0296853 0.0190667 0.00879008 -0.000825617 -0.00964533 -0.0175945 -0.0247324 -0.0311252 -0.0369359 -0.0422789 -0.0472238 -0.0517186 -0.0555433 -0.0583394 -0.0596504 -0.0591359 -0.0565876 -0.052162 -0.0462938 -0.0397064 -0.0332505 -0.0276675 -0.0233602 -0.0202807 -0.0179149 -0.015512 -0.0124005 -0.00833361 -0.00369565 0.000636069 0.00365474 0.00466859 0.00373339 0.00172456 -0.000107037 -0.000725742 0.000114878 0.00170045 0.00268898 0.00208304 -0.000185601 -0.0031045 -0.00516081 -0.00527748 -0.0036803 -0.00175451 -0.000993407 -0.00191653 -0.00358645 -0.00444998 -0.00362631 -0.00170739 -0.000190657 -8.991e-05 -0.00109489 -0.00201887 -0.00200696 -0.00124271 -0.000559708 -0.000491539 -0.000842245 -0.00107522 -0.000925821 -0.000486437 0 0 
0 0 -0.000202482 -0.000551637 -0.000819036 -0.00107041 -0.00103036 -0.000641586 -0.000313223 -0.00059232 -0.00149148 -0.00227346 -0.00211778 -0.00104526 -0.000111658 -0.000479866 -0.00227355 -0.0042686 -0.00493387 -0.00378358 -0.00165492 -0.000145679 -0.000187143 -0.00140432 -0.00252879 -0.00225961 -0.000254725 0.00274134 0.00538255 0.00659674 0.00605015 0.00438367 0.00263139 0.00160684 0.00148743 0.00180656 0.00170239 0.000433501 -0.00229032 -0.00620639 -0.0106682 -0.0150546 -0.0189642 -0.0224511 -0.0258582 -0.0296361 -0.0341062 -0.0393041 -0.0449819 -0.0506366 -0.0555836 -0.0592029 -0.0609726 -0.0605958 -0.0581005 -0.0537325 -0.0479365 -0.0411755 -0.0338995 -0.0263699 -0.0187952 -0.0111883 -0.00352825 0.00434127 0.0125106 0.0210225 0.0298508 0.03887 0.047885 0.0565954 0.0646875 0.0718465 0.0778658 0.0826055 0.086075 0.0883797 0.0896277 0.0899263 0.0892916 0.0876077 0.0846707 0.0801969 0.073977 0.0659446 0.056209 0.0450726 0.0329039 0.0200292 0.00661241 -0.00735672 -0.0218709 -0.0368212 -0.0518256 -0.0663895 -0.0798871 -0.0918733 -0.102029 -0.110176 -0.116137 -0.119764 -0.120918 -0.119584 -0.115811 -0.109654 -0.10125 -0.0908578 -0.0788229 -0.0656076 -0.0515878 -0.0370917 -0.0222353 -0.00713846 0.00804668 0.0229529 0.0371175 0.0499214 0.0607667 0.0692827 0.0753351 0.0792074 0.0814535 0.0827744 0.0838628 0.0850214 0.0861459 0.086735 0.0861734 0.083909 0.0797363 0.0737874 0.0664615 0.0582027 0.0493894 0.0402867 0.0310808 0.0219451 0.0130482 0.00447155 -0.00379214 -0.0118364 -0.0198054 -0.0276935 -0.0354273 -0.0427736 -0.0494202 -0.0549667 -0.0589695 -0.0610379 -0.0609461 -0.0587039 -0.0546852 -0.0494953 -0.0438602 -0.0385052 -0.033892 -0.0301148 -0.0269282 -0.0238048 -0.0201658 -0.0156917 -0.0104317 -0.00501119 -0.000251802 0.00299957 0.00437719 0.00416158 0.00319881 0.0025595 0.00295487 0.00437075 0.00604232 0.0068031 0.00584433 0.00329309 0.0002136 -0.0020268 -0.00251705 -0.00150886 -0.000267223 -0.000152903 -0.00160434 -0.00374123 -0.00493172 -0.00430104 -0.0023077 -0.000492077 -0.00010731 -0.00105912 -0.00216537 -0.00234187 -0.00155295 -0.000629676 -0.000345975 -0.00070987 -0.00115365 -0.00121223 -0.000894317 -0.00040612 0 0 
0 0 -0.000189105 -0.000491678 -0.000645209 -0.00099567 -0.00126547 -0.00109161 -0.000536704 -0.00021234 -0.000711203 -0.00186605 -0.00273177 -0.00245154 -0.00121117 -0.000222925 -0.000659303 -0.002476 -0.00429194 -0.00456869 -0.00278404 0.00014271 0.00253904 0.00331452 0.0026192 0.00165365 0.00176482 0.00353783 0.0064395 0.0092159 0.0105411 0.00983878 0.00746036 0.00438866 0.00172749 0.000105319 -0.000569131 -0.000956887 -0.00188518 -0.00407155 -0.0077036 -0.0125658 -0.0181104 -0.0237572 -0.029077 -0.0338464 -0.0380994 -0.0420053 -0.0457631 -0.0494657 -0.0530568 -0.0562089 -0.0584723 -0.0593511 -0.0584322 -0.055519 -0.050636 -0.0440651 -0.0361441 -0.0273108 -0.0179835 -0.00850231 0.000871442 0.0100023 0.0188083 0.0273101 0.0355296 0.0434182 0.0509464 0.0580412 0.0644848 0.0701817 0.0749918 0.0788792 0.0818704 0.084049 0.0854712 0.086162 0.0860706 0.0849596 0.0825429 0.0785094 0.0725829 0.0647362 0.0550549 0.043879 0.0316256 0.0186297 0.00511585 -0.00890757 -0.0234641 -0.0384248 -0.0534685 -0.0680673 -0.0816083 -0.093642 -0.103813 -0.111963 -0.117902 -0.121525 -0.122659 -0.121312 -0.117484 -0.111292 -0.102846 -0.0924313 -0.0803907 -0.0671808 -0.0531849 -0.0386894 -0.0238278 -0.00868472 0.00656841 0.0215914 0.0358912 0.0488329 0.0598143 0.0684317 0.0744762 0.0781585 0.0799515 0.080589 0.0808044 0.0810495 0.0814863 0.0817834 0.0813816 0.0797729 0.0766556 0.0720694 0.0662618 0.0596538 0.0524595 0.0448666 0.0368677 0.0284197 0.019579 0.010371 0.000839158 -0.00894714 -0.0188362 -0.0285494 -0.0376907 -0.0457779 -0.0523243 -0.0569869 -0.059539 -0.0600171 -0.0586473 -0.0559006 -0.0523144 -0.0484723 -0.0447732 -0.0413559 -0.038059 -0.0345295 -0.030347 -0.025279 -0.0194294 -0.0132614 -0.00749693 -0.00288131 0.000157671 0.0016596 0.00221579 0.00265513 0.00369226 0.00560993 0.00798809 0.00993485 0.0105371 0.0093937 0.00689356 0.00416435 0.00237511 0.00205795 0.00275937 0.00328212 0.00247497 0.000144301 -0.00270689 -0.00447594 -0.00424562 -0.00249302 -0.000704435 -0.000249632 -0.001207 -0.00244705 -0.00276241 -0.00194212 -0.000804239 -0.000282437 -0.000575344 -0.00113419 -0.00136155 -0.00115128 -0.000780457 -0.000301656 0 0 
0 0 -0.000246128 -0.000513005 -0.000501306 -0.000790843 -0.0012763 -0.00149605 -0.00110781 -0.000396632 -0.000172943 -0.000981637 -0.00241644 -0.0033103 -0.00278442 -0.00119333 9.29608e-05 -6.8653e-05 -0.00151403 -0.00283463 -0.00244494 8.87728e-05 0.00376879 0.00689249 0.00819259 0.00768009 0.00650033 0.00605668 0.00713696 0.0094587 0.0118182 0.0128376 0.0117299 0.00859829 0.00438279 0.000329414 -0.00262888 -0.00421239 -0.00487167 -0.0055216 -0.00714706 -0.0104214 -0.0154946 -0.0220021 -0.0291927 -0.0361814 -0.0422592 -0.0469848 -0.0503294 -0.0525429 -0.0539845 -0.0549648 -0.0555745 -0.0556677 -0.0549334 -0.0530317 -0.0496508 -0.0446378 -0.0379929 -0.0298008 -0.020362 -0.0100479 0.000727845 0.0115798 0.0221469 0.032162 0.0414577 0.0498531 0.0572551 0.0635924 0.068813 0.0729013 0.075931 0.0779998 0.0792965 0.0800001 0.080238 0.080028 0.0792848 0.0777897 0.0751855 0.0711181 0.0653102 0.0576278 0.0481804 0.0373097 0.0254309 0.0128851 -8.87085e-05 -0.0135244 -0.0274521 -0.0418044 -0.0562877 -0.0703755 -0.0834837 -0.095122 -0.104954 -0.112823 -0.118543 -0.122007 -0.123082 -0.121746 -0.118022 -0.11199 -0.103801 -0.0937188 -0.0820959 -0.0693812 -0.0559384 -0.0420413 -0.027807 -0.0132737 0.00139795 0.0158855 0.0297294 0.0423148 0.0530833 0.0616039 0.0676788 0.0714209 0.0732928 0.0740029 0.074305 0.0748237 0.0758058 0.0770776 0.0781425 0.0783798 0.077298 0.0746761 0.0705805 0.0652086 0.0587682 0.051314 0.0428718 0.0334276 0.0231319 0.0121855 0.000920841 -0.010286 -0.0210305 -0.0309054 -0.0394751 -0.0463904 -0.0514598 -0.0546814 -0.0562484 -0.0565316 -0.0559378 -0.054827 -0.0534105 -0.0517053 -0.0495063 -0.0465246 -0.0424338 -0.0370988 -0.0307027 -0.0237325 -0.0169766 -0.0112235 -0.00701216 -0.00439404 -0.00289466 -0.00164737 0.00015627 0.00295912 0.0065101 0.0100219 0.0124382 0.0130237 0.0117988 0.00954763 0.00749742 0.00665737 0.00716411 0.00818899 0.00844205 0.00692796 0.00371598 7.17794e-05 -0.00238667 -0.00274095 -0.00145718 -8.34255e-05 3.58105e-05 -0.00124357 -0.00279765 -0.00330703 -0.00244122 -0.00106008 -0.000287463 -0.00050044 -0.00116878 -0.00152887 -0.0013367 -0.000924735 -0.00066428 -0.000241925 0 0 
0 0 -0.000360607 -0.000638183 -0.000503532 -0.000592148 -0.00105467 -0.00161113 -0.00171021 -0.00111152 -0.000324466 -0.000264418 -0.00135091 -0.0029232 -0.00361822 -0.00259649 -0.000381721 0.0015615 0.00208329 0.00132568 0.000662206 0.00159918 0.00451727 0.00847276 0.0117848 0.0131719 0.0125358 0.0108753 0.00955375 0.00954294 0.0107755 0.0122963 0.0128091 0.011355 0.00786367 0.00303941 -0.00192963 -0.00595611 -0.00847047 -0.00969464 -0.0104515 -0.0118796 -0.0149354 -0.0200895 -0.0271199 -0.0352055 -0.0432299 -0.0501094 -0.0550846 -0.0578719 -0.0586919 -0.0579847 -0.0562797 -0.0539895 -0.0513521 -0.0483524 -0.0448537 -0.0406135 -0.0353518 -0.0288429 -0.0209784 -0.0118085 -0.00155182 0.00944141 0.0207688 0.0319966 0.0427291 0.05257 0.061189 0.0683685 0.0739415 0.0778884 0.0803006 0.081382 0.08141 0.0806576 0.0793391 0.0775579 0.0753014 0.0723571 0.0684555 0.0632323 0.0564424 0.0480003 0.0379739 0.0267433 0.0147013 0.00222479 -0.0105076 -0.0234902 -0.0368219 -0.0505296 -0.0643358 -0.0777981 -0.0903206 -0.101424 -0.11077 -0.118208 -0.123609 -0.126858 -0.127851 -0.126567 -0.122985 -0.117223 -0.109414 -0.0998151 -0.0887672 -0.0766883 -0.063943 -0.0507365 -0.0371224 -0.0231778 -0.00896043 0.00525554 0.0190116 0.031754 0.0429477 0.0521927 0.0592166 0.0641494 0.0672916 0.0692473 0.0707616 0.0724045 0.0745624 0.0770958 0.0795318 0.081134 0.0812584 0.0794701 0.0756625 0.0699954 0.0626903 0.0540299 0.0441709 0.0333714 0.0219433 0.0102858 -0.00110742 -0.011813 -0.0214443 -0.0297791 -0.0367331 -0.0423304 -0.0467226 -0.0501297 -0.0528238 -0.0550167 -0.0567922 -0.0579962 -0.058263 -0.0571899 -0.0544379 -0.0498529 -0.0436469 -0.036378 -0.0288814 -0.0220425 -0.016594 -0.0128158 -0.0104196 -0.00867035 -0.00661266 -0.00352378 0.000753015 0.0056357 0.0100546 0.0129183 0.0136684 0.0125699 0.0107421 0.00950979 0.00975604 0.0113576 0.0131633 0.0137265 0.012121 0.00856512 0.00446548 0.00152807 0.000652253 0.00137068 0.00212551 0.00155117 -0.00044196 -0.00266843 -0.00366942 -0.00295087 -0.00138587 -0.000337885 -0.000439995 -0.00123825 -0.00180536 -0.00165971 -0.00109126 -0.000679762 -0.000645216 -0.000280988 0 0 
0 0 -0.00048613 -0.000833881 -0.000701404 -0.000561837 -0.000753946 -0.00136457 -0.0019792 -0.00196921 -0.00118458 -0.000291404 -0.000260297 -0.00139734 -0.00280444 -0.00300185 -0.00122391 0.00190133 0.00478783 0.00616518 0.0060917 0.0057668 0.00664064 0.00923076 0.0127778 0.0157967 0.0170428 0.0162007 0.0139738 0.0116549 0.0102851 0.0101345 0.0105948 0.0105649 0.00903641 0.00565832 0.000768481 -0.00465634 -0.00954849 -0.0131295 -0.0153713 -0.016874 -0.0186522 -0.0217673 -0.0267716 -0.0335979 -0.0415247 -0.0494585 -0.0562142 -0.0609358 -0.0631504 -0.0628931 -0.0605271 -0.0565762 -0.0516572 -0.0462686 -0.0407198 -0.0351384 -0.0294359 -0.0233568 -0.0166612 -0.00911452 -0.000621214 0.00879013 0.0189034 0.0294473 0.0400286 0.0502224 0.0595828 0.0676935 0.0742876 0.0791828 0.0823999 0.0840481 0.0843665 0.0835875 0.0819086 0.079469 0.0762576 0.0721654 0.0669502 0.0603707 0.052192 0.0424044 0.0311724 0.0188506 0.00590004 -0.00725214 -0.0203957 -0.0335568 -0.0468756 -0.060404 -0.0739638 -0.0871493 -0.0993472 -0.110157 -0.119185 -0.126336 -0.131495 -0.13457 -0.135504 -0.134226 -0.13077 -0.125205 -0.117638 -0.108349 -0.0976361 -0.085923 -0.0734986 -0.0605645 -0.0471149 -0.0331554 -0.0187483 -0.00415951 0.010195 0.0238067 0.0361231 0.0467179 0.0553019 0.0618517 0.0665352 0.069815 0.0722928 0.0745392 0.076921 0.0794509 0.0817223 0.0830785 0.0828316 0.0804869 0.075923 0.0693233 0.0610906 0.0516614 0.0414724 0.0308734 0.0202153 0.00984755 6.86936e-05 -0.00888006 -0.0169078 -0.0241118 -0.0306705 -0.0367698 -0.0425675 -0.0480971 -0.0532323 -0.0577199 -0.0611575 -0.063004 -0.0628377 -0.0603888 -0.0557481 -0.0494167 -0.0421883 -0.0350291 -0.0287685 -0.0239204 -0.0204635 -0.0179224 -0.0154399 -0.0122299 -0.00784589 -0.00241376 0.00326596 0.00811615 0.0111835 0.0121676 0.0115492 0.0104855 0.0102403 0.0115082 0.0139899 0.016496 0.0175548 0.016341 0.0131693 0.00938104 0.0065904 0.00562789 0.00598173 0.00612341 0.00478216 0.00188494 -0.00128786 -0.00310277 -0.00290728 -0.00147692 -0.000317958 -0.000354665 -0.00128249 -0.00209961 -0.00210758 -0.00145229 -0.000795705 -0.00060463 -0.000782677 -0.000423025 0 0 
0 0 -0.000565724 -0.00102299 -0.00103725 -0.000788223 -0.000612561 -0.000931241 -0.00174503 -0.00243384 -0.00225907 -0.00114141 0.000103071 0.00040512 -0.000438323 -0.00136375 -0.000868934 0.00178715 0.00586919 0.00959681 0.011596 0.011725 0.0110722 0.0111708 0.0127844 0.0155051 0.0180809 0.0192161 0.0182349 0.0155485 0.0122283 0.00943699 0.00779575 0.0070909 0.00652004 0.00507544 0.00208995 -0.00245419 -0.0079737 -0.0135021 -0.0182472 -0.0219042 -0.0247215 -0.0274159 -0.030789 -0.0353428 -0.0411287 -0.0476816 -0.0541738 -0.059681 -0.0634398 -0.0649056 -0.0638858 -0.0605045 -0.0551965 -0.0485051 -0.0410045 -0.0331917 -0.0253934 -0.017739 -0.0101798 -0.002595 0.00515463 0.0132047 0.0215705 0.0302271 0.0389959 0.0476378 0.0558333 0.0632473 0.0696127 0.0747102 0.0784955 0.0809881 0.0822887 0.0825084 0.0817292 0.0799772 0.0772112 0.0732522 0.0679434 0.0610183 0.05232 0.0419014 0.029917 0.0168446 0.00316785 -0.0106239 -0.0242763 -0.0377568 -0.0512286 -0.0648109 -0.0783392 -0.0914482 -0.103574 -0.114256 -0.123159 -0.130146 -0.135176 -0.138147 -0.139036 -0.137769 -0.134361 -0.128864 -0.121424 -0.112261 -0.101692 -0.0901127 -0.077804 -0.0649058 -0.0513809 -0.0372304 -0.0224922 -0.00745887 0.00743137 0.021716 0.0347829 0.0462178 0.0556666 0.0629915 0.0682412 0.0717252 0.0739545 0.0754549 0.0767193 0.0779224 0.0789116 0.0792243 0.0782751 0.0756056 0.0710812 0.0648512 0.0573615 0.0490783 0.0404264 0.0316719 0.0229736 0.0144328 0.00606567 -0.00212472 -0.0102071 -0.0182995 -0.0264691 -0.0347089 -0.0427907 -0.0503349 -0.0568208 -0.0617248 -0.064589 -0.0650789 -0.0631897 -0.0592249 -0.0538438 -0.0478437 -0.0420315 -0.0370256 -0.0330086 -0.0297424 -0.0266435 -0.0230375 -0.018393 -0.0127114 -0.00642399 -0.000424033 0.00436568 0.00733566 0.00854818 0.00867064 0.00880567 0.00985861 0.0121994 0.0153121 0.0180668 0.0192949 0.0184282 0.0159844 0.013193 0.0113608 0.011017 0.011519 0.0113734 0.00944401 0.0057992 0.00174748 -0.000944917 -0.00148846 -0.000587885 0.000273246 1.44574e-05 -0.00120006 -0.0023306 -0.00254805 -0.00189223 -0.00106636 -0.00069138 -0.000816087 -0.00105297 -0.00061321 0 0 
0 0 -0.000565446 -0.00112743 -0.00136666 -0.00121514 -0.000806951 -0.000645822 -0.00117102 -0.00218357 -0.00280939 -0.00221792 -0.000440044 0.00148706 0.00238185 0.0020954 0.00174338 0.00286951 0.00616933 0.010767 0.0148532 0.0168891 0.0166115 0.0151384 0.0140782 0.0145178 0.0163638 0.0185594 0.0196368 0.0186696 0.0156504 0.0114579 0.00731212 0.00413389 0.0021543 0.000895331 -0.000570271 -0.00306458 -0.00701451 -0.0122077 -0.0180447 -0.0238019 -0.0289934 -0.0334458 -0.0373856 -0.0411208 -0.0449758 -0.0490378 -0.0532037 -0.057081 -0.0602714 -0.0622437 -0.0625513 -0.0608356 -0.0570261 -0.0512944 -0.0439184 -0.0353918 -0.0261259 -0.0165304 -0.0069562 0.00240616 0.0114207 0.0200442 0.0282108 0.0359481 0.0431914 0.0498852 0.0559338 0.0612119 0.0656653 0.0692405 0.0719694 0.0739284 0.0751335 0.0756542 0.0754436 0.0744296 0.072454 0.0693038 0.0647334 0.0584921 0.0503904 0.0404399 0.028853 0.0160609 0.00264315 -0.0109255 -0.0242865 -0.0374254 -0.0505056 -0.0636528 -0.076767 -0.08949 -0.101274 -0.111645 -0.120268 -0.127009 -0.131827 -0.13465 -0.135487 -0.13423 -0.130923 -0.125592 -0.11836 -0.109468 -0.0992464 -0.0880539 -0.0761597 -0.0636616 -0.0505405 -0.036743 -0.0223499 -0.00768313 0.00688865 0.0208057 0.0335565 0.0446813 0.0538542 0.0608609 0.0656957 0.0686033 0.0700012 0.0704767 0.0706111 0.0707872 0.0711079 0.0713389 0.0709855 0.0696023 0.0668668 0.0627472 0.0574768 0.051339 0.0445914 0.0373729 0.0296423 0.0213919 0.012527 0.0031082 -0.00675667 -0.0168983 -0.0270394 -0.036772 -0.0456137 -0.053077 -0.0586625 -0.0621027 -0.0633136 -0.0624667 -0.0600651 -0.0566848 -0.0529829 -0.0493644 -0.0460962 -0.0430259 -0.0397884 -0.0358931 -0.0309702 -0.0249503 -0.0182165 -0.0114924 -0.00562038 -0.00124634 0.00145221 0.00291966 0.00401108 0.00564308 0.00834031 0.0119423 0.0156642 0.0183954 0.0193341 0.0184362 0.0165309 0.0148844 0.014461 0.0153459 0.0165672 0.0166454 0.0145415 0.0105087 0.00601201 0.00277994 0.00164958 0.0019562 0.00220456 0.00131818 -0.000559331 -0.00228395 -0.00286211 -0.00227177 -0.00131428 -0.000814503 -0.000940596 -0.00127288 -0.00135226 -0.000764431 0 0 
0 0 -0.00049848 -0.00111769 -0.00153781 -0.00165792 -0.00132056 -0.000791697 -0.000676422 -0.00133632 -0.00233541 -0.00259057 -0.00124424 0.00147702 0.00430324 0.00593247 0.00616997 0.00615844 0.00746269 0.0107202 0.0151406 0.0189469 0.0205484 0.0196924 0.0173902 0.015315 0.0146957 0.0157297 0.0174495 0.018412 0.017453 0.0142302 0.00937704 0.00401891 -0.000644766 -0.00405142 -0.00626921 -0.00797835 -0.0100456 -0.0131867 -0.0176351 -0.0232656 -0.0296037 -0.0360524 -0.0420643 -0.0472306 -0.0513529 -0.0543616 -0.0564124 -0.0576599 -0.0583004 -0.0584018 -0.0578657 -0.0564173 -0.0537782 -0.0497317 -0.0441253 -0.0369855 -0.028465 -0.0188344 -0.00842157 0.0023612 0.0131063 0.0234782 0.0331128 0.0418071 0.0493522 0.0556352 0.0606392 0.0643467 0.066921 0.0684719 0.0692289 0.0693667 0.0690638 0.0683689 0.0672677 0.0656666 0.0633613 0.0601331 0.0557293 0.0498333 0.0422672 0.0329553 0.0221175 0.010129 -0.00247819 -0.0151429 -0.0275483 -0.0396653 -0.0516583 -0.0637265 -0.0758061 -0.0875839 -0.0985485 -0.10821 -0.116204 -0.122416 -0.126834 -0.129405 -0.130133 -0.128958 -0.12586 -0.120871 -0.114145 -0.105865 -0.0963802 -0.0860619 -0.0751209 -0.0636392 -0.051536 -0.0387836 -0.0254317 -0.0117899 0.00174179 0.014703 0.0265911 0.0370233 0.0457305 0.0524896 0.057278 0.060241 0.061793 0.0624522 0.0628316 0.0634493 0.0645459 0.065987 0.0673938 0.0681391 0.0676938 0.0657169 0.0621723 0.0571239 0.0507649 0.0432072 0.0345358 0.024881 0.0143475 0.00326238 -0.00800843 -0.0190004 -0.0292022 -0.0382206 -0.0456955 -0.0514309 -0.0553739 -0.0576903 -0.0586639 -0.0586731 -0.0581383 -0.0573279 -0.0562864 -0.0548416 -0.0526649 -0.0493393 -0.0446257 -0.0385775 -0.0315807 -0.0243685 -0.0177613 -0.0124737 -0.00874567 -0.00634238 -0.00449557 -0.00227319 0.0010108 0.00542744 0.0103985 0.0147826 0.01754 0.018157 0.0170661 0.0154511 0.0146726 0.0155248 0.0176963 0.0198991 0.0205422 0.018716 0.0147993 0.0103849 0.00721658 0.00599948 0.00604693 0.00579467 0.00413162 0.00129868 -0.00139137 -0.00268225 -0.00239097 -0.00140171 -0.000793426 -0.000963873 -0.0015025 -0.00178211 -0.00155259 -0.000806844 0 0 
0 0 -0.000424695 -0.0010407 -0.00148536 -0.00190011 -0.00192554 -0.00139223 -0.00066235 -0.000414046 -0.000937031 -0.00161653 -0.00123246 0.00102873 0.00473502 0.00839525 0.0105563 0.0109626 0.0107523 0.0115001 0.0140072 0.0176799 0.0208677 0.0221075 0.0209499 0.0182115 0.0154004 0.0138214 0.0138576 0.014819 0.0154103 0.014344 0.0110533 0.00578632 -0.000461145 -0.00646129 -0.0113137 -0.0146833 -0.0168549 -0.0186262 -0.0208528 -0.0242569 -0.0291711 -0.0354548 -0.042526 -0.0495157 -0.0555407 -0.0598269 -0.0620244 -0.06217 -0.060668 -0.0580587 -0.0548791 -0.0513853 -0.047636 -0.0435707 -0.0389146 -0.0334279 -0.0268193 -0.0189885 -0.00998469 6.28924e-05 0.0107605 0.0217346 0.032429 0.0424259 0.051277 0.0586497 0.0643637 0.0683466 0.0707376 0.0716914 0.0715131 0.0704341 0.0686926 0.0664697 0.063783 0.0606252 0.0568643 0.0523234 0.0468136 0.0400785 0.0319398 0.0223228 0.0113951 -0.00045549 -0.0126973 -0.0248276 -0.0365149 -0.0477352 -0.0586934 -0.0696467 -0.0806239 -0.0913449 -0.101352 -0.110138 -0.117379 -0.122946 -0.126841 -0.129104 -0.129728 -0.128645 -0.12583 -0.1213 -0.115157 -0.107646 -0.0990676 -0.0897416 -0.0798632 -0.0694451 -0.0583945 -0.0466241 -0.0341868 -0.02136 -0.00849805 0.00394627 0.0155946 0.02614 0.0352952 0.0428769 0.0488289 0.0531851 0.0561941 0.0582703 0.0599504 0.0617351 0.0638865 0.0663842 0.0688183 0.0705463 0.0709294 0.069412 0.0658124 0.0601555 0.0527043 0.0438198 0.0338402 0.0231596 0.0121092 0.00112626 -0.0093664 -0.0189571 -0.0273806 -0.0345064 -0.0403549 -0.0451567 -0.0491477 -0.0526199 -0.0556832 -0.0583689 -0.0605658 -0.061916 -0.0620158 -0.0604654 -0.0570389 -0.0518017 -0.0452164 -0.0380083 -0.0310908 -0.0252251 -0.0208531 -0.0178406 -0.0155859 -0.0131806 -0.00975609 -0.00492986 0.000981806 0.00706439 0.0120615 0.0149696 0.0156082 0.0146421 0.0134726 0.0134427 0.0152141 0.0182631 0.0211648 0.0223222 0.0209361 0.0175401 0.0137096 0.0111402 0.0104354 0.0107269 0.0103987 0.00826536 0.00459476 0.000864971 -0.00139705 -0.00174667 -0.00102101 -0.000473581 -0.000744424 -0.00153628 -0.00212658 -0.00209745 -0.00158014 -0.000734812 0 0 
0 0 -0.000420711 -0.00100243 -0.00128537 -0.00182928 -0.00229699 -0.00214685 -0.00121015 4.01173e-06 0.000683139 0.000549385 0.000335109 0.00134051 0.00434343 0.00874698 0.0128644 0.0151135 0.0151863 0.0142007 0.0138653 0.015255 0.0180137 0.0207638 0.0219874 0.020956 0.0181001 0.0146543 0.0119365 0.0106071 0.0104135 0.0103056 0.00905963 0.00582812 0.000529572 -0.00617775 -0.0131313 -0.0192201 -0.0237082 -0.026516 -0.0281759 -0.0296355 -0.0319172 -0.0357368 -0.0412589 -0.0479957 -0.0549705 -0.0609738 -0.0649857 -0.066364 -0.0650671 -0.0614954 -0.0563428 -0.0503235 -0.0439908 -0.0377456 -0.0317497 -0.0258903 -0.019933 -0.0135418 -0.00647857 0.00143695 0.0101566 0.019528 0.0291668 0.0386791 0.0475881 0.0554814 0.0620364 0.0670572 0.0705229 0.0725016 0.0731266 0.0726044 0.0710698 0.0686889 0.0654802 0.0614671 0.056607 0.0508033 0.0439693 0.0359271 0.0265941 0.0159186 0.00411215 -0.00845416 -0.0212191 -0.0336562 -0.0454365 -0.0565127 -0.067092 -0.0774952 -0.0878378 -0.0979039 -0.107282 -0.115489 -0.122188 -0.127278 -0.130789 -0.132806 -0.133327 -0.132338 -0.129747 -0.125551 -0.119841 -0.112866 -0.104909 -0.0962393 -0.0870126 -0.0771624 -0.0665711 -0.0551324 -0.0428783 -0.0300609 -0.0170602 -0.00425886 0.00800765 0.0194147 0.0297472 0.0387667 0.046325 0.05232 0.0568197 0.060054 0.062426 0.0643816 0.0662236 0.0680586 0.0696366 0.0704815 0.0699773 0.0676602 0.0632813 0.0569536 0.0490487 0.0400758 0.0305473 0.0209358 0.0115405 0.00262702 -0.00567923 -0.0132986 -0.0202964 -0.0267921 -0.0330348 -0.0392006 -0.0454027 -0.0514949 -0.0571339 -0.0618287 -0.065044 -0.0662158 -0.0651288 -0.061784 -0.0566702 -0.0504465 -0.0440565 -0.0382926 -0.0337388 -0.0304352 -0.0279876 -0.0255897 -0.022387 -0.0177821 -0.0117391 -0.00486666 0.00176538 0.00697492 0.0100423 0.0110219 0.0107609 0.0105785 0.0116352 0.0142682 0.0178143 0.0208788 0.0221231 0.0210011 0.0181897 0.0152556 0.0136655 0.0138676 0.0148267 0.0148149 0.0126662 0.00862546 0.00423925 0.00120789 0.000168422 0.000383741 0.000556917 -7.3323e-05 -0.00127034 -0.00224806 -0.00247916 -0.00207085 -0.00147218 -0.00061867 0 0 
0 0 -0.000535585 -0.00110983 -0.00112564 -0.00152267 -0.00221215 -0.00258136 -0.00196687 -0.000299355 0.00167061 0.00293705 0.003196 0.00327001 0.00455131 0.00780769 0.0123713 0.0164549 0.0183938 0.0178195 0.0158627 0.0143911 0.0146797 0.0167083 0.0192418 0.0206611 0.0199055 0.0169655 0.012797 0.00872651 0.0057612 0.00407756 0.00305772 0.00154632 -0.00145359 -0.0063919 -0.0129926 -0.0203029 -0.0271427 -0.0325363 -0.0360298 -0.0378863 -0.0389615 -0.0403099 -0.0428419 -0.046912 -0.052215 -0.0578399 -0.0626617 -0.0656494 -0.0661108 -0.0638895 -0.0592149 -0.0526596 -0.0448522 -0.0364797 -0.0281057 -0.020104 -0.0125727 -0.00546769 0.00138257 0.00820135 0.0151472 0.0222739 0.0295095 0.0366959 0.0436018 0.0499986 0.0556508 0.0604088 0.0641848 0.0669686 0.0687443 0.0695593 0.0693545 0.0681821 0.0659352 0.0626118 0.0581204 0.0524088 0.0454222 0.0370579 0.0272893 0.0160892 0.00373867 -0.00938903 -0.0226743 -0.0355863 -0.0476991 -0.0589402 -0.0695072 -0.0797666 -0.0898298 -0.0996307 -0.108714 -0.116643 -0.123061 -0.127878 -0.13114 -0.133013 -0.133495 -0.132553 -0.130084 -0.126086 -0.12061 -0.113919 -0.10627 -0.0979222 -0.0889459 -0.0793053 -0.0687497 -0.057264 -0.0448703 -0.0318432 -0.0185512 -0.00540795 0.00729912 0.0192199 0.0301501 0.0398007 0.04798 0.0544672 0.0591662 0.062177 0.0638127 0.0645281 0.0647293 0.064747 0.0645806 0.0640627 0.0627871 0.0603701 0.0565439 0.0513606 0.0450692 0.0381195 0.0308863 0.0236551 0.0165286 0.00945696 0.00232274 -0.00502681 -0.0127309 -0.0208136 -0.0292181 -0.0377828 -0.0461348 -0.0537378 -0.0599557 -0.0642294 -0.0661573 -0.0656403 -0.0629951 -0.0588839 -0.0541421 -0.0495511 -0.0457317 -0.0428535 -0.040655 -0.0384835 -0.0356059 -0.031407 -0.0257028 -0.0188602 -0.0117038 -0.00526361 -0.000420333 0.00253789 0.00398565 0.00485773 0.00626685 0.00889027 0.0126466 0.016643 0.0195859 0.0205061 0.0193197 0.0169575 0.0149567 0.0145397 0.0158015 0.0175654 0.0180456 0.0161281 0.0121449 0.00767872 0.00446897 0.00317053 0.00304612 0.0027555 0.00150318 -0.00041543 -0.00203475 -0.00265109 -0.00235 -0.00175768 -0.00136763 -0.000570554 0 0 
0 0 -0.00075591 -0.00140116 -0.00120092 -0.00122417 -0.00170982 -0.00233933 -0.00232069 -0.000967162 0.00160469 0.0043552 0.00607806 0.00643529 0.0063673 0.00738525 0.010324 0.0145488 0.0182739 0.0198082 0.0186823 0.0160061 0.0136219 0.0129903 0.014306 0.0165184 0.01797 0.017321 0.0142205 0.00932625 0.00396067 -0.00064655 -0.0038996 -0.00600624 -0.00789108 -0.0106171 -0.014887 -0.0207896 -0.0276905 -0.0345756 -0.0403761 -0.044448 -0.0467897 -0.047921 -0.0487132 -0.0499473 -0.0520491 -0.054868 -0.0578755 -0.0603066 -0.0614566 -0.0607542 -0.0579568 -0.0530764 -0.0463126 -0.038092 -0.0289571 -0.01943 -0.00996639 -0.000865533 0.00767245 0.0155478 0.0227558 0.0292807 0.0351381 0.0403163 0.0448132 0.048695 0.0519756 0.054732 0.0570167 0.0588845 0.0603312 0.061304 0.0616806 0.0613506 0.0601349 0.0579037 0.0545127 0.0498562 0.0438408 0.0363624 0.0274132 0.0169336 0.00520609 -0.00740518 -0.0203003 -0.0328646 -0.0446345 -0.055521 -0.0656312 -0.0753657 -0.0849181 -0.0942085 -0.102861 -0.110421 -0.116502 -0.12102 -0.12404 -0.125759 -0.126186 -0.125309 -0.122976 -0.119177 -0.113982 -0.107638 -0.10038 -0.0924831 -0.0839724 -0.0747431 -0.064613 -0.0535288 -0.0415325 -0.0289785 -0.0162165 -0.00365194 0.00840792 0.0196702 0.0299324 0.038927 0.0464751 0.0522884 0.0562634 0.0584183 0.0590306 0.058565 0.0575476 0.0565004 0.055701 0.0551859 0.0547047 0.0538886 0.0523242 0.0497846 0.046226 0.0417641 0.0365286 0.0306389 0.0240977 0.0168148 0.00869673 -0.000262539 -0.00990395 -0.0199084 -0.0298562 -0.0392175 -0.0474557 -0.0540512 -0.0586411 -0.0610971 -0.0615743 -0.0604627 -0.0584498 -0.0561849 -0.0542378 -0.0527844 -0.0517002 -0.0504367 -0.0483452 -0.0448368 -0.0397132 -0.0332321 -0.026092 -0.0192902 -0.0136415 -0.00962413 -0.00704377 -0.00518777 -0.00306413 0.000147012 0.00460155 0.00969089 0.0142771 0.0171402 0.0177064 0.0163547 0.0143498 0.0132398 0.0139596 0.0162774 0.018772 0.0196862 0.0180081 0.0142445 0.0100757 0.00723144 0.00628065 0.00635705 0.00595986 0.00418788 0.00141668 -0.00113006 -0.00243096 -0.00241367 -0.00180683 -0.00140767 -0.00143013 -0.000678009 0 0 
0 0 -0.0010039 -0.00180802 -0.00158563 -0.00120431 -0.0011004 -0.00144651 -0.0018044 -0.0012632 0.0008433 0.00419301 0.00748233 0.00932238 0.00936817 0.00868493 0.00895449 0.0111743 0.0148189 0.0181827 0.0195106 0.0182107 0.0151338 0.0120383 0.0104267 0.0107494 0.0122301 0.0133359 0.0126279 0.00944594 0.00412577 -0.00218564 -0.00818131 -0.0129587 -0.0163218 -0.0188139 -0.0213571 -0.0247654 -0.0294026 -0.0350683 -0.0410659 -0.0465422 -0.0508542 -0.0536991 -0.0552327 -0.0558257 -0.0559556 -0.0558621 -0.0556617 -0.0552651 -0.0545173 -0.0531689 -0.0509287 -0.0475887 -0.0429035 -0.036772 -0.0293017 -0.0207171 -0.011333 -0.00153881 0.00828858 0.0177546 0.0265122 0.0342673 0.0407893 0.0459869 0.0498332 0.0524697 0.054085 0.0549462 0.0552526 0.0552299 0.0550087 0.054593 0.0538883 0.0527836 0.0511268 0.0487569 0.0455162 0.0412669 0.0358799 0.0292508 0.0212887 0.011956 0.00140575 -0.0100382 -0.0217751 -0.0332632 -0.0439563 -0.0537378 -0.0627182 -0.0713115 -0.079743 -0.0880228 -0.0957853 -0.102585 -0.108045 -0.112031 -0.11467 -0.116117 -0.116476 -0.11568 -0.113604 -0.11016 -0.105484 -0.0997755 -0.0933148 -0.0863109 -0.0787396 -0.0705219 -0.0614194 -0.0514053 -0.0405625 -0.0292267 -0.0177339 -0.00650398 0.00423594 0.0142526 0.0234243 0.031555 0.0384817 0.0439501 0.0478374 0.0501368 0.0510535 0.0510024 0.0504928 0.0500975 0.0501834 0.0508913 0.0520538 0.0531891 0.0537041 0.0531183 0.0510595 0.0474171 0.042211 0.0356282 0.0278174 0.0189884 0.00933984 -0.000820751 -0.0110744 -0.0209479 -0.029949 -0.0376795 -0.043879 -0.0484498 -0.051546 -0.05351 -0.0547168 -0.0556042 -0.0565119 -0.0575098 -0.0584495 -0.0588846 -0.0583052 -0.0561737 -0.0522524 -0.0467127 -0.0401625 -0.0335078 -0.0276438 -0.0231802 -0.02012 -0.01792 -0.015635 -0.0123235 -0.0074905 -0.00144034 0.00483731 0.00998036 0.0129067 0.0133457 0.0121022 0.0106262 0.0104497 0.0122484 0.0154762 0.0185673 0.0197553 0.0182443 0.014702 0.0109518 0.00871942 0.00850268 0.00925332 0.00924732 0.00739817 0.00406321 0.000664121 -0.00146362 -0.00197993 -0.00156911 -0.00119007 -0.00132468 -0.00174111 -0.000943567 0 0 
0 0 -0.00117445 -0.00217797 -0.00216356 -0.00158395 -0.000796469 -0.000352986 -0.000465954 -0.000592343 0.000312327 0.00290553 0.00670223 0.0101778 0.0118085 0.0112632 0.00969749 0.00897762 0.010305 0.0133501 0.01648 0.0178807 0.0166634 0.0133764 0.00952979 0.00669278 0.00563477 0.00595825 0.00645588 0.00567194 0.0026802 -0.00258129 -0.00934859 -0.0163804 -0.0225869 -0.0273379 -0.0306939 -0.0332071 -0.0355918 -0.0384677 -0.0420545 -0.0461862 -0.0504659 -0.0543725 -0.0574613 -0.0594189 -0.060083 -0.0593736 -0.0573947 -0.0543705 -0.0506551 -0.0466278 -0.042525 -0.0384097 -0.0341666 -0.0294934 -0.0241486 -0.0179307 -0.0107538 -0.00269107 0.00609445 0.0152613 0.0243752 0.0329645 0.0406234 0.0469955 0.0518955 0.0553161 0.0573443 0.058215 0.0581543 0.0573842 0.0560797 0.054346 0.05217 0.0495298 0.0463488 0.0425635 0.0380888 0.0328518 0.0267844 0.0197762 0.0117584 0.00265231 -0.00743832 -0.0182337 -0.0292391 -0.0398696 -0.0496427 -0.0583859 -0.0662401 -0.0735927 -0.080792 -0.0878645 -0.0945867 -0.100476 -0.105167 -0.108549 -0.110693 -0.111865 -0.112109 -0.111433 -0.109628 -0.106662 -0.102596 -0.0976776 -0.0921524 -0.086192 -0.0797487 -0.0726111 -0.0646434 -0.0557168 -0.0459601 -0.0356821 -0.0252325 -0.0149373 -0.00497266 0.00452024 0.0134733 0.0217666 0.0292445 0.0356441 0.0408223 0.044685 0.0472632 0.048817 0.0497127 0.050448 0.0513724 0.0526652 0.0541861 0.0555186 0.0560769 0.055305 0.0527635 0.0483064 0.0420471 0.0343492 0.0256623 0.0164436 0.00712226 -0.00191478 -0.0103265 -0.0179077 -0.0245079 -0.0301375 -0.0349301 -0.0391335 -0.0430711 -0.046974 -0.0509549 -0.0549168 -0.0585551 -0.0613845 -0.062922 -0.0627264 -0.0606364 -0.0567863 -0.0516903 -0.0461183 -0.0409143 -0.0367045 -0.0336872 -0.0315398 -0.0294442 -0.0265111 -0.0220392 -0.0159314 -0.00883715 -0.00195849 0.00336692 0.0063037 0.00691333 0.00617488 0.0056656 0.00664205 0.0095444 0.0135346 0.0169865 0.0182957 0.0168782 0.0136157 0.010386 0.00888738 0.00950588 0.0110572 0.0116528 0.0100885 0.00664323 0.00282351 0.000165296 -0.000806177 -0.000702971 -0.000553766 -0.000929092 -0.00167392 -0.0022286 -0.00126849 0 0 
0 0 -0.00119473 -0.00235573 -0.00266998 -0.00222518 -0.00104929 0.00029504 0.00105658 0.00100093 0.000823049 0.00173373 0.00443693 0.00834446 0.0117576 0.0130526 0.0118615 0.00939065 0.00764791 0.00803075 0.0104272 0.0133472 0.0148638 0.0138227 0.0103627 0.00572124 0.00151778 -0.00116684 -0.00220986 -0.00246573 -0.0033072 -0.00587435 -0.0107004 -0.017438 -0.0250864 -0.0324291 -0.0384498 -0.0426715 -0.0451523 -0.0463995 -0.0471476 -0.048039 -0.0495309 -0.0517473 -0.0544735 -0.0572038 -0.059309 -0.0600364 -0.0588975 -0.0557232 -0.0507916 -0.0446693 -0.038038 -0.0314921 -0.0253864 -0.0197771 -0.0145444 -0.00947084 -0.00423801 0.00136122 0.00750474 0.0142088 0.021287 0.0284709 0.0354023 0.0417598 0.04724 0.0517257 0.0550972 0.0574221 0.0587614 0.0591756 0.0587099 0.0573887 0.0551907 0.052113 0.0481378 0.0432798 0.0375897 0.0310733 0.0237776 0.01568 0.00672499 -0.00310493 -0.0137257 -0.0249011 -0.0361148 -0.0468336 -0.0565394 -0.0650321 -0.0724723 -0.0792232 -0.0856819 -0.0920204 -0.0980212 -0.103293 -0.10747 -0.1104 -0.112217 -0.113159 -0.113366 -0.112742 -0.111164 -0.108533 -0.104914 -0.100551 -0.095687 -0.0904066 -0.0845983 -0.0780522 -0.0705515 -0.0620174 -0.0525771 -0.0425158 -0.0321644 -0.0218279 -0.0116204 -0.0016612 0.00802593 0.017316 0.0260203 0.0338571 0.0405907 0.0459839 0.0499195 0.0524541 0.0537968 0.0543388 0.0544392 0.0543811 0.0542514 0.0538658 0.0528713 0.0508823 0.0475316 0.0427822 0.0367462 0.0298655 0.0225748 0.0153521 0.00848135 0.00214417 -0.00369956 -0.0092214 -0.0146026 -0.0201083 -0.0258846 -0.0320347 -0.0384898 -0.0450178 -0.051197 -0.0565033 -0.0603875 -0.0624421 -0.0625192 -0.0607818 -0.0577521 -0.0540962 -0.050558 -0.0477104 -0.04575 -0.0444288 -0.0430954 -0.0409127 -0.0371648 -0.031626 -0.0246209 -0.0171218 -0.0103477 -0.0053962 -0.00269056 -0.00180583 -0.00162551 -0.000759338 0.00172103 0.00577738 0.0103961 0.0139496 0.0151595 0.0137999 0.0109426 0.00847955 0.00792847 0.00945821 0.0117552 0.0128626 0.0115787 0.00822887 0.00437985 0.00168289 0.000715778 0.000803723 0.000787428 1.67888e-05 -0.00126613 -0.00234864 -0.00268673 -0.00149934 0 0 
0 0 -0.00107419 -0.00228087 -0.00283533 -0.00278226 -0.00176082 5.90879e-05 0.0018577 0.00270501 0.00239348 0.00180541 0.00235826 0.0048588 0.00865625 0.0119478 0.0129782 0.0112462 0.00795681 0.00518257 0.00450433 0.00608592 0.00861804 0.0101526 0.00927259 0.00571507 0.000434066 -0.00503587 -0.00929606 -0.0118077 -0.0129991 -0.0140059 -0.0161537 -0.0202896 -0.0265144 -0.0341335 -0.0419494 -0.0486889 -0.0533805 -0.0556311 -0.0556628 -0.0542109 -0.0522703 -0.0507811 -0.0503967 -0.0512232 -0.0528577 -0.0544575 -0.0550068 -0.053713 -0.0502099 -0.0446466 -0.0375538 -0.0296004 -0.0214995 -0.0137489 -0.0066447 -0.00035276 0.00517808 0.010091 0.0145956 0.018941 0.0232064 0.0274835 0.0317382 0.0359114 0.0399018 0.0436579 0.0470839 0.0501328 0.0527036 0.0546888 0.0559098 0.056244 0.0555279 0.0536416 0.0505393 0.0462181 0.0407561 0.0342298 0.0267512 0.0183201 0.00899426 -0.00126245 -0.0123318 -0.0239381 -0.035632 -0.046787 -0.0568916 -0.0656914 -0.0732418 -0.0799278 -0.0861729 -0.0922315 -0.0979613 -0.103013 -0.106996 -0.10977 -0.111459 -0.112303 -0.112476 -0.111901 -0.110422 -0.10792 -0.104492 -0.100378 -0.0957611 -0.0907072 -0.0850561 -0.0785591 -0.0709887 -0.0623069 -0.0526587 -0.042354 -0.0317525 -0.0210985 -0.010566 -0.000215199 0.00989224 0.0195986 0.0287168 0.036906 0.0438834 0.0493307 0.0530414 0.0549506 0.055236 0.0542105 0.0523564 0.0501564 0.0479404 0.0458953 0.043934 0.0418653 0.0394199 0.0364485 0.0328603 0.0288274 0.0245038 0.0200638 0.0155358 0.0108574 0.00579535 8.64794e-05 -0.00641064 -0.013743 -0.0216911 -0.0299141 -0.0378863 -0.0449996 -0.0507496 -0.0547446 -0.0568532 -0.0572574 -0.0564409 -0.0550552 -0.0537814 -0.0530674 -0.0531036 -0.0536283 -0.0540183 -0.053454 -0.0511844 -0.0468476 -0.0406385 -0.0333461 -0.026109 -0.020071 -0.0159351 -0.01367 -0.012498 -0.0111929 -0.00866575 -0.00450463 0.000781464 0.00589139 0.00936595 0.0102922 0.00890015 0.00654906 0.00507965 0.00575934 0.0084009 0.0114807 0.0130003 0.0118302 0.00848934 0.00471875 0.00227578 0.00175201 0.00231443 0.00254534 0.00159912 -0.00026311 -0.00207215 -0.00300271 -0.00288723 -0.0015161 0 0 
0 0 -0.000912266 -0.0020456 -0.00256165 -0.00289856 -0.00250523 -0.000985284 0.00132883 0.00337016 0.00405183 0.00320841 0.00193012 0.00186768 0.00393658 0.00750732 0.0106934 0.0115531 0.00943699 0.00542055 0.00157073 -0.000331536 0.000183557 0.00208978 0.00351536 0.00282443 -0.000611536 -0.0062421 -0.0126643 -0.018341 -0.0223961 -0.0247377 -0.0262028 -0.0280277 -0.0312722 -0.0363882 -0.0430436 -0.0502585 -0.056704 -0.0611332 -0.0628074 -0.0616616 -0.0583569 -0.0539945 -0.0498215 -0.0467752 -0.0452759 -0.0450733 -0.0453868 -0.0452392 -0.0438185 -0.0406308 -0.0356174 -0.0290395 -0.0213064 -0.0129792 -0.00453298 0.00352546 0.0108307 0.0171197 0.0222878 0.0264109 0.0295914 0.0320276 0.0339135 0.035477 0.0369133 0.0383945 0.0400346 0.0418766 0.0438518 0.0458121 0.0475082 0.0486836 0.0491137 0.0485326 0.0468167 0.0438811 0.039766 0.0345056 0.0282059 0.0208524 0.0124851 0.00307467 -0.00727829 -0.0183342 -0.029629 -0.040537 -0.0505103 -0.0591611 -0.0665505 -0.0729722 -0.0789062 -0.0846086 -0.0900532 -0.0948541 -0.0986818 -0.101334 -0.102929 -0.103721 -0.103871 -0.103324 -0.1019 -0.0995254 -0.0962814 -0.0923676 -0.0880212 -0.0831991 -0.0777627 -0.0714072 -0.063974 -0.0554228 -0.0460019 -0.036009 -0.0258408 -0.0157355 -0.00583533 0.00376969 0.0130156 0.021774 0.029863 0.0369837 0.0428921 0.0472311 0.0498549 0.0506789 0.0498726 0.0477679 0.0449035 0.041865 0.0391767 0.0372174 0.0360839 0.035631 0.0355067 0.0352944 0.0346092 0.0331746 0.0308409 0.0275264 0.0232107 0.0178815 0.0114932 0.00412462 -0.0040333 -0.0126323 -0.0211587 -0.0290641 -0.0357887 -0.0409683 -0.0445053 -0.0465519 -0.0476176 -0.0482902 -0.0492217 -0.0508525 -0.0532807 -0.056202 -0.0589947 -0.0608307 -0.060911 -0.0587482 -0.0543591 -0.0483267 -0.0416867 -0.0355932 -0.030889 -0.0278714 -0.0260815 -0.0245193 -0.0220123 -0.0178029 -0.0120437 -0.00564411 -0.000144809 0.00312843 0.00371076 0.00227843 0.000468144 0.000108077 0.00214336 0.00604497 0.00999749 0.0119525 0.0108867 0.00752269 0.0038339 0.0017229 0.00180244 0.00311535 0.00397116 0.00324835 0.00111735 -0.00129966 -0.00288146 -0.00324392 -0.00272966 -0.00131582 0 0 
0 0 -0.000853608 -0.00186781 -0.0020215 -0.00245452 -0.00278439 -0.00224 -0.000394255 0.00225147 0.00438245 0.00474751 0.00321153 0.00106586 0.000162285 0.00159439 0.00480453 0.00783249 0.00861966 0.006281 0.00167151 -0.00321894 -0.00646154 -0.00723889 -0.0062215 -0.00507551 -0.00553669 -0.00860699 -0.014178 -0.0211368 -0.0279876 -0.0335076 -0.0371621 -0.0393064 -0.040895 -0.0430203 -0.0463731 -0.0510323 -0.0563672 -0.061235 -0.0644465 -0.0650869 -0.0629329 -0.0584167 -0.0525667 -0.0465512 -0.0413765 -0.0375757 -0.0351131 -0.0335081 -0.0321115 -0.030315 -0.0276457 -0.0238372 -0.0187701 -0.0125435 -0.00536427 0.0023848 0.0102111 0.0176241 0.024182 0.0296225 0.0337787 0.036672 0.0384325 0.0392908 0.0395502 0.0395231 0.0394501 0.0395119 0.0397676 0.0401989 0.0406274 0.0408641 0.0406647 0.0398404 0.0382195 0.0357106 0.0323239 0.0280435 0.0228972 0.0169016 0.00999338 0.00209766 -0.00673889 -0.0163571 -0.0263781 -0.0361649 -0.0451558 -0.0529263 -0.0594175 -0.064963 -0.0699798 -0.0748412 -0.079532 -0.0837574 -0.0871421 -0.089498 -0.0908847 -0.0915334 -0.091633 -0.0911214 -0.0898557 -0.0877355 -0.0848697 -0.0814743 -0.0777118 -0.0735731 -0.0688134 -0.0631895 -0.0565082 -0.048839 -0.0404074 -0.0315805 -0.0227046 -0.0139892 -0.00559291 0.00247491 0.0101976 0.0174947 0.0242578 0.0302785 0.0353198 0.0391425 0.041604 0.0426527 0.042363 0.0410465 0.0391196 0.0371057 0.0355378 0.0347795 0.0349495 0.0358822 0.0371663 0.0382259 0.038472 0.0374315 0.0348517 0.0306953 0.0251017 0.0184014 0.0109219 0.00310719 -0.00464153 -0.0118853 -0.0182825 -0.023562 -0.0276222 -0.0306243 -0.0329463 -0.0351366 -0.0377555 -0.0412207 -0.0456748 -0.0508425 -0.0560775 -0.0605326 -0.0633758 -0.064024 -0.0623308 -0.0586694 -0.0538854 -0.0490097 -0.0449649 -0.0422062 -0.0405264 -0.0391947 -0.0371242 -0.0333967 -0.0277228 -0.0207026 -0.0136172 -0.00800559 -0.00499436 -0.0046402 -0.00589653 -0.00696389 -0.00616178 -0.00281919 0.00219268 0.00689808 0.00924974 0.00838072 0.00519072 0.00178519 0.000168979 0.00094721 0.00304324 0.00459286 0.00426621 0.00214614 -0.000548614 -0.0025021 -0.00316889 -0.00289853 -0.00233748 -0.00103605 0 0 
0 0 -0.00100903 -0.00198234 -0.00160673 -0.00170629 -0.0023766 -0.00294416 -0.00243289 -0.000395281 0.00249207 0.00464796 0.00463356 0.00232402 -0.000864494 -0.00285686 -0.00232067 0.000318554 0.00315429 0.00399007 0.00166199 -0.00329945 -0.00909022 -0.0136938 -0.0159522 -0.016103 -0.0154613 -0.0157572 -0.0182654 -0.0233372 -0.0303172 -0.0378315 -0.0444791 -0.0493228 -0.052171 -0.0535576 -0.0543638 -0.0554251 -0.0571761 -0.0594138 -0.0614561 -0.0624047 -0.0615248 -0.0584961 -0.0535674 -0.0473807 -0.0407902 -0.0345085 -0.0290306 -0.0244929 -0.0208558 -0.0178928 -0.0153597 -0.0129252 -0.0102157 -0.00689922 -0.00274637 0.00228033 0.00802159 0.0141283 0.02022 0.0259269 0.0309288 0.0350382 0.0381799 0.0403707 0.0417402 0.0424581 0.0427054 0.042622 0.0422776 0.0416911 0.0408259 0.0395948 0.0378584 0.0355572 0.0326203 0.0290391 0.0248649 0.0201176 0.0148576 0.0090535 0.00263293 -0.0044743 -0.0123774 -0.0209235 -0.0298358 -0.038585 -0.0465739 -0.0533578 -0.0588502 -0.0633007 -0.0672065 -0.0709442 -0.0746658 -0.0780813 -0.0808831 -0.0827835 -0.0838774 -0.084363 -0.084375 -0.0839213 -0.0828405 -0.0810782 -0.0787542 -0.0760422 -0.0731152 -0.0698411 -0.0660258 -0.0613161 -0.0556084 -0.0489453 -0.0416271 -0.0339798 -0.0262996 -0.0187846 -0.0114976 -0.00437948 0.00256908 0.00936377 0.0159248 0.0220849 0.0276513 0.0324113 0.0361763 0.0388312 0.0403384 0.040804 0.0404564 0.0396558 0.0387871 0.03818 0.037978 0.0381552 0.0384216 0.0383106 0.0373621 0.0351809 0.0316475 0.0268484 0.0211176 0.0149436 0.00881167 0.00313291 -0.00181718 -0.00595747 -0.00939844 -0.0123305 -0.0151111 -0.0181448 -0.0218408 -0.0264649 -0.0321311 -0.0386195 -0.045447 -0.0518754 -0.0570976 -0.0604882 -0.0617696 -0.0611227 -0.0591477 -0.0566898 -0.0545726 -0.053308 -0.0528861 -0.0526934 -0.0517803 -0.0492317 -0.0444978 -0.0378135 -0.0301641 -0.0230139 -0.0177837 -0.0151833 -0.0148613 -0.0155529 -0.0155012 -0.0133327 -0.00877678 -0.00294798 0.00211284 0.00456693 0.00381883 0.000986337 -0.00175445 -0.00247866 -0.000712582 0.0022749 0.00445917 0.00444127 0.00231978 -0.0005211 -0.00255639 -0.00314178 -0.00271247 -0.00217681 -0.00203056 -0.000896309 0 0 
0 0 -0.00138518 -0.00250316 -0.00173145 -0.00120931 -0.00156421 -0.0026906 -0.00367571 -0.00334594 -0.001226 0.00182865 0.00395908 0.00353754 0.000367823 -0.00402423 -0.00732097 -0.00793839 -0.00602237 -0.00339314 -0.0023509 -0.00440645 -0.00944829 -0.0159387 -0.0218769 -0.0257651 -0.0273246 -0.0274293 -0.0276561 -0.0294305 -0.033557 -0.0398344 -0.0472371 -0.0543497 -0.0599406 -0.0633064 -0.0644436 -0.0638693 -0.062358 -0.0605718 -0.058828 -0.0570101 -0.0548532 -0.0519843 -0.0482201 -0.0435616 -0.0382023 -0.032391 -0.0263819 -0.0204211 -0.0147345 -0.00959333 -0.00519596 -0.00164764 0.00114908 0.00344472 0.00559852 0.00788463 0.0104986 0.0134787 0.0167868 0.0203263 0.0239903 0.0276211 0.031146 0.0344528 0.0374572 0.0401114 0.0423022 0.0440051 0.0450982 0.0454986 0.0451214 0.0438699 0.0416995 0.0386207 0.0346565 0.0299182 0.0245407 0.0186422 0.0123398 0.00568985 -0.0013536 -0.00886595 -0.0169539 -0.0255394 -0.0344015 -0.0430366 -0.050885 -0.0574476 -0.0625889 -0.0665667 -0.0698094 -0.0728705 -0.0758972 -0.0787814 -0.0811702 -0.0828369 -0.0837541 -0.0841095 -0.0840843 -0.083635 -0.0826894 -0.0811821 -0.0792267 -0.0770418 -0.0746459 -0.0719398 -0.0686108 -0.064368 -0.0590293 -0.0527464 -0.0457802 -0.0384415 -0.0310183 -0.0236381 -0.0163243 -0.00899713 -0.00163504 0.00578562 0.0131529 0.0203202 0.0270534 0.0331055 0.0382152 0.0421504 0.0447492 0.0459577 0.0458396 0.0446126 0.0426037 0.0401993 0.037736 0.0354519 0.0333824 0.031415 0.0293306 0.0269308 0.0241244 0.020933 0.0175738 0.0143251 0.0113951 0.00889403 0.0067349 0.00464195 0.00227242 -0.000746065 -0.00470148 -0.00975017 -0.0158386 -0.0227178 -0.029942 -0.036967 -0.0432248 -0.0482313 -0.0517405 -0.0538287 -0.0548965 -0.0555409 -0.0563753 -0.0577491 -0.0596802 -0.0616811 -0.0628847 -0.0623624 -0.0594841 -0.054226 -0.047267 -0.0398794 -0.0334915 -0.0292055 -0.027255 -0.0268967 -0.0266979 -0.0251451 -0.0213269 -0.015502 -0.00909092 -0.00405835 -0.00193 -0.00283186 -0.00533616 -0.00719022 -0.00662108 -0.0034832 0.000677674 0.00360591 0.00384153 0.00161342 -0.00145239 -0.00353111 -0.00382138 -0.00285221 -0.00182425 -0.0016234 -0.00216683 -0.00107939 0 0 
0 0 -0.00186468 -0.00333569 -0.00258921 -0.00153271 -0.00105812 -0.00179143 -0.00352691 -0.00511732 -0.00516519 -0.00313745 -5.21547e-05 0.00199198 0.00114681 -0.00288087 -0.00849372 -0.0131914 -0.0150808 -0.014017 -0.0116421 -0.0103305 -0.0119362 -0.0167881 -0.0237274 -0.0308258 -0.0363422 -0.0394414 -0.0404967 -0.0407181 -0.0416394 -0.0443334 -0.0491352 -0.0554573 -0.0620882 -0.067672 -0.0710903 -0.0717991 -0.0698659 -0.0657966 -0.0603655 -0.0543143 -0.0482306 -0.0425472 -0.0374743 -0.0330487 -0.0291171 -0.0253922 -0.021491 -0.0171043 -0.0121193 -0.00667844 -0.00113321 0.00406262 0.00856416 0.0121485 0.0148324 0.0167105 0.0179175 0.0186456 0.0191156 0.0195818 0.0202813 0.0214391 0.0231694 0.0255206 0.0284252 0.0317357 0.035214 0.0386106 0.0416374 0.0440198 0.0455067 0.0459092 0.0450938 0.043025 0.0397365 0.0353606 0.0300427 0.0239955 0.0173864 0.0103199 0.00282865 -0.00514758 -0.0136804 -0.022722 -0.0320384 -0.0411613 -0.049518 -0.0565518 -0.0620675 -0.0662136 -0.0694709 -0.0723856 -0.075263 -0.078023 -0.080383 -0.0820841 -0.0830594 -0.083456 -0.0834115 -0.0829264 -0.0819543 -0.0805013 -0.0786506 -0.0765895 -0.0743325 -0.0716593 -0.068255 -0.0638009 -0.0582041 -0.0515954 -0.0442943 -0.0366208 -0.0288359 -0.0210487 -0.0132731 -0.00546942 0.00239102 0.0102549 0.0180013 0.0254234 0.0322719 0.0382743 0.0431433 0.0466271 0.0484935 0.0486739 0.0471957 0.0442691 0.040279 0.0357249 0.0311636 0.0271031 0.0238785 0.0216379 0.0203352 0.0197471 0.0196054 0.0196438 0.0196394 0.0194457 0.0189171 0.0178988 0.0161893 0.0136043 0.00997544 0.00526343 -0.000405304 -0.00673586 -0.013332 -0.019714 -0.0255 -0.0304428 -0.0344927 -0.0378778 -0.0409604 -0.0442228 -0.0480593 -0.0526564 -0.0577999 -0.0629184 -0.0671685 -0.0695793 -0.0694711 -0.0666301 -0.0615281 -0.0552402 -0.0491157 -0.0443762 -0.0416272 -0.0405733 -0.0401789 -0.0389577 -0.0357338 -0.0301774 -0.023116 -0.0162661 -0.0115006 -0.00993178 -0.011193 -0.013462 -0.0144022 -0.0124334 -0.00773617 -0.00222994 0.00160948 0.00222422 -4.3108e-05 -0.00329719 -0.00541517 -0.00537976 -0.00375123 -0.00197768 -0.00126328 -0.00184068 -0.00293165 -0.00161662 0 0 
0 0 -0.00225819 -0.00420171 -0.00400029 -0.00290899 -0.00161835 -0.00120179 -0.00242219 -0.00497895 -0.00745752 -0.00818268 -0.00651862 -0.00356275 -0.0016218 -0.0027581 -0.0074171 -0.014081 -0.0201059 -0.023367 -0.0233594 -0.0214566 -0.0199823 -0.0210258 -0.0254011 -0.0323561 -0.0402075 -0.0470423 -0.0516166 -0.0536731 -0.0540093 -0.0540014 -0.0549087 -0.0575029 -0.0617201 -0.0667276 -0.0712497 -0.0739613 -0.0738785 -0.070597 -0.0643081 -0.0557162 -0.045884 -0.0359877 -0.0271193 -0.0200597 -0.0151085 -0.01204 -0.0102219 -0.00876258 -0.00686685 -0.00406277 -0.000224531 0.00438812 0.00934334 0.0141418 0.0183592 0.0216896 0.0239009 0.024918 0.0248531 0.0240343 0.0228313 0.0217181 0.0210895 0.0212287 0.0222693 0.0242116 0.0268644 0.0300082 0.0333242 0.0364492 0.0390867 0.0408977 0.0416871 0.0413142 0.0397229 0.0369449 0.0331195 0.0284032 0.022961 0.0168997 0.01023 0.00293304 -0.00506393 -0.0137214 -0.0228432 -0.0319476 -0.0404413 -0.0477391 -0.0535006 -0.0578205 -0.0611261 -0.0640014 -0.0667967 -0.0695439 -0.0719718 -0.0738265 -0.0749563 -0.0754471 -0.0753876 -0.0748483 -0.073796 -0.0723126 -0.0704753 -0.068462 -0.0662103 -0.0634683 -0.0598882 -0.0552032 -0.0493643 -0.0425773 -0.0351748 -0.0275075 -0.0198328 -0.0122755 -0.00485058 0.00247232 0.00967855 0.0167177 0.0234133 0.0296067 0.0350766 0.0395733 0.0428833 0.0448077 0.0452291 0.044106 0.0415398 0.0377345 0.0331284 0.0282309 0.023657 0.0199935 0.0176258 0.0167702 0.0173341 0.0189732 0.0211727 0.0233299 0.0249034 0.025536 0.0249336 0.0230539 0.0199524 0.0158604 0.0110386 0.00586019 0.000725455 -0.00402721 -0.00816134 -0.0116505 -0.0146426 -0.0175197 -0.0208109 -0.0250345 -0.0305506 -0.0374729 -0.0454813 -0.0538812 -0.06164 -0.0677156 -0.0712121 -0.0717854 -0.069628 -0.0656374 -0.0610612 -0.0571775 -0.054795 -0.0540066 -0.054018 -0.0536045 -0.0513943 -0.0466495 -0.0396765 -0.031745 -0.024776 -0.0204424 -0.0194563 -0.0209621 -0.0228597 -0.0228089 -0.0194679 -0.013367 -0.00667176 -0.00204503 -0.0010159 -0.0031393 -0.00632324 -0.0082177 -0.00767852 -0.00530311 -0.00275575 -0.00147881 -0.00183368 -0.00312616 -0.00419578 -0.00234659 0 0 
0 0 -0.00240789 -0.00478195 -0.0054626 -0.0050256 -0.00356422 -0.00199336 -0.00170642 -0.00360892 -0.00728486 -0.0110005 -0.012754 -0.0117135 -0.00897166 -0.00699188 -0.00807962 -0.0129979 -0.0203956 -0.0276611 -0.0324371 -0.0337889 -0.0326826 -0.0312095 -0.0316163 -0.0350991 -0.0414773 -0.0494104 -0.0570252 -0.0627521 -0.0657642 -0.0663102 -0.0654009 -0.0643137 -0.0641195 -0.0652868 -0.067468 -0.0697247 -0.0707803 -0.069409 -0.0648652 -0.0569815 -0.0463252 -0.0340566 -0.0217033 -0.0107734 -0.00246329 0.00275348 0.00507764 0.00532438 0.00458652 0.00393788 0.00410886 0.00548119 0.00802883 0.0114885 0.0154237 0.019354 0.0228034 0.025343 0.0267842 0.0271352 0.0266527 0.0256686 0.0245906 0.0237556 0.0234352 0.0237425 0.0246806 0.0261344 0.0279494 0.0298787 0.0316667 0.0330638 0.0338451 0.0338593 0.0330338 0.0313223 0.0287898 0.025533 0.0216206 0.0171517 0.0120909 0.00635936 -0.000139293 -0.00742323 -0.0153362 -0.0234689 -0.0312191 -0.0379656 -0.0432637 -0.0471425 -0.0499711 -0.052317 -0.0546393 -0.0570449 -0.0593062 -0.0611141 -0.0622993 -0.0628084 -0.0627261 -0.0621227 -0.0610766 -0.0596774 -0.0580693 -0.0563328 -0.0543953 -0.0519688 -0.0486882 -0.0443329 -0.0388951 -0.0326409 -0.0259524 -0.0191787 -0.0125438 -0.00619274 -9.02613e-05 0.00579797 0.0114743 0.0169015 0.0219572 0.0265531 0.0304863 0.0336454 0.0359027 0.0371443 0.0373504 0.0364967 0.0346556 0.032009 0.0288341 0.0255171 0.0225401 0.0202833 0.0190916 0.0190778 0.0201679 0.0219498 0.0239275 0.0254814 0.0261435 0.0255857 0.0237443 0.0208221 0.0172304 0.0134686 0.00998921 0.00720711 0.00524311 0.00403693 0.00318801 0.00217362 0.000287454 -0.00310114 -0.00843842 -0.0158495 -0.0250569 -0.0353472 -0.0456923 -0.0549418 -0.062085 -0.0664949 -0.068157 -0.0676051 -0.0658853 -0.0641759 -0.0633925 -0.0638682 -0.0651727 -0.0662187 -0.065735 -0.0627012 -0.0568841 -0.0491198 -0.0410577 -0.0345636 -0.0310043 -0.0305707 -0.0320559 -0.0331986 -0.0318768 -0.0271093 -0.0198143 -0.0123562 -0.00737112 -0.00624138 -0.00824208 -0.0111019 -0.0123504 -0.0108628 -0.00741383 -0.00394108 -0.00213278 -0.00239791 -0.00387191 -0.00523562 -0.00554465 -0.00298454 0 0 
0 0 -0.00229226 -0.00491149 -0.00640254 -0.0071172 -0.00647528 -0.00464879 -0.00287255 -0.00286444 -0.00567078 -0.0107288 -0.015963 -0.0189957 -0.0187273 -0.0161749 -0.0139159 -0.0145974 -0.0193576 -0.0271922 -0.035607 -0.0419934 -0.0449535 -0.0448926 -0.0435763 -0.0432136 -0.0453919 -0.0505023 -0.0577205 -0.0653571 -0.0716828 -0.0754072 -0.076145 -0.0744112 -0.0712857 -0.0680053 -0.0654499 -0.0638464 -0.0627505 -0.0611862 -0.0580114 -0.0522866 -0.0436298 -0.0323888 -0.0196359 -0.00687032 0.00428768 0.0126441 0.017634 0.019469 0.0188753 0.0168593 0.0144376 0.0123864 0.0112133 0.0111037 0.0120907 0.0139284 0.0163425 0.0188907 0.0212607 0.0232079 0.0246819 0.0257363 0.0265175 0.0271263 0.0277089 0.028338 0.0289739 0.029622 0.0301621 0.0305459 0.0306888 0.0304433 0.0297425 0.0285179 0.0267319 0.0244282 0.0216225 0.0184256 0.0148748 0.0110161 0.00679761 0.00211037 -0.00319454 -0.00922978 -0.0159079 -0.0228883 -0.029634 -0.0355038 -0.0400156 -0.0431194 -0.0451229 -0.0466394 -0.0481595 -0.0499007 -0.0517269 -0.0533398 -0.0544248 -0.0548854 -0.0547374 -0.0541184 -0.0531369 -0.0519869 -0.050772 -0.0495744 -0.048247 -0.0464507 -0.0438076 -0.0401207 -0.0354468 -0.0300978 -0.0244296 -0.0187775 -0.0133524 -0.00820764 -0.00328183 0.00149191 0.00615962 0.0107365 0.0151413 0.0192896 0.0230877 0.0264544 0.0292774 0.0315139 0.0330743 0.0339092 0.0339848 0.033298 0.0319597 0.0301195 0.0279934 0.0258826 0.024018 0.0226338 0.021761 0.0212664 0.0209524 0.0205176 0.0197511 0.018545 0.0170131 0.0153862 0.0140649 0.0133343 0.0134472 0.0143446 0.0157272 0.0169706 0.0173484 0.0160533 0.0125164 0.00648041 -0.0018942 -0.0120019 -0.0229112 -0.0335073 -0.0428067 -0.0500922 -0.0551336 -0.0582469 -0.0601551 -0.0617781 -0.0639017 -0.0669011 -0.0705047 -0.0738722 -0.0757795 -0.0751895 -0.0715536 -0.0652713 -0.0576006 -0.050299 -0.0450606 -0.042735 -0.0429718 -0.0442086 -0.0442547 -0.0413281 -0.0350039 -0.0266403 -0.0188137 -0.014004 -0.0132363 -0.0154034 -0.017916 -0.0182392 -0.0153734 -0.0103999 -0.00564476 -0.00311908 -0.00332156 -0.00516688 -0.00693757 -0.00743957 -0.00648859 -0.0032775 0 0 
0 0 -0.00207059 -0.00472266 -0.00651801 -0.00835119 -0.00930745 -0.00862123 -0.00657293 -0.00470209 -0.00505986 -0.00883848 -0.0153489 -0.0221898 -0.0266025 -0.0271961 -0.0248273 -0.0221785 -0.0221807 -0.0264112 -0.0343227 -0.0435962 -0.0514851 -0.056109 -0.0572782 -0.0562532 -0.0551082 -0.0556617 -0.0588819 -0.0644965 -0.0711981 -0.0772861 -0.0811492 -0.0818525 -0.0793702 -0.0744136 -0.0681778 -0.0618016 -0.0560212 -0.0509078 -0.046031 -0.0405554 -0.0336913 -0.0250078 -0.0146927 -0.00352371 0.00729878 0.0165622 0.0234116 0.0274502 0.0288826 0.0281956 0.0260415 0.0230768 0.0198659 0.016832 0.0143692 0.012682 0.011901 0.0119766 0.0128186 0.0143046 0.016288 0.018693 0.0213937 0.0242697 0.0271417 0.0298812 0.0322776 0.034169 0.0354518 0.0359893 0.0357886 0.034813 0.0330758 0.0306262 0.0275378 0.0239139 0.0198839 0.0155701 0.0110851 0.00649157 0.00177995 -0.00318191 -0.0085387 -0.0144291 -0.0208417 -0.0275194 -0.033979 -0.0395963 -0.043842 -0.0466059 -0.0481545 -0.0490934 -0.0500179 -0.0512651 -0.0527847 -0.0542433 -0.0552817 -0.0557088 -0.0555188 -0.0548578 -0.0539337 -0.0529792 -0.052115 -0.0513339 -0.0504344 -0.0490248 -0.0467574 -0.0434441 -0.0391308 -0.0341685 -0.0289077 -0.0236488 -0.0185461 -0.0135997 -0.00872076 -0.00382916 0.00116672 0.00621915 0.0113009 0.016321 0.0211465 0.0256636 0.0297581 0.0332994 0.036141 0.0381536 0.0391803 0.0391192 0.0379405 0.0356365 0.0324356 0.0285633 0.0243807 0.0203259 0.0167065 0.0138066 0.0117687 0.010641 0.010359 0.0108697 0.0120908 0.013942 0.0163837 0.019255 0.0223544 0.025261 0.0274482 0.0282849 0.0271819 0.0237623 0.0179931 0.0101761 0.00101355 -0.00862446 -0.0178499 -0.0259741 -0.0327368 -0.0382711 -0.0431243 -0.0479786 -0.053463 -0.0597729 -0.0666652 -0.0733147 -0.078563 -0.0812389 -0.0806777 -0.0769262 -0.0709337 -0.0642996 -0.0587101 -0.0554588 -0.0547983 -0.0557957 -0.0566799 -0.0554147 -0.0507612 -0.0429074 -0.0336951 -0.025847 -0.0216323 -0.021593 -0.0241543 -0.026426 -0.0257651 -0.0213595 -0.0146292 -0.00832756 -0.00483103 -0.00478336 -0.00693671 -0.00918132 -0.00993173 -0.00888855 -0.00676191 -0.00316893 0 0 
0 0 -0.00203202 -0.00463905 -0.00602209 -0.00833535 -0.0109379 -0.0124878 -0.012012 -0.00985771 -0.00787162 -0.00845421 -0.0129961 -0.020778 -0.0291526 -0.0350298 -0.0366513 -0.0346382 -0.0316304 -0.0307625 -0.034068 -0.0414899 -0.0510754 -0.0600747 -0.0662533 -0.068761 -0.0682545 -0.0664381 -0.0652276 -0.0659881 -0.0690752 -0.0736998 -0.0784463 -0.0816012 -0.0819109 -0.0788058 -0.072533 -0.0640017 -0.0543902 -0.0446916 -0.0355375 -0.0270448 -0.0189951 -0.0110102 -0.00288536 0.00529398 0.0131021 0.0199705 0.0254351 0.0292606 0.0314696 0.032234 0.0317781 0.0302592 0.0278547 0.024698 0.021119 0.0174074 0.0139805 0.0111285 0.00911638 0.00814081 0.00832352 0.00964502 0.0121064 0.0154647 0.0194795 0.0238142 0.0281146 0.0320243 0.035251 0.0375925 0.0388986 0.0391017 0.0382012 0.036221 0.0332917 0.0295192 0.0250888 0.0201984 0.0149941 0.00961566 0.00408569 -0.00163169 -0.00767132 -0.0141363 -0.0210717 -0.0282532 -0.0352164 -0.041347 -0.0460965 -0.0492417 -0.0510212 -0.052003 -0.0528716 -0.0540341 -0.0555606 -0.0571203 -0.0583028 -0.0588247 -0.0586302 -0.0578961 -0.0569262 -0.0559718 -0.0551771 -0.0544708 -0.0535639 -0.0520407 -0.0495552 -0.0459187 -0.0412907 -0.0359605 -0.0303244 -0.0246649 -0.0190647 -0.0135041 -0.00792957 -0.00225832 0.003523 0.00938895 0.0152074 0.0208706 0.0261813 0.0310255 0.0351996 0.0385543 0.040949 0.0422105 0.0422181 0.0408735 0.038187 0.0342511 0.0292794 0.0236251 0.0177982 0.0123625 0.00786061 0.00472694 0.00333288 0.00369638 0.00575464 0.00917591 0.0135186 0.0182868 0.0230101 0.0272084 0.0305486 0.032648 0.0332873 0.0322636 0.0295613 0.0252805 0.0197592 0.0134334 0.00683068 0.000331867 -0.00584273 -0.0118087 -0.0179495 -0.0247678 -0.0326976 -0.0418603 -0.0519203 -0.062042 -0.0710542 -0.0777171 -0.0810904 -0.0809497 -0.0778957 -0.0732348 -0.0686825 -0.065663 -0.0649542 -0.0661733 -0.0679122 -0.0683002 -0.0656801 -0.0594165 -0.050391 -0.0408122 -0.0334283 -0.030151 -0.0310345 -0.0340148 -0.0359778 -0.0342886 -0.0283499 -0.0199532 -0.0122126 -0.00779138 -0.00741431 -0.00968722 -0.0121774 -0.0129773 -0.011661 -0.00911998 -0.00654378 -0.00287614 0 0 
0 0 -0.00245812 -0.0051812 -0.0056345 -0.00746402 -0.0108732 -0.0147166 -0.0172046 -0.0170957 -0.0147873 -0.0124465 -0.0128645 -0.017739 -0.0264526 -0.0362457 -0.0437073 -0.0466328 -0.0452487 -0.0419613 -0.0400461 -0.0419497 -0.048213 -0.0574024 -0.0669684 -0.0744151 -0.0782742 -0.0784751 -0.0762017 -0.0731817 -0.0710772 -0.0707881 -0.0722252 -0.0744579 -0.0760013 -0.0754749 -0.0719063 -0.065022 -0.0552742 -0.0435325 -0.0308943 -0.0183221 -0.00656204 0.00391802 0.0128457 0.0200363 0.0253769 0.0288563 0.0306751 0.0311998 0.0310051 0.0305096 0.0299845 0.0293934 0.0285432 0.027128 0.025005 0.0221931 0.0188902 0.0153777 0.0120303 0.00916907 0.00717233 0.00626425 0.00661144 0.00822786 0.0109566 0.0145693 0.0187338 0.0230714 0.0272558 0.0309109 0.0338301 0.0358135 0.0367362 0.0365731 0.0352888 0.0330237 0.0298526 0.0259695 0.0215192 0.0166642 0.0114735 0.00595435 -6.14187e-06 -0.00649573 -0.0135245 -0.0209349 -0.0282572 -0.034857 -0.0401484 -0.0438239 -0.0460231 -0.047284 -0.048304 -0.0495822 -0.0512709 -0.0530464 -0.0544689 -0.0551435 -0.054977 -0.0541666 -0.0530738 -0.0520391 -0.0511846 -0.050348 -0.0492237 -0.0473658 -0.0444593 -0.0403794 -0.0353071 -0.0295914 -0.0236173 -0.0176657 -0.0118024 -0.00603807 -0.000328176 0.00536494 0.0110072 0.0165105 0.021747 0.026589 0.0308161 0.0343237 0.0369211 0.0385707 0.0391401 0.0386059 0.0369239 0.0341598 0.0304115 0.0258207 0.0207032 0.0153971 0.0103769 0.00612754 0.0031067 0.00169732 0.00211088 0.00427402 0.00795136 0.0126063 0.0176667 0.022492 0.0265696 0.0295585 0.0313277 0.0319232 0.031553 0.0304481 0.028846 0.0268992 0.0247227 0.0222081 0.0191933 0.0153117 0.0101743 0.00334797 -0.00541184 -0.0160808 -0.0281951 -0.0408817 -0.052972 -0.0631779 -0.0704959 -0.0744097 -0.0751724 -0.0737753 -0.0716305 -0.0702561 -0.0705928 -0.0727493 -0.0758119 -0.0781084 -0.0778771 -0.0739591 -0.066443 -0.0568268 -0.0475948 -0.0413034 -0.0393842 -0.0412961 -0.0445894 -0.0459757 -0.0430488 -0.0355682 -0.0257408 -0.0169778 -0.012067 -0.0116629 -0.014107 -0.0166377 -0.017087 -0.0150127 -0.0115701 -0.00842706 -0.00644178 -0.00282305 0 0 
0 0 -0.00346786 -0.00674597 -0.00629712 -0.00689665 -0.00975039 -0.0146791 -0.0200807 -0.0236744 -0.0239279 -0.0212851 -0.0182307 -0.0180077 -0.0227125 -0.031952 -0.042955 -0.0520056 -0.0564504 -0.0559451 -0.0525526 -0.0495133 -0.0496275 -0.0541008 -0.0621266 -0.0715157 -0.0796957 -0.0846515 -0.0856037 -0.0830466 -0.0783847 -0.0733274 -0.069233 -0.0667227 -0.0655233 -0.0646362 -0.0627802 -0.0587839 -0.0519282 -0.0420946 -0.0297047 -0.0156506 -0.00105301 0.0128573 0.0249677 0.0343419 0.0403497 0.0428112 0.0420883 0.0389862 0.0346524 0.0302356 0.0265355 0.023942 0.0223575 0.0214224 0.0207141 0.0198531 0.0186844 0.0171234 0.0152546 0.0132287 0.0112786 0.00966327 0.00865088 0.00841866 0.00904213 0.0104819 0.0126389 0.015292 0.0182147 0.0211524 0.0238506 0.026135 0.0278127 0.0287913 0.0289528 0.0283031 0.0268612 0.0247211 0.021978 0.0187259 0.0150412 0.0109116 0.00624403 0.000903768 -0.00513138 -0.011709 -0.0184322 -0.0246511 -0.0297683 -0.0333597 -0.0354923 -0.0366266 -0.0374718 -0.0385901 -0.0401793 -0.0419909 -0.0435241 -0.0442843 -0.0441309 -0.0432785 -0.0421572 -0.0411525 -0.0403725 -0.0396437 -0.0385742 -0.0367153 -0.0338054 -0.0297966 -0.0249437 -0.0195815 -0.014122 -0.00878955 -0.00368659 0.00118535 0.00587402 0.0103809 0.014674 0.0186615 0.0222565 0.025314 0.0277288 0.029422 0.0303501 0.0305053 0.0298887 0.0285858 0.0266443 0.0242087 0.0213724 0.0183044 0.0151672 0.0121319 0.00945861 0.00736194 0.00607816 0.00577141 0.00653283 0.00826066 0.0107697 0.0137115 0.0167353 0.0194799 0.0217777 0.0235785 0.0250691 0.0264925 0.0281063 0.030052 0.0322353 0.0343576 0.0358742 0.0360689 0.034281 0.0299016 0.0226348 0.0125595 0.000228866 -0.0134416 -0.0271693 -0.0396812 -0.0498611 -0.0571237 -0.0614817 -0.0636191 -0.0646962 -0.0660224 -0.0686128 -0.0727687 -0.0778664 -0.0825671 -0.0851525 -0.0842268 -0.079279 -0.0711062 -0.0616907 -0.0536275 -0.0490903 -0.0489103 -0.0518913 -0.0552579 -0.0557656 -0.0513559 -0.0423469 -0.0313646 -0.0220991 -0.0173181 -0.0174393 -0.0204163 -0.0230647 -0.0229502 -0.0196521 -0.0146841 -0.0102671 -0.00788365 -0.00731306 -0.00345418 0 0 
0 0 -0.00487258 -0.00918793 -0.00862367 -0.00801691 -0.0091924 -0.013262 -0.0198604 -0.0269384 -0.0317029 -0.0322981 -0.0291486 -0.0250303 -0.0236494 -0.0275709 -0.0367902 -0.048613 -0.0591439 -0.0652365 -0.0659122 -0.0627219 -0.0586451 -0.0567579 -0.0588541 -0.0648496 -0.0731306 -0.0812137 -0.086777 -0.0883578 -0.085743 -0.0798265 -0.072158 -0.064379 -0.0576817 -0.0525395 -0.0485887 -0.0449082 -0.0403631 -0.0339363 -0.0250059 -0.0134768 0.000139773 0.0147828 0.0290284 0.0413221 0.0502625 0.0548682 0.0549459 0.0510271 0.0443016 0.0362849 0.0283885 0.021616 0.016497 0.0130393 0.0110745 0.0102379 0.0102191 0.0106615 0.011311 0.0119185 0.0123973 0.0126834 0.0128462 0.0130005 0.0132565 0.0136723 0.0142943 0.015112 0.0160587 0.0170545 0.0180075 0.0188481 0.0194407 0.0197489 0.0196457 0.0191208 0.0181286 0.0167295 0.0149557 0.0128578 0.0104554 0.00770241 0.0044742 0.000635184 -0.00393082 -0.00913096 -0.0146326 -0.0198495 -0.0241361 -0.0270759 -0.0286083 -0.0291488 -0.0293856 -0.0299514 -0.0311316 -0.0326966 -0.0341101 -0.0348401 -0.0346802 -0.0338516 -0.0328321 -0.0320382 -0.0315789 -0.0312471 -0.0305973 -0.029181 -0.0267883 -0.02344 -0.0193971 -0.0150397 -0.0106963 -0.00659506 -0.00277698 0.000764763 0.00407998 0.00723581 0.0101937 0.0129031 0.015304 0.0173269 0.018924 0.0201064 0.0208363 0.0212068 0.0212151 0.0209598 0.0204651 0.0198371 0.0190688 0.0181627 0.0171097 0.015885 0.0144776 0.0129061 0.0112759 0.00968641 0.00830835 0.00728247 0.00678873 0.0068843 0.00767315 0.00918894 0.0115343 0.0147602 0.0189673 0.0240568 0.0298724 0.0359509 0.0416371 0.0461136 0.048504 0.0480567 0.0443111 0.037158 0.027021 0.0147748 0.00158083 -0.0112593 -0.0226028 -0.0317429 -0.0385416 -0.0434663 -0.0474432 -0.051603 -0.0568733 -0.0636607 -0.0715009 -0.079235 -0.0851976 -0.0878608 -0.0863138 -0.0807725 -0.072739 -0.0645031 -0.0584935 -0.0563582 -0.0581648 -0.0621506 -0.0652676 -0.0645657 -0.0584902 -0.0480166 -0.036253 -0.0270576 -0.0230994 -0.0243827 -0.0283658 -0.0313896 -0.030733 -0.0260226 -0.0191499 -0.012923 -0.0093805 -0.00880941 -0.00963837 -0.00493969 0 0 
0 0 -0.00619344 -0.0118176 -0.0125004 -0.0117483 -0.0111631 -0.0127613 -0.0178973 -0.0260942 -0.0348655 -0.0408756 -0.0418586 -0.0381323 -0.0326713 -0.029605 -0.0320681 -0.0405424 -0.0526194 -0.0643581 -0.0721443 -0.0743321 -0.0717341 -0.0669201 -0.0630161 -0.062268 -0.0654075 -0.0714793 -0.0784246 -0.083833 -0.0857788 -0.0833483 -0.0768075 -0.067327 -0.0565721 -0.0461079 -0.0370575 -0.0297396 -0.0238255 -0.0184546 -0.0125306 -0.00511641 0.00433394 0.0157145 0.0282591 0.0406191 0.0511727 0.058387 0.0612483 0.0595607 0.0538854 0.0454665 0.0356972 0.0259217 0.0170874 0.00981006 0.00435535 0.000813092 -0.000890102 -0.000948862 0.000305742 0.00248678 0.00518411 0.00806284 0.0108624 0.0134026 0.0156194 0.0174534 0.0188705 0.0198908 0.0205056 0.0207333 0.0205798 0.0200737 0.0192488 0.0181204 0.0166868 0.0149557 0.0129753 0.010785 0.00846018 0.00603107 0.00353977 0.000912402 -0.0019572 -0.00525426 -0.00912127 -0.0135259 -0.0182475 -0.0227802 -0.0265172 -0.0289787 -0.0300592 -0.0301105 -0.0297939 -0.0298161 -0.0305229 -0.0317759 -0.0330041 -0.0336661 -0.0334908 -0.0327234 -0.0318592 -0.0313329 -0.0312167 -0.0312885 -0.0310226 -0.030021 -0.0280954 -0.0253048 -0.0219306 -0.0183089 -0.0147427 -0.0113808 -0.00825044 -0.0052731 -0.00236583 0.000516698 0.00338464 0.00618835 0.00889118 0.0114007 0.0137294 0.0158443 0.0177176 0.0193644 0.0207445 0.0218568 0.0226914 0.0231825 0.0232507 0.0228152 0.0217501 0.0199659 0.0173982 0.0141039 0.0102408 0.00607199 0.00201092 -0.00145443 -0.00384877 -0.00472822 -0.00377154 -0.000799881 0.00418177 0.0109678 0.0191311 0.0280705 0.0369661 0.0449291 0.0510042 0.0544396 0.0546685 0.0515649 0.0453445 0.0366677 0.0264933 0.0158992 0.0058739 -0.00291983 -0.0102601 -0.0164693 -0.0222503 -0.0285361 -0.0361068 -0.0453048 -0.0558312 -0.0666124 -0.076119 -0.0827069 -0.0851856 -0.0833033 -0.0779418 -0.0710371 -0.0650279 -0.0619279 -0.0626588 -0.0665236 -0.0712552 -0.0737868 -0.071552 -0.0637632 -0.0520525 -0.0400307 -0.0315936 -0.02913 -0.0321419 -0.0375 -0.0410999 -0.0399881 -0.0338848 -0.0250906 -0.0169773 -0.0120787 -0.0109158 -0.0121248 -0.0132554 -0.00702712 0 0 
0 0 -0.0067916 -0.0135134 -0.0168973 -0.0178862 -0.0169074 -0.0158739 -0.0174114 -0.0232441 -0.0328371 -0.0432785 -0.050644 -0.0521718 -0.0479374 -0.0409725 -0.0357935 -0.0361057 -0.0430166 -0.0546156 -0.0670866 -0.0764852 -0.080444 -0.0788975 -0.0738215 -0.0680699 -0.0642743 -0.0638461 -0.0666777 -0.071327 -0.0756616 -0.0775106 -0.0754322 -0.0690012 -0.0588365 -0.0463415 -0.0331975 -0.020937 -0.0105058 -0.00221306 0.00433394 0.0100067 0.0158197 0.0225251 0.0303723 0.0389653 0.047303 0.0540715 0.058071 0.0585737 0.05548 0.0493524 0.0411039 0.031743 0.0221807 0.0131102 0.00511443 -0.00140497 -0.00611135 -0.00885251 -0.00963713 -0.00867858 -0.00632245 -0.00292984 0.00111083 0.00545452 0.00980932 0.0139536 0.0176749 0.0208215 0.0232673 0.0249564 0.0258554 0.0259815 0.0253722 0.0241011 0.0222278 0.019829 0.0169895 0.0138267 0.0104666 0.00701974 0.00354636 7.12044e-05 -0.00353612 -0.00736854 -0.0116175 -0.0162791 -0.0211886 -0.0259099 -0.0298692 -0.0326165 -0.0339362 -0.0341191 -0.0337886 -0.033674 -0.0342382 -0.0353651 -0.0365671 -0.0372333 -0.0370962 -0.0363843 -0.0356172 -0.0351691 -0.0351515 -0.0352368 -0.0349423 -0.0338521 -0.031815 -0.028951 -0.0255196 -0.0218398 -0.0181437 -0.0145516 -0.011036 -0.00751844 -0.00394312 -0.000241282 0.00350845 0.00728485 0.0109575 0.0144727 0.0177252 0.020643 0.0231405 0.0251632 0.026632 0.0274688 0.0276312 0.027058 0.0256834 0.0234803 0.0204095 0.016524 0.0118882 0.0067195 0.00130313 -0.00393356 -0.00844188 -0.0116714 -0.0130836 -0.0122755 -0.00901376 -0.00335552 0.00440165 0.0136655 0.0236631 0.033422 0.0420053 0.0485377 0.0524108 0.0533701 0.0515258 0.047388 0.041667 0.0352116 0.0287486 0.0227695 0.0173276 0.0120979 0.00643561 -0.000434045 -0.00915564 -0.0199624 -0.0324661 -0.0457226 -0.058224 -0.0683572 -0.0747568 -0.076832 -0.0750078 -0.0707352 -0.0661488 -0.0633753 -0.0638548 -0.0676622 -0.0733989 -0.0784507 -0.0799642 -0.0759978 -0.0665967 -0.0541463 -0.0425727 -0.0356844 -0.0353606 -0.0405051 -0.047407 -0.0515628 -0.0499465 -0.042484 -0.0319408 -0.0222534 -0.016371 -0.0148945 -0.0161875 -0.0176862 -0.0171629 -0.00902778 0 0 
0 0 -0.0061012 -0.0130971 -0.0200893 -0.0248437 -0.0260024 -0.0241835 -0.0219994 -0.0228206 -0.0288275 -0.0394929 -0.0515097 -0.0603587 -0.0626986 -0.0581945 -0.0497888 -0.0422471 -0.0398321 -0.0443715 -0.0546422 -0.0671689 -0.0778541 -0.0836611 -0.0836162 -0.0788133 -0.0716711 -0.0649071 -0.0605515 -0.0593317 -0.0606499 -0.0628961 -0.0639968 -0.0622185 -0.0565339 -0.0469106 -0.0342697 -0.020077 -0.00598227 0.00666706 0.0170445 0.0249774 0.0308845 0.0354996 0.039512 0.0432924 0.0468017 0.0495672 0.0509305 0.0504 0.0477983 0.0433274 0.0374414 0.0306709 0.0234369 0.0160792 0.00890361 0.00222784 -0.00356331 -0.00813061 -0.0112342 -0.0127452 -0.0127362 -0.0113217 -0.0087169 -0.00515672 -0.000897494 0.00380073 0.00865898 0.0134201 0.0178412 0.0216929 0.0248086 0.0270816 0.0284376 0.0288818 0.0284122 0.027097 0.025016 0.0222932 0.0190804 0.0155305 0.0117779 0.00787733 0.00381025 -0.000515487 -0.00522329 -0.0103279 -0.0156959 -0.0209371 -0.0255272 -0.028951 -0.0309536 -0.0317261 -0.0318088 -0.0319512 -0.0326076 -0.0338124 -0.035072 -0.0358192 -0.0357929 -0.0351436 -0.0343796 -0.0338773 -0.0336866 -0.0335015 -0.0327877 -0.0312363 -0.0287099 -0.0253621 -0.0214683 -0.0173198 -0.0131462 -0.00901797 -0.00491434 -0.000782619 0.00341364 0.00765191 0.0118494 0.015899 0.0196417 0.0229718 0.0257531 0.0278647 0.0292373 0.0298024 0.0294916 0.0283182 0.0262901 0.0234592 0.0198928 0.0157343 0.0111109 0.00620617 0.00122089 -0.0035966 -0.00792961 -0.0114588 -0.0138059 -0.0146297 -0.0137106 -0.0108581 -0.0061383 0.000230096 0.00783044 0.016071 0.0242654 0.0317185 0.0378063 0.0421342 0.0445575 0.0452615 0.0446418 0.0432441 0.0415225 0.0397821 0.0379631 0.0356568 0.0321806 0.0267942 0.0188622 0.00818314 -0.00487234 -0.0193279 -0.0337618 -0.0464994 -0.0561137 -0.0617281 -0.0634224 -0.0622543 -0.0599878 -0.0586924 -0.0599631 -0.0643833 -0.0711703 -0.0783147 -0.0831241 -0.0831933 -0.0774258 -0.0667887 -0.0543004 -0.0440617 -0.0395204 -0.0419052 -0.0493941 -0.0577435 -0.0622005 -0.0598247 -0.0509348 -0.0388514 -0.0280753 -0.0219111 -0.0209177 -0.0229873 -0.0248555 -0.0240187 -0.0197388 -0.010016 0 0 
0 0 -0.00387362 -0.0098142 -0.0202537 -0.0300285 -0.0360588 -0.0368702 -0.0335195 -0.0294136 -0.0287487 -0.0342496 -0.0454891 -0.0588681 -0.0693108 -0.0728178 -0.0685166 -0.0590244 -0.0491672 -0.0436768 -0.0451415 -0.0531774 -0.0648707 -0.0762051 -0.0836529 -0.085345 -0.0813953 -0.0735357 -0.0643119 -0.0561172 -0.0504549 -0.0476582 -0.0468509 -0.0464146 -0.0446136 -0.0400354 -0.0320558 -0.0209348 -0.00761739 0.00646336 0.0198937 0.0315492 0.0407247 0.0472355 0.0512799 0.0531774 0.0531935 0.051522 0.0482879 0.0436661 0.0380419 0.0319299 0.0259099 0.020363 0.0154679 0.0110932 0.007109 0.00333786 -0.000222984 -0.00347078 -0.00624472 -0.00838709 -0.00979189 -0.0103946 -0.0101155 -0.00896383 -0.00695248 -0.00412579 -0.000644342 0.0033386 0.007582 0.0118725 0.0159476 0.0195906 0.0226373 0.0249468 0.0264629 0.0271086 0.0269229 0.0259464 0.0242853 0.0220706 0.0194251 0.0164639 0.0131552 0.00946694 0.00529842 0.000644288 -0.00439174 -0.00947346 -0.0141141 -0.0177835 -0.0201492 -0.0212812 -0.0216564 -0.021923 -0.0226056 -0.0237425 -0.0249847 -0.0257776 -0.0258506 -0.0253038 -0.0246037 -0.0240778 -0.0237839 -0.0233602 -0.0223905 -0.0205547 -0.0177981 -0.0143204 -0.0104168 -0.00636455 -0.00235713 0.00155201 0.00536542 0.00911389 0.0127748 0.0163221 0.0196024 0.0225168 0.0248982 0.0266537 0.0276681 0.0278632 0.0272276 0.0257541 0.0235261 0.0206152 0.017167 0.0133293 0.00928984 0.00526665 0.00144106 -0.00202583 -0.00499509 -0.00733263 -0.00897637 -0.00985698 -0.00992464 -0.00919284 -0.0076401 -0.00528086 -0.00218031 0.0015936 0.00592147 0.0106502 0.0156364 0.0206522 0.0255698 0.0302264 0.0346046 0.0386886 0.0424656 0.0458247 0.0485149 0.0500784 0.0498683 0.0472479 0.0416706 0.032914 0.0212596 0.00758807 -0.00682901 -0.0204509 -0.0317889 -0.0398697 -0.0444521 -0.0461757 -0.0465078 -0.0472054 -0.0499244 -0.0555428 -0.0637499 -0.0730073 -0.0808732 -0.0848385 -0.0831969 -0.0758285 -0.0645849 -0.0529742 -0.0449812 -0.0435233 -0.0489719 -0.0587673 -0.0681906 -0.0724479 -0.0689231 -0.0584809 -0.0450865 -0.033785 -0.0281488 -0.0286028 -0.0324518 -0.0355592 -0.0346084 -0.0286631 -0.019311 -0.00918116 0 0 
0 0 -0.000323436 -0.00371568 -0.016223 -0.0307754 -0.0433565 -0.0504333 -0.0504518 -0.044935 -0.0381279 -0.0351151 -0.0392565 -0.0503784 -0.0647502 -0.0768138 -0.0819246 -0.0785038 -0.068597 -0.0568465 -0.0482409 -0.0461214 -0.0510088 -0.0608026 -0.0718225 -0.0803242 -0.0836901 -0.081057 -0.0732925 -0.0624799 -0.0510645 -0.0411455 -0.033894 -0.0293569 -0.0266292 -0.0242874 -0.0208159 -0.0151686 -0.00690104 0.00373111 0.0158478 0.0283051 0.0399161 0.049604 0.0566221 0.0604987 0.0610433 0.0582559 0.0524631 0.0442684 0.0346135 0.024607 0.0154061 0.00784057 0.00232085 -0.00121524 -0.00314962 -0.00395321 -0.00410558 -0.00395421 -0.00372134 -0.00353977 -0.00346271 -0.00351879 -0.00359599 -0.00359149 -0.00335368 -0.00271425 -0.00159301 4.76968e-05 0.00217171 0.00466746 0.00739161 0.0101522 0.0128076 0.0151788 0.0171622 0.0186518 0.0195729 0.0199034 0.0196862 0.0189667 0.017837 0.0163616 0.0145315 0.0122891 0.00952543 0.00621923 0.0024278 -0.00159218 -0.00540873 -0.00851331 -0.0105455 -0.0114645 -0.0116366 -0.0116423 -0.0119834 -0.0127621 -0.0137242 -0.014394 -0.0145342 -0.0141623 -0.0136841 -0.0133393 -0.0131838 -0.0128834 -0.0120625 -0.0104804 -0.00813885 -0.00525621 -0.0021383 0.00098535 0.00396572 0.00676525 0.00939053 0.0118683 0.0141791 0.0162881 0.0180892 0.0194738 0.0203415 0.0206422 0.020323 0.0193876 0.0178877 0.0159074 0.0135732 0.0110128 0.0083949 0.0058452 0.00355471 0.00160715 7.88315e-05 -0.0010018 -0.00169611 -0.00207898 -0.0023093 -0.00252946 -0.00285011 -0.00337758 -0.00404966 -0.00474829 -0.00523677 -0.00517982 -0.0041926 -0.00190449 0.00191273 0.00733955 0.014242 0.0222671 0.030915 0.0394865 0.0472484 0.0534028 0.0572186 0.0580469 0.055524 0.0495691 0.040524 0.0291614 0.0166626 0.00435148 -0.0065217 -0.0150076 -0.0208184 -0.024372 -0.0267327 -0.029416 -0.0338684 -0.041006 -0.050814 -0.0621374 -0.0729061 -0.0806478 -0.0832906 -0.0799643 -0.0715572 -0.0606358 -0.0509457 -0.0461157 -0.0482544 -0.0568264 -0.0685209 -0.078361 -0.0817377 -0.0766132 -0.0645574 -0.0501893 -0.0390313 -0.0347925 -0.0376315 -0.0441994 -0.0494318 -0.0491177 -0.0417817 -0.0290728 -0.0148626 -0.00618538 0 0 
0 0 0.0038953 0.0042439 -0.00805579 -0.025464 -0.0442466 -0.0597416 -0.0677803 -0.0667039 -0.0585056 -0.048281 -0.0420233 -0.0438315 -0.0539742 -0.068769 -0.0823595 -0.0894765 -0.0877007 -0.0783099 -0.0654017 -0.0540133 -0.0480395 -0.0489646 -0.055675 -0.0651234 -0.0737008 -0.0782976 -0.077187 -0.0703044 -0.0590179 -0.0455363 -0.0322217 -0.0208978 -0.0125225 -0.00702617 -0.00355585 -0.000823024 0.00245393 0.00723607 0.0139738 0.0224911 0.0321787 0.0420228 0.0508879 0.0576195 0.061243 0.0610853 0.0568756 0.0489448 0.0381557 0.0258433 0.0135176 0.00257665 -0.00601149 -0.0118436 -0.0149772 -0.0157929 -0.0148082 -0.0125821 -0.00963008 -0.00640922 -0.00329669 -0.00058399 0.00156045 0.00312917 0.00414626 0.00481968 0.00526177 0.00565928 0.0061018 0.00665971 0.00732301 0.00806776 0.00882276 0.00952324 0.0100988 0.0105052 0.0106859 0.010607 0.0102766 0.00969513 0.00893754 0.00802176 0.00693269 0.00559235 0.00389318 0.00173957 -0.000850462 -0.00372533 -0.00654393 -0.00888467 -0.0103437 -0.0108513 -0.0106248 -0.0101948 -0.0100304 -0.0102918 -0.0108316 -0.0113086 -0.0114578 -0.0113237 -0.011126 -0.0110796 -0.0111742 -0.0111569 -0.0107076 -0.00962082 -0.00794079 -0.00591266 -0.00374974 -0.00168991 0.000217189 0.00197109 0.00360185 0.00514105 0.00662033 0.00800827 0.00923858 0.0102324 0.0109551 0.0113592 0.0114444 0.0112355 0.0107945 0.0101869 0.00950008 0.00879778 0.00814943 0.00760903 0.00718528 0.00685526 0.00652455 0.00611475 0.00543875 0.0044059 0.00282427 0.000642081 -0.00216715 -0.00547651 -0.00902008 -0.0123873 -0.0150233 -0.016312 -0.015636 -0.0125442 -0.00683303 0.00135701 0.0115146 0.0227999 0.0341195 0.0443118 0.0522813 0.0571667 0.0584349 0.0560344 0.0503389 0.0421627 0.0326226 0.0229451 0.0142738 0.00733524 0.00237299 -0.00103759 -0.00385008 -0.0073737 -0.0128812 -0.0212527 -0.0325275 -0.0457712 -0.0591575 -0.0703477 -0.0771373 -0.0781848 -0.0735988 -0.0650838 -0.0557169 -0.0490829 -0.0482084 -0.0541905 -0.0655528 -0.0784108 -0.0877566 -0.089504 -0.0823839 -0.0688013 -0.0540055 -0.0438208 -0.0419135 -0.0480144 -0.0580367 -0.0660048 -0.0668342 -0.0585295 -0.0427443 -0.0236944 -0.00655656 -0.00136354 0 0 
0 0 0.00788523 0.0124556 0.00284056 -0.0143114 -0.0367244 -0.0600684 -0.0786817 -0.0877275 -0.0854413 -0.0742662 -0.060085 -0.0497786 -0.0482701 -0.0564242 -0.0708612 -0.0856526 -0.0949695 -0.0955392 -0.0876237 -0.074522 -0.0609747 -0.0512026 -0.0475836 -0.0500574 -0.0565434 -0.0638884 -0.0688722 -0.0691546 -0.0637889 -0.0533021 -0.0393596 -0.0242113 -0.0100232 0.00157627 0.00985219 0.0149224 0.0176111 0.0191136 0.0206337 0.0231318 0.0271149 0.0325777 0.0389493 0.0453189 0.0504837 0.0532889 0.052809 0.0485798 0.0408379 0.030371 0.0184822 0.00656298 -0.00410347 -0.0126803 -0.0187443 -0.0222422 -0.0233489 -0.0223982 -0.0197955 -0.0160081 -0.0115236 -0.00680497 -0.00226031 0.00185998 0.00534169 0.00816783 0.0103515 0.0119459 0.0130464 0.0137047 0.0140081 0.0139632 0.0136275 0.013001 0.0121133 0.0109861 0.00966579 0.00816723 0.0065527 0.00485529 0.00314148 0.0014531 -0.000200998 -0.00187774 -0.0036856 -0.00574068 -0.00807444 -0.0106307 -0.013131 -0.015245 -0.0166258 -0.0171137 -0.0168902 -0.016335 -0.0159139 -0.0158421 -0.0160859 -0.0163972 -0.0165868 -0.0166355 -0.016659 -0.0167737 -0.0169538 -0.0169791 -0.0166173 -0.0156928 -0.0143009 -0.0126145 -0.0108399 -0.00911204 -0.00742662 -0.00577705 -0.00408913 -0.00232617 -0.000461055 0.00148663 0.00346573 0.00540267 0.00723763 0.0089169 0.0104143 0.0116999 0.0127809 0.01362 0.0142397 0.0145986 0.014697 0.0144611 0.0138694 0.0128096 0.0112346 0.00905996 0.00625937 0.00286253 -0.00111516 -0.0054991 -0.0100891 -0.0145503 -0.0184698 -0.0213598 -0.0226991 -0.0219932 -0.0188679 -0.0131935 -0.00513219 0.00478591 0.0157463 0.0266561 0.0364261 0.0440132 0.0487234 0.0502202 0.0486645 0.0446609 0.0391163 0.0331341 0.0276735 0.0234493 0.0206351 0.0188337 0.0171455 0.0143691 0.0092785 0.00100509 -0.0105825 -0.0247695 -0.0399102 -0.0538316 -0.0642858 -0.0695823 -0.0692245 -0.0641555 -0.056826 -0.0503744 -0.0479321 -0.0515554 -0.0613114 -0.0748125 -0.0878725 -0.0957546 -0.0951816 -0.0858821 -0.071113 -0.0566706 -0.0484594 -0.0498463 -0.0599767 -0.0739561 -0.0849324 -0.087044 -0.0778409 -0.0590529 -0.0354662 -0.0127418 0.00417689 0.0043348 0 0 
0 0 0.0107963 0.0191679 0.0141242 0.000542579 -0.0214338 -0.0492009 -0.0773779 -0.0993073 -0.109534 -0.106193 -0.0920859 -0.0737399 -0.058835 -0.0531145 -0.0581937 -0.0712587 -0.0865414 -0.0978824 -0.101167 -0.0955264 -0.0832202 -0.0683514 -0.0552087 -0.0468216 -0.0442217 -0.0464574 -0.0511789 -0.0554652 -0.0567051 -0.0532754 -0.0448199 -0.0322382 -0.0172949 -0.00209469 0.011416 0.0218919 0.0287144 0.0320859 0.0327946 0.0319759 0.0308068 0.0302553 0.0308838 0.032692 0.0352184 0.0375826 0.0388111 0.0379999 0.0346756 0.0288711 0.0210928 0.0122126 0.00314431 -0.0052748 -0.0124956 -0.0181385 -0.0220367 -0.0241119 -0.0244177 -0.0231028 -0.0204163 -0.0166917 -0.012294 -0.00755099 -0.00278057 0.00178829 0.00601061 0.00975843 0.0129757 0.015577 0.0175708 0.0188927 0.0195647 0.0195809 0.0189939 0.0178556 0.0162441 0.0142406 0.0119536 0.0094764 0.00691344 0.0043339 0.00180625 -0.000683144 -0.00318517 -0.00579227 -0.0085595 -0.0114482 -0.0142876 -0.0167731 -0.0186217 -0.0196394 -0.0199069 -0.0197062 -0.0194284 -0.0193274 -0.0194627 -0.0197227 -0.0199924 -0.0201519 -0.0202634 -0.0203204 -0.0202926 -0.0200143 -0.019311 -0.0180998 -0.0164584 -0.0145302 -0.0124912 -0.0103981 -0.00826074 -0.00603041 -0.0036551 -0.00111356 0.00159024 0.00439731 0.0072382 0.0100052 0.0126203 0.0149747 0.0169785 0.0185485 0.019633 0.0201672 0.0201269 0.0194542 0.0181462 0.0161763 0.0135757 0.0103379 0.00655817 0.00231979 -0.00220171 -0.00683158 -0.0113361 -0.0154327 -0.0188644 -0.0213436 -0.0226145 -0.0224468 -0.0206691 -0.0171753 -0.0120348 -0.00546445 0.00210899 0.0101127 0.0178402 0.0246422 0.0299397 0.0334268 0.0350656 0.035128 0.034166 0.0328233 0.0317547 0.0313556 0.0317246 0.0324699 0.0328147 0.0317018 0.0280775 0.0211419 0.0106554 -0.00281374 -0.0179647 -0.0328864 -0.0454594 -0.0539304 -0.0573726 -0.0561309 -0.0518154 -0.0470475 -0.044805 -0.0473837 -0.0557286 -0.0688107 -0.0836099 -0.0958604 -0.101479 -0.0982032 -0.0869005 -0.0716528 -0.0585898 -0.0534462 -0.0590286 -0.0737373 -0.0918641 -0.105771 -0.108964 -0.0986556 -0.0766832 -0.0484464 -0.0205308 0.00171553 0.0150589 0.00965079 0 0 
0 0 0.0120928 0.0230494 0.0233015 0.0157303 -0.00160048 -0.028584 -0.061798 -0.0948615 -0.120248 -0.131981 -0.128075 -0.111514 -0.0892497 -0.0695609 -0.0589438 -0.0598728 -0.0703092 -0.0849614 -0.0976173 -0.103464 -0.100536 -0.0898611 -0.074678 -0.0589621 -0.0461372 -0.0382038 -0.0353912 -0.0363889 -0.0389316 -0.0405026 -0.0390821 -0.0335543 -0.0239443 -0.0112633 0.00281686 0.0164184 0.027886 0.0360496 0.0404701 0.0413598 0.0395214 0.0360197 0.0320004 0.0283882 0.025705 0.0240042 0.0229443 0.0219495 0.0204472 0.0180455 0.0146577 0.0104298 0.00567345 0.00071238 -0.00419777 -0.00883181 -0.0129964 -0.0164749 -0.0190663 -0.0206008 -0.0210028 -0.0202801 -0.0185387 -0.0159255 -0.0126051 -0.00879809 -0.00466706 -0.000396541 0.00385589 0.00791175 0.0116205 0.0148418 0.0174622 0.0194132 0.020632 0.0211472 0.0209781 0.0201975 0.0188883 0.0171602 0.0151175 0.0128792 0.0105063 0.00805685 0.00553507 0.00287964 7.36305e-05 -0.00288514 -0.00584501 -0.00857323 -0.0107959 -0.0123161 -0.0131137 -0.0133515 -0.0133182 -0.0132799 -0.0133823 -0.0136311 -0.0139319 -0.0141901 -0.0143138 -0.0142652 -0.013969 -0.0133295 -0.0122635 -0.0107442 -0.00885736 -0.00673998 -0.0045138 -0.00223214 0.000100927 0.0025118 0.00505053 0.00766711 0.0103322 0.012957 0.0154232 0.0176489 0.0195041 0.0208784 0.0216721 0.0218178 0.021252 0.0199851 0.0179904 0.0153432 0.0120982 0.00836726 0.0042667 -5.24848e-05 -0.00438785 -0.00855444 -0.012302 -0.0154491 -0.0177802 -0.0191484 -0.0194835 -0.0187586 -0.0170358 -0.0144315 -0.0111139 -0.00729136 -0.00319803 0.000916853 0.00480496 0.00827264 0.0111972 0.0135814 0.0155605 0.0173827 0.0193769 0.0218632 0.0250591 0.0289755 0.0333401 0.0375853 0.0408812 0.0422492 0.0408063 0.0358917 0.0273756 0.0157112 0.00205023 -0.0120012 -0.0246218 -0.034175 -0.0396723 -0.0411006 -0.0395576 -0.0370567 -0.0360834 -0.0388991 -0.0467955 -0.059544 -0.0751683 -0.0902651 -0.100873 -0.10378 -0.0979503 -0.085341 -0.070733 -0.0603034 -0.0593114 -0.0697878 -0.0892745 -0.111314 -0.127673 -0.131442 -0.119656 -0.0942935 -0.0612905 -0.0281161 -0.00108356 0.0164225 0.0237205 0.0134386 0 0 
0 0 0.0116939 0.0235785 0.0285476 0.0278282 0.0180984 -0.00292711 -0.0346955 -0.0730335 -0.110746 -0.139644 -0.153345 -0.149672 -0.13158 -0.106133 -0.0819192 -0.066047 -0.0618632 -0.068295 -0.0808476 -0.0935653 -0.101258 -0.100983 -0.0925612 -0.0781395 -0.0610689 -0.0448572 -0.032188 -0.0243432 -0.0211251 -0.0211323 -0.0222874 -0.0225019 -0.0201509 -0.0144828 -0.00566357 0.00532629 0.017014 0.0277983 0.0362785 0.0415308 0.0432368 0.0417058 0.037648 0.0320681 0.0259449 0.0200731 0.0149285 0.0106654 0.00722876 0.00446931 0.00223064 0.000431958 -0.00102107 -0.00223102 -0.00337788 -0.0046393 -0.00613017 -0.00785468 -0.00973146 -0.0115716 -0.0131917 -0.0143977 -0.0150704 -0.01513 -0.0145127 -0.0132479 -0.01133 -0.00886093 -0.00591188 -0.00263219 0.000825326 0.00428892 0.00758636 0.0105721 0.0131327 0.0151748 0.0166782 0.0176258 0.0180303 0.0179701 0.0174735 0.0166479 0.0155674 0.01427 0.0127986 0.0111148 0.00920011 0.00704626 0.00475645 0.00252592 0.000586613 -0.000857517 -0.00172021 -0.00204419 -0.00201726 -0.00188643 -0.00185785 -0.00200089 -0.00229215 -0.00260984 -0.00281048 -0.00278319 -0.00244675 -0.00175663 -0.000708243 0.000663962 0.0022478 0.00395333 0.00567662 0.00737383 0.00904045 0.0106877 0.0123351 0.0139299 0.0154338 0.0167327 0.0177513 0.0184053 0.0185764 0.018235 0.0173066 0.0157976 0.0137227 0.0111225 0.00809044 0.00474523 0.00123327 -0.00228997 -0.00565552 -0.00870366 -0.0112592 -0.0132068 -0.0144086 -0.0148385 -0.0144808 -0.0134218 -0.011802 -0.00981235 -0.0076964 -0.00568633 -0.00399055 -0.00273733 -0.00198223 -0.00165821 -0.00160726 -0.00152978 -0.00109113 0.000133251 0.00248633 0.00625048 0.0114942 0.0180209 0.0253459 0.0326921 0.0390725 0.0434576 0.0449002 0.0428271 0.037076 0.028095 0.0168939 0.00492266 -0.00621528 -0.0150765 -0.0207165 -0.0230052 -0.0227357 -0.0215499 -0.0215472 -0.0247931 -0.0326848 -0.045386 -0.0615441 -0.0785188 -0.0928551 -0.10122 -0.101481 -0.0938145 -0.081145 -0.0686368 -0.0622071 -0.0663278 -0.0820617 -0.106082 -0.131318 -0.149227 -0.152785 -0.139056 -0.110215 -0.0726129 -0.0344002 -0.00272817 0.0182736 0.0280726 0.0284787 0.0150291 0 0 
0 0 0.00994271 0.0211196 0.0292318 0.0344966 0.0332115 0.0215467 -0.00267923 -0.0384987 -0.0811733 -0.122964 -0.155274 -0.17143 -0.168991 -0.150632 -0.12317 -0.0951691 -0.0741098 -0.0641463 -0.0653152 -0.0741588 -0.0853674 -0.0937316 -0.0956358 -0.089821 -0.0772523 -0.0604451 -0.0425985 -0.0266763 -0.0147069 -0.00748361 -0.00454382 -0.00450678 -0.00555017 -0.00589805 -0.00427514 -0.000100448 0.00641575 0.014459 0.0228152 0.0302191 0.0355629 0.0381929 0.0379045 0.0349642 0.0299358 0.02357 0.0166009 0.00967593 0.00325899 -0.00224799 -0.00660562 -0.00963071 -0.0112802 -0.0116659 -0.0110578 -0.00985404 -0.0084523 -0.00718484 -0.00625805 -0.00576385 -0.00568833 -0.00595471 -0.00644427 -0.00703663 -0.00759132 -0.00798258 -0.0080912 -0.00783094 -0.00715167 -0.00604977 -0.0045729 -0.00279276 -0.000822284 0.00123044 0.00324565 0.00513455 0.00681366 0.0082438 0.00938078 0.0102181 0.0107911 0.0111035 0.0112107 0.0111297 0.0108779 0.010423 0.00972219 0.00876031 0.00758067 0.00630359 0.00512923 0.0042166 0.00371697 0.00364066 0.00389593 0.00426384 0.00453342 0.00455077 0.00432475 0.00396262 0.00365255 0.00352553 0.00368383 0.00411577 0.00478502 0.00559936 0.00648796 0.00735693 0.0081579 0.00884672 0.00945554 0.00999093 0.0104621 0.010849 0.0111086 0.011184 0.0110335 0.010591 0.0098414 0.00876435 0.00736918 0.00569411 0.00379296 0.00174586 -0.000348137 -0.00237819 -0.00423017 -0.00580333 -0.00701737 -0.00780858 -0.00815713 -0.00806582 -0.00759936 -0.00686236 -0.00598463 -0.00513544 -0.00448024 -0.00419017 -0.0043799 -0.00509997 -0.00630399 -0.00784146 -0.00947121 -0.0108457 -0.011571 -0.011242 -0.00950393 -0.00611261 -0.0010112 0.00564514 0.0133841 0.0215231 0.0291513 0.0352865 0.0390328 0.0397591 0.0372322 0.0317263 0.0240003 0.0152467 0.00681922 -2.36532e-05 -0.00442989 -0.00619114 -0.00588502 -0.00482345 -0.00480793 -0.00769261 -0.0148716 -0.0268253 -0.0427625 -0.0606358 -0.0773924 -0.0899027 -0.0956864 -0.0937907 -0.0854625 -0.0743054 -0.0654962 -0.0643184 -0.0742084 -0.0951317 -0.12295 -0.150227 -0.168437 -0.170802 -0.154658 -0.122441 -0.0807933 -0.0382751 -0.00259382 0.021531 0.033142 0.0344121 0.0288139 0.014392 0 0 
0 0 0.00743911 0.0166888 0.0259631 0.0351168 0.0409888 0.0393783 0.0263553 -0.000113354 -0.0387572 -0.08452 -0.129443 -0.1648 -0.183758 -0.183555 -0.166345 -0.138353 -0.107759 -0.0821165 -0.0662535 -0.0613228 -0.0651023 -0.0732578 -0.0809643 -0.0843218 -0.0812252 -0.0715236 -0.0567297 -0.0393738 -0.0222594 -0.00777014 0.00259086 0.00841071 0.010249 0.00938198 0.00737258 0.00569749 0.00542577 0.00705488 0.010481 0.0151396 0.0201541 0.0246047 0.0276938 0.0289009 0.0280095 0.0250831 0.0204074 0.0144359 0.00768511 0.000734856 -0.00581473 -0.0114206 -0.0156407 -0.0182151 -0.0191182 -0.0185406 -0.0168378 -0.0144102 -0.0116324 -0.00882798 -0.00622533 -0.00399733 -0.00222771 -0.000957769 -0.00016817 0.000206232 0.000257856 0.000108154 -0.000124771 -0.000343872 -0.000482688 -0.000489292 -0.000366501 -0.00011573 0.000219488 0.000606632 0.00100371 0.00138241 0.00172892 0.00201035 0.00224719 0.00243392 0.00258271 0.00270346 0.00277071 0.00276406 0.0026182 0.00230199 0.00180549 0.0011868 0.000560011 7.41299e-05 -0.000139445 -2.86372e-05 0.000372385 0.000882558 0.00129852 0.00144291 0.00129329 0.000938813 0.00057365 0.000343506 0.000342064 0.000543854 0.000882438 0.00125601 0.00161751 0.00191003 0.00211546 0.00223836 0.00230729 0.00236359 0.00241888 0.00248209 0.00251309 0.00251202 0.00245159 0.00231316 0.00210614 0.00180914 0.00146603 0.00108427 0.000701568 0.000355516 6.96555e-05 -0.00011367 -0.000195571 -0.000174066 -8.29913e-05 3.89762e-05 0.000116702 6.29484e-05 -0.000222858 -0.000838495 -0.00185031 -0.00331255 -0.00521056 -0.00749124 -0.0100079 -0.0125591 -0.014875 -0.0166451 -0.0175509 -0.0173056 -0.0156921 -0.012619 -0.00811825 -0.00240604 0.00415438 0.0110256 0.0175612 0.0230883 0.0269658 0.0287446 0.0282519 0.0256557 0.0214782 0.0165378 0.011796 0.00817314 0.00628509 0.0062785 0.00769648 0.00950403 0.0102414 0.0083447 0.0025273 -0.00778955 -0.0222158 -0.039274 -0.0565961 -0.0713756 -0.0810574 -0.0841598 -0.0808344 -0.0731793 -0.0650706 -0.0613122 -0.0662168 -0.0819945 -0.107498 -0.137922 -0.165753 -0.182854 -0.183028 -0.164131 -0.128911 -0.0841688 -0.038589 -9.67803e-05 0.0262665 0.0392242 0.0407895 0.0348579 0.0253862 0.0120555 0 0 
0 0 0.00481924 0.0115456 0.020204 0.0307288 0.0410537 0.0476409 0.0461376 0.032638 0.00526059 -0.0345683 -0.0817588 -0.128472 -0.166142 -0.187935 -0.190752 -0.176045 -0.149166 -0.117571 -0.0885786 -0.0674542 -0.0563605 -0.0543792 -0.0583739 -0.0642622 -0.0682606 -0.0677223 -0.0615566 -0.050216 -0.0353368 -0.0192036 -0.0041472 0.00796778 0.0160509 0.019887 0.0200538 0.0176548 0.0140276 0.0104359 0.0078452 0.00678573 0.00734116 0.00920123 0.0118237 0.014532 0.0166915 0.0177618 0.0173757 0.0153646 0.0117775 0.00686788 0.00107949 -0.00500443 -0.0107638 -0.0156348 -0.0192052 -0.0212748 -0.0218467 -0.0210745 -0.0192038 -0.0165169 -0.0133024 -0.00983102 -0.00635759 -0.00309213 -0.000195772 0.00221782 0.00409782 0.00544543 0.00630282 0.00674525 0.00684835 0.00668298 0.00631472 0.0057922 0.00516216 0.00443749 0.00365834 0.00283585 0.00200672 0.00119145 0.000400351 -0.000332533 -0.000995198 -0.00157436 -0.00208387 -0.0025425 -0.0029947 -0.00348726 -0.00405762 -0.00469181 -0.00533319 -0.00586914 -0.00618697 -0.00621871 -0.00598015 -0.00559356 -0.00523726 -0.00508527 -0.00518731 -0.00546752 -0.00576291 -0.00592217 -0.00587188 -0.0056371 -0.00529059 -0.00491751 -0.00456089 -0.00423746 -0.00393931 -0.00363605 -0.00329766 -0.00287734 -0.00236198 -0.00174551 -0.0010401 -0.000262037 0.000567169 0.00143049 0.00230659 0.0031779 0.00402763 0.00482713 0.00556464 0.00619434 0.00669279 0.00700499 0.00707982 0.00686314 0.00629463 0.00533184 0.00392903 0.00206299 -0.000258918 -0.00299321 -0.00603814 -0.00926 -0.0124676 -0.0154211 -0.0178655 -0.019537 -0.0201912 -0.0196525 -0.0178344 -0.0147851 -0.0106761 -0.00580745 -0.000578051 0.00456454 0.00914434 0.0127505 0.0150743 0.0159676 0.0154875 0.0139171 0.0117416 0.00957073 0.00806547 0.00776336 0.00896299 0.0115869 0.0151075 0.0185895 0.0207924 0.0204255 0.0164092 0.00819866 -0.00398723 -0.0190523 -0.035154 -0.049973 -0.0612511 -0.0673589 -0.0679157 -0.0639696 -0.0581392 -0.0541848 -0.0561722 -0.0672205 -0.0882476 -0.117098 -0.148536 -0.175279 -0.189913 -0.187108 -0.165418 -0.127925 -0.0814281 -0.0344492 0.00521078 0.0324813 0.0459338 0.0474261 0.0408256 0.0304357 0.0196448 0.00884874 0 0 
0 0 0.0025726 0.00678911 0.0136693 0.0234012 0.035113 0.0465123 0.0539512 0.0530994 0.0401857 0.0134652 -0.0256449 -0.0723017 -0.119113 -0.157962 -0.182199 -0.18844 -0.177356 -0.153236 -0.122545 -0.0920569 -0.0671624 -0.0508066 -0.0432754 -0.0427023 -0.0459911 -0.0497917 -0.0512731 -0.0486831 -0.0415419 -0.0305402 -0.0172263 -0.00354086 0.0086418 0.0178666 0.0233385 0.0249677 0.0232901 0.0192666 0.0140647 0.00880395 0.00441045 0.00145477 0.000171099 0.000444891 0.00190436 0.00400105 0.00612311 0.00767382 0.008182 0.00735915 0.00516219 0.00177019 -0.00242175 -0.00693936 -0.0112698 -0.015 -0.0178297 -0.0195982 -0.0202547 -0.0198367 -0.0184531 -0.0162617 -0.0134577 -0.0102634 -0.00689329 -0.00354705 -0.000400223 0.002428 0.00484661 0.00682916 0.00836825 0.00946856 0.0101623 0.0104705 0.0104393 0.010106 0.00950917 0.00869661 0.00771772 0.0066265 0.00546639 0.00428651 0.00312775 0.00202088 0.000984521 1.43541e-05 -0.000900292 -0.00179284 -0.00269268 -0.00360991 -0.0045171 -0.00533292 -0.00595973 -0.0063139 -0.00640003 -0.00629043 -0.00613232 -0.00606387 -0.00614104 -0.00631177 -0.0064532 -0.00643472 -0.00620308 -0.0057775 -0.00522888 -0.00461888 -0.00399839 -0.00336378 -0.00270163 -0.00197565 -0.00116145 -0.000243168 0.000782237 0.00190266 0.00310227 0.00434462 0.00559275 0.00680871 0.0079442 0.00895908 0.00979684 0.0104169 0.0107672 0.0107981 0.0104679 0.00972479 0.00854317 0.00690343 0.00481648 0.00231414 -0.000548554 -0.00367066 -0.00693286 -0.0101643 -0.0131833 -0.0157921 -0.0177832 -0.0189697 -0.0192041 -0.0183934 -0.0165337 -0.0137285 -0.0101965 -0.00625549 -0.00228942 0.00128344 0.00409764 0.00586389 0.0064553 0.0059113 0.00447876 0.00256781 0.000729708 -0.000448638 -0.000421069 0.00118273 0.00446862 0.00918315 0.0147247 0.020139 0.0242831 0.0259826 0.0242884 0.0186892 0.00930743 -0.00302826 -0.0168369 -0.0302288 -0.041257 -0.0483799 -0.0509192 -0.049372 -0.0456087 -0.0423708 -0.0429719 -0.0504887 -0.0667832 -0.0915692 -0.121918 -0.152467 -0.176479 -0.187519 -0.181323 -0.157218 -0.11857 -0.0719956 -0.0255682 0.0133585 0.0399635 0.0528339 0.0536991 0.0462997 0.0349238 0.0231682 0.0132459 0.00559767 0 0 
0 0 0.000952645 0.00310477 0.00777982 0.0153832 0.0259862 0.0386071 0.0509049 0.0592991 0.0596474 0.0484056 0.0239383 -0.0124985 -0.0565586 -0.101582 -0.14017 -0.166063 -0.175713 -0.169039 -0.149184 -0.121437 -0.0917412 -0.0652642 -0.0453973 -0.0333871 -0.0285459 -0.0288455 -0.0316106 -0.0341937 -0.0345398 -0.031511 -0.0249729 -0.0156755 -0.00495653 0.00561186 0.0145596 0.0207948 0.0237573 0.0234445 0.02035 0.0153093 0.00932819 0.00339716 -0.00166014 -0.00527322 -0.00717584 -0.00740874 -0.00627422 -0.0042621 -0.00194475 0.000110081 0.00145498 0.00181498 0.00112573 -0.000495846 -0.00281323 -0.00551924 -0.00831555 -0.0109351 -0.0131532 -0.014803 -0.0157684 -0.0160008 -0.0155031 -0.014335 -0.012606 -0.0104427 -0.00799075 -0.00539514 -0.00277918 -0.000250336 0.00211525 0.0042568 0.00612863 0.0076953 0.00893925 0.00986063 0.0104567 0.0107526 0.0107684 0.0105465 0.0101286 0.00955563 0.00887781 0.00813522 0.00736225 0.00657964 0.00578734 0.00498491 0.00415482 0.00328788 0.00240377 0.00156311 0.000849358 0.000345373 7.14196e-05 -1.1197e-05 -7.01515e-06 -1.31445e-06 -5.35972e-05 -0.000127274 -0.00014641 -1.29214e-05 0.000305424 0.000799349 0.00140051 0.00205434 0.00271784 0.00338802 0.00407725 0.00480606 0.00557914 0.00639222 0.00722732 0.00806703 0.00887287 0.00960632 0.0102219 0.0106774 0.0109297 0.0109413 0.0106723 0.0100998 0.00919316 0.00794794 0.00635938 0.00444476 0.00223567 -0.000210239 -0.00281404 -0.00548157 -0.00809042 -0.0105111 -0.0126003 -0.014221 -0.0152596 -0.0156175 -0.0152449 -0.0141446 -0.012371 -0.0100504 -0.00737955 -0.00461833 -0.00206792 -2.60746e-05 0.00123855 0.00155095 0.000867021 -0.000704841 -0.00288038 -0.00524013 -0.00725483 -0.00838266 -0.00813947 -0.00620732 -0.00251755 0.00268541 0.00883871 0.0151014 0.0204526 0.0238444 0.0244049 0.0216106 0.0154567 0.0065023 -0.00413782 -0.0149726 -0.024396 -0.0310485 -0.0341585 -0.0338529 -0.0312674 -0.0284693 -0.0281931 -0.033041 -0.0450149 -0.064804 -0.0911669 -0.120732 -0.148357 -0.168132 -0.174793 -0.165211 -0.139467 -0.101088 -0.0563007 -0.0124683 0.0237849 0.0481342 0.0593297 0.0589979 0.0506624 0.0384362 0.0258651 0.0152491 0.00753658 0.00289593 0 0 
0 0 -1.38006e-05 0.000710514 0.00335538 0.00840953 0.0164792 0.0275849 0.0407285 0.0536597 0.0630265 0.065014 0.056373 0.0355514 0.00351991 -0.0360636 -0.0774938 -0.114307 -0.140836 -0.15353 -0.151659 -0.137243 -0.114295 -0.0877042 -0.0620804 -0.0408864 -0.0259925 -0.0176877 -0.0149685 -0.0159945 -0.0185995 -0.0207888 -0.0211032 -0.0188162 -0.01396 -0.00719092 0.000434351 0.00772493 0.0136033 0.0172929 0.0184172 0.0170271 0.0135342 0.0086201 0.0030854 -0.00227615 -0.00679479 -0.00999897 -0.0116739 -0.0118566 -0.0107976 -0.00889044 -0.00659655 -0.00434391 -0.00248116 -0.00121834 -0.000656108 -0.000784693 -0.00152308 -0.00275019 -0.00430998 -0.00602932 -0.0077339 -0.00926213 -0.0104855 -0.0113042 -0.0116688 -0.01157 -0.0110278 -0.0100932 -0.00883074 -0.00731438 -0.00561765 -0.00380576 -0.0019497 -0.000108894 0.00165008 0.00328335 0.00474991 0.00602463 0.00708884 0.00794186 0.00859364 0.00905619 0.00935582 0.00951943 0.00957437 0.00953885 0.00942225 0.00922531 0.00894374 0.00857065 0.00812669 0.00764824 0.00720594 0.00686209 0.0066558 0.00657316 0.00656537 0.00657233 0.00656041 0.00654105 0.00656002 0.00666761 0.00688965 0.00720931 0.00758075 0.00794955 0.00828742 0.0085809 0.00884289 0.00907101 0.00926618 0.00941295 0.00949529 0.00948948 0.00936741 0.00909948 0.00866174 0.00803116 0.00719858 0.00615455 0.00490365 0.00345661 0.00183283 7.11316e-05 -0.00178903 -0.00368375 -0.00554778 -0.00730014 -0.00886018 -0.0101439 -0.0110722 -0.0115793 -0.0116167 -0.011173 -0.0102657 -0.00895204 -0.00733621 -0.00554984 -0.00375806 -0.00214608 -0.000907296 -0.000219868 -0.000214137 -0.000958161 -0.00242537 -0.00447146 -0.006851 -0.00920978 -0.0111405 -0.012219 -0.0120873 -0.0105092 -0.00743742 -0.00305073 0.00221977 0.00774056 0.0127356 0.0164033 0.0180397 0.0171996 0.0137923 0.00816226 0.00105764 -0.00645563 -0.0131883 -0.0180716 -0.020432 -0.0202129 -0.01812 -0.0155944 -0.0146174 -0.0173489 -0.0256468 -0.040488 -0.0615944 -0.0871082 -0.113585 -0.136439 -0.150804 -0.152689 -0.140081 -0.113707 -0.0770959 -0.0358871 0.00348781 0.0353523 0.0560673 0.064666 0.0626939 0.0533844 0.040533 0.0274704 0.0164248 0.00836877 0.00327549 0.00101399 0 0 
0 0 -0.000451509 -0.000537438 0.000591079 0.00337473 0.00857243 0.0167542 0.0279182 0.0411327 0.0543538 0.0645827 0.0684284 0.0629788 0.0467409 0.0203223 -0.0134178 -0.0498541 -0.0835951 -0.109712 -0.124806 -0.127649 -0.119237 -0.102318 -0.0806096 -0.0579277 -0.0374786 -0.0214361 -0.0107933 -0.00543863 -0.00439102 -0.00613862 -0.00902405 -0.0115713 -0.0127299 -0.0119881 -0.00937151 -0.00534053 -0.000631548 0.00393091 0.00759363 0.00980885 0.0103017 0.00908944 0.00644557 0.0028299 -0.00120684 -0.00510955 -0.00840576 -0.0107673 -0.012044 -0.0122495 -0.0115378 -0.0101506 -0.00836405 -0.00644384 -0.00461003 -0.00303886 -0.00185022 -0.00111665 -0.000866289 -0.00107316 -0.00167194 -0.0025625 -0.00363182 -0.0047629 -0.0058465 -0.00679288 -0.00753786 -0.00803344 -0.00825998 -0.0082097 -0.00789304 -0.00732751 -0.00654277 -0.0055729 -0.00446688 -0.00327323 -0.00203604 -0.000802188 0.00039462 0.00152066 0.00255846 0.00349905 0.00433554 0.00507102 0.00571079 0.0062579 0.00671589 0.00707645 0.00733408 0.00748366 0.00752899 0.00749382 0.00741801 0.00734741 0.00731665 0.00733069 0.00737526 0.00741879 0.00744553 0.00745004 0.00745252 0.00747175 0.00752192 0.00758736 0.00764049 0.00764659 0.00758376 0.00744532 0.00723516 0.00695588 0.00660718 0.00618177 0.00567177 0.00506499 0.00435561 0.00353588 0.00260807 0.00158039 0.000465567 -0.000716404 -0.00193458 -0.00315878 -0.004346 -0.00545522 -0.00644174 -0.00725747 -0.00785862 -0.00820706 -0.00827588 -0.00805007 -0.00753587 -0.00675468 -0.0057598 -0.00462132 -0.00343574 -0.00231549 -0.00137936 -0.00074029 -0.000502513 -0.00074083 -0.00149364 -0.00274169 -0.00440718 -0.00635037 -0.00836504 -0.0102019 -0.0115877 -0.0122602 -0.0120108 -0.0107233 -0.00841487 -0.00524241 -0.00151861 0.00231875 0.00575564 0.00827754 0.00944947 0.00900763 0.00692782 0.00346523 -0.000859087 -0.00532202 -0.00912759 -0.0115601 -0.0121742 -0.0109475 -0.00838855 -0.00553622 -0.00385136 -0.00497266 -0.0103951 -0.021081 -0.0370893 -0.0574547 -0.0800413 -0.101661 -0.118517 -0.126911 -0.124106 -0.10911 -0.0831457 -0.0495905 -0.0133488 0.0202133 0.0464935 0.062647 0.068068 0.064242 0.0540673 0.0409198 0.0277838 0.0166918 0.0085666 0.0033981 0.000623564 -6.19347e-05 0 0 
0 0 -0.000544156 -0.000967527 -0.000764241 0.000384217 0.00313763 0.00821355 0.0161349 0.0269089 0.0397287 0.0528321 0.0636448 0.0692459 0.067076 0.055693 0.0353284 0.00803584 -0.0226408 -0.0524021 -0.0771173 -0.0936685 -0.100504 -0.0977823 -0.0871287 -0.0711251 -0.0527073 -0.0346297 -0.0190888 -0.00748814 -0.000375263 0.00249314 0.00196252 -0.000771216 -0.00442582 -0.00786072 -0.0102399 -0.0111126 -0.010414 -0.00840238 -0.00555424 -0.00244404 0.000372512 0.00244894 0.00350672 0.00345944 0.00239834 0.000554259 -0.00175883 -0.00420115 -0.00646768 -0.00832492 -0.0096251 -0.01031 -0.0103937 -0.00994555 -0.00906786 -0.0078814 -0.00652142 -0.00512 -0.00380411 -0.00267655 -0.00180698 -0.00122904 -0.000943994 -0.000928956 -0.00114079 -0.00152514 -0.00202426 -0.00258172 -0.00314398 -0.00366495 -0.00410544 -0.0044352 -0.00463219 -0.00468614 -0.00459412 -0.00437034 -0.00403042 -0.00359828 -0.00309572 -0.00254763 -0.00197454 -0.00139059 -0.000811178 -0.000247766 0.000291442 0.000799922 0.00127088 0.00169246 0.00205294 0.00234212 0.00255196 0.00268992 0.00277117 0.00282053 0.00286095 0.00290676 0.00295877 0.00301053 0.00305061 0.00307145 0.00307185 0.00305511 0.00302192 0.00296741 0.00287802 0.00273921 0.00254099 0.00228329 0.00196923 0.00160826 0.00120382 0.000759577 0.000277295 -0.000241605 -0.000790042 -0.00135938 -0.00193721 -0.00250641 -0.0030502 -0.00354559 -0.00397024 -0.00430397 -0.00452511 -0.00462179 -0.00458104 -0.00440259 -0.00409085 -0.00366133 -0.00314117 -0.00256763 -0.00198696 -0.00145565 -0.00103548 -0.000788744 -0.000774576 -0.0010368 -0.00159855 -0.00245867 -0.00358623 -0.00491816 -0.00635646 -0.00777449 -0.00902794 -0.00996104 -0.0104302 -0.01032 -0.00956633 -0.00817603 -0.00624082 -0.00394167 -0.00153436 0.000672351 0.0023527 0.00321802 0.00306908 0.00184384 -0.00034648 -0.00320964 -0.00629404 -0.00904954 -0.010913 -0.0114276 -0.0103546 -0.00778116 -0.00417536 -0.000388085 0.00243394 0.00300602 0.00013884 -0.00700343 -0.0186495 -0.0342312 -0.0522668 -0.070616 -0.0865616 -0.0971853 -0.0999176 -0.0931397 -0.0766931 -0.0521206 -0.0225228 0.00799061 0.0351412 0.0554009 0.0667257 0.068885 0.0633124 0.0525548 0.039519 0.0267682 0.0160569 0.0081895 0.00315788 0.000437645 -0.00067688 -0.000517112 0 0 
0 0 -0.000461496 -0.000930096 -0.00115909 -0.00096334 0.00011424 0.00268793 0.00740688 0.0147438 0.0247269 0.0366967 0.0491987 0.0601001 0.0669584 0.067576 0.0605924 0.0459289 0.0249391 0.000202638 -0.0249886 -0.0473015 -0.064008 -0.0734468 -0.0752139 -0.0700733 -0.0596606 -0.0460829 -0.0315459 -0.0180314 -0.00704851 0.000504715 0.00437575 0.00488619 0.00278675 -0.000931265 -0.00522602 -0.00917194 -0.0120794 -0.0135551 -0.0135083 -0.0121119 -0.00972822 -0.00682133 -0.00387039 -0.0012954 0.000594462 0.00162905 0.00177591 0.00112095 -0.000164373 -0.00186432 -0.00375139 -0.00561189 -0.00726526 -0.00857014 -0.00943399 -0.00981008 -0.00969992 -0.00914998 -0.00824105 -0.00707836 -0.00577306 -0.00442963 -0.00313778 -0.00196987 -0.000976681 -0.000189954 0.000379628 0.000734938 0.000892576 0.000878334 0.000725238 0.000469047 0.000148358 -0.000203695 -0.000554226 -0.000881356 -0.00117053 -0.0014122 -0.00160345 -0.00174253 -0.00183263 -0.00187822 -0.00188374 -0.00185583 -0.00180053 -0.00172316 -0.0016302 -0.00152988 -0.00143441 -0.00135574 -0.00130268 -0.00128033 -0.00128593 -0.00131253 -0.00134713 -0.00137479 -0.00138513 -0.00137398 -0.00134551 -0.00130789 -0.00127239 -0.00124672 -0.00123507 -0.00123811 -0.00125671 -0.00129337 -0.00134827 -0.00141884 -0.00149967 -0.00158404 -0.00166551 -0.00173902 -0.00179989 -0.0018437 -0.00186454 -0.00185407 -0.00180557 -0.00171386 -0.00157348 -0.00138104 -0.00113826 -0.000849115 -0.000524565 -0.000180263 0.000163116 0.000476605 0.000729675 0.000886256 0.000911184 0.000771696 0.000440271 -0.000103988 -0.00086729 -0.00184214 -0.0029982 -0.00428555 -0.00563139 -0.00694717 -0.00812939 -0.00906955 -0.0096625 -0.0098212 -0.00948661 -0.00863971 -0.00731413 -0.00559964 -0.0036473 -0.00165912 0.000124117 0.00145113 0.00209233 0.00187364 0.000718108 -0.00132617 -0.00406891 -0.00718123 -0.0102252 -0.0127074 -0.0141545 -0.0141991 -0.0126697 -0.00966293 -0.00558294 -0.00113392 0.00274379 0.00499283 0.00460896 0.000832889 -0.00666 -0.0176154 -0.0311283 -0.0456723 -0.0592242 -0.069615 -0.0747552 -0.0730208 -0.0636509 -0.0470475 -0.0248621 0.000191529 0.0247974 0.0456794 0.0602699 0.0672206 0.0666088 0.0597873 0.0489423 0.0365042 0.0245956 0.0146653 0.00737088 0.00268609 0.000142119 -0.000906607 -0.00106257 -0.000587088 0 0 
0 0 -0.000321981 -0.00069679 -0.0010318 -0.00124678 -0.00108284 -0.000124441 0.00216735 0.00635255 0.0128373 0.0216592 0.0322994 0.0436026 0.0538709 0.061143 0.0636129 0.0600776 0.050279 0.0350396 0.0161424 -0.00401332 -0.0228809 -0.0382393 -0.0485568 -0.0531759 -0.0523143 -0.0468919 -0.0382921 -0.0281145 -0.0179258 -0.00904825 -0.00240913 0.00152942 0.00276638 0.00168885 -0.00104771 -0.00465658 -0.00835734 -0.011488 -0.0135797 -0.0143947 -0.013922 -0.0123425 -0.00997051 -0.00718989 -0.00438914 -0.0019089 -2.62333e-06 0.00117939 0.00159126 0.00127773 0.000352981 -0.00102312 -0.00266586 -0.00438732 -0.00601073 -0.00738841 -0.008408 -0.00900309 -0.00915225 -0.00887725 -0.00823236 -0.00729428 -0.00614817 -0.00488168 -0.00357777 -0.00230861 -0.0011344 -9.93555e-05 0.000767072 0.00144924 0.00194594 0.00226501 0.00242509 0.00244936 0.00236344 0.00219429 0.00196539 0.00169775 0.00140775 0.00111007 0.000814702 0.000529098 0.000258771 8.36323e-06 -0.000220442 -0.000425239 -0.000607153 -0.000766565 -0.000909697 -0.00104197 -0.00116917 -0.00129653 -0.00142715 -0.00155999 -0.0016878 -0.00179761 -0.00187458 -0.00190875 -0.00189903 -0.00185313 -0.00178407 -0.00170427 -0.00162044 -0.0015341 -0.00144235 -0.00134087 -0.00122748 -0.00110056 -0.000958991 -0.000800567 -0.000623525 -0.000426756 -0.000211698 2.33422e-05 0.000276345 0.000547481 0.000833328 0.00112872 0.00142616 0.00171487 0.00197979 0.00220453 0.0023679 0.00244776 0.00241948 0.00225995 0.0019471 0.00146211 0.000796843 -4.92403e-05 -0.00106322 -0.00221897 -0.00347453 -0.00477148 -0.00603774 -0.00719071 -0.00814262 -0.00880865 -0.00911295 -0.00900033 -0.00844537 -0.00746079 -0.00610191 -0.00447039 -0.0027087 -0.00099651 0.00046737 0.00148042 0.00186494 0.00149217 0.0003099 -0.00163702 -0.00419317 -0.00709696 -0.0099977 -0.012496 -0.0141978 -0.0147778 -0.0140458 -0.0120051 -0.00888869 -0.00516335 -0.00149353 0.00133445 0.00252468 0.00141034 -0.00240763 -0.00893765 -0.0177262 -0.0278484 -0.0379799 -0.0465391 -0.0519683 -0.0528582 -0.0482854 -0.0380383 -0.0227719 -0.00401029 0.0160367 0.0348358 0.0499989 0.0597514 0.0632732 0.0608202 0.0535891 0.0433755 0.032131 0.0215453 0.0127683 0.00631743 0.00215635 -0.000117334 -0.00105887 -0.00120238 -0.000953841 -0.000472145 0 0 
0 0 -0.000187098 -0.000427856 -0.000697375 -0.000980006 -0.00116017 -0.00101271 -0.000193629 0.00173097 0.0052022 0.0105346 0.0177578 0.0264829 0.0358505 0.0446008 0.0512745 0.0545077 0.0533423 0.0474702 0.0373352 0.0240681 0.00927023 -0.00529081 -0.0179967 -0.0276317 -0.033539 -0.0356403 -0.0343314 -0.0303676 -0.0247179 -0.0184074 -0.0123729 -0.00735064 -0.0038079 -0.00192237 -0.00160595 -0.00256215 -0.00436324 -0.00653405 -0.00862641 -0.0102782 -0.0112499 -0.0114377 -0.0108645 -0.00965585 -0.00800595 -0.00614096 -0.00428367 -0.00262654 -0.00131409 -0.000435337 -2.41737e-05 -6.54443e-05 -0.000503133 -0.00125138 -0.00220446 -0.00324898 -0.0042746 -0.00518452 -0.00590382 -0.00638423 -0.00660447 -0.00656775 -0.00629542 -0.00582158 -0.00518875 -0.00444277 -0.00362965 -0.00279227 -0.00196791 -0.00118771 -0.000474947 0.000154869 0.000693215 0.0011391 0.00149556 0.00177019 0.00197193 0.00211035 0.00219457 0.00223271 0.00223216 0.00219927 0.00214014 0.00206076 0.00196661 0.00186255 0.00175256 0.00163993 0.00152672 0.00141356 0.00129938 0.00118186 0.00105861 0.00093066 0.000804208 0.000691225 0.000606608 0.000562219 0.000562121 0.000601075 0.000667765 0.000749558 0.000837577 0.000928697 0.00102452 0.00112853 0.00124206 0.00136372 0.00149053 0.0016191 0.00174576 0.00186673 0.00197788 0.00207555 0.00215574 0.00221408 0.00224555 0.00224453 0.00220435 0.002117 0.00197404 0.00176669 0.00148628 0.00112569 0.000679467 0.000145923 -0.000473584 -0.00117136 -0.00193319 -0.00273843 -0.00355882 -0.00435918 -0.00509817 -0.00573052 -0.00621051 -0.00649545 -0.00655126 -0.0063565 -0.00590759 -0.00522299 -0.00434526 -0.00334128 -0.00229949 -0.0013251 -0.000531453 -3.0299e-05 8.19869e-05 -0.000262884 -0.0010906 -0.00237429 -0.00402761 -0.00590534 -0.00781238 -0.00952223 -0.0108049 -0.0114619 -0.0113625 -0.010478 -0.00890573 -0.0068785 -0.00475258 -0.00297154 -0.00200843 -0.00229139 -0.00412036 -0.00758908 -0.0125271 -0.0184745 -0.0247027 -0.0302804 -0.0341853 -0.0353944 -0.0333527 -0.0275006 -0.0179258 -0.00529234 0.00919 0.0239111 0.037112 0.0471993 0.053047 0.0542124 0.0510011 0.0443659 0.0356634 0.0263454 0.0176654 0.010479 0.00517347 0.00171995 -0.000193718 -0.00100535 -0.00114526 -0.000953841 -0.000650018 -0.00030028 0 0 
0 0 -8.16327e-05 -0.000190578 -0.000329488 -0.000496107 -0.000651498 -0.000704611 -0.000500672 0.000174945 0.00156711 0.0038917 0.00725455 0.0115695 0.0165055 0.0214894 0.0257785 0.0285958 0.0292958 0.0275179 0.0232825 0.0170049 0.00942003 0.00144307 -0.00599923 -0.0121253 -0.0164127 -0.018637 -0.0188523 -0.017351 -0.0145981 -0.0111489 -0.00756428 -0.00433568 -0.00182887 -0.000252747 0.000346522 6.64794e-05 -0.000886914 -0.00224452 -0.00372147 -0.00505829 -0.00605308 -0.00657994 -0.00659485 -0.00612839 -0.00527051 -0.00414992 -0.00291208 -0.00169863 -0.000631341 0.000198097 0.000732696 0.000951325 0.000864993 0.000512358 -4.75475e-05 -0.00074227 -0.00149504 -0.00223197 -0.00288929 -0.00341794 -0.00378592 -0.00397818 -0.00399505 -0.00384856 -0.00355954 -0.003155 -0.00266465 -0.00211924 -0.00154797 -0.000977023 -0.000428955 7.92282e-05 0.000534662 0.00093006 0.00126235 0.00153195 0.00174162 0.00189584 0.00200012 0.00205975 0.00208055 0.00206796 0.00202768 0.00196513 0.00188605 0.00179497 0.00169634 0.00159341 0.00148981 0.00138758 0.00128771 0.00118977 0.00109314 0.000998795 0.000909914 0.000832682 0.000774766 0.000742493 0.000738331 0.000759961 0.000801804 0.000857513 0.000922177 0.000993992 0.00107343 0.00116168 0.00125884 0.00136342 0.00147306 0.00158444 0.001694 0.00179787 0.00189238 0.00197287 0.00203544 0.00207498 0.00208653 0.00206465 0.00200368 0.00189751 0.00174077 0.00152806 0.00125554 0.000921465 0.000526462 7.40665e-05 -0.000428316 -0.000968137 -0.00152935 -0.00209091 -0.00262825 -0.00311297 -0.00351496 -0.00380474 -0.00395538 -0.00394585 -0.00376406 -0.00340969 -0.00289731 -0.00225729 -0.00153558 -0.000792009 -9.66456e-05 0.000475749 0.00085213 0.000970039 0.000785461 0.000281989 -0.000523641 -0.00157694 -0.002787 -0.00403153 -0.00516822 -0.00605048 -0.00654858 -0.00657132 -0.00608637 -0.00513537 -0.00384107 -0.00240193 -0.00107388 -0.000138773 0.000136249 -0.000454034 -0.00200802 -0.00448161 -0.00766909 -0.0112086 -0.0146123 -0.0173224 -0.0187835 -0.0185251 -0.0163232 -0.0120722 -0.00598459 0.00141593 0.00935056 0.0168968 0.0231441 0.0273608 0.0291333 0.0284404 0.0256406 0.0213759 0.0164191 0.0115093 0.00721679 0.00387112 0.00155823 0.000173092 -0.000498683 -0.000700215 -0.000644272 -0.000483395 -0.000304738 -0.000137669 0 0 
0 0 0 0 0 0 0 0 0 0 0 0 0 0 0 0 0 0 0 0 0 0 0 0 0 0 0 0 0 0 0 0 0 0 0 0 0 0 0 0 0 0 0 0 0 0 0 0 0 0 0 0 0 0 0 0 0 0 0 0 0 0 0 0 0 0 0 0 0 0 0 0 0 0 0 0 0 0 0 0 0 0 0 0 0 0 0 0 0 0 0 0 0 0 0 0 0 0 0 0 0 0 0 0 0 0 0 0 0 0 0 0 0 0 0 0 0 0 0 0 0 0 0 0 0 0 0 0 0 0 0 0 0 0 0 0 0 0 0 0 0 0 0 0 0 0 0 0 0 0 0 0 0 0 0 0 0 0 0 0 0 0 0 0 0 0 0 0 0 0 0 0 0 0 0 0 0 0 0 0 0 0 0 0 0 0 0 0 0 0 0 0 0 0 0 0 0 0 0 0 
0 0 0 0 0 0 0 0 0 0 0 0 0 0 0 0 0 0 0 0 0 0 0 0 0 0 0 0 0 0 0 0 0 0 0 0 0 0 0 0 0 0 0 0 0 0 0 0 0 0 0 0 0 0 0 0 0 0 0 0 0 0 0 0 0 0 0 0 0 0 0 0 0 0 0 0 0 0 0 0 0 0 0 0 0 0 0 0 0 0 0 0 0 0 0 0 0 0 0 0 0 0 0 0 0 0 0 0 0 0 0 0 0 0 0 0 0 0 0 0 0 0 0 0 0 0 0 0 0 0 0 0 0 0 0 0 0 0 0 0 0 0 0 0 0 0 0 0 0 0 0 0 0 0 0 0 0 0 0 0 0 0 0 0 0 0 0 0 0 0 0 0 0 0 0 0 0 0 0 0 0 0 0 0 0 0 0 0 0 0 0 0 0 0 0 0 0 0 0 0 
</DataArray>
</PointData>
</Piece>
</ImageData>
</VTKFile>
