<?xml version="1.0"?>
<VTKFile type="ImageData" version="0.1" byte_order="LittleEndian">
<ImageData WholeExtent="0 199 0 199 0 0" Origin="0 0 0" Spacing="15 15 0">
<Piece Extent="0 199 0 199 0 0">
<PointData Scalars="Amplitude">
<DataArray type="Float32" Name="Amplitude" format="ascii">
0 0 0 0 0 0 0 0 0 0 0 0 0 0 0 0 0 0 0 0 0 0 0 0 0 0 0 0 0 0 0 0 0 0 0 0 0 0 0 0 0 0 0 0 0 0 0 0 0 0 0 0 0 0 0 0 0 0 0 0 0 0 0 0 0 0 0 0 0 0 0 0 0 0 0 0 0 0 0 0 0 0 0 0 0 0 0 0 0 0 0 0 0 0 0 0 0 0 0 0 0 0 0 0 0 0 0 0 0 0 0 0 0 0 0 0 0 0 0 0 0 0 0 0 0 0 0 0 0 0 0 0 0 0 0 0 0 0 0 0 0 0 0 0 0 0 0 0 0 0 0 0 0 0 0 0 0 0 0 0 0 0 0 0 0 0 0 0 0 0 0 0 0 0 0 0 0 0 0 0 0 0 0 0 0 0 0 0 0 0 0 0 0 0 0 0 0 0 0 0 
0 0 0 0 0 0 0 0 0 0 0 0 0 0 0 0 0 0 0 0 0 0 0 0 0 0 0 0 0 0 0 0 0 0 0 0 0 0 0 0 0 0 0 0 0 0 0 0 0 0 0 0 0 0 0 0 0 0 0 0 0 0 0 0 0 0 0 0 0 0 0 0 0 0 0 0 0 0 0 0 0 0 0 0 0 0 0 0 0 0 0 0 0 0 0 0 0 0 0 0 0 0 0 0 0 0 0 0 0 0 0 0 0 0 0 0 0 0 0 0 0 0 0 0 0 0 0 0 0 0 0 0 0 0 0 0 0 0 0 0 0 0 0 0 0 0 0 0 0 0 0 0 0 0 0 0 0 0 0 0 0 0 0 0 0 0 0 0 0 0 0 0 0 0 0 0 0 0 0 0 0 0 0 0 0 0 0 0 0 0 0 0 0 0 0 0 0 0 0 0 
0 0 1.77002e-19 2.97373e-18 1.50097e-17 7.12068e-17 3.81895e-17 -1.79564e-15 -1.3086e-14 -4.35819e-14 -3.27048e-15 7.80642e-13 4.56925e-12 1.39735e-11 1.48773e-11 -8.68989e-11 -5.81942e-10 -1.92635e-09 -3.79892e-09 -1.79927e-09 1.89394e-08 8.8637e-08 2.39086e-07 4.3807e-07 4.36636e-07 -4.65201e-07 -3.61903e-06 -1.08775e-05 -2.34696e-05 -3.91498e-05 -4.71552e-05 -2.15027e-05 8.50838e-05 0.000342375 0.000833681 0.00163276 0.0027671 0.00417526 0.00567313 0.00694754 0.00759269 0.0071924 0.00543512 0.00223172 -0.00220219 -0.0073333 -0.0123832 -0.0164767 -0.0188313 -0.0189382 -0.0166859 -0.0123922 -0.0067378 -0.000620505 0.0050305 0.00943454 0.0120921 0.0128466 0.0118707 0.00959024 0.00657149 0.00340128 0.000584404 -0.00152483 -0.00275118 -0.00309026 -0.00267333 -0.00171757 -0.000474147 0.000816903 0.00195896 0.00281658 0.00331975 0.00345768 0.00326595 0.00281092 0.0021741 0.00143899 0.000681308 -3.72443e-05 -0.000671731 -0.00119417 -0.00159176 -0.00186411 -0.00201997 -0.00207416 -0.00204468 -0.0019505 -0.00180992 -0.00163953 -0.00145361 -0.00126383 -0.00107934 -0.000907064 -0.00075199 -0.000617465 -0.000505699 -0.000417994 -0.000355038 -0.000317163 -0.000304511 -0.000317163 -0.000355038 -0.000417994 -0.000505699 -0.000617465 -0.00075199 -0.000907064 -0.00107934 -0.00126383 -0.00145361 -0.00163953 -0.00180992 -0.0019505 -0.00204468 -0.00207416 -0.00201997 -0.00186411 -0.00159176 -0.00119417 -0.000671731 -3.72443e-05 0.000681308 0.00143899 0.0021741 0.00281092 0.00326595 0.00345768 0.00331975 0.00281658 0.00195896 0.000816902 -0.000474153 -0.00171756 -0.00267331 -0.00309025 -0.00275115 -0.00152478 0.000584452 0.00340134 0.00657153 0.00959028 0.0118708 0.0128466 0.0120921 0.00943452 0.00503049 -0.000620501 -0.0067378 -0.0123922 -0.0166859 -0.0189382 -0.0188313 -0.0164767 -0.0123832 -0.00733333 -0.00220223 0.00223167 0.00543509 0.00719238 0.00759269 0.00694754 0.00567312 0.00417526 0.0027671 0.00163276 0.000833681 0.000342374 8.50811e-05 -2.15074e-05 -4.71601e-05 -3.91471e-05 -2.34353e-05 -1.07631e-05 -3.57585e-06 -4.60771e-07 4.31167e-07 4.33037e-07 2.36439e-07 8.76759e-08 1.87339e-08 -1.78391e-09 -3.76141e-09 -1.90723e-09 -5.76145e-10 -8.60065e-11 1.47496e-11 1.3843e-11 4.52597e-12 7.73102e-13 -3.31232e-15 -4.31908e-14 -1.2966e-14 -1.77875e-15 3.84128e-17 7.27875e-17 2.0079e-17 2.97387e-18 0 0 
0 0 3.6443e-18 2.81362e-17 1.0753e-16 1.33807e-16 -2.32349e-15 -1.97221e-14 -7.29193e-14 -2.68637e-14 1.28743e-12 8.12912e-12 2.60457e-11 2.80898e-11 -1.80149e-10 -1.22503e-09 -4.11555e-09 -8.04137e-09 -2.33364e-09 4.94713e-08 2.21544e-07 5.87315e-07 1.04042e-06 8.83675e-07 -1.77262e-06 -1.04187e-05 -2.9453e-05 -6.08351e-05 -9.61024e-05 -0.00010302 -9.02088e-06 0.000311644 0.00103543 0.00235871 0.00443109 0.00725926 0.0106067 0.0139315 0.016407 0.0170553 0.0149844 0.00967644 0.00124102 -0.0094636 -0.0209053 -0.0311561 -0.0383118 -0.0409425 -0.0384432 -0.0311855 -0.0204302 -0.00803021 0.00398911 0.0138564 0.020382 0.0231216 0.0223566 0.0189258 0.0139696 0.00865916 0.00397227 0.000553835 -0.00132853 -0.00174622 -0.00101638 0.000414603 0.00208211 0.00358953 0.00465976 0.00515226 0.00505237 0.00444259 0.0034656 0.00228813 0.00107102 -5.16096e-05 -0.000983418 -0.00166864 -0.00208871 -0.00225492 -0.00219957 -0.00196715 -0.00160668 -0.00116576 -0.000686608 -0.000203802 0.000256562 0.00067659 0.00104579 0.00135969 0.00161844 0.00182552 0.00198642 0.00210772 0.00219629 0.00225876 0.00230118 0.00232867 0.00234536 0.00235421 0.00235698 0.00235421 0.00234536 0.00232867 0.00230118 0.00225876 0.00219629 0.00210772 0.00198642 0.00182552 0.00161844 0.00135969 0.00104579 0.00067659 0.000256562 -0.000203802 -0.000686608 -0.00116576 -0.00160668 -0.00196715 -0.00219957 -0.00225492 -0.00208871 -0.00166864 -0.000983418 -5.16096e-05 0.00107102 0.00228813 0.0034656 0.00444259 0.00505237 0.00515227 0.0046598 0.0035896 0.00208218 0.00041468 -0.00101628 -0.00174614 -0.00132843 0.000553937 0.00397237 0.00865927 0.0139696 0.0189258 0.0223566 0.0231216 0.0203821 0.0138564 0.0039892 -0.00803017 -0.0204302 -0.0311854 -0.0384432 -0.0409425 -0.0383119 -0.0311562 -0.0209054 -0.00946371 0.00124092 0.00967636 0.0149843 0.0170553 0.016407 0.0139315 0.0106067 0.00725926 0.00443109 0.0023587 0.00103542 0.000311631 -9.00907e-06 -0.000102923 -9.58035e-05 -6.00925e-05 -2.90807e-05 -1.02949e-05 -1.75271e-06 8.73571e-07 1.02901e-06 5.8102e-07 2.19202e-07 4.89458e-08 -2.31781e-09 -7.96345e-09 -4.07528e-09 -1.21297e-09 -1.78321e-10 2.78512e-11 2.58042e-11 8.05264e-12 1.27506e-12 -2.67294e-14 -7.22655e-14 -1.9541e-14 -2.2982e-15 1.39767e-16 8.5519e-17 2.35334e-17 0 0 
0 0 1.7722e-17 1.0753e-16 3.46361e-16 -4.23989e-16 -1.31322e-14 -7.70929e-14 -1.84698e-13 5.05762e-13 6.6404e-12 3.01142e-11 6.73479e-11 -4.84127e-11 -1.07251e-09 -4.80121e-09 -1.24174e-08 -1.4712e-08 3.36379e-08 2.4889e-07 8.02414e-07 1.70195e-06 2.15649e-06 -5.44918e-07 -1.21562e-05 -4.11073e-05 -9.39826e-05 -0.000163161 -0.000203709 -0.000102099 0.000352102 0.00147018 0.00361729 0.00709554 0.0119635 0.0178365 0.0237497 0.0281788 0.0292843 0.0253726 0.0154725 -0.000154233 -0.0197679 -0.0403143 -0.0580129 -0.0692357 -0.0714289 -0.0638032 -0.0475765 -0.0256938 -0.00211888 0.0190961 0.0347018 0.042871 0.0434201 0.0376292 0.0277569 0.0164194 0.00599705 -0.00179556 -0.00611539 -0.00697303 -0.00504276 -0.00138383 0.00285106 0.00665486 0.00931912 0.010493 0.0101617 0.00856963 0.00611894 0.0032673 0.000443377 -0.0020104 -0.00386644 -0.00501579 -0.0054535 -0.00525393 -0.0045421 -0.00346674 -0.00217777 -0.000810181 0.000525461 0.00174745 0.00280264 0.00366356 0.00432368 0.00479204 0.0050885 0.00523936 0.00527349 0.00521975 0.00510503 0.00495341 0.00478532 0.00461762 0.00446389 0.00433452 0.00423708 0.0041766 0.00415614 0.0041766 0.00423708 0.00433452 0.00446389 0.00461762 0.00478532 0.00495341 0.00510503 0.00521975 0.00527349 0.00523936 0.0050885 0.00479204 0.00432368 0.00366356 0.00280264 0.00174745 0.000525461 -0.000810181 -0.00217777 -0.00346674 -0.0045421 -0.00525393 -0.0054535 -0.00501579 -0.00386644 -0.0020104 0.000443377 0.0032673 0.00611894 0.00856966 0.0101618 0.0104931 0.00931925 0.00665501 0.00285121 -0.0013837 -0.0050426 -0.00697292 -0.00611528 -0.00179542 0.00599712 0.0164194 0.027757 0.0376291 0.0434202 0.0428712 0.0347021 0.0190963 -0.00211864 -0.0256934 -0.0475764 -0.0638034 -0.071429 -0.0692359 -0.0580131 -0.0403145 -0.0197681 -0.000154383 0.0154724 0.0253726 0.0292842 0.0281788 0.0237497 0.0178365 0.0119635 0.00709554 0.00361725 0.00147017 0.000352203 -0.000101701 -0.000202716 -0.000161299 -9.27898e-05 -4.06085e-05 -1.20153e-05 -5.38997e-07 2.13288e-06 1.68375e-06 7.93965e-07 2.46286e-07 3.32729e-08 -1.45742e-08 -1.22969e-08 -4.75433e-09 -1.06192e-09 -4.78438e-11 6.67346e-11 2.98332e-11 6.57757e-12 5.00666e-13 -1.8308e-13 -7.639e-14 -1.29994e-14 -4.18506e-16 1.3999e-16 8.16286e-17 0 0 
0 0 7.0539e-17 2.05128e-17 -9.91853e-16 -1.63214e-14 -8.38503e-14 -1.28643e-13 1.15614e-12 9.97504e-12 3.84649e-11 5.60924e-11 -2.61641e-10 -2.14921e-09 -7.9479e-09 -1.64227e-08 -2.24917e-09 1.30194e-07 5.88493e-07 1.57964e-06 2.71623e-06 1.58233e-06 -8.36556e-06 -3.88874e-05 -0.000103078 -0.000200674 -0.000287083 -0.000224435 0.000274004 0.00167386 0.00457758 0.0095655 0.0169088 0.0262095 0.0360983 0.0441718 0.0473213 0.0424884 0.0276993 0.00305615 -0.0287109 -0.0624455 -0.0915912 -0.109811 -0.112717 -0.0991553 -0.0716036 -0.0355546 0.00191877 0.0339628 0.0555516 0.0644749 0.0614914 0.0497153 0.0335132 0.0172796 0.00443203 -0.00315876 -0.00525556 -0.00293243 0.00197712 0.00747712 0.0119009 0.014205 0.0140543 0.0117283 0.00792117 0.00350428 -0.000686474 -0.00400138 -0.00605486 -0.00673394 -0.00615569 -0.00459678 -0.00241488 2.17929e-05 0.00238772 0.00443259 0.00599441 0.00699652 0.00743542 0.00736197 0.0068622 0.00603865 0.00499675 0.00383404 0.0026334 0.00146007 0.000361335 -0.000631867 -0.00150305 -0.00224725 -0.00286742 -0.00337194 -0.00377299 -0.00408377 -0.00431733 -0.00448558 -0.00459838 -0.00466323 -0.00468445 -0.00466323 -0.00459838 -0.00448558 -0.00431733 -0.00408377 -0.00377299 -0.00337194 -0.00286742 -0.00224725 -0.00150305 -0.000631867 0.000361335 0.00146007 0.0026334 0.00383404 0.00499675 0.00603865 0.0068622 0.00736197 0.00743542 0.00699652 0.00599441 0.00443259 0.00238772 2.17929e-05 -0.00241488 -0.00459678 -0.00615569 -0.00673392 -0.00605482 -0.00400124 -0.000686279 0.00350447 0.0079214 0.0117285 0.0140544 0.0142052 0.011901 0.0074773 0.00197734 -0.00293218 -0.00525522 -0.00315834 0.00443232 0.0172802 0.0335136 0.049716 0.061492 0.0644756 0.0555523 0.0339634 0.00191913 -0.0355545 -0.0716036 -0.0991558 -0.112717 -0.109811 -0.0915908 -0.0624451 -0.0287107 0.00305624 0.0276991 0.0424885 0.0473215 0.0441718 0.0360984 0.0262095 0.0169089 0.00956586 0.00457855 0.00167591 0.000277336 -0.000220564 -0.000283192 -0.000198191 -0.000101869 -3.84472e-05 -8.27235e-06 1.56647e-06 2.68822e-06 1.56346e-06 5.82496e-07 1.28855e-07 -2.24456e-09 -1.62674e-08 -7.87164e-09 -2.12841e-09 -2.59013e-10 5.56054e-11 3.81109e-11 9.88196e-12 1.14504e-12 -1.27558e-13 -8.31189e-14 -1.66194e-14 -3.26831e-15 -1.39539e-16 0 0 
0 0 -2.4842e-16 -3.9609e-15 -1.88204e-14 -8.43438e-14 -4.76599e-14 1.87768e-12 1.3257e-11 4.39155e-11 1.99838e-11 -6.03647e-10 -3.64436e-09 -1.16017e-08 -1.72138e-08 3.53429e-08 3.26032e-07 1.18455e-06 2.72719e-06 3.44727e-06 -2.7687e-06 -3.0179e-05 -0.000100578 -0.00022902 -0.000384042 -0.000415791 3.93253e-05 0.00164361 0.00535606 0.0122489 0.0230823 0.0376777 0.0542786 0.0692231 0.0772695 0.0727613 0.0514731 0.0125983 -0.0399054 -0.0973369 -0.147938 -0.179917 -0.184889 -0.160545 -0.111584 -0.0485225 0.0152278 0.0670328 0.0982614 0.106101 0.093558 0.0678495 0.0378929 0.011743 -0.00527173 -0.011339 -0.00785895 0.00162806 0.0128305 0.0219693 0.026615 0.0259882 0.0207821 0.0126729 0.00371296 -0.00420953 -0.00974609 -0.0122537 -0.0117713 -0.00886442 -0.00440576 0.000644832 0.00542225 0.00927088 0.011798 0.0128675 0.0125572 0.0110963 0.00879774 0.00599912 0.00301642 0.000114005 -0.00251045 -0.00472859 -0.00647549 -0.00773868 -0.00854512 -0.00894752 -0.00901384 -0.00881778 -0.00843182 -0.00792196 -0.00734543 -0.00675027 -0.00617476 -0.00564812 -0.00519273 -0.0048246 -0.00455486 -0.00439046 -0.00433528 -0.00439046 -0.00455486 -0.0048246 -0.00519273 -0.00564812 -0.00617476 -0.00675027 -0.00734543 -0.00792196 -0.00843182 -0.00881778 -0.00901384 -0.00894752 -0.00854512 -0.00773868 -0.00647549 -0.00472859 -0.00251045 0.000114005 0.00301642 0.00599912 0.00879774 0.0110963 0.0125572 0.0128675 0.011798 0.00927088 0.00542226 0.000644905 -0.00440556 -0.00886412 -0.0117711 -0.0122535 -0.00974578 -0.00420936 0.00371316 0.0126733 0.0207826 0.0259889 0.0266157 0.0219703 0.0128317 0.00162901 -0.00785815 -0.0113383 -0.00527116 0.0117434 0.037893 0.0678499 0.0935585 0.106101 0.0982618 0.0670336 0.0152287 -0.0485225 -0.111584 -0.160543 -0.184887 -0.179916 -0.147937 -0.0973365 -0.0399048 0.012599 0.0514735 0.0727616 0.0772698 0.0692235 0.0542798 0.0376799 0.0230862 0.0122536 0.00535763 0.00163338 4.05262e-05 -0.000410435 -0.000379521 -0.000226439 -9.94756e-05 -2.98528e-05 -2.73682e-06 3.4132e-06 2.69996e-06 1.17273e-06 3.22765e-07 3.49685e-08 -1.7057e-08 -1.14922e-08 -3.60963e-09 -5.97781e-10 1.98552e-11 4.35171e-11 1.31347e-11 1.85998e-12 -4.79243e-14 -8.64729e-14 -2.56155e-14 -4.01412e-15 0 0 
0 0 -4.14935e-15 -2.52174e-14 -7.9655e-14 4.41718e-14 2.49899e-12 1.55125e-11 4.32128e-11 -4.47767e-11 -1.04419e-09 -5.29495e-09 -1.44519e-08 -9.82632e-09 1.1253e-07 6.48482e-07 2.03152e-06 3.93296e-06 2.32425e-06 -1.60508e-05 -7.8523e-05 -0.000219284 -0.00043962 -0.000614531 -0.000344229 0.00120888 0.00540747 0.0140073 0.0286302 0.0498144 0.0758434 0.101845 0.119811 0.120066 0.0941781 0.0385975 -0.0423623 -0.135694 -0.221924 -0.280159 -0.294425 -0.259044 -0.180961 -0.07801 0.0263343 0.109849 0.157706 0.165843 0.140745 0.0960899 0.0477776 0.00912641 -0.0122938 -0.0155262 -0.00500977 0.0119365 0.0278734 0.0373961 0.038196 0.0309974 0.018672 0.00498236 -0.00660768 -0.0137557 -0.0155857 -0.0125855 -0.00620769 0.00165544 0.00916381 0.0148869 0.0179914 0.0182626 0.0160008 0.0118544 0.00663506 0.00115287 -0.00390191 -0.00802685 -0.0109305 -0.0125144 -0.0128398 -0.0120788 -0.0104664 -0.00825861 -0.00570289 -0.00301579 -0.000370401 0.00210696 0.00433283 0.00626159 0.00787913 0.00919575 0.0102356 0.0110315 0.0116235 0.0120497 0.0123465 0.0125446 0.0126681 0.0127353 0.0127568 0.0127353 0.0126681 0.0125446 0.0123465 0.0120497 0.0116235 0.0110315 0.0102356 0.00919575 0.00787913 0.00626159 0.00433283 0.00210696 -0.000370401 -0.00301579 -0.00570289 -0.00825861 -0.0104664 -0.0120788 -0.0128398 -0.0125144 -0.0109305 -0.00802685 -0.00390191 0.00115287 0.00663504 0.0118544 0.0160009 0.0182629 0.0179918 0.0148874 0.00916415 0.00165568 -0.00620746 -0.0125855 -0.0155853 -0.0137551 -0.00660669 0.00498367 0.0186736 0.0309991 0.0381972 0.0373968 0.0278736 0.0119365 -0.00500985 -0.0155267 -0.0122937 0.00912656 0.0477782 0.0960908 0.140746 0.165845 0.157708 0.109851 0.0263375 -0.0780065 -0.180958 -0.259042 -0.294423 -0.280158 -0.221923 -0.135693 -0.0423609 0.0385987 0.0941795 0.120068 0.119816 0.101851 0.0758482 0.0498053 0.0285808 0.0138796 0.00534632 0.00119573 -0.000339979 -0.000607638 -0.000434847 -0.000216952 -7.76976e-05 -1.58805e-05 2.30366e-06 3.89464e-06 2.01161e-06 6.42101e-07 1.114e-07 -9.74767e-09 -1.43177e-08 -5.24511e-09 -1.03423e-09 -4.42893e-11 4.28272e-11 1.53701e-11 2.47297e-12 4.13599e-14 -4.33279e-14 -1.99491e-14 0 0 
0 0 -1.69795e-14 -2.33162e-14 1.21555e-13 2.8661e-12 1.62241e-11 3.62886e-11 -1.26753e-10 -1.49979e-09 -6.71996e-09 -1.5191e-08 9.17709e-09 2.34783e-07 1.08873e-06 3.0041e-06 4.53845e-06 -3.08864e-06 -4.51282e-05 -0.000167805 -0.000413586 -0.000727034 -0.00075837 0.000414121 0.00452281 0.0140958 0.0319589 0.0600482 0.0975457 0.13902 0.173595 0.186262 0.161851 0.0909691 -0.0241445 -0.166586 -0.306812 -0.410082 -0.447246 -0.40497 -0.291224 -0.13356 0.0294235 0.160247 0.233796 0.243627 0.201547 0.13134 0.0595507 0.00694638 -0.0166042 -0.0127532 0.00851636 0.0340291 0.0523919 0.0572382 0.04812 0.0293217 0.00749294 -0.0108878 -0.0214046 -0.0225501 -0.0155618 -0.0035375 0.00973182 0.0208266 0.0274312 0.0286234 0.0247806 0.0172214 0.00774152 -0.00183272 -0.00998643 -0.0157037 -0.0185255 -0.0184908 -0.0160157 -0.0117441 -0.00640198 -0.000686372 0.0048142 0.00966011 0.0135741 0.0164272 0.0182108 0.019007 0.0189565 0.0182267 0.0169944 0.0154275 0.013676 0.0118622 0.0100828 0.00841334 0.00690688 0.00559921 0.00451326 0.00366219 0.00305157 0.00268533 0.00256338 0.00268533 0.00305157 0.00366219 0.00451326 0.00559921 0.00690688 0.00841334 0.0100828 0.0118622 0.013676 0.0154275 0.0169944 0.0182267 0.0189565 0.019007 0.0182108 0.0164272 0.0135741 0.00966011 0.0048142 -0.000686372 -0.00640198 -0.0117441 -0.0160157 -0.0184909 -0.0185255 -0.0157037 -0.00998618 -0.0018322 0.00774213 0.0172219 0.0247807 0.0286235 0.0274313 0.0208269 0.00973293 -0.00353583 -0.0155597 -0.0225479 -0.0214026 -0.0108869 0.00749274 0.029321 0.0481192 0.0572381 0.0523923 0.0340298 0.00851838 -0.0127515 -0.0166029 0.00694867 0.0595525 0.131342 0.20155 0.24363 0.233801 0.160252 0.0294275 -0.133558 -0.29122 -0.404968 -0.447244 -0.41008 -0.306809 -0.166582 -0.0241388 0.0909773 0.16186 0.18626 0.173556 0.138888 0.0972272 0.059441 0.0315783 0.0139315 0.00447181 0.000409569 -0.00075027 -0.000719404 -0.000409304 -0.000166082 -4.46638e-05 -3.05275e-06 4.49552e-06 2.97514e-06 1.07817e-06 2.3248e-07 9.06805e-09 -1.50527e-08 -6.65742e-09 -1.48568e-09 -1.25506e-10 3.59681e-11 1.60787e-11 2.91837e-12 5.57159e-13 1.06271e-14 0 0 
0 0 2.56058e-14 6.10308e-13 2.99164e-12 1.5353e-11 2.53468e-11 -2.05468e-10 -1.86196e-09 -7.53614e-09 -1.30056e-08 3.96821e-08 3.91498e-07 1.58352e-06 3.83292e-06 3.59459e-06 -1.55766e-05 -9.64242e-05 -0.000307568 -0.000680927 -0.00101445 -0.000495917 0.00277076 0.0120503 0.0316254 0.0654359 0.114715 0.174967 0.23344 0.269345 0.258241 0.180517 0.0315345 -0.170963 -0.386668 -0.561952 -0.646499 -0.611405 -0.461153 -0.233866 0.0108996 0.212202 0.327522 0.344726 0.282214 0.178333 0.0754388 0.00521615 -0.0195848 -0.00513118 0.030097 0.0647475 0.0828716 0.0783487 0.0548384 0.0223177 -0.00771864 -0.0264952 -0.0302854 -0.0206033 -0.00269357 0.01677 0.0318725 0.0389324 0.0370216 0.027633 0.0138105 -0.000894128 -0.0133375 -0.021376 -0.0240948 -0.0217304 -0.0153658 -0.00655402 0.00305044 0.0119896 0.0191771 0.0239667 0.0261471 0.0258485 0.0234508 0.019474 0.014476 0.00898295 0.00344693 -0.00178391 -0.00647017 -0.0104755 -0.0137459 -0.0162908 -0.0181667 -0.0194661 -0.0202887 -0.0207355 -0.0209108 -0.0209032 -0.0207943 -0.0206467 -0.0205077 -0.0204098 -0.0203757 -0.0204098 -0.0205077 -0.0206467 -0.0207943 -0.0209032 -0.0209108 -0.0207355 -0.0202887 -0.0194661 -0.0181667 -0.0162908 -0.0137459 -0.0104755 -0.00647017 -0.00178391 0.00344693 0.00898295 0.014476 0.019474 0.0234508 0.0258485 0.0261471 0.0239667 0.0191771 0.0119895 0.00305036 -0.00655396 -0.0153653 -0.0217296 -0.0240943 -0.021376 -0.0133377 -0.000893416 0.0138113 0.0276343 0.0370242 0.0389356 0.0318752 0.0167717 -0.00269294 -0.0206038 -0.0302861 -0.0264953 -0.00771804 0.0223187 0.0548393 0.0783508 0.0828734 0.0647488 0.0300979 -0.00512985 -0.019584 0.00521815 0.0754423 0.178337 0.282217 0.344731 0.327524 0.212203 0.0109022 -0.233863 -0.461149 -0.611399 -0.646491 -0.561942 -0.386656 -0.170956 0.0315124 0.180412 0.257949 0.268707 0.232247 0.173066 0.113324 0.0646681 0.0312671 0.0119173 0.0027405 -0.000491077 -0.00100414 -0.000674037 -0.00030447 -9.54518e-05 -1.54151e-05 3.56264e-06 3.79658e-06 1.56836e-06 3.87718e-07 3.92805e-08 -1.28905e-08 -7.46678e-09 -1.84463e-09 -2.03502e-10 2.52263e-11 1.57533e-11 4.54998e-12 6.60788e-13 0 0 
0 0 6.20726e-13 4.14804e-12 1.37751e-11 1.38578e-11 -2.60074e-10 -2.04194e-09 -7.53351e-09 -8.12423e-09 7.67066e-08 5.54512e-07 2.0234e-06 4.17878e-06 2.23953e-07 -3.69528e-05 -0.000172046 -0.000493082 -0.000978519 -0.00112419 0.000718918 0.00808665 0.026629 0.0629955 0.121847 0.201426 0.289338 0.360495 0.380036 0.313547 0.142301 -0.122233 -0.43242 -0.712809 -0.882685 -0.885291 -0.711436 -0.406249 -0.0547317 0.248415 0.432096 0.471215 0.38975 0.245066 0.101933 0.00811486 -0.0191084 0.00784204 0.0587374 0.101572 0.115543 0.0966356 0.0553765 0.00952946 -0.0242862 -0.0366261 -0.0272664 -0.00347586 0.0239357 0.0448944 0.053148 0.047438 0.030885 0.00921052 -0.0113762 -0.0259207 -0.0317531 -0.0286756 -0.0185066 -0.00425975 0.0107422 0.0236047 0.0323351 0.036 0.0346475 0.0290843 0.0205708 0.0105267 0.000280864 -0.00907837 -0.0167886 -0.0224148 -0.0258301 -0.0271434 -0.0266215 -0.0246238 -0.0215452 -0.0177605 -0.0136083 -0.00936732 -0.00525337 -0.00141648 0.00204933 0.00508526 0.00767049 0.00980481 0.0115028 0.0127866 0.0136848 0.0142138 0.0143874 0.0142138 0.0136848 0.0127866 0.0115028 0.00980481 0.00767049 0.00508526 0.00204933 -0.00141648 -0.00525337 -0.00936732 -0.0136083 -0.0177605 -0.0215452 -0.0246238 -0.0266215 -0.0271434 -0.0258301 -0.0224148 -0.0167886 -0.00907837 0.000280862 0.0105267 0.0205707 0.0290842 0.0346475 0.0360003 0.032336 0.0236056 0.0107422 -0.00426032 -0.0185058 -0.0286735 -0.031751 -0.0259181 -0.0113728 0.00921331 0.030886 0.0474382 0.0531474 0.0448933 0.0239363 -0.00347329 -0.0272641 -0.0366249 -0.0242868 0.00952907 0.055376 0.0966348 0.115543 0.101571 0.0587386 0.00784442 -0.0191067 0.00811373 0.101929 0.245066 0.389754 0.471217 0.432098 0.248419 -0.0547228 -0.406235 -0.711415 -0.88527 -0.882684 -0.712879 -0.432659 -0.12281 0.141142 0.311522 0.376911 0.356254 0.285782 0.199063 0.120471 0.0623046 0.0263429 0.00800052 0.000710636 -0.00111316 -0.000968815 -0.000488193 -0.000170338 -3.65813e-05 2.26395e-07 4.13987e-06 2.00426e-06 5.49226e-07 7.59581e-08 -8.05647e-09 -7.46485e-09 -2.023e-09 -2.57121e-10 1.48095e-11 1.15464e-11 3.55222e-12 0 0 
0 0 2.87505e-12 8.40732e-12 5.36325e-12 -2.77841e-10 -2.00655e-09 -6.76666e-09 -1.84372e-09 1.11576e-07 6.86159e-07 2.29083e-06 3.7851e-06 -5.84808e-06 -6.64798e-05 -0.000265937 -0.000698222 -0.0012158 -0.000785647 0.00358905 0.0179401 0.0512911 0.113101 0.207584 0.326298 0.442654 0.51277 0.484917 0.318369 0.00697564 -0.404268 -0.82113 -1.12543 -1.21709 -1.0556 -0.68123 -0.203681 0.238435 0.529797 0.61882 0.52922 0.340062 0.146365 0.0197869 -0.0139375 0.0257623 0.0935379 0.143739 0.150121 0.112653 0.0515563 -0.00583863 -0.0382254 -0.0379884 -0.0116321 0.025503 0.0567586 0.0705618 0.0635611 0.0401853 0.00965401 -0.0179529 -0.0349925 -0.0380823 -0.0282461 -0.00977339 0.0115525 0.0302068 0.0421972 0.045674 0.0408664 0.0296121 0.0146426 -0.00113199 -0.0151779 -0.0256922 -0.0317198 -0.0330998 -0.0303182 -0.0242551 -0.0159917 -0.00662467 0.00288884 0.0117911 0.0195453 0.0258504 0.0305917 0.0338104 0.0356528 0.0363274 0.0360706 0.0351402 0.0337627 0.032129 0.0304172 0.0287621 0.0272798 0.0260491 0.0251324 0.0245653 0.024375 0.0245653 0.0251324 0.0260491 0.0272798 0.0287621 0.0304172 0.032129 0.0337627 0.0351402 0.0360706 0.0363274 0.0356528 0.0338104 0.0305917 0.0258504 0.0195453 0.0117911 0.00288884 -0.00662467 -0.0159917 -0.0242551 -0.0303183 -0.0330999 -0.0317198 -0.025692 -0.0151773 -0.001131 0.0146437 0.0296126 0.0408657 0.0456743 0.0421999 0.03021 0.0115556 -0.00977001 -0.0282435 -0.0380816 -0.0349925 -0.0179527 0.00965328 0.0401849 0.0635643 0.070564 0.0567591 0.0255013 -0.0116356 -0.0379901 -0.0382248 -0.0058399 0.0515523 0.112653 0.150123 0.143738 0.0935366 0.0257601 -0.0139365 0.0197903 0.146365 0.340064 0.529229 0.618833 0.529815 0.238458 -0.203655 -0.681244 -1.05575 -1.21755 -1.12648 -0.823081 -0.407461 0.00236638 0.312518 0.478403 0.506351 0.437457 0.32263 0.205321 0.111896 0.0507524 0.0177531 0.00355104 -0.000778518 -0.00120398 -0.000691397 -0.000263332 -6.58234e-05 -5.78594e-06 3.7507e-06 2.2694e-06 6.79688e-07 1.10508e-07 -1.83468e-09 -6.70506e-09 -1.9876e-09 -2.82167e-10 -4.38374e-11 3.82972e-12 0 0 
0 0 1.68013e-12 -4.58819e-11 -2.6652e-10 -1.78582e-09 -5.50895e-09 4.03774e-09 1.35331e-07 7.53993e-07 2.31145e-06 2.63061e-06 -1.38952e-05 -0.000100018 -0.000362804 -0.000877294 -0.00127267 0.0002892 0.00874615 0.0335665 0.0880946 0.184628 0.324727 0.487986 0.626195 0.670094 0.551006 0.231945 -0.261803 -0.830221 -1.31865 -1.56958 -1.48692 -1.08239 -0.47846 0.137452 0.587664 0.772629 0.701296 0.472037 0.217769 0.0450597 -0.00401695 0.0459254 0.131599 0.189879 0.187399 0.129256 0.0477735 -0.0187439 -0.0451951 -0.0285756 0.0149346 0.0606562 0.0874189 0.0854964 0.0582991 0.0185314 -0.0183257 -0.0401557 -0.041806 -0.0255234 0.00118262 0.0288264 0.0491636 0.0572572 0.052183 0.0365004 0.0149057 -0.00731765 -0.0255926 -0.0368804 -0.0399864 -0.0353934 -0.0247843 -0.010503 0.00498833 0.0195076 0.031446 0.0398216 0.0442852 0.0449591 0.0423654 0.0372117 0.0302812 0.0223275 0.0140184 0.00587129 -0.00172889 -0.00853653 -0.0144199 -0.0193482 -0.023361 -0.0265341 -0.028982 -0.0308156 -0.032144 -0.0330604 -0.0336588 -0.0339922 -0.0341012 -0.0339922 -0.0336588 -0.0330604 -0.032144 -0.0308156 -0.028982 -0.0265341 -0.023361 -0.0193482 -0.0144199 -0.00853653 -0.00172889 0.00587129 0.0140184 0.0223275 0.0302812 0.0372117 0.0423654 0.0449591 0.0442852 0.0398216 0.031446 0.0195076 0.0049885 -0.0105025 -0.024783 -0.035392 -0.0399854 -0.0368803 -0.0255928 -0.00731568 0.01491 0.0365037 0.0521863 0.0572603 0.0491655 0.0288274 0.00118346 -0.0255245 -0.0418075 -0.0401541 -0.018322 0.0185319 0.0582955 0.0854917 0.0874162 0.0606581 0.0149355 -0.0285761 -0.0451933 -0.0187416 0.0477749 0.129257 0.187402 0.189879 0.131601 0.0459286 -0.00401583 0.0450676 0.217781 0.472062 0.70133 0.772635 0.587577 0.137133 -0.479281 -1.08412 -1.48998 -1.57431 -1.32503 -0.83763 -0.268953 0.226568 0.543742 0.662178 0.61918 0.482696 0.321287 0.182704 0.0871869 0.0332226 0.00865601 0.000285123 -0.00126059 -0.00086883 -0.00035929 -9.90435e-05 -1.37559e-05 2.60774e-06 2.29005e-06 7.46947e-07 1.34052e-07 3.99341e-09 -5.46789e-09 -1.8311e-09 -4.90563e-10 -5.83385e-11 0 0 
0 0 -5.06566e-11 -4.13928e-10 -1.5042e-09 -4.11752e-09 8.03818e-09 1.42487e-07 7.44093e-07 2.08808e-06 9.79601e-07 -2.22428e-05 -0.000130755 -0.000441708 -0.000978897 -0.00104598 0.00226962 0.0164028 0.0550871 0.136647 0.275617 0.467638 0.673877 0.816743 0.797406 0.535207 0.0141986 -0.684706 -1.38607 -1.87104 -1.96294 -1.60925 -0.91577 -0.109777 0.554232 0.900435 0.896399 0.647031 0.326829 0.0909283 0.0112405 0.0645586 0.168566 0.237963 0.228527 0.149972 0.0484009 -0.0255413 -0.0435553 -0.00955049 0.0485033 0.0964639 0.111005 0.0880971 0.0411096 -0.00822727 -0.0403571 -0.0454614 -0.0254847 0.00876384 0.0430626 0.065368 0.0693893 0.055515 0.0294721 -0.000409977 -0.0259822 -0.041445 -0.0443527 -0.035554 -0.0183019 0.00294052 0.0236681 0.0402333 0.0503617 0.0532414 0.0493049 0.0399046 0.0268759 0.0121454 -0.0025376 -0.0157741 -0.0266489 -0.0346753 -0.0397326 -0.0419934 -0.0418317 -0.0397155 -0.0361553 -0.0316418 -0.0266038 -0.021408 -0.0163474 -0.0116133 -0.00736727 -0.00370641 -0.000680349 0.00169313 0.0033893 0.00440016 0.00472977 0.00440016 0.0033893 0.00169313 -0.000680349 -0.00370641 -0.00736727 -0.0116133 -0.0163474 -0.021408 -0.0266038 -0.0316418 -0.0361553 -0.0397155 -0.0418317 -0.0419934 -0.0397326 -0.0346753 -0.0266489 -0.015774 -0.00253759 0.0121454 0.0268759 0.0399048 0.0493054 0.0532426 0.0503632 0.040234 0.0236678 0.00294041 -0.0183005 -0.0355499 -0.0443484 -0.041442 -0.0259779 -0.000406768 0.0294742 0.0555154 0.0693871 0.0653666 0.0430625 0.00876861 -0.025483 -0.0454679 -0.0403648 -0.00823121 0.0411117 0.088099 0.111007 0.0964614 0.0485078 -0.0095484 -0.0435573 -0.0255348 0.0484003 0.149972 0.228524 0.237961 0.168577 0.0645742 0.0112642 0.0909607 0.326816 0.646853 0.89581 0.899038 0.551529 -0.114313 -0.922354 -1.61755 -1.97172 -1.87817 -1.38895 -0.681608 0.0127273 0.528617 0.788453 0.807929 0.666783 0.462796 0.272798 0.135261 0.0545309 0.0162367 0.00224561 -0.0010364 -0.000969576 -0.000437473 -0.000129495 -2.20251e-05 9.7254e-07 2.06896e-06 7.37196e-07 1.41146e-07 7.90187e-09 -4.27714e-09 -1.76174e-09 -3.91781e-10 0 0 
0 0 -2.9714e-10 -1.31703e-09 -3.0065e-09 9.51935e-09 1.32978e-07 6.65373e-07 1.69654e-06 -7.17936e-07 -2.88438e-05 -0.000151509 -0.000483529 -0.000967274 -0.000505893 0.00506653 0.0260349 0.0808684 0.192991 0.37788 0.621303 0.859367 0.978626 0.850224 0.392818 -0.364593 -1.25858 -2.02651 -2.39869 -2.21835 -1.5259 -0.555628 0.362297 0.947547 1.08683 0.862488 0.483839 0.16738 0.0346444 0.0778914 0.198815 0.284842 0.274373 0.178378 0.0571915 -0.0244368 -0.034446 0.0153814 0.084232 0.128978 0.12669 0.0821368 0.0202826 -0.0293184 -0.0470156 -0.0300354 0.00931295 0.051393 0.0784531 0.081163 0.0605483 0.0257374 -0.0106291 -0.0371892 -0.0472355 -0.0398354 -0.0189871 0.00829396 0.0345001 0.0535655 0.0619641 0.059026 0.0464639 0.0275396 0.00607844 -0.0143209 -0.0308805 -0.0418555 -0.0466422 -0.0455121 -0.0394406 -0.0296846 -0.0177186 -0.00483148 0.00784644 0.0194863 0.0295398 0.0377371 0.0440276 0.0485057 0.0513676 0.052896 0.0533728 0.0530921 0.0523271 0.0513078 0.0502339 0.0492324 0.0484466 0.0479334 0.0477596 0.0479334 0.0484466 0.0492324 0.0502339 0.0513078 0.0523271 0.0530921 0.0533728 0.052896 0.0513676 0.0485057 0.0440276 0.0377371 0.0295398 0.0194863 0.00784644 -0.00483148 -0.0177186 -0.0296846 -0.0394406 -0.0455123 -0.0466424 -0.0418554 -0.0308794 -0.0143193 0.00608002 0.0275397 0.046464 0.0590271 0.0619676 0.0535696 0.0345048 0.00829856 -0.0189825 -0.0398324 -0.0472364 -0.0371944 -0.0106308 0.0257376 0.060548 0.081165 0.0784452 0.0513855 0.00930954 -0.030036 -0.0470157 -0.0293197 0.0202785 0.08213 0.126689 0.128974 0.0842289 0.0153862 -0.0344505 -0.0244378 0.0571975 0.17839 0.274393 0.284873 0.19883 0.0778213 0.0343028 0.166404 0.48169 0.858515 1.0805 0.938818 0.352091 -0.565256 -1.53203 -2.21783 -2.38926 -2.00838 -1.24561 -0.361314 0.38818 0.841061 0.968382 0.850526 0.614986 0.374071 0.191058 0.0800613 0.0257748 0.00501498 -0.000501795 -0.000958183 -0.000478937 -0.000150063 -2.85658e-05 -7.09168e-07 1.68115e-06 6.59197e-07 1.31599e-07 9.49643e-09 -4.58968e-10 -9.8229e-10 0 0 
0 0 -6.51048e-10 1.61405e-10 9.00434e-09 1.11349e-07 5.4327e-07 1.24692e-06 -2.02353e-06 -3.21037e-05 -0.000157515 -0.000478644 -0.000839828 0.000270139 0.00827514 0.0362985 0.107432 0.249627 0.477486 0.763075 1.01214 1.07204 0.788303 0.0954075 -0.907207 -1.95023 -2.68292 -2.81843 -2.2736 -1.22901 -0.0597001 0.836093 1.21862 1.09866 0.694109 0.287361 0.0733902 0.0839095 0.215516 0.325108 0.324005 0.21698 0.0768987 -0.015119 -0.0206023 0.041747 0.118107 0.156836 0.136963 0.0737332 0.00373209 -0.0382301 -0.0364568 0.00115183 0.0510996 0.0877854 0.0952367 0.0723651 0.0308084 -0.0120049 -0.0404952 -0.0464199 -0.0304386 -0.000283638 0.0329221 0.0588114 0.0705819 0.0663098 0.048511 0.0225975 -0.0049501 -0.0283463 -0.0435329 -0.0486772 -0.0441174 -0.0317698 -0.0144136 0.00490586 0.023454 0.0391126 0.0505753 0.0572436 0.0592116 0.0570291 0.051512 0.0435777 0.0341552 0.0240792 0.0139991 0.00442734 -0.0042898 -0.0119999 -0.0185834 -0.0240846 -0.0285192 -0.0320012 -0.0346533 -0.0366073 -0.0379292 -0.0386837 -0.0389135 -0.0386837 -0.0379292 -0.0366073 -0.0346533 -0.0320012 -0.0285192 -0.0240846 -0.0185834 -0.0119999 -0.0042898 0.00442734 0.0139991 0.0240792 0.0341552 0.0435777 0.051512 0.0570291 0.0592116 0.0572434 0.050575 0.0391121 0.0234539 0.00490672 -0.0144115 -0.0317673 -0.0441152 -0.0486762 -0.0435314 -0.0283437 -0.00494605 0.0226027 0.0485156 0.0663136 0.0705854 0.0588101 0.0329166 -0.000285709 -0.0304348 -0.0464239 -0.0404963 -0.0120055 0.0308006 0.0723608 0.0952361 0.0877839 0.0511 0.00115278 -0.0364633 -0.0382367 0.00373013 0.0737359 0.136968 0.156842 0.118103 0.0417612 -0.0205867 -0.0150784 0.0769372 0.21698 0.323855 0.324529 0.213998 0.0807603 0.0678269 0.278949 0.683184 1.0868 1.20881 0.832088 -0.0545504 -1.21317 -2.24844 -2.78791 -2.65344 -1.92954 -0.897919 0.0942212 0.780102 1.06109 1.00191 0.755424 0.472732 0.247153 0.106371 0.0359397 0.0081926 0.000266636 -0.000832049 -0.000474136 -0.000156025 -3.17979e-05 -2.00298e-06 1.23562e-06 5.38497e-07 1.13853e-07 2.60108e-08 1.50872e-09 0 0 
0 0 1.37058e-09 2.05078e-08 8.72681e-08 4.0815e-07 8.36332e-07 -2.68802e-06 -3.14961e-05 -0.000148202 -0.000430582 -0.000629995 0.00111185 0.0112592 0.0453051 0.130161 0.297052 0.557793 0.86809 1.10102 1.06595 0.592072 -0.35141 -1.57265 -2.68674 -3.26955 -3.06256 -2.11241 -0.769789 0.469401 1.20292 1.30475 0.947439 0.463183 0.140782 0.0854628 0.212189 0.350379 0.372986 0.265889 0.108982 0.00198692 -0.00522077 0.0652289 0.147343 0.180613 0.145819 0.0686308 -0.00385623 -0.0340087 -0.0131062 0.0389536 0.0890561 0.110022 0.0930112 0.048588 -0.0015053 -0.0357812 -0.0422839 -0.0218636 0.0143421 0.0509396 0.0745039 0.0779609 0.0617017 0.0322239 -0.00111925 -0.0290482 -0.0451569 -0.0469125 -0.0354693 -0.0147775 0.00993613 0.0335293 0.0519178 0.0625826 0.0647806 0.0591368 0.0473045 0.0314408 0.0138323 -0.00358698 -0.0192171 -0.0320876 -0.0416181 -0.047727 -0.0506351 -0.0507738 -0.0487301 -0.0450424 -0.0402735 -0.0349326 -0.0294002 -0.0240509 -0.0190904 -0.0146888 -0.0110139 -0.00808281 -0.00598615 -0.00469029 -0.00423285 -0.00469029 -0.00598615 -0.00808281 -0.0110139 -0.0146888 -0.0190904 -0.0240509 -0.0294002 -0.0349326 -0.0402735 -0.0450424 -0.0487301 -0.0507738 -0.0506351 -0.047727 -0.0416181 -0.0320876 -0.0192173 -0.00358717 0.013832 0.0314404 0.0473052 0.0591391 0.0647836 0.0625861 0.0519196 0.0335311 0.00993907 -0.0147741 -0.0354659 -0.0469079 -0.0451525 -0.029045 -0.00111947 0.0322174 0.0617 0.0779658 0.0745031 0.050935 0.0143456 -0.02187 -0.0422897 -0.0357855 -0.00150502 0.0485878 0.0930139 0.110014 0.0890558 0.0389544 -0.0130974 -0.0340002 -0.00384709 0.0686438 0.145845 0.180647 0.147404 0.0652848 -0.00523361 0.00172597 0.10808 0.263698 0.368618 0.343021 0.201545 0.0723855 0.127772 0.454144 0.946715 1.31547 1.22535 0.500058 -0.737234 -2.08381 -3.02815 -3.23448 -2.65856 -1.55638 -0.347767 0.586135 1.0553 1.09007 0.859498 0.552295 0.294135 0.128886 0.0448615 0.0111485 0.00110032 -0.000624264 -0.000426562 -0.000146811 -3.1199e-05 -2.66156e-06 8.32098e-07 4.21036e-07 1.35304e-07 2.23458e-08 0 0 
0 0 1.58054e-08 9.64517e-08 2.95712e-07 5.21602e-07 -2.7144e-06 -2.76503e-05 -0.00012705 -0.00035374 -0.000393157 0.0018177 0.0133599 0.0511988 0.144635 0.326439 0.604146 0.916657 1.10623 0.95051 0.27489 -0.899557 -2.27599 -3.36011 -3.6885 -3.08155 -1.75808 -0.237178 0.918393 1.38164 1.19604 0.691491 0.251287 0.0914882 0.184862 0.349704 0.412261 0.321688 0.153505 0.0263405 0.00880811 0.0819534 0.169719 0.201215 0.156621 0.0702348 -0.00158041 -0.0198357 0.0162445 0.0753358 0.117636 0.118662 0.0798975 0.0239124 -0.0209843 -0.0354297 -0.0168574 0.0221904 0.0619487 0.0850356 0.083071 0.0584629 0.0215298 -0.0144187 -0.0381669 -0.0438153 -0.0316902 -0.00704443 0.0222008 0.04822 0.0650932 0.0699118 0.0627442 0.0461005 0.0238979 0.000349114 -0.0208458 -0.0370058 -0.0466552 -0.0494648 -0.0460854 -0.0377187 -0.0259025 -0.0121822 0.00207134 0.0157144 0.0279962 0.0383676 0.0466904 0.0529412 0.0573003 0.0600558 0.0614878 0.0619259 0.0616259 0.0609298 0.0600444 0.0591752 0.0584522 0.0580013 0.0578336 0.0580013 0.0584522 0.0591752 0.0600444 0.0609298 0.0616259 0.0619259 0.0614878 0.0600558 0.0573003 0.0529412 0.0466904 0.0383676 0.0279962 0.0157144 0.00207134 -0.0121823 -0.0259027 -0.0377189 -0.0460856 -0.0494646 -0.0466533 -0.0370025 -0.0208414 0.000353006 0.0239001 0.0461037 0.0627491 0.0699152 0.0650963 0.0482251 0.0222045 -0.00704448 -0.0316957 -0.0438189 -0.0381636 -0.014419 0.0215242 0.0584625 0.0830662 0.0850292 0.0619457 0.0221918 -0.0168522 -0.0354285 -0.0209866 0.0239208 0.079914 0.118667 0.117652 0.0753578 0.0162686 -0.019804 -0.00154173 0.0702976 0.156678 0.201149 0.169272 0.0806284 0.00576884 0.0205594 0.144175 0.308797 0.397375 0.336222 0.177593 0.0950646 0.268126 0.720071 1.23073 1.41431 0.941707 -0.225614 -1.73761 -3.04851 -3.64991 -3.32538 -2.25262 -0.890243 0.272359 0.941196 1.09536 0.907673 0.598242 0.323258 0.143229 0.0507019 0.01323 0.00179958 -0.000389681 -0.000350462 -0.000125866 -2.73887e-05 -2.6756e-06 5.50743e-07 3.08905e-07 8.77538e-08 0 0 
0 0 5.71157e-08 1.99647e-07 3.29389e-07 -2.28695e-06 -2.19323e-05 -9.98168e-05 -0.00026685 -0.00018355 0.00223269 0.014133 0.0527858 0.148056 0.332374 0.608379 0.900446 1.02639 0.742752 -0.115711 -1.46536 -2.90535 -3.85445 -3.85401 -2.84993 -1.25184 0.285361 1.21139 1.34965 0.934575 0.404642 0.109239 0.129171 0.307137 0.424866 0.37461 0.208003 0.0578771 0.0197834 0.088491 0.182414 0.218146 0.170597 0.079264 0.00857328 -0.000745437 0.0452243 0.105663 0.136724 0.119175 0.0658183 0.00871107 -0.0220191 -0.0142026 0.0227119 0.0660329 0.092922 0.0911996 0.063091 0.0218643 -0.0153752 -0.0352807 -0.0326019 -0.0107792 0.0208039 0.0508925 0.0702535 0.0740052 0.06232 0.0393492 0.0113939 -0.0149862 -0.0345869 -0.0444511 -0.0438751 -0.034174 -0.0179946 0.00151692 0.0213006 0.038776 0.0522632 0.0608379 0.0643601 0.0632823 0.0583498 0.0505696 0.0409505 0.0303159 0.0195483 0.00915786 -0.000399219 -0.00890816 -0.0162244 -0.022349 -0.0273331 -0.0312691 -0.0342729 -0.0364993 -0.0380032 -0.0388603 -0.0391574 -0.0388603 -0.0380032 -0.0364993 -0.0342729 -0.0312691 -0.0273331 -0.022349 -0.0162244 -0.00890816 -0.000399219 0.00915786 0.0195483 0.0303159 0.0409505 0.0505696 0.0583498 0.0632822 0.0643599 0.0608376 0.0522634 0.0387769 0.0213033 0.00152159 -0.0179891 -0.0341703 -0.0438712 -0.0444463 -0.0345823 -0.0149866 0.0113946 0.0393543 0.06232 0.0739996 0.0702476 0.0508935 0.0208099 -0.0107789 -0.0326035 -0.0352833 -0.0153762 0.0218579 0.0630905 0.0912072 0.0929304 0.0660396 0.0227231 -0.01418 -0.0220082 0.0087282 0.0658399 0.119196 0.136756 0.105703 0.0452835 -0.000704029 0.00842502 0.0786085 0.168766 0.214127 0.175093 0.0771362 0.00482168 0.0416582 0.194891 0.370093 0.433467 0.330128 0.162951 0.146078 0.435467 0.952705 1.35351 1.20502 0.283519 -1.23839 -2.82041 -3.81449 -3.81519 -2.8758 -1.45034 -0.114242 0.735634 1.01642 0.891692 0.602475 0.329159 0.146628 0.0522773 0.0139968 0.00221088 -0.000182029 -0.000264393 -9.88819e-05 -2.17075e-05 -2.30568e-06 -1.67196e-07 1.37368e-07 0 0 
0 0 7.9213e-08 -1.66876e-07 -1.711e-06 -1.58182e-05 -7.22427e-05 -0.00018606 -3.50859e-05 0.00230182 0.0134987 0.0499218 0.140125 0.314481 0.571145 0.824813 0.878975 0.482264 -0.510236 -1.95125 -3.35187 -4.07914 -3.72327 -2.38508 -0.651928 0.742527 1.33755 1.15685 0.605835 0.155729 0.0452603 0.199346 0.377471 0.398102 0.259394 0.0929055 0.0261314 0.0816714 0.181442 0.228657 0.186381 0.094019 0.0230603 0.0180648 0.0690794 0.128069 0.148789 0.117634 0.0572131 0.00606741 -0.00780841 0.0177992 0.062329 0.0972682 0.102952 0.0773974 0.0344423 -0.00526042 -0.0251365 -0.0190748 0.007405 0.0413446 0.0686981 0.0795509 0.0710978 0.0472392 0.0161816 -0.0128252 -0.0323147 -0.0384374 -0.0311044 -0.0135508 0.00948082 0.0326373 0.0515033 0.0631762 0.0665371 0.0618976 0.0508062 0.0353749 0.0178893 0.000437722 -0.0153049 -0.0282671 -0.0378297 -0.0438662 -0.046638 -0.0465831 -0.0442901 -0.0403266 -0.0352891 -0.0296942 -0.0239767 -0.0184143 -0.013267 -0.00876575 -0.00499167 -0.00200328 0.00014541 0.00143389 0.00185753 0.00143389 0.00014541 -0.00200328 -0.00499167 -0.00876575 -0.013267 -0.0184143 -0.0239767 -0.0296942 -0.0352891 -0.0403266 -0.0442901 -0.0465831 -0.046638 -0.0438662 -0.0378299 -0.0282674 -0.0153054 0.000437383 0.0178896 0.035376 0.0508099 0.0619032 0.0665435 0.0631802 0.051508 0.0326434 0.00948269 -0.0135546 -0.0311038 -0.0384344 -0.032317 -0.0128318 0.0161787 0.0472428 0.0711025 0.0795469 0.0686954 0.041344 0.00739693 -0.0190736 -0.0251274 -0.00525232 0.0344572 0.0774129 0.102969 0.0972829 0.0623369 0.0178138 -0.00779249 0.00609514 0.0572594 0.11768 0.148803 0.127833 0.0681551 0.0156543 0.0179863 0.0851456 0.173145 0.211999 0.164534 0.0697736 0.025174 0.106856 0.287967 0.435611 0.414571 0.226721 0.0577695 0.154333 0.596344 1.14573 1.32417 0.735081 -0.645306 -2.36102 -3.68577 -4.03809 -3.31814 -1.93149 -0.504834 0.477788 0.870532 0.816856 0.565639 0.31146 0.138782 0.0494444 0.0133696 0.00227962 -3.49076e-05 -0.000184346 -7.16262e-05 -1.62275e-05 -4.12903e-06 -3.57686e-07 0 0 
0 0 -2.49802e-07 -2.78705e-06 -1.08154e-05 -4.84464e-05 -0.000120876 4.51929e-05 0.00207489 0.0117356 0.0434922 0.122992 0.277259 0.501213 0.706342 0.693972 0.21845 -0.838298 -2.27453 -3.5418 -3.99621 -3.31226 -1.75043 -0.0351277 1.09472 1.32774 0.893661 0.310965 0.000663978 0.0474011 0.248261 0.353495 0.275174 0.111981 0.0165387 0.0521265 0.157754 0.225369 0.199137 0.111084 0.0380862 0.0322722 0.0843554 0.141844 0.156005 0.117322 0.055715 0.0133916 0.0140958 0.0505195 0.0935239 0.113704 0.0989221 0.0584826 0.0150298 -0.00991129 -0.00658241 0.0198852 0.0541689 0.0793893 0.0846285 0.0685089 0.0381858 0.00523484 -0.0192052 -0.0283197 -0.0209326 -0.000980093 0.0245335 0.0481447 0.0640557 0.0689275 0.0626752 0.0473783 0.0267496 0.00482226 -0.0148291 -0.0296048 -0.0380673 -0.039953 -0.0360271 -0.0274762 -0.0158104 -0.00252713 0.0109608 0.0236482 0.0347271 0.0439038 0.050915 0.0559002 0.0590723 0.0606981 0.0611255 0.0606801 0.0597011 0.0583805 0.0570372 0.0558375 0.0548849 0.0542445 0.0539915 0.0542445 0.0548849 0.0558375 0.0570372 0.0583805 0.0597011 0.0606801 0.0611255 0.0606981 0.0590723 0.0559002 0.050915 0.0439038 0.0347272 0.0236482 0.0109606 -0.00252708 -0.0158106 -0.0274763 -0.0360271 -0.0399509 -0.0380618 -0.029598 -0.0148235 0.0048261 0.0267545 0.0473833 0.0626753 0.0689225 0.0640558 0.048148 0.024531 -0.000986958 -0.0209348 -0.0283123 -0.0192031 0.00523415 0.0381932 0.0685029 0.084628 0.079399 0.054174 0.0198976 -0.00656984 -0.0098915 0.0150442 0.058497 0.0989263 0.113726 0.0935605 0.0505781 0.0141683 0.0133765 0.0553929 0.116103 0.15298 0.135703 0.073944 0.0173257 0.0201686 0.0941618 0.189204 0.228456 0.176946 0.0853139 0.0561436 0.147518 0.29801 0.360594 0.24305 0.0371118 -0.00808158 0.306173 0.885128 1.31463 1.08367 -0.0351027 -1.73319 -3.27935 -3.95638 -3.50643 -2.25173 -0.82971 0.216571 0.687373 0.699581 0.49642 0.274613 0.121821 0.0430789 0.0116241 0.00205508 4.46178e-05 -0.000120218 -5.01122e-05 -1.69218e-05 -3.03296e-06 0 0 
0 0 -1.87209e-06 -1.06814e-05 -3.15478e-05 -7.41642e-05 7.09142e-05 0.00166821 0.00934026 0.0350244 0.100391 0.228354 0.412252 0.567084 0.504026 -0.00494863 -1.0495 -2.391 -3.45687 -3.63153 -2.693 -1.04169 0.519776 1.31685 1.2212 0.63671 0.116496 -0.0376698 0.0999152 0.259016 0.251999 0.106065 -0.0213558 -0.0185937 0.0882071 0.186152 0.192548 0.120362 0.0475912 0.0375299 0.0881338 0.145904 0.158938 0.118586 0.0592225 0.0252139 0.0362429 0.0772155 0.113915 0.119324 0.0900526 0.0453027 0.0114503 0.00550582 0.0270171 0.0605884 0.0864819 0.0910222 0.0724778 0.0398611 0.00737146 -0.012395 -0.0134636 0.0024793 0.0278663 0.05285 0.06907 0.0719901 0.0613634 0.0409955 0.0164528 -0.00632821 -0.0227602 -0.0302768 -0.0284546 -0.0186844 -0.00367826 0.0137297 0.030688 0.0449769 0.0551392 0.0606006 0.0613817 0.0580957 0.0515733 0.0428534 0.0328457 0.0224256 0.0122859 0.00283601 -0.00563764 -0.0128954 -0.0189624 -0.02389 -0.027751 -0.0307179 -0.0328644 -0.0344239 -0.0354385 -0.0360337 -0.0362721 -0.0360337 -0.0354385 -0.0344239 -0.0328644 -0.0307179 -0.027751 -0.02389 -0.0189624 -0.0128954 -0.00563764 0.00283602 0.0122859 0.0224256 0.0328457 0.0428534 0.051573 0.0580956 0.0613815 0.0606004 0.0551402 0.04498 0.0306942 0.0137369 -0.00367236 -0.0186807 -0.0284505 -0.030274 -0.0227624 -0.00633186 0.0164552 0.0409973 0.0613564 0.0719836 0.0690743 0.052858 0.027872 0.00248288 -0.0134647 -0.012389 0.00738603 0.0398664 0.072474 0.091021 0.0865033 0.0606146 0.027035 0.00551539 0.0114782 0.0453565 0.0901194 0.119363 0.113882 0.0767419 0.0347175 0.0215187 0.0520478 0.106767 0.142606 0.12725 0.0719285 0.0302302 0.0550045 0.144362 0.229127 0.226154 0.120835 -0.000676024 -0.0189043 0.0986008 0.242355 0.252771 0.0981208 -0.0373149 0.116579 0.631448 1.20963 1.30376 0.514325 -1.03164 -2.66648 -3.5956 -3.42262 -2.36723 -1.03895 -0.00468473 0.499282 0.561698 0.408336 0.226188 0.0994412 0.0346937 0.00925209 0.00165209 6.87018e-05 -7.78075e-05 -3.74402e-05 -1.00811e-05 0 0 
0 0 -5.89262e-06 -2.23086e-05 -4.57806e-05 6.34362e-05 0.00120975 0.00683477 0.0261485 0.0763948 0.176124 0.318651 0.4281 0.335352 -0.161237 -1.1256 -2.30406 -3.13595 -3.06458 -1.97303 -0.362992 0.949071 1.40458 1.05875 0.431553 0.0354483 0.0175888 0.175923 0.240925 0.128632 -0.0382608 -0.101253 -0.0261882 0.0903991 0.138166 0.096348 0.0324902 0.0205954 0.0715504 0.13487 0.154368 0.118599 0.0636194 0.0357315 0.0527643 0.0945724 0.124387 0.118737 0.0823985 0.0408997 0.0204292 0.0306158 0.0608736 0.0898268 0.0991988 0.0835887 0.0516608 0.0193991 0.00125424 0.00355208 0.0228674 0.0489274 0.0699729 0.0776759 0.0695376 0.0489309 0.0230708 -0.000334983 -0.0150865 -0.0182656 -0.0104245 0.00538343 0.0246242 0.0427864 0.0562356 0.0628407 0.0621165 0.0548428 0.0427037 0.0277598 0.0121191 -0.00250067 -0.0147463 -0.0240051 -0.0298392 -0.0324663 -0.0323519 -0.0299153 -0.0257832 -0.0205414 -0.014783 -0.00884816 -0.00314614 0.00220423 0.00690965 0.010952 0.0143053 0.0168441 0.0186835 0.0197681 0.020114 0.0197681 0.0186835 0.0168441 0.0143053 0.010952 0.00690965 0.00220423 -0.00314614 -0.00884816 -0.0147829 -0.0205412 -0.0257832 -0.0299153 -0.0323519 -0.0324664 -0.0298394 -0.0240054 -0.0147468 -0.00250055 0.0121205 0.0277642 0.0427112 0.0548502 0.0621228 0.0628446 0.0562382 0.0427874 0.0246222 0.005383 -0.0104243 -0.0182697 -0.0150944 -0.000335265 0.0230761 0.0489418 0.0695519 0.0776767 0.0699849 0.0489379 0.0228642 0.00354411 0.00124441 0.0194198 0.051692 0.0836201 0.0992035 0.0898521 0.0609101 0.0306782 0.0204623 0.0407885 0.0817753 0.11685 0.120063 0.0864028 0.0397907 0.0183952 0.0448042 0.103735 0.150208 0.146576 0.0996431 0.0593073 0.071476 0.125213 0.151283 0.0894043 -0.0344325 -0.109174 -0.0419529 0.128716 0.241977 0.176074 0.0189482 0.0367644 0.428815 1.04928 1.39105 0.939649 -0.359572 -1.95372 -3.03438 -3.10503 -2.28132 -1.11443 -0.159497 0.332243 0.424067 0.315645 0.174463 0.0756759 0.0259027 0.00676963 0.0011957 6.14406e-05 -2.32982e-05 -1.78407e-05 0 0 
0 0 -9.85842e-06 -1.13927e-05 4.40796e-05 0.000795656 0.00461381 0.0181465 0.0543278 0.127515 0.232086 0.304865 0.202815 -0.244401 -1.08027 -2.05739 -2.65771 -2.40232 -1.26552 0.198325 1.21604 1.37189 0.876471 0.297425 0.0486298 0.1229 0.245506 0.20564 0.0300616 -0.111337 -0.110492 -0.0146043 0.0552003 0.0385257 -0.0197719 -0.0379933 0.012847 0.0887868 0.126828 0.10637 0.0606857 0.0384962 0.0589838 0.100668 0.125997 0.11452 0.0769678 0.0424461 0.0344966 0.0550529 0.0861089 0.104597 0.0979177 0.0703497 0.0378621 0.0177471 0.0186911 0.0375635 0.0625839 0.080532 0.0827448 0.0684254 0.0436651 0.0181346 0.000471982 -0.00434125 0.00379381 0.0208147 0.0406951 0.0572485 0.0661502 0.0656054 0.0563047 0.0408107 0.0225114 0.00489062 -0.00927469 -0.0182866 -0.0215888 -0.019435 -0.0128591 -0.00324994 0.00796249 0.0194062 0.0301151 0.0392959 0.0464973 0.0517595 0.0550062 0.0565027 0.0566127 0.0555969 0.0538402 0.0516084 0.0491758 0.0468201 0.0447377 0.0429398 0.0415782 0.0407457 0.040447 0.0407457 0.0415782 0.0429398 0.0447377 0.0468201 0.0491758 0.0516084 0.0538403 0.0555971 0.0566129 0.056503 0.0550064 0.0517596 0.0464974 0.0392959 0.030115 0.0194059 0.00796198 -0.0032498 -0.0128567 -0.0194291 -0.0215806 -0.0182782 -0.00926933 0.00489194 0.0225136 0.040814 0.0563053 0.0656048 0.0661472 0.0572415 0.0406902 0.0208215 0.00381071 -0.0043239 0.000478119 0.0181359 0.0436784 0.0684204 0.0827417 0.0805356 0.0625943 0.0376056 0.0187246 0.0177545 0.0378735 0.070391 0.0979677 0.104621 0.0859415 0.0542673 0.0322761 0.0375255 0.0679452 0.100617 0.108062 0.0822233 0.0460302 0.0377504 0.0765063 0.137723 0.166481 0.125729 0.0374972 -0.0291588 -0.0231676 0.030595 0.0493448 -0.0160454 -0.109228 -0.110042 0.0301872 0.205266 0.244583 0.123336 0.049927 0.296203 0.869136 1.35915 1.20441 0.196492 -1.25303 -2.37871 -2.63162 -2.03721 -1.06963 -0.241897 0.200978 0.30202 0.229909 0.12632 0.0538189 0.0179754 0.00457105 0.000814646 0.000180691 2.71401e-06 0 0 
0 0 2.68752e-06 0.000111438 0.000494608 0.00288278 0.0117356 0.0361934 0.0868802 0.159725 0.205534 0.109817 -0.26522 -0.948587 -1.71637 -2.11443 -1.74851 -0.660509 0.590264 1.316 1.24581 0.699594 0.229701 0.120643 0.238142 0.293198 0.167893 -0.0218819 -0.110199 -0.0658948 0.00673238 0.00750886 -0.0568091 -0.10354 -0.0769531 -0.00179339 0.0551357 0.0577478 0.0291049 0.0172066 0.0443511 0.0901809 0.116835 0.105796 0.071358 0.0445537 0.0461798 0.0719611 0.099606 0.107556 0.0902066 0.0596644 0.0353839 0.0307714 0.0460503 0.0698999 0.0874388 0.0885445 0.0726636 0.047399 0.0239968 0.0115961 0.0138042 0.0280528 0.04744 0.0641296 0.0722375 0.0692732 0.0564823 0.0378159 0.0183153 0.00244353 -0.00668985 -0.00805001 -0.00228983 0.00863481 0.0221823 0.0357158 0.0471439 0.0550893 0.0588523 0.058529 0.0546046 0.0479195 0.0394345 0.029983 0.0203985 0.0114001 0.00328132 -0.00371097 -0.00948634 -0.0140103 -0.0174384 -0.0199277 -0.0216604 -0.022789 -0.0234708 -0.0238629 -0.0241073 -0.0241735 -0.0242069 -0.0241735 -0.0241073 -0.0238629 -0.0234708 -0.022789 -0.0216604 -0.0199277 -0.0174383 -0.0140101 -0.00948627 -0.00371081 0.00328148 0.0114003 0.0203986 0.029983 0.0394343 0.0479191 0.0546048 0.0585304 0.0588558 0.0550954 0.0471524 0.0357228 0.0221848 0.00863501 -0.00228679 -0.00804701 -0.00668885 0.00244303 0.0183099 0.0378068 0.0564838 0.0692919 0.0722586 0.0641431 0.0474436 0.0280559 0.0138086 0.011594 0.0240123 0.0474021 0.0726807 0.0885679 0.0874338 0.0699351 0.0460701 0.0308234 0.0353897 0.0594457 0.089258 0.10498 0.0941253 0.0622032 0.0315697 0.0264155 0.0538007 0.0951684 0.119663 0.109794 0.0781813 0.0567291 0.0631311 0.0780033 0.0601889 -0.00676743 -0.0841398 -0.107613 -0.0569376 0.00899988 0.00760796 -0.0659036 -0.1101 -0.021207 0.16723 0.291355 0.236941 0.120802 0.228919 0.693953 1.23449 1.30363 0.584742 -0.653906 -1.73133 -2.09377 -1.69963 -0.939313 -0.262555 0.10886 0.203634 0.158238 0.0860698 0.0358575 0.011647 0.00297611 0.000917027 0.000139499 0 0 
0 0 7.90476e-05 0.000534206 0.00174184 0.00710385 0.0226488 0.0558571 0.104194 0.131731 0.051552 -0.243355 -0.772812 -1.34722 -1.58719 -1.18002 -0.20867 0.802124 1.27293 1.0603 0.542228 0.208744 0.211336 0.331157 0.313482 0.139791 -0.0233297 -0.0544743 0.0027867 0.0271149 -0.0300561 -0.107955 -0.127179 -0.0805476 -0.0268367 -0.0155075 -0.0370078 -0.0448869 -0.0117421 0.0441563 0.0825819 0.0821286 0.0571942 0.0397644 0.0491579 0.0778149 0.101596 0.102022 0.0801156 0.0530507 0.0399315 0.0480896 0.0699705 0.0896663 0.0942938 0.0809306 0.0570948 0.0351926 0.0253244 0.0306629 0.0469641 0.065382 0.0772861 0.0776218 0.0663236 0.0475332 0.0277068 0.0126661 0.0061141 0.00885281 0.0190226 0.0331325 0.047299 0.0580841 0.0634558 0.0626805 0.0563986 0.0459394 0.033243 0.0201496 0.00828936 -0.00124301 -0.00788135 -0.0114048 -0.0120524 -0.0103418 -0.0067241 -0.00182202 0.00377329 0.00963767 0.0153398 0.0206853 0.0254577 0.0295881 0.0329815 0.0358034 0.0380386 0.0396748 0.0407674 0.041416 0.041655 0.041416 0.0407674 0.0396748 0.0380386 0.0358034 0.0329815 0.0295881 0.0254578 0.0206855 0.0153397 0.00963761 0.00377348 -0.00182201 -0.00672417 -0.0103421 -0.0120528 -0.0114049 -0.00788075 -0.00124153 0.00829296 0.0201556 0.0332501 0.0459442 0.0563992 0.0626802 0.0634585 0.0580871 0.0472982 0.0331319 0.019019 0.00884694 0.00612466 0.012687 0.027722 0.04755 0.0663342 0.0776149 0.0772851 0.0653899 0.0469737 0.0306529 0.0253452 0.0352187 0.0571201 0.0809705 0.0943153 0.0896662 0.0696745 0.0469901 0.0370435 0.0470461 0.0697383 0.0869971 0.0836747 0.0615627 0.0411809 0.0461335 0.0801228 0.117572 0.120981 0.0746439 0.00400937 -0.0433326 -0.0432887 -0.0221904 -0.0299115 -0.0805055 -0.126477 -0.108205 -0.0308511 0.0267178 0.00296914 -0.0545518 -0.0233975 0.138285 0.310302 0.328032 0.209707 0.207416 0.537718 1.05059 1.26096 0.794549 -0.206498 -1.16846 -1.57175 -1.33416 -0.765296 -0.240935 0.0511311 0.130526 0.103233 0.0553552 0.0225224 0.00737144 0.00267798 0.00056378 0 0 
0 0 0.000308277 0.0015159 0.00421488 0.013396 0.0340016 0.0646631 0.080693 0.019348 -0.199366 -0.59003 -1.00164 -1.13083 -0.736904 0.080382 0.857685 1.1293 0.850233 0.410529 0.211249 0.287829 0.382538 0.305259 0.12296 0.0119094 0.027565 0.0726873 0.0454435 -0.0428094 -0.106201 -0.0992397 -0.0604824 -0.0510009 -0.0807774 -0.106557 -0.0895891 -0.0377149 0.0090748 0.023191 0.0137714 0.0105612 0.031239 0.0660592 0.0904349 0.0889271 0.0676853 0.0471829 0.0444984 0.0609133 0.0831889 0.094987 0.0884455 0.0681634 0.0469606 0.0367303 0.0420076 0.0582256 0.0755405 0.0844944 0.0805484 0.0654854 0.0456956 0.0288876 0.0206221 0.0227804 0.0333713 0.0479174 0.0611952 0.0690279 0.0693853 0.0624106 0.0501051 0.0353586 0.0211378 0.00988611 0.0031177 0.00136175 0.00409255 0.0103272 0.0188366 0.0281208 0.0370819 0.0448521 0.0508738 0.0549039 0.056904 0.0571658 0.0560009 0.0536373 0.0505409 0.0470257 0.0433271 0.0397308 0.0363561 0.0334148 0.0309006 0.0288688 0.0274429 0.0266032 0.0263358 0.0266032 0.0274429 0.0288688 0.0309006 0.0334148 0.0363561 0.0397309 0.0433272 0.0470257 0.0505408 0.0536375 0.0560007 0.0571653 0.0569037 0.0549039 0.0508735 0.044852 0.0370825 0.028123 0.0188402 0.0103328 0.00409802 0.00136507 0.00311823 0.00988698 0.0211405 0.0353589 0.0501025 0.0624136 0.0693884 0.0690264 0.0612044 0.0479386 0.0333933 0.0227907 0.0206201 0.0288847 0.045695 0.0654807 0.0805511 0.0844937 0.0755577 0.0582662 0.0420339 0.0367661 0.0469208 0.0678227 0.0871936 0.0918247 0.0767711 0.0500991 0.0292712 0.0297825 0.0530548 0.0837367 0.10021 0.091762 0.0674915 0.0470349 0.0401426 0.0343486 0.0073069 -0.0453161 -0.0962302 -0.109627 -0.0815966 -0.0519334 -0.062299 -0.10125 -0.107629 -0.0440454 0.0435463 0.0697775 0.0250371 0.00987136 0.120161 0.300923 0.37774 0.284352 0.208965 0.406616 0.842185 1.1185 0.849458 0.0796443 -0.729761 -1.11992 -0.991981 -0.584324 -0.197403 0.0192183 0.0799749 0.0641277 0.0339085 0.013963 0.00580456 0.00148952 0 0 
0 0 0.000797593 0.00321846 0.00784337 0.0197457 0.0383225 0.0475401 0.00426425 -0.149192 -0.424721 -0.709186 -0.770036 -0.425968 0.225746 0.797872 0.931066 0.645684 0.307222 0.219685 0.331774 0.386876 0.271751 0.112514 0.0614776 0.106529 0.12654 0.0626399 -0.026343 -0.0615451 -0.0429838 -0.0320231 -0.0640954 -0.110667 -0.12431 -0.0965281 -0.0612024 -0.0494822 -0.0569187 -0.0549176 -0.0256465 0.0193327 0.0526706 0.0587329 0.0457122 0.0352937 0.0423535 0.0638816 0.0839759 0.0884067 0.0754616 0.0556839 0.0431666 0.045702 0.060736 0.0781171 0.0871716 0.08281 0.0674902 0.0489289 0.035601 0.0327769 0.0404068 0.0541926 0.0678126 0.0757927 0.0751266 0.0661777 0.0518889 0.0364186 0.0237097 0.0164132 0.0155795 0.0205656 0.0295297 0.0401578 0.0502752 0.0580808 0.0624487 0.0630531 0.0601728 0.0544362 0.0467564 0.0381585 0.029413 0.0212434 0.0140235 0.00814407 0.0036293 0.000361895 -0.00172073 -0.00278751 -0.0031283 -0.00290509 -0.00236524 -0.00158296 -0.000809729 -0.000113013 0.000499011 0.000874901 0.00100682 0.000874901 0.000499011 -0.000113013 -0.000809733 -0.00158297 -0.00236527 -0.00290511 -0.00312826 -0.00278721 -0.00172093 0.000361713 0.00362906 0.00814369 0.0140232 0.0212433 0.0294127 0.0381587 0.0467574 0.0544384 0.0601762 0.0630572 0.0624527 0.0580824 0.0502755 0.0401593 0.0295307 0.0205628 0.0155791 0.0164219 0.0237185 0.0364203 0.0518955 0.066192 0.0751417 0.0758072 0.067814 0.0541786 0.0403963 0.0327685 0.0356026 0.048929 0.0675007 0.0828495 0.0872182 0.0780832 0.0603162 0.044323 0.0397551 0.0489351 0.064343 0.0732183 0.0673161 0.0510507 0.0399284 0.0480818 0.0735025 0.0949093 0.0865021 0.0412649 -0.0190572 -0.0598488 -0.0658857 -0.0565185 -0.0648511 -0.0986351 -0.126824 -0.113844 -0.0669503 -0.0342512 -0.0452313 -0.0645884 -0.0302242 0.0583892 0.121861 0.102419 0.0582525 0.109209 0.267199 0.381465 0.327242 0.216712 0.30383 0.639249 0.921959 0.790086 0.223506 -0.421933 -0.762698 -0.702405 -0.420642 -0.147723 0.00430133 0.047262 0.038415 0.0206806 0.00989679 0.00300562 0 0 
0 0 0.00158352 0.00539124 0.0114435 0.0219165 0.0271437 -0.00111943 -0.102992 -0.28896 -0.479643 -0.50445 -0.22928 0.263735 0.668057 0.71685 0.465538 0.230526 0.223962 0.340262 0.352769 0.221768 0.103067 0.104985 0.160625 0.153641 0.0755472 0.00936782 0.00335265 0.018509 -0.00243823 -0.0576129 -0.0985256 -0.0980493 -0.0789212 -0.0772939 -0.0973335 -0.110957 -0.0945147 -0.0549218 -0.0189318 -0.00420872 -0.00437187 0.000181737 0.0204963 0.0495066 0.0701824 0.0717467 0.0580867 0.0436589 0.0412492 0.0532296 0.071219 0.0832574 0.0821354 0.0691311 0.0524659 0.0414806 0.0416296 0.0518481 0.0662935 0.0776648 0.0806373 0.0740611 0.0606498 0.0454245 0.033372 0.0279708 0.0300704 0.0381961 0.0492245 0.0598531 0.0672629 0.0697897 0.0671242 0.0599593 0.050011 0.038922 0.0284292 0.0197725 0.013791 0.0107907 0.0104835 0.0126132 0.0164695 0.0214818 0.0270086 0.0326511 0.0378967 0.0425683 0.0465163 0.0497419 0.0522907 0.0541607 0.055454 0.0563777 0.0569031 0.0572264 0.0574315 0.0575419 0.0575994 0.0575419 0.0574315 0.0572264 0.056903 0.0563776 0.0554538 0.0541607 0.0522907 0.0497419 0.0465163 0.0425681 0.0378964 0.0326507 0.0270083 0.021481 0.0164691 0.0126133 0.0104842 0.0107926 0.013793 0.0197745 0.0284313 0.0389235 0.0500119 0.0599596 0.0671229 0.069788 0.0672662 0.0598644 0.0492351 0.0381993 0.0300718 0.0279817 0.0333854 0.045425 0.060648 0.0740613 0.0806215 0.0776421 0.0662881 0.0518607 0.0416897 0.0415513 0.052403 0.0686589 0.0806168 0.0796582 0.0642305 0.0419327 0.0262192 0.0278947 0.0470685 0.0718672 0.085525 0.0786391 0.0558368 0.0307837 0.0129755 -0.00188293 -0.0266102 -0.0649707 -0.10188 -0.115106 -0.100384 -0.0807099 -0.0824304 -0.100822 -0.100588 -0.0598147 -0.0053143 0.0151376 -3.90068e-05 0.00594407 0.0719189 0.14953 0.156769 0.102025 0.100464 0.218209 0.348039 0.335841 0.220961 0.22775 0.460708 0.709718 0.661453 0.261043 -0.227215 -0.499712 -0.475097 -0.286178 -0.101892 -0.000796827 0.0276002 0.0231007 0.0132635 0.00479733 0 0 
0 0 0.0024945 0.00711104 0.0126226 0.0153509 -0.00190947 -0.065933 -0.186054 -0.310403 -0.319605 -0.116457 0.237334 0.511789 0.515928 0.317545 0.173088 0.217224 0.318967 0.29632 0.168251 0.09402 0.131597 0.180899 0.151588 0.0794301 0.0469152 0.0623568 0.0656728 0.0234754 -0.031411 -0.0547788 -0.0497672 -0.052949 -0.0810673 -0.112447 -0.118709 -0.099179 -0.0773964 -0.0710851 -0.0734077 -0.064898 -0.0361344 0.00198875 0.0298083 0.0372281 0.0309919 0.0266883 0.0345966 0.0525326 0.0692536 0.074558 0.0665498 0.0523644 0.0422748 0.0429339 0.053838 0.0684935 0.0787674 0.0795234 0.0706862 0.05679 0.0439974 0.037442 0.0390913 0.0475371 0.0590254 0.0691501 0.0745666 0.0736701 0.0669051 0.0561637 0.0442457 0.033649 0.0263482 0.0233241 0.024474 0.0291132 0.0359434 0.0436742 0.0510736 0.0571937 0.0615413 0.0637208 0.0639419 0.0623435 0.0593176 0.055364 0.050813 0.0460645 0.0413382 0.0368866 0.0328614 0.0293506 0.0263344 0.0238897 0.0218762 0.0203755 0.0193822 0.0187859 0.0186098 0.0187859 0.0193822 0.0203755 0.0218761 0.0238896 0.0263343 0.0293507 0.0328615 0.0368866 0.041338 0.046064 0.0508124 0.0553639 0.0593175 0.0623432 0.0639413 0.0637211 0.0615415 0.057195 0.0510756 0.0436758 0.035945 0.0291158 0.024476 0.0233227 0.0263443 0.0336485 0.0442517 0.0561761 0.0669161 0.0736722 0.074567 0.0691547 0.0590263 0.0475362 0.0390904 0.0374242 0.0439713 0.056779 0.0706944 0.0795607 0.0788183 0.0684219 0.0533304 0.0413529 0.0385392 0.0452244 0.0552209 0.0598475 0.0544476 0.0432533 0.0369716 0.0439789 0.0607118 0.0709525 0.0567925 0.0148981 -0.0374884 -0.074511 -0.0837995 -0.078148 -0.0815205 -0.102384 -0.122018 -0.115294 -0.0828341 -0.0540622 -0.0510524 -0.0565459 -0.0332568 0.021783 0.0639223 0.0601835 0.0450972 0.0775482 0.149223 0.178421 0.129794 0.0927109 0.166281 0.293071 0.315442 0.214701 0.171084 0.314261 0.510779 0.506703 0.234891 -0.115486 -0.316631 -0.307425 -0.184102 -0.06485 -0.00102906 0.016397 0.0131671 0.00596587 0 0 
0 0 0.00307189 0.00695585 0.00888639 -0.000943102 -0.0391208 -0.113425 -0.192459 -0.196781 -0.057595 0.183568 0.362948 0.348297 0.204656 0.128494 0.196467 0.275424 0.231106 0.120927 0.0873246 0.142016 0.173411 0.128599 0.0736221 0.0726279 0.0977536 0.0881573 0.0411244 0.00384006 -0.00129638 -0.00154633 -0.0268086 -0.0677071 -0.0930223 -0.092262 -0.0847986 -0.0911954 -0.107703 -0.113512 -0.0962674 -0.064937 -0.0384287 -0.0262092 -0.0215993 -0.0113953 0.009939 0.035374 0.0525197 0.0545744 0.0454307 0.0358183 0.0351976 0.0453411 0.0603807 0.0715955 0.0730709 0.0649503 0.0524999 0.0428507 0.040791 0.0470383 0.0583843 0.0695796 0.076091 0.0754417 0.068118 0.0569177 0.0454017 0.0369914 0.0335021 0.0353674 0.0414847 0.049915 0.0585058 0.0653848 0.0693442 0.0697093 0.0668061 0.0612872 0.0540167 0.0460965 0.0383257 0.0314025 0.0258117 0.0216823 0.0190604 0.0178562 0.0178605 0.0187199 0.0201693 0.022104 0.0241804 0.0263426 0.0282966 0.030131 0.0316002 0.0327907 0.0336844 0.0342587 0.034398 0.0342587 0.0336844 0.0327907 0.0316002 0.0301309 0.0282966 0.0263426 0.0241804 0.022104 0.0201686 0.0187197 0.0178603 0.0178564 0.0190603 0.0216821 0.0258121 0.0314019 0.0383255 0.0460972 0.0540184 0.0612884 0.066807 0.0697126 0.0693465 0.0653822 0.058501 0.0499131 0.0414887 0.0353803 0.0335146 0.036995 0.0454035 0.0569189 0.0681112 0.0754381 0.0760836 0.0695531 0.0583647 0.0470418 0.0408251 0.0428957 0.052417 0.0644175 0.071413 0.0677609 0.0531572 0.0340795 0.0209061 0.0219974 0.0377282 0.0587739 0.0711079 0.0649112 0.0415299 0.0119279 -0.0126491 -0.0303675 -0.0489394 -0.0748034 -0.102349 -0.116837 -0.1103 -0.0936567 -0.0864991 -0.0928516 -0.0931443 -0.0681341 -0.027559 -0.00224482 -0.0018521 0.0030844 0.0399841 0.0868369 0.0964429 0.0717275 0.0729534 0.127522 0.171997 0.140998 0.0869544 0.120255 0.229221 0.272932 0.194602 0.12724 0.202668 0.34489 0.359361 0.181692 -0.0571164 -0.194862 -0.19038 -0.111823 -0.0380306 -0.000589539 0.00738293 0.00527966 0 0 
0 0 0.00270912 0.00384038 -0.000229763 -0.0214047 -0.0653459 -0.114352 -0.118211 -0.0295811 0.126782 0.24033 0.22208 0.125956 0.0946621 0.165888 0.220045 0.166675 0.082388 0.0817354 0.140053 0.151158 0.0995078 0.0651052 0.0847798 0.107252 0.0872263 0.0486788 0.0349668 0.0415546 0.0318808 -0.00399596 -0.0391724 -0.0519855 -0.0533413 -0.0661296 -0.0925071 -0.113217 -0.113277 -0.0989641 -0.0874889 -0.0861771 -0.085881 -0.0728631 -0.0445679 -0.0120541 0.0103681 0.0172635 0.0152848 0.0158476 0.0253928 0.0413916 0.0553464 0.0601146 0.0547473 0.0445676 0.0371971 0.0378164 0.0465906 0.0590412 0.0691981 0.0726727 0.0683569 0.0588052 0.0481618 0.0407092 0.0389624 0.0431495 0.0513929 0.0609213 0.0687082 0.0727028 0.0720892 0.0672386 0.0593476 0.0502605 0.0415613 0.0346047 0.030189 0.0286015 0.0296059 0.032693 0.0370784 0.042218 0.047376 0.0521164 0.0561139 0.0591552 0.0612629 0.0624687 0.0628692 0.0626049 0.0619791 0.061008 0.0598934 0.0587375 0.0576401 0.0567554 0.0560661 0.0556804 0.0555203 0.0556804 0.0560661 0.0567554 0.0576401 0.0587375 0.0598934 0.061008 0.0619792 0.0626051 0.0628692 0.0624686 0.0612629 0.0591551 0.0561143 0.0521165 0.0473761 0.0422184 0.0370788 0.0326928 0.0296057 0.028601 0.0301906 0.0346088 0.0415636 0.050257 0.0593397 0.067232 0.0720907 0.0727147 0.0687256 0.0609345 0.0513961 0.0431398 0.0389485 0.0407014 0.0481472 0.0587866 0.0683644 0.0727063 0.0692246 0.0589476 0.0460388 0.0361195 0.0333079 0.0373239 0.0436299 0.0463024 0.042466 0.0350801 0.0310031 0.0351429 0.0441466 0.0464714 0.0302216 -0.00634736 -0.0505584 -0.0834004 -0.0945193 -0.0907936 -0.0896638 -0.100697 -0.114843 -0.113985 -0.0924489 -0.0659258 -0.0536329 -0.0525452 -0.0396762 -0.00446995 0.031095 0.0404279 0.0338096 0.0476263 0.0859708 0.105909 0.0838259 0.0645059 0.0987128 0.149995 0.13916 0.0815295 0.082228 0.165654 0.21836 0.164586 0.0939684 0.124886 0.219999 0.238032 0.125595 -0.0291789 -0.116798 -0.11285 -0.0645289 -0.0221375 -0.00355938 0.00199366 0 0 
0 0 0.00105904 -0.00186698 -0.0116166 -0.0357214 -0.0650525 -0.0693691 -0.0170538 0.0793573 0.149363 0.134789 0.0756207 0.0703042 0.132857 0.164997 0.111602 0.0534116 0.0745738 0.127735 0.122748 0.0741406 0.0603205 0.0894926 0.101338 0.0744599 0.0500309 0.0552167 0.0643277 0.0470113 0.0143298 -0.00484556 -0.00836951 -0.0187397 -0.0466018 -0.0766728 -0.0904338 -0.0895614 -0.0905 -0.101864 -0.114609 -0.114092 -0.0965938 -0.0723026 -0.0539119 -0.0444169 -0.0366792 -0.0223662 -0.000349279 0.0220324 0.0357378 0.0372528 0.030895 0.0250996 0.0265754 0.0361435 0.0491593 0.0591835 0.0617621 0.0566557 0.0476688 0.0399528 0.0374522 0.041539 0.0503892 0.0605084 0.0682512 0.0711471 0.0685081 0.0615756 0.0525746 0.0440192 0.037942 0.035477 0.0367433 0.0410578 0.0471954 0.0538634 0.0598264 0.0642053 0.0664563 0.0665964 0.0647593 0.0613613 0.0569485 0.0519426 0.046873 0.0420327 0.037756 0.034095 0.0311107 0.0288247 0.0271647 0.0259988 0.0253174 0.0248701 0.0246886 0.0246226 0.0246562 0.0246434 0.0247148 0.0246434 0.0246562 0.0246225 0.0246886 0.0248701 0.0253174 0.0259988 0.027165 0.028825 0.0311107 0.0340948 0.0377563 0.0420329 0.046873 0.0519423 0.0569485 0.0613612 0.0647599 0.0665969 0.0664552 0.0642049 0.0598279 0.0538661 0.0471952 0.0410509 0.0367297 0.0354664 0.0379421 0.0440353 0.0526007 0.0615947 0.0685047 0.0711255 0.0682344 0.0604975 0.0503755 0.0415431 0.0374897 0.0399693 0.0475529 0.0561071 0.0600512 0.0552749 0.0419656 0.025228 0.0132563 0.0131015 0.0257176 0.043887 0.0553119 0.0498364 0.0264704 -0.00554692 -0.0334786 -0.0513513 -0.0637495 -0.0793914 -0.0997774 -0.115362 -0.115698 -0.102861 -0.0908391 -0.0893707 -0.0904959 -0.0772888 -0.0473951 -0.0194815 -0.00924361 -0.00603692 0.0129358 0.0456742 0.0631282 0.0540118 0.0489293 0.0731563 0.0997786 0.0881448 0.059428 0.0732813 0.121535 0.126633 0.0741392 0.0533036 0.110978 0.163845 0.131942 0.0699086 0.0751045 0.133666 0.148109 0.0788167 -0.0166421 -0.0686132 -0.0649964 -0.0374178 -0.0154173 -0.00320946 0 0 
0 0 -0.00152378 -0.00794983 -0.0196718 -0.0358846 -0.0398629 -0.0112741 0.0451938 0.0873704 0.0784305 0.045371 0.0528172 0.10233 0.118452 0.0711508 0.0348613 0.0663356 0.108517 0.0927266 0.0537755 0.0581094 0.0893845 0.0899338 0.0620759 0.0518712 0.0664969 0.0704283 0.0495869 0.0286217 0.0252454 0.0240494 0.00520179 -0.0249813 -0.0461406 -0.0533941 -0.0609326 -0.0795312 -0.101976 -0.113348 -0.109468 -0.100113 -0.0963043 -0.0978078 -0.0945876 -0.0784129 -0.0514558 -0.0244681 -0.00717353 -0.00123898 -0.000135513 0.00418547 0.015121 0.0294967 0.0409997 0.0448592 0.040914 0.0336706 0.0287925 0.0300855 0.0377119 0.0484234 0.0580091 0.0626867 0.0612534 0.0550132 0.0467277 0.0397092 0.0362329 0.0372746 0.0422733 0.0496099 0.0571268 0.0630965 0.0662125 0.066086 0.0630176 0.0579093 0.051687 0.0454644 0.0401292 0.0362978 0.034297 0.0341408 0.0356669 0.0386095 0.0425205 0.0471278 0.0520567 0.057036 0.0617781 0.0662538 0.0702957 0.0737833 0.0768057 0.0793107 0.0813051 0.0828408 0.0839339 0.0845658 0.0848053 0.0845659 0.0839339 0.0828407 0.081305 0.0793106 0.0768057 0.0737832 0.0702959 0.0662537 0.0617783 0.0570357 0.0520566 0.0471283 0.0425207 0.0386099 0.0356674 0.0341412 0.0342973 0.036297 0.0401271 0.0454626 0.0516874 0.0579096 0.0630149 0.066076 0.0661949 0.0630831 0.05713 0.049631 0.0422992 0.037286 0.036226 0.0396957 0.0467089 0.054996 0.0612686 0.0627265 0.0580312 0.048303 0.0371052 0.0283676 0.0249256 0.0265697 0.0302838 0.0320577 0.0297739 0.0252484 0.0224256 0.0236851 0.0264488 0.0233271 0.00714056 -0.0229576 -0.0586138 -0.087164 -0.100146 -0.0998438 -0.0970466 -0.101039 -0.110326 -0.11361 -0.101916 -0.0798675 -0.0617683 -0.0542994 -0.0469664 -0.0259862 0.00388042 0.022694 0.0240531 0.0274988 0.0484159 0.0693248 0.0653585 0.050921 0.0609716 0.088573 0.0880798 0.057206 0.0530087 0.0916669 0.107389 0.0657366 0.0347039 0.0707596 0.117621 0.101631 0.052585 0.0452138 0.0779657 0.0867888 0.0448583 -0.0115074 -0.0406788 -0.0378629 -0.0222839 -0.00809148 0 0 
0 0 -0.00394955 -0.0114568 -0.0201105 -0.0230008 -0.00833787 0.0231895 0.0481073 0.0440333 0.0277082 0.0396097 0.0761173 0.0826461 0.0449784 0.0253118 0.0585314 0.0877684 0.0657726 0.0379895 0.0546545 0.0829267 0.0754042 0.0527507 0.0555046 0.072148 0.0687238 0.0489429 0.0408652 0.0461118 0.0416292 0.0199787 -0.00152984 -0.0107918 -0.0176758 -0.0360215 -0.0626192 -0.0825854 -0.0892459 -0.0910796 -0.098668 -0.11135 -0.118867 -0.113151 -0.0967824 -0.0792651 -0.0673111 -0.0594165 -0.0490271 -0.0318399 -0.0101492 0.0089159 0.0192469 0.019852 0.015451 0.0127223 0.0160665 0.0254199 0.0368787 0.045537 0.0482087 0.0448168 0.0381104 0.031926 0.0295082 0.0320516 0.0387254 0.0472478 0.0548941 0.0595475 0.0603173 0.0574047 0.0520234 0.0460359 0.0409841 0.0381778 0.0383897 0.041738 0.0476769 0.055598 0.0646207 0.0739762 0.0830142 0.0912985 0.0986413 0.104874 0.110015 0.11427 0.117825 0.12079 0.123329 0.125556 0.127541 0.12929 0.1309 0.132333 0.133554 0.134497 0.135236 0.135673 0.13581 0.135673 0.135236 0.134496 0.133554 0.132333 0.1309 0.12929 0.127541 0.125556 0.123329 0.12079 0.117826 0.11427 0.110015 0.104874 0.0986413 0.0912981 0.0830141 0.0739749 0.0646179 0.0555944 0.0476741 0.041735 0.0383853 0.038167 0.0409673 0.0460253 0.0520288 0.0574237 0.0603377 0.0595565 0.0548895 0.0472392 0.0387166 0.0320537 0.0295438 0.0319538 0.0379868 0.0442213 0.0464807 0.0417067 0.0299312 0.015072 0.00376604 0.00218273 0.0119014 0.0275309 0.0384054 0.0342213 0.012438 -0.0195091 -0.048613 -0.0663609 -0.0749041 -0.0835554 -0.0981016 -0.113732 -0.119873 -0.112286 -0.0989511 -0.0911083 -0.0896345 -0.0832994 -0.06332 -0.0366516 -0.0184886 -0.0118586 -0.00262659 0.0190006 0.0406292 0.0450739 0.0399191 0.0482487 0.0678188 0.0711978 0.0546958 0.0519804 0.0743899 0.0818299 0.0539051 0.0374875 0.0650452 0.0868421 0.0579862 0.0251776 0.0447264 0.0820749 0.0756396 0.0395132 0.0277182 0.0437699 0.0474971 0.0222734 -0.00961141 -0.0244506 -0.0207999 -0.0101127 0 0 
0 0 -0.0050075 -0.0107894 -0.0135101 -0.00671979 0.010113 0.0246673 0.023867 0.0172666 0.0290868 0.0546255 0.056488 0.0292867 0.0211166 0.0512059 0.0689417 0.0451961 0.0275358 0.0497518 0.0711723 0.0585513 0.0439824 0.0566992 0.0717451 0.063564 0.0497162 0.0521631 0.0587051 0.0493887 0.0309925 0.0214566 0.0191274 0.00816835 -0.0149345 -0.037275 -0.0493093 -0.0570782 -0.0712215 -0.0917135 -0.107921 -0.112116 -0.107604 -0.103842 -0.105173 -0.10659 -0.0997581 -0.0816051 -0.057351 -0.0360402 -0.0233572 -0.0180229 -0.0143726 -0.00726549 0.00438268 0.0170671 0.0259669 0.0283338 0.0248393 0.0193809 0.0161764 0.017927 0.0245606 0.0337762 0.0422661 0.0474248 0.048114 0.0450429 0.0402461 0.0362254 0.0350163 0.0378534 0.0447871 0.0551518 0.0675675 0.0807213 0.0934697 0.104974 0.115032 0.123602 0.131038 0.137785 0.14444 0.151303 0.158751 0.166787 0.175512 0.184726 0.194341 0.204069 0.213676 0.222966 0.231723 0.239723 0.246893 0.253104 0.258214 0.262298 0.265209 0.266972 0.267546 0.266972 0.265209 0.262298 0.258214 0.253104 0.246893 0.239723 0.231722 0.222966 0.213676 0.204069 0.194341 0.184726 0.175512 0.166787 0.158751 0.151304 0.14444 0.137782 0.131033 0.123595 0.115024 0.104968 0.0934656 0.080714 0.0675545 0.0551409 0.0447892 0.0378683 0.0350364 0.0362383 0.0402471 0.0450431 0.0481257 0.0474475 0.0422729 0.033653 0.0239781 0.0162254 0.0124136 0.0126106 0.0148185 0.0165145 0.0160159 0.0140285 0.0122305 0.0113681 0.00964252 0.00282167 -0.0125431 -0.0363027 -0.0639149 -0.0881783 -0.103132 -0.107554 -0.10585 -0.104968 -0.108513 -0.112321 -0.107891 -0.0919938 -0.0717054 -0.0574836 -0.0497203 -0.0379708 -0.015909 0.00714344 0.018096 0.0202927 0.0297753 0.048276 0.0577791 0.0513548 0.0489532 0.0625786 0.070654 0.0557257 0.0432076 0.057661 0.0702177 0.0490693 0.0271691 0.0447388 0.0683022 0.0507918 0.0210522 0.029191 0.0561602 0.054317 0.0289539 0.0170531 0.0232529 0.0236457 0.00902479 -0.00728899 -0.0129248 -0.00834236 0 0 
0 0 -0.00425664 -0.00696653 -0.00491771 0.003165 0.0113515 0.0122346 0.0106919 0.0205067 0.0377074 0.037949 0.0200757 0.0189424 0.0437629 0.0531293 0.0312632 0.0219956 0.0448794 0.0582705 0.0429079 0.0357297 0.0533857 0.0644283 0.0548936 0.0495929 0.0595678 0.06429 0.0532606 0.0423195 0.041899 0.0398104 0.0250667 0.00536194 -0.00706656 -0.0146615 -0.0285136 -0.0509179 -0.0722275 -0.0840349 -0.0890059 -0.0957495 -0.107431 -0.118162 -0.119872 -0.111118 -0.0977966 -0.0865 -0.0788445 -0.0710081 -0.0581852 -0.0396069 -0.0196674 -0.00448519 0.00238784 0.00192416 -0.00124229 -0.00199825 0.00229047 0.0109368 0.0207042 0.028076 0.0309512 0.0297852 0.0267327 0.0251232 0.0273718 0.0346831 0.0467931 0.0623751 0.0794051 0.0961551 0.111621 0.125395 0.137924 0.149918 0.162464 0.176276 0.191782 0.209228 0.22829 0.248518 0.269312 0.290062 0.310138 0.329023 0.346342 0.361923 0.375599 0.387413 0.397449 0.405853 0.412771 0.418345 0.422776 0.426237 0.428882 0.430778 0.43213 0.432878 0.433113 0.432878 0.43213 0.430778 0.428883 0.426238 0.422778 0.418346 0.41277 0.405852 0.397448 0.387413 0.375599 0.361923 0.346341 0.329023 0.310137 0.290063 0.26931 0.248512 0.22828 0.209216 0.191773 0.176271 0.162461 0.149912 0.13791 0.125383 0.111624 0.0961738 0.0794272 0.0623902 0.046804 0.0346988 0.027389 0.0251294 0.0266173 0.0291995 0.0292645 0.0243991 0.0141369 0.00125909 -0.00904028 -0.0114121 -0.00392183 0.0097214 0.020405 0.0183527 -0.000274125 -0.0299494 -0.0587863 -0.0770813 -0.0845837 -0.0892534 -0.0986321 -0.111948 -0.121028 -0.118886 -0.107442 -0.095577 -0.0891749 -0.0843777 -0.0724897 -0.051291 -0.0292753 -0.0156614 -0.00814407 0.00423845 0.0237587 0.0384774 0.040637 0.0412177 0.0521799 0.0633464 0.0585939 0.0486779 0.0538513 0.063277 0.0522842 0.0348628 0.0420569 0.0573468 0.0441863 0.0216563 0.0309598 0.0526987 0.0434765 0.0189449 0.0200664 0.0377107 0.0373331 0.0200742 0.0101113 0.0115196 0.0108143 0.00318597 -0.00426122 -0.00429032 0 0 
0 0 -0.00238955 -0.00271373 0.000549013 0.0046035 0.00574399 0.00626959 0.0135896 0.0248875 0.0250416 0.0144528 0.0169392 0.0360906 0.0403019 0.022436 0.0195128 0.0404587 0.0469311 0.0311995 0.029759 0.0477737 0.0533603 0.0440192 0.0461699 0.0595946 0.0621035 0.0537977 0.0522681 0.0570626 0.0528713 0.0384979 0.0269701 0.0218876 0.0130725 -0.00557896 -0.0267467 -0.0412843 -0.0506532 -0.0632272 -0.0816642 -0.0995178 -0.10895 -0.10954 -0.107757 -0.10919 -0.112673 -0.111743 -0.101563 -0.0833266 -0.0633291 -0.0478234 -0.0390094 -0.0341506 -0.028809 -0.0202223 -0.00903218 0.00167771 0.00868098 0.010951 0.0102549 0.0100196 0.0137034 0.0233081 0.0387698 0.0583828 0.0797716 0.100788 0.120403 0.138827 0.157049 0.176415 0.197991 0.222454 0.249542 0.278537 0.308302 0.337443 0.364667 0.389066 0.409837 0.426816 0.43991 0.449404 0.45566 0.459147 0.46038 0.45975 0.457744 0.454771 0.451153 0.447065 0.44287 0.43872 0.434795 0.431202 0.428148 0.425627 0.423781 0.422672 0.422267 0.422672 0.423781 0.425627 0.428149 0.431203 0.434796 0.43872 0.44287 0.447063 0.45115 0.454769 0.457744 0.459749 0.46038 0.459147 0.455661 0.449405 0.439906 0.426805 0.40982 0.389053 0.36466 0.337441 0.308298 0.278529 0.249529 0.222448 0.198002 0.176436 0.157068 0.138839 0.120423 0.100821 0.0797751 0.0582471 0.038198 0.021672 0.0101218 0.00364947 0.000942314 0.000103032 -0.00027323 -0.000722284 -0.00139015 -0.00292629 -0.00712917 -0.0159786 -0.0301908 -0.0485722 -0.0689231 -0.0883996 -0.103935 -0.112551 -0.113596 -0.110317 -0.108274 -0.10934 -0.108729 -0.0996833 -0.0819915 -0.0635115 -0.0511005 -0.0420429 -0.0277023 -0.00653787 0.0120074 0.0206614 0.0256819 0.037319 0.0517662 0.0559907 0.0512778 0.0529937 0.0612127 0.0586637 0.0453253 0.0431503 0.0523524 0.0468264 0.0290083 0.0305069 0.0461368 0.0398118 0.0192227 0.0222401 0.0400026 0.0358725 0.0168849 0.0143381 0.0246749 0.0243515 0.0130759 0.00591485 0.00563096 0.00469294 0.000721304 -0.000650362 0 0 
0 0 -0.0006429 -0.000160481 0.00173821 0.00258481 0.00348767 0.00838342 0.015589 0.016132 0.0106416 0.0144931 0.0285572 0.030102 0.0169463 0.018196 0.0359215 0.0376203 0.0235721 0.0262419 0.0421695 0.0425232 0.0341496 0.0407226 0.0534334 0.0534407 0.0496644 0.055925 0.0629024 0.0583818 0.0497941 0.0473272 0.0451659 0.0336228 0.0160493 0.00216423 -0.00709508 -0.0196403 -0.0393593 -0.0603177 -0.0747979 -0.0827407 -0.0903972 -0.101857 -0.114084 -0.120426 -0.117787 -0.109281 -0.100668 -0.0948001 -0.0896866 -0.0810607 -0.0666238 -0.0483457 -0.0309196 -0.0185532 -0.0122016 -0.00930092 -0.00506331 0.00445224 0.0207708 0.0429411 0.0683116 0.0943195 0.119581 0.144249 0.169537 0.197072 0.227919 0.262139 0.298697 0.33559 0.370588 0.401722 0.427467 0.446788 0.459567 0.466013 0.46688 0.462905 0.455009 0.44394 0.430309 0.414774 0.397586 0.379194 0.359871 0.340004 0.319824 0.299705 0.279965 0.260908 0.242906 0.22625 0.211222 0.198052 0.186959 0.178175 0.171812 0.167913 0.166641 0.167913 0.171812 0.178175 0.18696 0.198054 0.211222 0.226249 0.242907 0.260907 0.279963 0.299704 0.319823 0.340002 0.35987 0.379193 0.397588 0.414771 0.4303 0.443926 0.454992 0.462891 0.466872 0.466012 0.459564 0.44678 0.427461 0.401728 0.370606 0.335605 0.298711 0.262155 0.227955 0.197099 0.169406 0.143653 0.117974 0.0908472 0.0621528 0.0340026 0.0104239 -0.00402877 -0.00725742 -0.00192268 0.00432343 0.00204464 -0.0138004 -0.0401612 -0.0673994 -0.0862076 -0.0942236 -0.096903 -0.101473 -0.110202 -0.118779 -0.120721 -0.113754 -0.101643 -0.0905937 -0.0830675 -0.0750475 -0.0607374 -0.0400518 -0.0204509 -0.00789894 0.00124503 0.0149346 0.0324877 0.04407 0.0462309 0.0486976 0.0573734 0.0620425 0.0551417 0.0489266 0.0525957 0.0525394 0.0399223 0.0334 0.041701 0.041353 0.0256461 0.0230381 0.0370391 0.0354465 0.0179741 0.016804 0.0298415 0.0282726 0.0142671 0.0103645 0.0157492 0.0152445 0.00822055 0.00345626 0.00253175 0.00177219 0.000941469 0 0 
0 0 0.000215143 0.000558719 0.001089 0.00191159 0.00492627 0.00931897 0.0101105 0.00776157 0.0116558 0.0216008 0.0221149 0.0133481 0.0168582 0.0310192 0.0299914 0.0187214 0.0241104 0.0371236 0.0338249 0.0270401 0.0356032 0.0451571 0.0426997 0.0425534 0.0525148 0.0588079 0.0559445 0.0554536 0.059996 0.0588501 0.048573 0.0380652 0.0316922 0.022997 0.00644546 -0.0135234 -0.0293951 -0.0405693 -0.0531389 -0.0705723 -0.0888536 -0.101497 -0.106393 -0.107811 -0.110825 -0.116097 -0.119161 -0.115299 -0.103172 -0.0861259 -0.0691178 -0.0549416 -0.0426267 -0.0287468 -0.00992545 0.0148789 0.0444641 0.0761352 0.107815 0.139099 0.171103 0.205668 0.243909 0.285474 0.328535 0.370089 0.4069 0.436179 0.456278 0.466508 0.467221 0.459402 0.444223 0.422876 0.396237 0.365003 0.329753 0.290906 0.248786 0.204016 0.157075 0.108802 0.0598153 0.010981 -0.0369872 -0.0832993 -0.127448 -0.168795 -0.207023 -0.241914 -0.273106 -0.300633 -0.32439 -0.344373 -0.360604 -0.373206 -0.382124 -0.387453 -0.389229 -0.387453 -0.382123 -0.373205 -0.360604 -0.344373 -0.324389 -0.300634 -0.273106 -0.241915 -0.207024 -0.168797 -0.12745 -0.0833014 -0.0369884 0.0109803 0.0598146 0.108795 0.157062 0.203998 0.24877 0.290892 0.329745 0.364996 0.396232 0.422873 0.444228 0.459411 0.467232 0.466523 0.456303 0.436213 0.406915 0.369961 0.327964 0.28389 0.240518 0.199724 0.162533 0.129252 0.09979 0.0740922 0.051521 0.0305951 0.00959698 -0.0125561 -0.0348823 -0.0556332 -0.0738686 -0.0902515 -0.105054 -0.116081 -0.120048 -0.116908 -0.110963 -0.107467 -0.106239 -0.101708 -0.0890991 -0.0707028 -0.0534425 -0.0411406 -0.0300677 -0.0142185 0.00557212 0.0219534 0.0305859 0.0369397 0.0474176 0.0576806 0.058947 0.0544781 0.0550289 0.0579773 0.0517091 0.0417835 0.0418601 0.0442347 0.0347773 0.0263073 0.0330493 0.0363713 0.0235698 0.0183426 0.0295874 0.0306477 0.0166483 0.0131653 0.021803 0.021248 0.0113873 0.00756503 0.00995086 0.0091975 0.00482462 0.00188855 0.00143428 0.000892533 0 0 
0 0 0.000323206 0.000588399 0.00098847 0.00273234 0.00536511 0.00621952 0.00554752 0.00880797 0.0156006 0.0159195 0.01069 0.0150409 0.0258809 0.023726 0.0155468 0.0223293 0.0324112 0.0272326 0.0225005 0.0316583 0.0376246 0.0335 0.0356042 0.0456204 0.0493566 0.0483788 0.0537843 0.0613889 0.0610259 0.0564224 0.055275 0.0540574 0.0451342 0.0300738 0.0164332 0.00598737 -0.00688064 -0.025641 -0.0464151 -0.0626785 -0.0733388 -0.0829295 -0.0953258 -0.108989 -0.118597 -0.120318 -0.115103 -0.10702 -0.0986458 -0.0885286 -0.0725452 -0.047064 -0.0119893 0.0294926 0.0729306 0.11554 0.156951 0.19889 0.243261 0.290344 0.338404 0.383707 0.421963 0.449392 0.463793 0.464535 0.452228 0.428371 0.394496 0.351858 0.301549 0.244183 0.180478 0.111225 0.0374738 -0.0393963 -0.117715 -0.195883 -0.27219 -0.345115 -0.413368 -0.47609 -0.532637 -0.582808 -0.626564 -0.664147 -0.695929 -0.722398 -0.744167 -0.761816 -0.775853 -0.786866 -0.795381 -0.801819 -0.806567 -0.809929 -0.812149 -0.813436 -0.813784 -0.813435 -0.812148 -0.809929 -0.806568 -0.801821 -0.795385 -0.78687 -0.775853 -0.761819 -0.744172 -0.722401 -0.695931 -0.664149 -0.626566 -0.58281 -0.532643 -0.476101 -0.413382 -0.345131 -0.272205 -0.195894 -0.117721 -0.0394047 0.0374685 0.111228 0.180484 0.244192 0.301561 0.351881 0.394531 0.428384 0.452097 0.463963 0.462232 0.446091 0.416231 0.375504 0.329045 0.282782 0.241392 0.205596 0.171805 0.133977 0.0882414 0.0368409 -0.0125507 -0.0514061 -0.076318 -0.0902478 -0.0993904 -0.107862 -0.115839 -0.120365 -0.118264 -0.108867 -0.0954751 -0.0830317 -0.0733548 -0.0628944 -0.0469057 -0.026255 -0.0075558 0.00513138 0.0154033 0.029014 0.0440394 0.052925 0.0541591 0.0553882 0.0600874 0.0604804 0.0529802 0.0476848 0.0486363 0.0448724 0.0349132 0.0327727 0.0368288 0.0308958 0.0218629 0.0265952 0.0317686 0.0218627 0.0152369 0.0233623 0.0255095 0.0147745 0.010458 0.0156398 0.0153531 0.00866823 0.00545689 0.00610908 0.00529814 0.00291354 0.0015445 0.000562295 0 0 
0 0 0.000254016 0.00074747 0.00153166 0.00295657 0.00371799 0.00384734 0.00631202 0.0108066 0.0112216 0.00850805 0.0127638 0.0208141 0.0186174 0.0132536 0.0203972 0.027926 0.0222408 0.0195951 0.0284752 0.031517 0.0267863 0.030237 0.0385205 0.0395054 0.0397949 0.0475946 0.0544732 0.0548303 0.0564753 0.0620204 0.0632814 0.0571092 0.0497939 0.044551 0.036642 0.0216638 0.0027625 -0.0138352 -0.0270681 -0.0412456 -0.0592468 -0.0783154 -0.0927201 -0.0996432 -0.101203 -0.100885 -0.0988955 -0.0916084 -0.0739587 -0.0434257 -0.00155959 0.0476788 0.100571 0.155222 0.211293 0.268748 0.325738 0.378543 0.422072 0.451444 0.463583 0.457375 0.433504 0.3939 0.340498 0.275045 0.198852 0.113234 0.0195522 -0.0802747 -0.183586 -0.287511 -0.388732 -0.484309 -0.571655 -0.648735 -0.714318 -0.768005 -0.80989 -0.84059 -0.861119 -0.872646 -0.876484 -0.873959 -0.866285 -0.854612 -0.840073 -0.823581 -0.805937 -0.788058 -0.770422 -0.753626 -0.738227 -0.724493 -0.712861 -0.703551 -0.696757 -0.69265 -0.691274 -0.69265 -0.696757 -0.703551 -0.712861 -0.724497 -0.73823 -0.753627 -0.770423 -0.788056 -0.805939 -0.823582 -0.840073 -0.854614 -0.866286 -0.873961 -0.876493 -0.872662 -0.861136 -0.840608 -0.809902 -0.768015 -0.714325 -0.648742 -0.571658 -0.484311 -0.38873 -0.287499 -0.183563 -0.0802413 0.0195624 0.1131 0.198282 0.273508 0.337265 0.388354 0.425655 0.448501 0.456499 0.449765 0.428425 0.392526 0.343087 0.283222 0.218354 0.15484 0.0966083 0.0442173 -0.00315239 -0.0441129 -0.0747581 -0.0922811 -0.0989217 -0.100559 -0.101114 -0.0997381 -0.0927178 -0.0782441 -0.0594287 -0.0416865 -0.0276126 -0.0144871 0.00191528 0.0206943 0.0356904 0.043584 0.0487355 0.0560706 0.0623097 0.0610663 0.0555537 0.0539977 0.053755 0.0469466 0.0392035 0.0388762 0.0378346 0.0296227 0.0261892 0.0308293 0.0278578 0.0190871 0.0217317 0.0273954 0.0199724 0.0129196 0.0182429 0.0204451 0.0125073 0.008341 0.011068 0.0106647 0.00620205 0.00378772 0.00379125 0.00325198 0.00192094 0.000638881 0 0 
0 0 0.000314742 0.000964671 0.00170578 0.00220486 0.00254544 0.00427403 0.0072015 0.00776354 0.00665476 0.0103109 0.0161346 0.0144424 0.0113631 0.0181074 0.0236114 0.0183038 0.0174178 0.0256097 0.0265433 0.0220639 0.0262699 0.0324654 0.0314374 0.0326215 0.0402353 0.0447119 0.0455374 0.0510331 0.0585508 0.0604151 0.0592444 0.0606467 0.0613382 0.0552675 0.0435757 0.0317889 0.0212557 0.00784222 -0.0109629 -0.0315198 -0.04797 -0.0582218 -0.0644929 -0.0689682 -0.0695986 -0.061109 -0.0392791 -0.00398915 0.0411026 0.0921131 0.147177 0.206409 0.269245 0.332426 0.389414 0.432376 0.454473 0.452053 0.424692 0.374568 0.304707 0.218215 0.117602 0.00528816 -0.115932 -0.242332 -0.369407 -0.492006 -0.605234 -0.704716 -0.787197 -0.850825 -0.895079 -0.920614 -0.928861 -0.921853 -0.90175 -0.87092 -0.831475 -0.785505 -0.734722 -0.680857 -0.625183 -0.569069 -0.513545 -0.45951 -0.407802 -0.358951 -0.313614 -0.272035 -0.234464 -0.201269 -0.172414 -0.148002 -0.128067 -0.112599 -0.101602 -0.0949916 -0.0928339 -0.0949931 -0.101602 -0.1126 -0.128069 -0.148011 -0.172413 -0.201267 -0.234463 -0.272034 -0.313614 -0.35895 -0.407806 -0.459517 -0.513547 -0.569076 -0.625197 -0.680873 -0.734738 -0.78552 -0.831481 -0.870924 -0.901762 -0.921863 -0.928874 -0.920618 -0.895071 -0.850798 -0.787166 -0.704717 -0.605371 -0.492573 -0.37093 -0.245501 -0.121314 -0.00225062 0.109202 0.211628 0.303267 0.380626 0.437775 0.468251 0.468071 0.439181 0.38931 0.328879 0.26609 0.204924 0.146505 0.0913885 0.0405289 -0.00398443 -0.0389444 -0.0609887 -0.0696569 -0.0688877 -0.0643802 -0.058374 -0.048391 -0.0319898 -0.0115085 0.00710977 0.0203954 0.0309127 0.0426349 0.0542516 0.0602914 0.0596654 0.0582556 0.0594767 0.0577071 0.0502593 0.0448184 0.0440489 0.0396038 0.0320012 0.0308361 0.0318158 0.0256787 0.0215092 0.025977 0.0250505 0.0169591 0.0178552 0.0231256 0.0176758 0.0110322 0.0141365 0.015861 0.010139 0.00654883 0.00764989 0.00710756 0.00428601 0.00269676 0.00242303 0.00185353 0.000835184 0 0 
0 0 0.00040758 0.000952808 0.00134027 0.00167704 0.00277328 0.00460926 0.00524165 0.00506004 0.00795189 0.0120886 0.0110581 0.00961088 0.0155154 0.019516 0.0150901 0.0155177 0.0228023 0.0224674 0.0186407 0.0232436 0.0276179 0.0254009 0.0271079 0.0335906 0.0357066 0.0368246 0.0434958 0.0497969 0.0515307 0.0548499 0.0611034 0.0637014 0.0607079 0.0567325 0.0535819 0.0472477 0.0345585 0.0186842 0.00533652 -0.00351061 -0.00984936 -0.0143057 -0.0129817 1.22534e-05 0.0275134 0.0676867 0.115984 0.168875 0.225035 0.283171 0.339819 0.388287 0.420478 0.429132 0.410101 0.362798 0.289037 0.191897 0.0750045 -0.0577502 -0.201568 -0.350531 -0.497395 -0.634605 -0.75487 -0.852398 -0.923399 -0.966301 -0.981678 -0.971711 -0.939521 -0.888702 -0.823034 -0.74589 -0.660647 -0.570188 -0.477019 -0.383523 -0.291712 -0.20326 -0.119582 -0.0418188 0.0293521 0.09342 0.150224 0.1999 0.242704 0.279103 0.309595 0.334807 0.355433 0.371951 0.38501 0.39518 0.402927 0.408481 0.412201 0.414411 0.41511 0.41441 0.412198 0.408484 0.402927 0.395177 0.385008 0.371951 0.355435 0.334807 0.309594 0.279101 0.242699 0.199891 0.150217 0.0934078 0.0293346 -0.041836 -0.119597 -0.203275 -0.291725 -0.383535 -0.477032 -0.570199 -0.660656 -0.745886 -0.823012 -0.888669 -0.939519 -0.971861 -0.982255 -0.96781 -0.926513 -0.857647 -0.76212 -0.642555 -0.503486 -0.351691 -0.195736 -0.0454854 0.0900593 0.204576 0.295522 0.362929 0.40701 0.426261 0.419125 0.387682 0.339127 0.282632 0.225072 0.169227 0.116142 0.0676919 0.0276217 0.000106748 -0.0131519 -0.0146398 -0.0101842 -0.00395505 0.00468922 0.0178893 0.033715 0.0463127 0.052568 0.0557317 0.0597413 0.0627395 0.0601927 0.0540097 0.0507904 0.0490947 0.0429018 0.0362988 0.0351982 0.0330523 0.0266416 0.0249143 0.0270652 0.0227295 0.0181654 0.0219293 0.0222515 0.0150507 0.0146513 0.0190618 0.0151487 0.00936574 0.0108509 0.011897 0.00781915 0.00498213 0.00521608 0.00466294 0.00288521 0.00178697 0.00146619 0.000778286 0 0 
0 0 0.000390559 0.000789117 0.00105444 0.00175214 0.0028793 0.0034558 0.00369886 0.00584965 0.00875288 0.00833426 0.0079452 0.0128236 0.015772 0.0124275 0.0137119 0.0199706 0.0189877 0.0160186 0.0207318 0.0236716 0.0209754 0.0229872 0.0281088 0.0285373 0.0298536 0.0360082 0.0401267 0.0418596 0.0474813 0.0542292 0.0564505 0.0572169 0.0601863 0.0620381 0.0587688 0.0524456 0.048152 0.0477006 0.0492073 0.0526985 0.0628091 0.0851962 0.1213 0.167695 0.219413 0.273119 0.326642 0.376078 0.414236 0.431641 0.420007 0.375156 0.297846 0.192085 0.0631431 -0.0835734 -0.242609 -0.407366 -0.569524 -0.71946 -0.847371 -0.944963 -1.00695 -1.03148 -1.01987 -0.976 -0.904974 -0.812515 -0.70428 -0.585522 -0.461188 -0.335561 -0.212566 -0.0956111 0.012415 0.10939 0.19376 0.26476 0.322263 0.366714 0.399142 0.42076 0.433112 0.437733 0.436192 0.429907 0.420201 0.408286 0.395132 0.381431 0.367968 0.355179 0.343467 0.333223 0.324543 0.317686 0.312648 0.309661 0.308606 0.309658 0.31265 0.317687 0.324542 0.333221 0.343469 0.355179 0.36797 0.381429 0.395122 0.408276 0.420192 0.429895 0.436175 0.437716 0.433096 0.42075 0.399131 0.366703 0.32225 0.264745 0.193743 0.109377 0.0124151 -0.0955957 -0.212536 -0.335553 -0.461334 -0.58611 -0.705791 -0.815591 -0.910093 -0.98299 -1.02742 -1.03712 -1.00779 -0.939244 -0.835835 -0.705532 -0.557851 -0.401254 -0.242215 -0.0861827 0.060605 0.190802 0.297267 0.374534 0.419515 0.431677 0.414555 0.376246 0.326672 0.273254 0.219533 0.167571 0.121013 0.0848984 0.062415 0.0520835 0.0484539 0.0469117 0.04726 0.051464 0.0577942 0.0611006 0.059282 0.0563376 0.0556607 0.0534933 0.0467969 0.0412527 0.0395919 0.0355198 0.0294332 0.0281215 0.02767 0.0225993 0.0205705 0.023234 0.0202575 0.015576 0.0184853 0.019449 0.013273 0.0120373 0.0154097 0.0125503 0.00776536 0.0081762 0.0086206 0.00579175 0.00371288 0.00350253 0.00293622 0.00185529 0.00125652 0.000579764 0 0 
0 0 0.00031129 0.000696827 0.00106977 0.0017383 0.00222629 0.00260872 0.00411793 0.00612139 0.0061538 0.00637946 0.010222 0.0124662 0.0101882 0.0119049 0.0171528 0.0159491 0.0138497 0.0184586 0.0203922 0.0176199 0.0198523 0.0237695 0.0231054 0.024474 0.0295023 0.0316735 0.0334382 0.0392615 0.0441629 0.0459348 0.0498769 0.0560279 0.0596727 0.0615961 0.0669199 0.0778483 0.0927876 0.111541 0.138177 0.177153 0.227899 0.285 0.34253 0.396225 0.441973 0.472749 0.478736 0.450282 0.38215 0.27485 0.133899 -0.0327466 -0.216459 -0.407407 -0.594677 -0.766139 -0.909528 -1.01447 -1.07418 -1.08663 -1.05395 -0.981632 -0.877108 -0.748543 -0.60408 -0.451439 -0.297608 -0.14898 -0.0111231 0.111436 0.215188 0.29818 0.359595 0.400117 0.421276 0.425678 0.416171 0.395828 0.367691 0.334443 0.298429 0.261525 0.225205 0.190524 0.158136 0.128493 0.101825 0.0782152 0.0575029 0.0396068 0.0243718 0.0115071 0.000872923 -0.00774235 -0.0145492 -0.0196717 -0.023265 -0.0253566 -0.0260687 -0.0253574 -0.0232663 -0.0196733 -0.0145528 -0.00774416 0.000874318 0.0115077 0.0243654 0.0396031 0.0574982 0.0782107 0.101808 0.128473 0.158115 0.190509 0.22519 0.26151 0.298417 0.334433 0.367683 0.395819 0.416159 0.425667 0.421279 0.400143 0.359602 0.298039 0.214618 0.109943 -0.0141534 -0.153984 -0.304369 -0.458648 -0.609287 -0.749046 -0.871411 -0.970666 -1.04109 -1.07601 -1.06858 -1.01387 -0.911626 -0.76833 -0.595831 -0.407969 -0.217026 -0.033187 0.133947 0.275174 0.382327 0.450361 0.478907 0.472918 0.441916 0.396033 0.342318 0.284646 0.227345 0.176479 0.137445 0.110735 0.0918559 0.0769118 0.0659961 0.0606508 0.0588006 0.0552184 0.0491027 0.0451884 0.0435241 0.0386998 0.032951 0.0312782 0.0291449 0.0241405 0.0227976 0.023404 0.0194715 0.0172277 0.0198907 0.0179723 0.0134063 0.0154748 0.0166962 0.0115469 0.00989187 0.0121871 0.0100045 0.00624325 0.00606748 0.00607862 0.00411809 0.00263355 0.00228542 0.00187192 0.00123595 0.000494585 0 0 
0 0 0.000273085 0.000679575 0.00105447 0.00139088 0.0017551 0.00278138 0.00414703 0.00443687 0.00495252 0.00785502 0.00960888 0.00826475 0.0101046 0.0143967 0.013291 0.0119656 0.0162944 0.0175462 0.0149779 0.0173787 0.020392 0.0190916 0.0203233 0.0242173 0.0250034 0.0264197 0.0311788 0.0339798 0.0358505 0.0417018 0.0489581 0.0554571 0.0667682 0.0868799 0.114686 0.149862 0.195664 0.254865 0.324662 0.397099 0.463787 0.518057 0.552617 0.557543 0.521963 0.438666 0.307374 0.134936 -0.0674883 -0.287122 -0.510156 -0.721681 -0.905924 -1.04743 -1.13423 -1.16003 -1.12531 -1.03672 -0.905205 -0.743558 -0.564617 -0.380165 -0.200419 -0.0341834 0.111467 0.23115 0.321495 0.381489 0.41227 0.416786 0.399403 0.365354 0.319854 0.267841 0.213435 0.159989 0.109776 0.0644545 0.0248211 -0.00879824 -0.0365345 -0.058659 -0.0756721 -0.0882623 -0.0969379 -0.102409 -0.105244 -0.105952 -0.105125 -0.10314 -0.100406 -0.0973297 -0.0940735 -0.0909403 -0.0881712 -0.0858636 -0.0841301 -0.083039 -0.0827026 -0.0830401 -0.0841313 -0.085863 -0.0881729 -0.0909435 -0.0940795 -0.0973332 -0.100412 -0.103151 -0.105135 -0.105965 -0.105264 -0.102429 -0.096952 -0.0882691 -0.0756758 -0.0586661 -0.036547 -0.00880899 0.0248126 0.0644394 0.109763 0.159987 0.213456 0.26784 0.319711 0.364787 0.397939 0.413811 0.407367 0.374916 0.314606 0.226327 0.11128 -0.028422 -0.189865 -0.368201 -0.555063 -0.738622 -0.904552 -1.03829 -1.12705 -1.16106 -1.13482 -1.04797 -0.90631 -0.721657 -0.509849 -0.286927 -0.0674084 0.13512 0.307553 0.438639 0.521813 0.557383 0.5523 0.517546 0.463167 0.396446 0.323894 0.25398 0.194766 0.148968 0.113756 0.0859765 0.0659225 0.0546868 0.048241 0.0411149 0.0353119 0.0335279 0.0308154 0.0261778 0.0247844 0.024014 0.0201223 0.0188174 0.0200246 0.0169618 0.0145325 0.0170617 0.0158058 0.0115319 0.0128951 0.0140242 0.0098133 0.00803451 0.00940638 0.00771241 0.00488311 0.00440317 0.00413092 0.0028032 0.00183181 0.00150013 0.00112836 0.000504495 0 0 
0 0 0.000270561 0.000620422 0.000868671 0.00114721 0.00180144 0.00271214 0.00310886 0.00370514 0.00581926 0.00721344 0.00659069 0.00835066 0.0118096 0.0109861 0.0102679 0.0142113 0.0150424 0.0128104 0.0152933 0.0176411 0.0159858 0.0171345 0.0200388 0.0197797 0.0206851 0.0240425 0.0255459 0.0281793 0.0357622 0.0455646 0.0596881 0.0852775 0.123389 0.172465 0.235018 0.312523 0.399991 0.486821 0.561403 0.613712 0.633131 0.607525 0.526634 0.387106 0.195252 -0.035194 -0.286742 -0.54043 -0.776655 -0.975386 -1.11853 -1.19274 -1.19275 -1.12205 -0.991654 -0.817025 -0.61523 -0.403111 -0.195794 -0.00640457 0.154262 0.278583 0.362514 0.406031 0.412563 0.388444 0.341568 0.280286 0.212348 0.14428 0.0808452 0.0252624 -0.020767 -0.0565867 -0.0824431 -0.0991354 -0.107745 -0.109523 -0.105654 -0.0973673 -0.0858012 -0.0718773 -0.0565938 -0.0407105 -0.0248463 -0.00953332 0.00491704 0.0181568 0.030099 0.0405699 0.0496936 0.0573686 0.0638572 0.0691162 0.0732168 0.0763181 0.0784357 0.0796768 0.0800757 0.0796754 0.0784335 0.076316 0.0732105 0.0691116 0.0638496 0.0573604 0.0496834 0.0405557 0.0300814 0.0181397 0.00490144 -0.00954492 -0.0248532 -0.0407149 -0.0565968 -0.0718838 -0.0858148 -0.0973786 -0.105657 -0.109534 -0.107748 -0.0991138 -0.0824301 -0.0567215 -0.0213197 0.023827 0.0779458 0.139485 0.205931 0.273627 0.337059 0.388569 0.418441 0.416295 0.373748 0.287152 0.158418 -0.00589674 -0.196948 -0.404317 -0.616041 -0.817623 -0.99217 -1.12237 -1.19272 -1.1925 -1.11834 -0.975284 -0.776469 -0.540211 -0.286706 -0.0353278 0.19509 0.386867 0.526177 0.607 0.632547 0.612977 0.560577 0.485988 0.399136 0.311643 0.23416 0.171673 0.122619 0.084579 0.0590705 0.0450267 0.0353065 0.02787 0.0253387 0.0239141 0.0205838 0.0196601 0.0198209 0.0168197 0.0156185 0.0171967 0.0148597 0.0124241 0.0146257 0.0138002 0.00992871 0.0106511 0.011493 0.0081223 0.00643117 0.00708702 0.00573525 0.00366471 0.00310046 0.00274172 0.00186223 0.00120997 0.000932182 0.000462107 0 0 
0 0 0.00024704 0.000523247 0.000721615 0.00113555 0.00172318 0.00210414 0.00265577 0.00415348 0.00526597 0.00513688 0.00670306 0.00944523 0.00896305 0.0087382 0.0122253 0.0128431 0.0109974 0.0134249 0.0152721 0.013467 0.0145105 0.0166629 0.0155963 0.0160576 0.0186101 0.0201266 0.0250736 0.0366809 0.0539891 0.0824098 0.127882 0.188903 0.264799 0.356567 0.457358 0.553346 0.629648 0.672706 0.669459 0.607296 0.478256 0.284899 0.0409369 -0.232384 -0.510773 -0.769405 -0.984127 -1.13312 -1.20122 -1.1831 -1.08482 -0.921848 -0.715355 -0.487809 -0.260245 -0.0505952 0.126944 0.262408 0.350668 0.391364 0.389032 0.351742 0.290066 0.215099 0.137122 0.06416 0.00193582 -0.0465725 -0.0803492 -0.100137 -0.107369 -0.104253 -0.0928864 -0.0755096 -0.0542525 -0.03089 -0.00715552 0.0155939 0.0363359 0.0543451 0.0691066 0.0804601 0.0884827 0.0933789 0.0955495 0.0953477 0.093338 0.0899322 0.0855874 0.0807168 0.075628 0.0706253 0.0658862 0.0617048 0.0581148 0.0552262 0.0531071 0.0518093 0.0513505 0.0518116 0.0531065 0.055224 0.0581104 0.0616975 0.0658783 0.0706182 0.0756204 0.080704 0.0855714 0.0899198 0.0933282 0.0953364 0.0955441 0.0933686 0.0884754 0.0804538 0.0690931 0.054341 0.0363356 0.015597 -0.00713615 -0.0308844 -0.0543731 -0.0760407 -0.0943003 -0.107099 -0.112062 -0.106412 -0.086825 -0.0508443 0.0023038 0.0701677 0.147267 0.225798 0.297777 0.355082 0.389164 0.390471 0.349976 0.261945 0.126385 -0.051166 -0.260515 -0.487747 -0.715148 -0.921668 -1.08468 -1.18291 -1.20101 -1.13304 -0.984172 -0.769524 -0.511013 -0.232786 0.0404524 0.284357 0.477603 0.606538 0.668676 0.671899 0.628817 0.552527 0.456585 0.355806 0.264091 0.188286 0.127322 0.0819601 0.0536393 0.0364803 0.0250024 0.0201334 0.0185806 0.0159016 0.015302 0.0162363 0.0140899 0.0130669 0.0148985 0.0130783 0.0106489 0.0124818 0.0118725 0.00843887 0.00870229 0.00921787 0.00653946 0.00502438 0.00518103 0.00410846 0.00265437 0.00212817 0.0017577 0.00119163 0.000817615 0.000372317 0 0 
0 0 0.000205325 0.000462691 0.000695052 0.00105986 0.00137858 0.00182829 0.00285207 0.00372648 0.00389647 0.00520227 0.00734371 0.00720501 0.00731444 0.0103111 0.0108587 0.00943035 0.0117698 0.0132429 0.0113542 0.012246 0.0137297 0.0121815 0.0126702 0.0158841 0.0198952 0.0304331 0.051404 0.0837089 0.133725 0.204739 0.292593 0.394562 0.503886 0.603374 0.673669 0.698775 0.664163 0.558491 0.378601 0.134346 -0.151769 -0.450275 -0.730313 -0.962522 -1.12142 -1.18894 -1.15881 -1.03869 -0.848353 -0.614897 -0.366805 -0.129926 0.0748381 0.232712 0.33522 0.380852 0.374826 0.327874 0.254321 0.169194 0.0856628 0.013415 -0.0420024 -0.07873 -0.0974999 -0.100672 -0.091226 -0.0725481 -0.0478252 -0.0202692 0.00741193 0.0327668 0.0540576 0.0698671 0.079747 0.0835392 0.0816855 0.0749842 0.0644165 0.0511646 0.0363167 0.020837 0.00554037 -0.00895139 -0.022181 -0.0338731 -0.0439367 -0.0524387 -0.059372 -0.0649399 -0.0693175 -0.0726174 -0.0751204 -0.0768984 -0.0781691 -0.0790286 -0.0796188 -0.079944 -0.0799621 -0.0799417 -0.0796183 -0.0790333 -0.0781739 -0.0769033 -0.0751283 -0.072627 -0.0693291 -0.0649553 -0.059387 -0.0524489 -0.0439496 -0.0338801 -0.0221899 -0.00896032 0.00553158 0.0208297 0.0363125 0.0511713 0.0644321 0.0750008 0.0816849 0.0834194 0.0792414 0.068503 0.0512764 0.0281748 0.00128481 -0.0265808 -0.0519436 -0.0720238 -0.0851004 -0.0905693 -0.0871103 -0.0716628 -0.0394668 0.0129948 0.0847552 0.168959 0.254304 0.327445 0.37422 0.380586 0.335365 0.232954 0.0750192 -0.129745 -0.366572 -0.614677 -0.848271 -1.0387 -1.15888 -1.18912 -1.12177 -0.962968 -0.7308 -0.450883 -0.152482 0.133629 0.377851 0.557687 0.663365 0.698039 0.672927 0.602661 0.503255 0.393988 0.292153 0.204426 0.133579 0.0836754 0.0514295 0.0303127 0.0197381 0.0155807 0.0122936 0.011762 0.0133788 0.0119744 0.0111019 0.0129515 0.0114397 0.00911377 0.0105385 0.0100127 0.00708949 0.00701338 0.00717493 0.00508378 0.00382177 0.00368641 0.00284288 0.00183842 0.00140946 0.00112675 0.000772604 0.000324832 0 0 
0 0 0.000180958 0.000432474 0.000648567 0.00087084 0.00120486 0.00188946 0.00255416 0.00285864 0.00389634 0.00553524 0.00567232 0.00600351 0.00849567 0.00906353 0.0080513 0.0101853 0.0114083 0.00954214 0.010248 0.0113348 0.00985195 0.011628 0.0179456 0.0285198 0.0505143 0.0885556 0.144214 0.222187 0.321182 0.432103 0.545219 0.643291 0.70154 0.700594 0.627205 0.472692 0.240425 -0.0504659 -0.368074 -0.674083 -0.932141 -1.11122 -1.18899 -1.15637 -1.02101 -0.805984 -0.544743 -0.273025 -0.0227262 0.181721 0.324675 0.399712 0.409575 0.365152 0.283336 0.183547 0.0840155 -0.00112276 -0.0634529 -0.099953 -0.111922 -0.103504 -0.0803986 -0.0487674 -0.0142152 0.0185135 0.0459328 0.0655889 0.0762722 0.077893 0.0711425 0.0575796 0.0390473 0.0176897 -0.00441727 -0.0254505 -0.0441426 -0.0595452 -0.0712891 -0.0792679 -0.083741 -0.085235 -0.0842099 -0.0813762 -0.0771042 -0.0720409 -0.066402 -0.0606762 -0.0551204 -0.0498636 -0.0450683 -0.0406973 -0.0369667 -0.0338005 -0.0312346 -0.0292229 -0.0277987 -0.0270067 -0.0267329 -0.0270089 -0.0278028 -0.0292279 -0.0312384 -0.0338065 -0.0369767 -0.0407084 -0.0450795 -0.0498778 -0.0551332 -0.0606864 -0.0664094 -0.0720461 -0.0771145 -0.0813839 -0.0842177 -0.0852406 -0.083742 -0.0792538 -0.0712669 -0.059538 -0.0442622 -0.0259329 -0.00572242 0.0149902 0.0345624 0.0515835 0.0649645 0.0738809 0.0768663 0.0717614 0.0560499 0.0287675 -0.0075525 -0.0469057 -0.0814845 -0.104684 -0.111914 -0.0994992 -0.063584 -0.00169751 0.0837356 0.183719 0.283595 0.36534 0.409793 0.399996 0.324925 0.18185 -0.0226902 -0.273041 -0.544879 -0.806282 -1.0214 -1.15685 -1.18956 -1.11191 -0.932872 -0.674848 -0.368881 -0.0512737 0.239658 0.471966 0.626536 0.700029 0.701004 0.64286 0.544936 0.431967 0.32113 0.22209 0.143801 0.0876038 0.0496401 0.0278 0.0173775 0.0112929 0.00969838 0.0111955 0.0100838 0.00930642 0.0111052 0.0098959 0.00779331 0.00881624 0.00826854 0.00582145 0.00551938 0.00541612 0.0038256 0.0028204 0.00253559 0.00189533 0.00124041 0.000924154 0.000688768 0.000313141 0 0 
0 0 0.000170998 0.000385526 0.000542713 0.000770003 0.00120637 0.00168869 0.00202244 0.00281596 0.0040381 0.00435202 0.00480542 0.00682105 0.00742462 0.00678883 0.00867078 0.00963526 0.00789574 0.00857427 0.00986973 0.00977068 0.0151893 0.0287638 0.0520058 0.0933572 0.157017 0.242617 0.350092 0.470467 0.586189 0.677904 0.720349 0.688588 0.570443 0.364189 0.0800519 -0.252399 -0.590139 -0.887638 -1.10429 -1.21082 -1.19338 -1.05625 -0.823729 -0.534665 -0.233159 0.0406726 0.257006 0.398248 0.459353 0.446935 0.377274 0.272839 0.157689 0.0525788 -0.0284459 -0.0791149 -0.0998823 -0.0958477 -0.0743709 -0.0431329 -0.00899389 0.0224613 0.0470112 0.0617214 0.0652224 0.0577949 0.0412598 0.0185713 -0.00666571 -0.0311851 -0.0522554 -0.0680437 -0.0778219 -0.0816673 -0.0802665 -0.0747671 -0.0663877 -0.0562654 -0.0455617 -0.0350118 -0.0251803 -0.0164749 -0.00903934 -0.00295088 0.00187798 0.00555537 0.00828947 0.0101026 0.0112358 0.0118755 0.012086 0.0120791 0.0118033 0.0115009 0.0111302 0.0108558 0.0105598 0.010358 0.0102935 0.0103526 0.0105565 0.0108534 0.0111244 0.0114938 0.0117983 0.0120699 0.0120758 0.0118624 0.0112235 0.0100954 0.00827876 0.00554979 0.00186843 -0.00295527 -0.00904718 -0.0164779 -0.0251739 -0.0349938 -0.0455549 -0.0563748 -0.0668626 -0.0760339 -0.0828747 -0.0860271 -0.0836834 -0.0740976 -0.0561964 -0.0305928 -0.00052185 0.0286759 0.0514987 0.0643089 0.0666714 0.0600154 0.0453359 0.0224262 -0.00816902 -0.0428413 -0.074827 -0.0961897 -0.0997031 -0.0788142 -0.0283123 0.0527638 0.15801 0.273107 0.37742 0.44699 0.459348 0.398156 0.256774 0.0403469 -0.233587 -0.53522 -0.824348 -1.05692 -1.19409 -1.2116 -1.10504 -0.888368 -0.590851 -0.25308 0.0794654 0.363646 0.570007 0.688265 0.720156 0.677744 0.585869 0.469574 0.348193 0.239463 0.154398 0.0916527 0.0511226 0.0284223 0.0151238 0.00969604 0.00968405 0.00832493 0.00764106 0.00939231 0.00843522 0.0065956 0.00722709 0.00663568 0.00466674 0.00424807 0.003964 0.0027711 0.00200427 0.00169675 0.00123264 0.000803266 0.000586589 0.000279798 0 0 
0 0 0.000152422 0.000331709 0.000475663 0.000749352 0.0010807 0.00137314 0.00195821 0.00285004 0.00324183 0.00373334 0.00531925 0.0059563 0.00561659 0.00718469 0.00799688 0.00649299 0.00741597 0.00994492 0.0135905 0.0265992 0.0535593 0.0975191 0.166792 0.262657 0.378865 0.506789 0.626908 0.711604 0.734599 0.670883 0.506166 0.246559 -0.0863677 -0.454151 -0.802475 -1.07781 -1.23939 -1.26306 -1.14708 -0.91292 -0.601846 -0.266527 0.0425714 0.286711 0.443505 0.507667 0.488386 0.406726 0.290294 0.167599 0.0619271 -0.0128392 -0.0526673 -0.0614746 -0.0480668 -0.022289 0.00658545 0.0313679 0.0470514 0.051133 0.0434784 0.0262563 0.00309249 -0.0217066 -0.0442679 -0.0615742 -0.0719959 -0.0752084 -0.0718997 -0.0634179 -0.051599 -0.0382249 -0.0250133 -0.0131745 -0.00354648 0.00353073 0.00797853 0.0100051 0.00998137 0.00830544 0.0053552 0.00152428 -0.00281354 -0.00754919 -0.0122992 -0.0169741 -0.0214556 -0.0256461 -0.0295036 -0.0329555 -0.0360496 -0.0387434 -0.0409895 -0.0428878 -0.0443673 -0.0454891 -0.0463307 -0.0468324 -0.0469946 -0.0468352 -0.046335 -0.0454923 -0.0443708 -0.0428912 -0.040996 -0.0387553 -0.0360593 -0.0329704 -0.0295108 -0.0256537 -0.0214668 -0.0169848 -0.0123099 -0.00755405 -0.00281285 0.00153107 0.00537202 0.00831083 0.0098826 0.00955397 0.00675988 0.00100452 -0.00777405 -0.0189014 -0.0309613 -0.0421346 -0.0510578 -0.0573626 -0.0618565 -0.0649634 -0.0654767 -0.0602907 -0.0464334 -0.0240051 0.00271477 0.0272586 0.0441938 0.0509682 0.0467073 0.0314747 0.00692763 -0.0221317 -0.0479562 -0.0611994 -0.0523832 -0.012694 0.0620164 0.167663 0.29022 0.406528 0.488118 0.507286 0.443011 0.286123 0.041902 -0.267207 -0.602577 -0.913655 -1.14781 -1.26377 -1.24005 -1.07843 -0.803009 -0.454598 -0.0866844 0.246276 0.505824 0.67014 0.732964 0.708525 0.621984 0.50003 0.373262 0.258997 0.164814 0.0966101 0.0531066 0.0262901 0.0132715 0.00968187 0.00721121 0.00631449 0.00780722 0.007003 0.00544117 0.0057922 0.00518871 0.00363586 0.00316928 0.00280439 0.0019409 0.00137616 0.00109548 0.000783094 0.000531551 0.000233995 0 0 
0 0 0.000129435 0.000300248 0.000455809 0.000667652 0.000896096 0.00131219 0.00194337 0.00233298 0.00280691 0.00401975 0.00463678 0.0045278 0.00580474 0.0065301 0.00555664 0.00740926 0.0127366 0.0231705 0.0489692 0.096684 0.169705 0.273481 0.402226 0.539037 0.663046 0.743986 0.748239 0.651795 0.443254 0.131939 -0.24698 -0.642424 -0.99275 -1.23689 -1.33476 -1.27328 -1.06481 -0.749058 -0.384056 -0.0314414 0.25657 0.448539 0.535071 0.525732 0.445008 0.325271 0.199673 0.094714 0.025044 -0.00680278 -0.00787088 0.00992078 0.0344294 0.0556649 0.0668577 0.0649314 0.0499518 0.0248592 -0.00574426 -0.0362272 -0.0615271 -0.0778068 -0.0832658 -0.0781313 -0.0647141 -0.0464541 -0.0270755 -0.00977155 0.00339577 0.0115363 0.0147294 0.0136729 0.00939356 0.00288782 -0.00486303 -0.0131762 -0.0214465 -0.0294026 -0.036661 -0.0430093 -0.0484587 -0.052844 -0.0561948 -0.0586226 -0.0601425 -0.0608697 -0.0609401 -0.0604958 -0.0596329 -0.058471 -0.0571906 -0.0557842 -0.0544343 -0.0532139 -0.0520954 -0.0512018 -0.0505769 -0.05014 -0.0500624 -0.0501443 -0.0505806 -0.0512088 -0.0521013 -0.0532194 -0.0544433 -0.0557931 -0.0571973 -0.0584779 -0.0596397 -0.0605079 -0.0609519 -0.0608802 -0.0601439 -0.0586213 -0.0561888 -0.0528311 -0.0484539 -0.043105 -0.0370821 -0.0305741 -0.0238873 -0.0172798 -0.0104406 -0.00295328 0.00551037 0.0141332 0.0206235 0.0214436 0.0136454 -0.00314997 -0.0257595 -0.0488566 -0.0675272 -0.0790597 -0.082426 -0.076761 -0.0612671 -0.0364208 -0.00570624 0.0251376 0.0501669 0.0650494 0.0671017 0.0559763 0.034591 0.0100141 -0.00778693 -0.00682016 0.0248916 0.0944875 0.199352 0.324815 0.444477 0.525112 0.534393 0.447819 0.25587 -0.0321299 -0.384723 -0.749711 -1.06541 -1.27384 -1.33527 -1.23732 -0.993234 -0.643143 -0.248354 0.129364 0.438832 0.645186 0.739629 0.734106 0.654263 0.532517 0.397793 0.270595 0.167832 0.0954692 0.0483084 0.0228704 0.0125555 0.00727217 0.00541245 0.00635478 0.00563862 0.00439056 0.00452042 0.00392378 0.0027373 0.00229126 0.0019225 0.00130745 0.000911002 0.000704859 0.000494326 0.000212241 0 0 
0 0 0.000117276 0.000277374 0.000409653 0.000563341 0.000844193 0.00128012 0.00161891 0.002032 0.00293868 0.00350533 0.00354151 0.0045498 0.00534561 0.00532414 0.00914307 0.0194615 0.0404193 0.0842209 0.158775 0.265758 0.403628 0.554802 0.687685 0.768255 0.759926 0.634029 0.384079 0.0271371 -0.393326 -0.811088 -1.15483 -1.36198 -1.3937 -1.24902 -0.959706 -0.581815 -0.187371 0.15608 0.401895 0.530191 0.547764 0.480684 0.365222 0.239777 0.135001 0.0682137 0.0416111 0.0456844 0.0657468 0.0873821 0.100218 0.0987092 0.0819936 0.0530827 0.0174297 -0.018282 -0.0475836 -0.0661091 -0.072043 -0.0666269 -0.053275 -0.0362436 -0.0196655 -0.0062236 0.00261248 0.00662833 0.00619302 0.00212939 -0.00462273 -0.0130233 -0.022002 -0.0306134 -0.0382006 -0.044254 -0.0483988 -0.0506838 -0.051127 -0.0500532 -0.0475687 -0.0440941 -0.03993 -0.0353304 -0.0306798 -0.0261445 -0.0218655 -0.0181295 -0.0148293 -0.012124 -0.00993177 -0.00826597 -0.00703632 -0.00616153 -0.00557768 -0.00523183 -0.00500593 -0.00491008 -0.00486949 -0.00488376 -0.00487582 -0.00488581 -0.00487382 -0.00491714 -0.00501547 -0.00523669 -0.0055864 -0.00616932 -0.00704152 -0.00827347 -0.00993988 -0.0121372 -0.0148396 -0.0181356 -0.0218637 -0.026138 -0.0306658 -0.0353279 -0.0400196 -0.0444947 -0.0486859 -0.0524096 -0.0551081 -0.0561219 -0.0541371 -0.0481324 -0.0378456 -0.0249163 -0.0122749 -0.00282775 0.00212343 0.0036081 0.0037703 0.00347058 0.0011282 -0.00581457 -0.01861 -0.0356044 -0.0531367 -0.0665396 -0.0718461 -0.0659205 -0.047436 -0.0180621 0.0177008 0.053273 0.0820861 0.0988118 0.100266 0.0872687 0.0655605 0.0454218 0.0412121 0.0677089 0.134454 0.239137 0.364523 0.479979 0.547084 0.529501 0.401268 0.155471 -0.187933 -0.58241 -0.960345 -1.24986 -1.395 -1.36416 -1.15854 -0.816815 -0.401243 0.0176382 0.374376 0.625695 0.751219 0.759873 0.680234 0.548686 0.399118 0.262884 0.157209 0.0834784 0.040043 0.0192209 0.00897959 0.00517437 0.00520911 0.00442951 0.00343296 0.00341688 0.00287288 0.00198921 0.00159499 0.00127526 0.000860002 0.000589482 0.000433817 0.000201038 0 0 
0 0 0.000109852 0.0002439 0.000346526 0.000527798 0.000814035 0.00107877 0.00141307 0.00207323 0.00255624 0.00268766 0.00353166 0.00458144 0.00602244 0.0129911 0.0304687 0.0653034 0.13094 0.234636 0.372569 0.531676 0.678862 0.767401 0.755176 0.610889 0.326693 -0.0704371 -0.524676 -0.959567 -1.29185 -1.45684 -1.42329 -1.20148 -0.84287 -0.422127 -0.0193803 0.29621 0.486936 0.549927 0.508562 0.403376 0.278424 0.170458 0.10203 0.0769434 0.084718 0.107928 0.129416 0.137918 0.128816 0.10332 0.0670107 0.0272836 -0.0079733 -0.0327917 -0.0442869 -0.0431501 -0.0331175 -0.019463 -0.00710379 0.000503711 0.00201415 -0.00221636 -0.010446 -0.0203693 -0.0298333 -0.0371968 -0.0415814 -0.0430792 -0.0420656 -0.0392987 -0.0352967 -0.0304897 -0.0251537 -0.0197398 -0.0144029 -0.0095944 -0.00559443 -0.00271996 -0.00114402 -0.000898422 -0.00187497 -0.00394973 -0.00684443 -0.0103563 -0.0142514 -0.0183068 -0.0223193 -0.0261359 -0.0296709 -0.0328483 -0.0356272 -0.0380569 -0.0400426 -0.0416761 -0.0429735 -0.0439541 -0.044645 -0.045036 -0.0451994 -0.0450377 -0.0446503 -0.0439631 -0.0429806 -0.0416827 -0.0400527 -0.0380641 -0.0356366 -0.0328556 -0.0296756 -0.0261455 -0.0223235 -0.0183064 -0.0142442 -0.0103417 -0.00683194 -0.00403203 -0.00226225 -0.00197391 -0.00340971 -0.00657072 -0.0108908 -0.0152252 -0.0182814 -0.0195145 -0.0196761 -0.0209811 -0.0252007 -0.032461 -0.0403717 -0.0453501 -0.0448675 -0.0391175 -0.0299594 -0.0195823 -0.0096455 -0.00169103 0.00231083 0.000665318 -0.00697704 -0.019287 -0.0328925 -0.0429067 -0.0441146 -0.0326717 -0.00788059 0.0273282 0.066941 0.103153 0.128585 0.137589 0.128976 0.107433 0.0841319 0.076271 0.101343 0.169803 0.277769 0.402732 0.507914 0.549266 0.486175 0.295284 -0.0207307 -0.424183 -0.846086 -1.20636 -1.43016 -1.46543 -1.30105 -0.967341 -0.528656 -0.0692936 0.325091 0.605373 0.747267 0.759025 0.671651 0.526415 0.369188 0.232615 0.129817 0.0647205 0.0301573 0.0128036 0.0058987 0.0044678 0.00342918 0.00261079 0.00249375 0.0020273 0.00139096 0.00107594 0.000822394 0.000545651 0.000379918 0.000175404 0 0 
0 0 9.60693e-05 0.000214227 0.000319545 0.000501376 0.000693594 0.000942733 0.00140644 0.00179566 0.00198796 0.00278727 0.00433161 0.00774603 0.0188861 0.0450488 0.095281 0.182642 0.310823 0.466135 0.619606 0.721669 0.715585 0.563596 0.257585 -0.171412 -0.653053 -1.09765 -1.41501 -1.53592 -1.43673 -1.14444 -0.727041 -0.276557 0.118937 0.396193 0.528757 0.531455 0.445792 0.321229 0.204193 0.125067 0.0932081 0.100103 0.125892 0.150364 0.160141 0.150171 0.123303 0.0866976 0.0489918 0.0183585 -0.000272109 -0.00583539 -0.00126846 0.00784115 0.0157833 0.0182453 0.0136935 0.00308723 -0.011031 -0.0255462 -0.0379474 -0.0466727 -0.0511438 -0.0513116 -0.0476666 -0.04076 -0.03143 -0.0208417 -0.0102559 -0.00108955 0.00556326 0.00907089 0.0093195 0.00669345 0.0018493 -0.00451766 -0.0115781 -0.0187084 -0.025357 -0.031174 -0.0359189 -0.0395247 -0.0420025 -0.0434641 -0.0440163 -0.0438132 -0.0431072 -0.041984 -0.0406633 -0.0391979 -0.037771 -0.036395 -0.0351486 -0.0340846 -0.0331238 -0.0324039 -0.0319005 -0.0315553 -0.0314529 -0.0315577 -0.031905 -0.0324123 -0.0331302 -0.0340874 -0.0351574 -0.0364069 -0.0377829 -0.0392033 -0.0406692 -0.0419895 -0.043109 -0.0438078 -0.0439984 -0.0434532 -0.0420756 -0.0398936 -0.0369485 -0.0333525 -0.0290828 -0.0238617 -0.0171069 -0.008395 0.00193015 0.0119363 0.0185969 0.0190406 0.0124534 0.000825464 -0.0122891 -0.0240597 -0.0335945 -0.0413572 -0.0473426 -0.0506469 -0.0503932 -0.0460479 -0.0376578 -0.0254652 -0.0108828 0.0033645 0.0139158 0.0183886 0.0159305 0.00796224 -0.00121719 -0.00586862 -0.000380715 0.0181705 0.0487067 0.0863032 0.122835 0.149616 0.159536 0.149713 0.125264 0.0994505 0.0925699 0.124394 0.203396 0.320188 0.444306 0.529356 0.525684 0.391851 0.112972 -0.284115 -0.735489 -1.15216 -1.44132 -1.53488 -1.40683 -1.08288 -0.641847 -0.167325 0.255533 0.557734 0.708346 0.714772 0.613968 0.462045 0.308203 0.18116 0.0945132 0.0446633 0.0186711 0.00761182 0.00423732 0.0027117 0.00192798 0.00175518 0.00138612 0.000935558 0.000697187 0.000523432 0.000353322 0.000150357 0 0 
0 0 8.28902e-05 0.000198718 0.000304562 0.000427697 0.000602544 0.000920619 0.00121918 0.00145481 0.00233976 0.00458271 0.0102847 0.0261292 0.0611441 0.125349 0.228946 0.368294 0.51637 0.626949 0.637959 0.493645 0.178041 -0.27535 -0.785796 -1.24251 -1.54348 -1.62127 -1.45851 -1.09831 -0.628964 -0.155499 0.227889 0.46406 0.543517 0.49715 0.381179 0.252573 0.152784 0.102494 0.0985131 0.121329 0.148209 0.161583 0.154913 0.13141 0.0989602 0.0673983 0.0442519 0.0333317 0.0339459 0.0412488 0.0488067 0.0509041 0.0444935 0.0303976 0.0114238 -0.00811306 -0.0247434 -0.0363572 -0.0422406 -0.0429642 -0.0396046 -0.0337746 -0.0268675 -0.0200985 -0.0145125 -0.010618 -0.00863118 -0.00829531 -0.00940125 -0.0115653 -0.0144692 -0.0177225 -0.0207948 -0.0232944 -0.0246721 -0.0249016 -0.0238327 -0.0218508 -0.01918 -0.0161939 -0.01323 -0.0105403 -0.00835839 -0.00669498 -0.00561001 -0.00505095 -0.00494102 -0.00519101 -0.00571253 -0.0063997 -0.00723604 -0.00809027 -0.0089693 -0.00978751 -0.0104368 -0.0109986 -0.0114028 -0.0116567 -0.0117134 -0.0116603 -0.0114089 -0.0110057 -0.0104405 -0.00979225 -0.00898152 -0.00809939 -0.00724377 -0.00640389 -0.00571117 -0.0051888 -0.00493491 -0.00503407 -0.00559421 -0.00675865 -0.00870417 -0.0115257 -0.0153237 -0.0198001 -0.0241978 -0.0272774 -0.0277068 -0.0249575 -0.0196768 -0.0142699 -0.0109766 -0.0108107 -0.0123664 -0.0133595 -0.0124568 -0.010494 -0.00953533 -0.0107755 -0.0142342 -0.0193669 -0.0259553 -0.0332037 -0.0394852 -0.0428784 -0.0419609 -0.0360913 -0.02462 -0.00801091 0.0115773 0.0304529 0.0444417 0.0508318 0.048672 0.0409971 0.0336093 0.0329201 0.0437544 0.0668236 0.0983424 0.130783 0.154249 0.160894 0.147405 0.120258 0.0969801 0.100328 0.149717 0.248395 0.375749 0.490496 0.536051 0.45685 0.222766 -0.156153 -0.623161 -1.08541 -1.43996 -1.59992 -1.52324 -1.22721 -0.77667 -0.272241 0.176293 0.488748 0.631887 0.621333 0.512036 0.365375 0.227162 0.124357 0.0606365 0.025881 0.0101532 0.00449557 0.00228288 0.001421 0.00119716 0.000909956 0.000609337 0.000448602 0.0003223 0.000141767 0 0 
0 0 7.78877e-05 0.00018098 0.000261445 0.000371498 0.000577813 0.000809116 0.00109714 0.00215486 0.00520892 0.013218 0.0334613 0.0757 0.149018 0.257988 0.388479 0.498681 0.528218 0.412524 0.113315 -0.346195 -0.880555 -1.36456 -1.67104 -1.72097 -1.50674 -1.08652 -0.568773 -0.0751044 0.298142 0.500632 0.537639 0.457836 0.326885 0.204301 0.125563 0.0981314 0.10908 0.133478 0.14911 0.146285 0.126112 0.097849 0.0719819 0.0556542 0.0520844 0.0588339 0.0698656 0.0782399 0.0781946 0.0682158 0.050485 0.0295201 0.0101649 -0.00452859 -0.0132801 -0.0167705 -0.0166979 -0.0147679 -0.0126839 -0.0115752 -0.0122962 -0.0150082 -0.0196692 -0.025532 -0.0315607 -0.0365913 -0.0394007 -0.0392191 -0.035721 -0.0293386 -0.0211149 -0.0122406 -0.00404354 0.00257481 0.00716853 0.00961697 0.0101648 0.00919177 0.00703851 0.0040656 0.000683738 -0.00290841 -0.00648092 -0.00986438 -0.0129762 -0.0157201 -0.0181068 -0.0201467 -0.0218044 -0.0231898 -0.0242772 -0.0251296 -0.0258425 -0.0263596 -0.0267329 -0.027022 -0.0271847 -0.0272732 -0.0272951 -0.0272755 -0.0271882 -0.0270272 -0.0267403 -0.0263683 -0.0258551 -0.0251385 -0.0242871 -0.0231928 -0.021802 -0.0201416 -0.0180846 -0.0157042 -0.0130361 -0.010186 -0.00741779 -0.00492103 -0.00279602 -0.000817705 0.00169832 0.00530935 0.00996681 0.0143627 0.015936 0.012247 0.00287479 -0.00999877 -0.0226965 -0.0322209 -0.0378476 -0.0402176 -0.0398687 -0.0367582 -0.0311361 -0.0245498 -0.0187509 -0.0146443 -0.0122367 -0.0113713 -0.0123787 -0.0146096 -0.0166192 -0.0166438 -0.0131885 -0.00455902 0.0100706 0.0294227 0.0502724 0.0679187 0.0778424 0.0778152 0.0693631 0.0582956 0.0514878 0.054994 0.0711864 0.0967898 0.124606 0.144076 0.145963 0.129225 0.103738 0.0918891 0.118857 0.197911 0.322061 0.456352 0.541281 0.510472 0.313553 -0.0567121 -0.551247 -1.07282 -1.49049 -1.70261 -1.65336 -1.3506 -0.872347 -0.343834 0.111357 0.408372 0.523588 0.494616 0.385432 0.256016 0.147886 0.0751017 0.0331661 0.0130766 0.00513911 0.00211556 0.00107381 0.000802167 0.000584103 0.000382211 0.000277639 0.000131897 0 0 
0 0 7.21113e-05 0.000155259 0.000221297 0.000355301 0.000536961 0.000884527 0.00216953 0.00601094 0.0159677 0.0394241 0.0855522 0.160393 0.260514 0.359898 0.404295 0.32739 0.0763732 -0.352874 -0.887258 -1.39387 -1.72763 -1.78463 -1.54863 -1.09306 -0.543653 -0.0365407 0.325107 0.500053 0.507047 0.407654 0.276109 0.168769 0.111968 0.102504 0.118311 0.134845 0.135292 0.117441 0.090671 0.0660596 0.0523286 0.0523917 0.0627709 0.0771541 0.0876423 0.088898 0.0803 0.064614 0.0473015 0.0328876 0.0237176 0.0197227 0.0186589 0.0183708 0.0168287 0.0128732 0.00630007 -0.0026424 -0.0128768 -0.0232527 -0.0323018 -0.0387637 -0.0420394 -0.041742 -0.038347 -0.0327527 -0.0259962 -0.0191388 -0.0128442 -0.00761494 -0.00364924 -0.00114647 -0.000119929 -0.00050333 -0.00205053 -0.00422611 -0.00661365 -0.00871977 -0.0103324 -0.0113795 -0.0119058 -0.0119569 -0.0116677 -0.0112039 -0.0106541 -0.0100049 -0.00942577 -0.00887879 -0.00842066 -0.00799182 -0.00769375 -0.00743195 -0.00729325 -0.00712724 -0.00702486 -0.00693568 -0.00690172 -0.00686982 -0.00683593 -0.00686983 -0.00690197 -0.0069378 -0.00703172 -0.00713823 -0.00730384 -0.0074406 -0.00769878 -0.00799083 -0.00840965 -0.00886062 -0.00940335 -0.0100583 -0.0109593 -0.0120879 -0.0135866 -0.0153114 -0.0166545 -0.0166334 -0.0142384 -0.00907105 -0.00212432 0.00428252 0.00748004 0.00642585 0.00223868 -0.00257099 -0.00637688 -0.00962688 -0.0138146 -0.0197291 -0.0264886 -0.0327351 -0.0375843 -0.0407098 -0.0413769 -0.0385443 -0.0321563 -0.0230012 -0.0126664 -0.00253665 0.00641644 0.0129841 0.0168243 0.0182878 0.018551 0.0195308 0.0234517 0.0325857 0.0469219 0.0641521 0.079812 0.0883251 0.0869113 0.0761639 0.0613231 0.0502137 0.0491653 0.06172 0.0851787 0.11111 0.128815 0.12904 0.114182 0.101191 0.114634 0.176328 0.288598 0.423495 0.523082 0.512559 0.331249 -0.0368256 -0.54072 -1.08319 -1.53319 -1.76706 -1.71176 -1.38232 -0.88091 -0.351104 0.074939 0.324386 0.401027 0.357137 0.258549 0.159172 0.0848912 0.0391071 0.0158234 0.00594414 0.00214229 0.000877536 0.000536564 0.00036501 0.000246743 0.000109704 0 0 
0 0 5.95582e-05 0.000138179 0.000216672 0.000370313 0.000785763 0.0022917 0.00675627 0.017985 0.0428018 0.0884095 0.156057 0.23329 0.283469 0.246069 0.0609601 -0.297914 -0.789944 -1.29565 -1.65737 -1.74822 -1.52722 -1.06331 -0.501831 0.00369696 0.345075 0.486909 0.463636 0.348293 0.218424 0.127709 0.0912237 0.0952075 0.113162 0.121324 0.110528 0.0858458 0.0599771 0.044537 0.0430531 0.0530953 0.0678234 0.0791837 0.0825153 0.0767408 0.0652736 0.0538423 0.0463009 0.044256 0.0459809 0.04831 0.0486561 0.0450776 0.0374706 0.0266595 0.0139739 0.00127247 -0.00993674 -0.0183201 -0.0232966 -0.0249281 -0.0240622 -0.0220508 -0.0201225 -0.0194164 -0.0201266 -0.0223055 -0.0251755 -0.0279482 -0.0297062 -0.0296932 -0.0276983 -0.0237403 -0.0184638 -0.0127225 -0.00729602 -0.00265537 0.000934466 0.00349412 0.00521453 0.0062694 0.00675254 0.00686011 0.00667319 0.00614572 0.00552756 0.00477276 0.00395731 0.0030404 0.00215548 0.00132431 0.000519839 -0.000245937 -0.000975883 -0.0015372 -0.0020226 -0.00244019 -0.00266069 -0.00285309 -0.00288635 -0.00284967 -0.00265835 -0.00244278 -0.00202985 -0.0015488 -0.000986229 -0.000251067 0.000521984 0.00133395 0.00217417 0.00306276 0.00391573 0.00448779 0.0046924 0.00431384 0.0034416 0.0022418 0.00158435 0.0023476 0.0046977 0.00771965 0.00918228 0.00672971 -0.000343801 -0.0102385 -0.0197589 -0.0263635 -0.0296094 -0.0305795 -0.0302779 -0.0285796 -0.0254918 -0.0219032 -0.0192333 -0.0185859 -0.019618 -0.0217847 -0.0238722 -0.0247502 -0.0231343 -0.0181919 -0.00985461 0.00130861 0.013932 0.0265696 0.0372973 0.0448107 0.0483522 0.0479686 0.0455534 0.0437552 0.0456806 0.0529766 0.0639606 0.0747204 0.0794619 0.0748919 0.0622562 0.0465664 0.0363384 0.0387445 0.0562874 0.0851952 0.113482 0.128103 0.123641 0.108517 0.105454 0.140036 0.226086 0.349908 0.459943 0.480288 0.339257 0.0024498 -0.497072 -1.05277 -1.51284 -1.73298 -1.64422 -1.28637 -0.784904 -0.296423 0.0600876 0.244038 0.281275 0.231528 0.154893 0.0877416 0.0424665 0.0178397 0.00669919 0.00226977 0.000783359 0.000386712 0.000239553 9.54266e-05 0 0 
0 0 5.3807e-05 0.000150168 0.000289195 0.000756919 0.00243335 0.00726583 0.0188956 0.042928 0.0835557 0.1363 0.180377 0.172703 0.0555218 -0.212484 -0.620282 -1.08337 -1.45509 -1.58917 -1.41596 -0.979296 -0.422497 0.0801227 0.404895 0.515662 0.457305 0.317966 0.17998 0.091931 0.0620469 0.0680368 0.0811185 0.0823693 0.0675751 0.0463229 0.031044 0.0284773 0.0376839 0.0515656 0.0629112 0.0670227 0.0629057 0.0547466 0.047565 0.0453325 0.048921 0.055427 0.0612803 0.063347 0.060343 0.0531282 0.0431677 0.0325166 0.0227432 0.015041 0.00990294 0.00671538 0.00473951 0.00250816 -0.000904645 -0.00608893 -0.0128268 -0.0202792 -0.0275535 -0.0334751 -0.0372621 -0.0385574 -0.0374633 -0.0344803 -0.0301474 -0.0250226 -0.0194378 -0.0137205 -0.00820086 -0.0032779 0.000564251 0.00316503 0.00440396 0.00452134 0.00389546 0.00281726 0.00148872 0.000251478 -0.000914234 -0.00195552 -0.0028071 -0.00346798 -0.00408579 -0.00454838 -0.00490342 -0.00516174 -0.00535307 -0.00547099 -0.00558254 -0.00561064 -0.00564993 -0.00567335 -0.00563477 -0.00563275 -0.00566269 -0.00562839 -0.00563267 -0.00567803 -0.00565601 -0.00561904 -0.00559331 -0.0054736 -0.00534471 -0.00514298 -0.00488149 -0.00458532 -0.00434622 -0.00425679 -0.00455238 -0.00506246 -0.00540094 -0.00482667 -0.00245148 0.00213845 0.00784703 0.0125018 0.013632 0.0101365 0.0031913 -0.00444134 -0.010761 -0.0155837 -0.020223 -0.0254945 -0.0307725 -0.0349726 -0.0373973 -0.0379615 -0.0364842 -0.0327996 -0.0270682 -0.0200182 -0.0126946 -0.00595723 -0.000740484 0.00260222 0.00471879 0.00668047 0.00981962 0.0148846 0.0225239 0.03223 0.0428408 0.0527308 0.0597974 0.0625799 0.0601422 0.0536088 0.0461231 0.0412628 0.0420497 0.04807 0.0558329 0.0607486 0.0589307 0.0511127 0.0412809 0.035826 0.0411374 0.0579956 0.0795842 0.0932542 0.0890564 0.0715835 0.0610478 0.0878447 0.175181 0.31422 0.452766 0.510697 0.40133 0.0802978 -0.41722 -0.969551 -1.40385 -1.57705 -1.44479 -1.07604 -0.616252 -0.211279 0.0549187 0.171347 0.179011 0.135276 0.0829329 0.0426091 0.0187494 0.00721029 0.00242736 0.000775057 0.000334985 0.000115429 0 0 
0 0 8.5307e-05 0.000293632 0.000784153 0.00254608 0.00743167 0.0185871 0.0398863 0.071937 0.10476 0.111761 0.0494124 -0.12776 -0.432794 -0.816053 -1.16316 -1.33107 -1.22181 -0.845818 -0.323197 0.170766 0.491136 0.589378 0.511335 0.35146 0.199731 0.102772 0.0622021 0.0540147 0.0495801 0.0350281 0.0133736 -0.00491891 -0.00967111 0.000370559 0.0178442 0.0340064 0.0426225 0.0427808 0.0381305 0.0338858 0.0345894 0.0407205 0.0495055 0.0572371 0.0606464 0.0594386 0.0547991 0.0487933 0.0435294 0.0396827 0.0376669 0.0366285 0.0353249 0.032708 0.0276348 0.0201822 0.0106817 0.000535082 -0.00889085 -0.0165613 -0.0216158 -0.0243573 -0.0252284 -0.0251212 -0.0247145 -0.0245035 -0.0246706 -0.0250669 -0.0256302 -0.0258358 -0.0254171 -0.0239911 -0.0214863 -0.0180026 -0.0139508 -0.00993233 -0.00633851 -0.00351035 -0.00138622 0.000172263 0.00130161 0.002262 0.00305394 0.00380892 0.00446125 0.00510432 0.00558948 0.00595594 0.00629438 0.00657292 0.00669331 0.00679001 0.00679937 0.00686147 0.00681662 0.00681796 0.00678085 0.00679615 0.00677748 0.00679367 0.00677831 0.00681464 0.00681276 0.00685847 0.00679501 0.00679498 0.00671346 0.00659389 0.00626231 0.00571312 0.00484939 0.00344414 0.00147553 -0.000552788 -0.00194144 -0.00169997 0.000464043 0.00385529 0.00631251 0.00556451 0.00064709 -0.00717071 -0.0149682 -0.020491 -0.0233369 -0.0247317 -0.0257907 -0.0263891 -0.0261503 -0.0251737 -0.0243706 -0.0239929 -0.0240777 -0.0244598 -0.0247576 -0.0241795 -0.0215456 -0.0164195 -0.00877147 0.000529899 0.0106284 0.0201324 0.0275002 0.0324843 0.0350798 0.0363094 0.0372364 0.0390686 0.0425828 0.0472366 0.0522789 0.0556579 0.0553762 0.050611 0.0421677 0.033866 0.0298561 0.0328867 0.0417693 0.0508006 0.0536256 0.0458899 0.0287383 0.00926812 -0.00321903 -0.00122582 0.0139753 0.0328871 0.0460342 0.0507228 0.0602418 0.102096 0.19868 0.348768 0.507121 0.585104 0.488744 0.171568 -0.31892 -0.838575 -1.21271 -1.32167 -1.1551 -0.810465 -0.429893 -0.127002 0.0489378 0.11089 0.103976 0.0714026 0.0395934 0.0184644 0.00740288 0.00258607 0.000932229 0.000255063 0 0 
0 0 0.000254389 0.000950736 0.00264249 0.00727812 0.0172177 0.0343428 0.055747 0.0671593 0.0398463 -0.06365 -0.269141 -0.558385 -0.851727 -1.02853 -0.981382 -0.684116 -0.223268 0.243047 0.564261 0.669643 0.593211 0.430043 0.271816 0.167252 0.114542 0.0864223 0.0593572 0.0246103 -0.0108098 -0.0345204 -0.0411667 -0.0332261 -0.0192573 -0.00789062 -0.00168428 0.00075995 0.00336262 0.00968098 0.0198843 0.0317131 0.0413671 0.046251 0.0467522 0.0446751 0.0428014 0.0426737 0.0443439 0.047288 0.0497048 0.0503532 0.0482283 0.0431816 0.0359621 0.0276332 0.0197585 0.0132113 0.00824569 0.00468225 0.00159128 -0.00158981 -0.00559302 -0.0104211 -0.0159658 -0.0215461 -0.0265971 -0.0307526 -0.0334037 -0.0346572 -0.0343813 -0.0328542 -0.0302124 -0.0265993 -0.0221646 -0.0169977 -0.0115317 -0.00614331 -0.00147537 0.00212569 0.00440765 0.00564016 0.00593938 0.00566442 0.00501553 0.00424462 0.0034172 0.00263044 0.00184638 0.00112511 0.000524763 3.15484e-05 -0.000432958 -0.000849724 -0.00113632 -0.00135556 -0.00153788 -0.00168388 -0.00176193 -0.00181715 -0.00180844 -0.00182385 -0.00176732 -0.00168619 -0.00153957 -0.00135248 -0.00112946 -0.00083361 -0.000408578 4.596e-06 0.000301663 0.000434746 0.000274543 -0.000235628 -0.000809846 -0.000663628 0.0010247 0.00465878 0.00934581 0.0130679 0.0133263 0.00913468 0.00142651 -0.00701944 -0.0139467 -0.0188426 -0.0229015 -0.0269119 -0.0306751 -0.0333284 -0.0345346 -0.0345203 -0.0331325 -0.0303278 -0.0259684 -0.0209271 -0.0156222 -0.0103079 -0.00548594 -0.00146129 0.00163105 0.00464541 0.00819827 0.0131132 0.0195758 0.027375 0.0356422 0.0426855 0.0474386 0.0490724 0.0475068 0.0438648 0.0394304 0.0362097 0.0353038 0.0373485 0.0412221 0.0442741 0.0442684 0.0396774 0.0316253 0.0227713 0.0150678 0.00917831 0.00308505 -0.00587333 -0.0189198 -0.0341377 -0.0431553 -0.0370669 -0.0130178 0.0232835 0.0587421 0.0859927 0.11394 0.166182 0.269887 0.427036 0.589531 0.666204 0.561955 0.242675 -0.221013 -0.679087 -0.97439 -1.02125 -0.845736 -0.554535 -0.267357 -0.0632953 0.0394915 0.0666451 0.0553563 0.034136 0.0171746 0.00739115 0.00290709 0.000839038 0 0 
0 0 0.000873721 0.00285205 0.00700265 0.0151782 0.0273537 0.0376579 0.0294139 -0.0242558 -0.149428 -0.348938 -0.577488 -0.741838 -0.740975 -0.525229 -0.140896 0.27992 0.592084 0.713847 0.658162 0.509589 0.359181 0.25459 0.195881 0.156398 0.113499 0.064527 0.0186026 -0.0136726 -0.0288027 -0.0332912 -0.0352926 -0.0393316 -0.044733 -0.0464487 -0.0411585 -0.0289399 -0.0128226 0.00216827 0.012956 0.0191009 0.0225464 0.0260558 0.0308448 0.0368796 0.0428554 0.0472063 0.0491598 0.0483252 0.0455633 0.0418761 0.0383948 0.0358546 0.0340453 0.0325162 0.0301867 0.0263985 0.0208557 0.0137339 0.00590952 -0.00192319 -0.0089196 -0.0146536 -0.0190249 -0.0220413 -0.0241503 -0.0254067 -0.0262773 -0.0267004 -0.0269253 -0.0268425 -0.0264733 -0.0257282 -0.0243557 -0.0223031 -0.0193883 -0.0158432 -0.0119857 -0.00838119 -0.00533033 -0.00303963 -0.00141642 -0.000285486 0.000508697 0.00120345 0.00181224 0.00244973 0.00298614 0.00358792 0.0040481 0.00451995 0.0049009 0.00521409 0.00541895 0.00566384 0.00578071 0.00592298 0.0060113 0.0060451 0.00604209 0.00604295 0.00600795 0.00592201 0.00578306 0.00567405 0.00543809 0.00523602 0.00487928 0.00431503 0.00340105 0.00209648 0.000237089 -0.00164737 -0.00300218 -0.00280619 -0.000672844 0.00283522 0.00572223 0.00572467 0.00170127 -0.00533757 -0.0127221 -0.0181998 -0.0212332 -0.0230387 -0.024631 -0.0261309 -0.0268947 -0.0269707 -0.0268168 -0.026585 -0.0260915 -0.0249636 -0.0235514 -0.021574 -0.0187839 -0.0145204 -0.00881495 -0.00186796 0.00589219 0.0136835 0.0207545 0.0262163 0.0299239 0.032137 0.0334539 0.0347985 0.0365682 0.0388778 0.0410218 0.0421889 0.0417489 0.0394935 0.0364775 0.0337421 0.0325826 0.0332414 0.0343014 0.0331043 0.0261029 0.0117757 -0.00799276 -0.0282553 -0.042663 -0.0482111 -0.0460115 -0.0404872 -0.0367457 -0.0347795 -0.0298262 -0.0142174 0.0182512 0.0640938 0.112673 0.155377 0.19472 0.252948 0.356935 0.506928 0.654996 0.710104 0.588636 0.278258 -0.139721 -0.521355 -0.735622 -0.73656 -0.573445 -0.346557 -0.148456 -0.0241165 0.0292431 0.037517 0.0274051 0.0153737 0.0071412 0.00248814 0 0 
0 0 0.00249368 0.00646939 0.0131032 0.0202382 0.0202704 -0.00373129 -0.0734712 -0.200592 -0.36604 -0.507293 -0.536721 -0.393042 -0.0896453 0.276282 0.570776 0.703647 0.673644 0.549495 0.416458 0.322965 0.267594 0.227019 0.181983 0.130617 0.0840274 0.0498393 0.0272467 0.0103864 -0.00750549 -0.0270092 -0.0442871 -0.0556522 -0.058888 -0.0558164 -0.0496983 -0.0426574 -0.0356187 -0.0273906 -0.0169246 -0.00444091 0.00871501 0.0202275 0.0285813 0.0335488 0.0356652 0.0366551 0.0375421 0.0391741 0.041414 0.0432899 0.0440166 0.0427387 0.0394458 0.034502 0.0287357 0.0230257 0.0177621 0.013198 0.00905739 0.00510262 0.000974726 -0.00355555 -0.00838902 -0.0135215 -0.0185194 -0.0232305 -0.0271725 -0.0302103 -0.0320824 -0.0327803 -0.0323626 -0.030897 -0.0284738 -0.0252086 -0.0211204 -0.0163292 -0.0112212 -0.00629186 -0.00205007 0.00113343 0.0031929 0.00418783 0.0044513 0.00417556 0.00373411 0.00316596 0.00261753 0.00203194 0.00157147 0.0011473 0.000787718 0.000467228 0.000239736 6.57324e-05 -8.27218e-05 -0.000202723 -0.000230437 -0.000295301 -0.000313895 -0.000291609 -0.000229026 -0.000200724 -7.19344e-05 8.7974e-05 0.00026188 0.000448773 0.00060798 0.000548145 0.000158913 -0.000600252 -0.0013498 -0.00156392 -0.00029521 0.00283214 0.0072985 0.0110544 0.0118056 0.00819212 0.00113433 -0.00689136 -0.0135226 -0.0181759 -0.0218597 -0.0254484 -0.0288316 -0.0312799 -0.0324646 -0.0326672 -0.0319962 -0.0301482 -0.0269187 -0.022772 -0.0180681 -0.0131926 -0.00815649 -0.00342345 0.000999319 0.00508292 0.00904112 0.0131135 0.017577 0.0227774 0.0283073 0.0336658 0.0379437 0.0401685 0.0399732 0.0375364 0.0341253 0.0312145 0.030421 0.032349 0.0360221 0.0395492 0.039805 0.0345901 0.0231175 0.00689137 -0.010631 -0.0262844 -0.0380324 -0.046118 -0.0522918 -0.0569188 -0.0592371 -0.0562002 -0.0452343 -0.0278365 -0.0078848 0.0101959 0.0269284 0.0492778 0.0833946 0.129824 0.180926 0.225552 0.265978 0.321421 0.414718 0.546796 0.6697 0.699109 0.567001 0.274566 -0.0887689 -0.390063 -0.532823 -0.503693 -0.363463 -0.199143 -0.0728056 -0.00336021 0.0206452 0.0204633 0.0125246 0.0055148 0 0 
0 0 0.00526849 0.0114938 0.0146778 0.00702575 -0.0274579 -0.104017 -0.220223 -0.339704 -0.392585 -0.3094 -0.0757458 0.241476 0.523096 0.666988 0.653173 0.543236 0.420661 0.337199 0.293539 0.262035 0.225129 0.183443 0.145859 0.11922 0.0993196 0.0782735 0.0531997 0.0256013 0.000829425 -0.0172978 -0.0301313 -0.0400554 -0.0495599 -0.0584905 -0.0637658 -0.0633753 -0.0567226 -0.0455281 -0.0329343 -0.0206586 -0.00991329 -0.000361434 0.00886525 0.0177735 0.0263485 0.0334494 0.0382466 0.0404125 0.0401981 0.038855 0.0371818 0.0360533 0.0354092 0.034742 0.0335402 0.0310463 0.0271108 0.021722 0.0153326 0.00851032 0.00178313 -0.00431215 -0.00961456 -0.0138826 -0.0172607 -0.0198251 -0.0218383 -0.0234671 -0.024783 -0.0259238 -0.0267931 -0.0274177 -0.0275996 -0.027261 -0.0260726 -0.0239826 -0.0207793 -0.0168704 -0.0125906 -0.00851312 -0.00502584 -0.00225858 -0.000308183 0.00115141 0.00215217 0.00299693 0.00361598 0.00421663 0.00464934 0.00506314 0.00536015 0.00562441 0.00578212 0.00590897 0.00604122 0.00611713 0.00614618 0.00621237 0.00616235 0.00621757 0.00615577 0.00613083 0.00606279 0.00593339 0.00577463 0.00547348 0.00482357 0.00375216 0.00214072 0.000353919 -0.00110018 -0.00116386 0.000559365 0.00373125 0.00640088 0.00638179 0.00218798 -0.00518027 -0.0131571 -0.0192342 -0.0226779 -0.0246948 -0.0262561 -0.027585 -0.0279842 -0.0274997 -0.0266334 -0.0258336 -0.024765 -0.0233088 -0.0215268 -0.0195064 -0.0169817 -0.0136003 -0.00939311 -0.00425781 0.0017741 0.00851188 0.0152868 0.0215525 0.0267952 0.0304628 0.032388 0.0326506 0.0319419 0.0308149 0.0301483 0.0306873 0.0322704 0.0347288 0.0369474 0.0379797 0.0367184 0.0322698 0.0244529 0.0127732 -0.00169539 -0.0182098 -0.0351182 -0.0499169 -0.0608736 -0.0658078 -0.0644805 -0.0584544 -0.0496683 -0.0405608 -0.0306217 -0.0174809 0.000813347 0.0253454 0.0526079 0.0774934 0.0985725 0.118445 0.144926 0.182284 0.223849 0.260795 0.292346 0.33578 0.41852 0.539931 0.648878 0.66256 0.519704 0.240084 -0.074937 -0.306992 -0.389629 -0.337084 -0.218282 -0.102684 -0.0266299 0.00720921 0.0137664 0.00815568 0 0 
0 0 0.00658732 0.0114313 0.00796737 -0.0185496 -0.0851423 -0.19451 -0.313927 -0.370608 -0.279151 -0.005774 0.377663 0.718675 0.872748 0.794895 0.572481 0.348277 0.215009 0.181637 0.19433 0.196733 0.17709 0.149327 0.128633 0.120564 0.113531 0.0978738 0.0739607 0.0454277 0.0203062 0.00192121 -0.0131825 -0.0268241 -0.0415895 -0.0565421 -0.067492 -0.0728133 -0.0709456 -0.0635736 -0.0536432 -0.0420553 -0.030549 -0.018675 -0.00640191 0.00513719 0.0160758 0.0248253 0.0312946 0.0353077 0.0368538 0.0372791 0.0367006 0.0362928 0.0359163 0.0352541 0.034306 0.0321581 0.0291694 0.0248644 0.019693 0.0139705 0.00790086 0.00211095 -0.00357689 -0.00851772 -0.0131809 -0.017097 -0.0205471 -0.0233625 -0.0255739 -0.0273194 -0.0283081 -0.0288307 -0.0286569 -0.0281229 -0.0268583 -0.024916 -0.0219088 -0.0180169 -0.0135936 -0.00920635 -0.00543623 -0.00255051 -0.000683708 0.000490859 0.00102774 0.00141589 0.00154228 0.00175011 0.00186266 0.00207584 0.00223349 0.00236931 0.00243795 0.00257768 0.00259549 0.00272906 0.0027137 0.00278209 0.0027611 0.00278852 0.00272929 0.002753 0.00262647 0.00260275 0.00239247 0.00206668 0.00131242 2.62259e-05 -0.00174796 -0.00330325 -0.00380123 -0.00198544 0.00202939 0.00699065 0.00966001 0.00749253 7.01872e-05 -0.0096474 -0.0176882 -0.0218453 -0.023249 -0.0245298 -0.0265895 -0.0285627 -0.0290285 -0.0286088 -0.0279281 -0.0272722 -0.0256206 -0.023127 -0.0201956 -0.0168974 -0.0130214 -0.00826402 -0.00339678 0.00209495 0.00786771 0.013954 0.0195512 0.0245245 0.0285606 0.0309547 0.0319888 0.0313057 0.0299376 0.0282165 0.0273045 0.0282751 0.0307148 0.0346697 0.0379656 0.0386748 0.0347033 0.0244962 0.00915295 -0.0102088 -0.0300438 -0.0476961 -0.0619392 -0.0708365 -0.0749315 -0.0734871 -0.0664761 -0.0556916 -0.0416356 -0.0272733 -0.0132267 0.00233316 0.020557 0.0450256 0.0731227 0.0969419 0.112742 0.119729 0.127741 0.148424 0.17621 0.195871 0.193646 0.181179 0.214288 0.346374 0.568775 0.789592 0.866921 0.71399 0.375425 -0.0052917 -0.27676 -0.367546 -0.311114 -0.192453 -0.0841978 -0.0192172 0.00473519 0.00687503 0 0 
0 0 0.00540192 0.00524232 -0.00860544 -0.0527196 -0.135571 -0.239795 -0.310752 -0.272966 -0.0728808 0.266068 0.628666 0.873641 0.915819 0.767738 0.529148 0.308085 0.159363 0.0926834 0.08313 0.097193 0.118497 0.13295 0.133533 0.126106 0.113237 0.0995287 0.0878821 0.0722846 0.0518457 0.0277787 0.0018254 -0.0196508 -0.0363416 -0.0496292 -0.0600536 -0.0704216 -0.0779019 -0.0803834 -0.0768739 -0.0660175 -0.051031 -0.0341997 -0.018321 -0.00573069 0.00428375 0.011736 0.0184455 0.0250781 0.0310862 0.0364858 0.0396486 0.0407975 0.0395899 0.0368885 0.0336084 0.0301387 0.0273003 0.0245583 0.0221121 0.0192238 0.0155785 0.0112242 0.00562589 -0.000366721 -0.00717021 -0.013504 -0.0195867 -0.024643 -0.0285783 -0.0313066 -0.0325509 -0.0327425 -0.0317787 -0.0303243 -0.0281263 -0.0254431 -0.0217708 -0.0172109 -0.0121013 -0.00704594 -0.0028101 0.000274759 0.00183262 0.00250733 0.00225509 0.00179249 0.0010412 0.000418072 -0.00026957 -0.000686673 -0.00116662 -0.00136364 -0.00168099 -0.00176103 -0.00201867 -0.00198003 -0.00213189 -0.00209124 -0.00222051 -0.00208201 -0.00211132 -0.00194872 -0.00198021 -0.00173652 -0.00177185 -0.00183236 -0.00248824 -0.00348016 -0.00494966 -0.0057296 -0.00478853 -0.000736229 0.00584014 0.012722 0.0154729 0.0114589 0.00100216 -0.0109935 -0.0193946 -0.0223592 -0.0226624 -0.0241152 -0.0274437 -0.0308109 -0.0321027 -0.0322514 -0.0319995 -0.0312987 -0.028662 -0.0243616 -0.0192153 -0.013376 -0.00709269 -0.00015631 0.00575533 0.0111638 0.0154966 0.0191461 0.0218191 0.0238841 0.026059 0.0277757 0.0294857 0.0305552 0.0310244 0.0306566 0.0297303 0.0295528 0.0299612 0.0318556 0.0332916 0.0323202 0.0263397 0.0129788 -0.00685529 -0.0315834 -0.0562003 -0.0758873 -0.0874148 -0.0881533 -0.0813488 -0.070267 -0.0584863 -0.048583 -0.0363343 -0.0197743 0.00235367 0.028681 0.052226 0.071751 0.0869248 0.0986539 0.112511 0.125221 0.132525 0.132155 0.118031 0.0969977 0.0831558 0.0927939 0.158977 0.306426 0.525736 0.76261 0.90972 0.86793 0.624779 0.26483 -0.0717143 -0.270395 -0.307888 -0.237651 -0.135044 -0.0546008 -0.0136272 0.000520073 0 0 
0 0 0.00112588 -0.00711251 -0.0320354 -0.0850343 -0.159093 -0.219263 -0.210549 -0.0910511 0.134847 0.403823 0.624452 0.740783 0.751138 0.680173 0.55864 0.404556 0.235562 0.0946577 0.0180713 0.0104348 0.0512815 0.0989808 0.124148 0.127021 0.11633 0.104726 0.0980534 0.088802 0.073392 0.050952 0.0234077 -0.00196311 -0.0238505 -0.0421262 -0.0566907 -0.0700255 -0.0801863 -0.0859775 -0.0866566 -0.0807488 -0.0702222 -0.0558408 -0.039623 -0.023871 -0.00911204 0.00281509 0.012455 0.0199076 0.0254854 0.0302822 0.0338691 0.0367085 0.0384078 0.0388664 0.038308 0.036429 0.0338494 0.0302213 0.0261376 0.0214546 0.0163848 0.0112772 0.00590696 0.000860499 -0.00428401 -0.00900853 -0.013591 -0.0178377 -0.0217856 -0.0254389 -0.0284361 -0.0308834 -0.0325765 -0.033813 -0.0342196 -0.0335746 -0.0312683 -0.0271648 -0.0215513 -0.0152081 -0.00923469 -0.00426355 -0.000736711 0.0016538 0.00297668 0.00379101 0.00416012 0.00444032 0.00451546 0.00463776 0.00461704 0.00465845 0.00458047 0.00462671 0.00452741 0.00455586 0.00442384 0.00451899 0.00441825 0.00453163 0.00444947 0.00459314 0.00457042 0.00464595 0.00443451 0.0040029 0.00287532 0.00110802 -0.00117591 -0.00267854 -0.00198991 0.00223466 0.00905329 0.0152654 0.0157894 0.00783191 -0.00699093 -0.0222392 -0.0316341 -0.0335471 -0.031931 -0.0315448 -0.0331359 -0.0342388 -0.0328394 -0.030195 -0.0277379 -0.0254147 -0.0218862 -0.0175265 -0.0132133 -0.00894316 -0.00427979 0.00104011 0.00602156 0.0111717 0.0162194 0.021237 0.0255236 0.0288718 0.031411 0.0322497 0.0317889 0.0299778 0.0279292 0.0263825 0.0264874 0.0289037 0.0320938 0.0346537 0.0331227 0.0252451 0.0104831 -0.010587 -0.0342152 -0.0577955 -0.0774911 -0.0905821 -0.0960856 -0.0926 -0.0830281 -0.0699206 -0.0555798 -0.0416483 -0.0241062 -0.00188063 0.0244349 0.0523164 0.0739165 0.0882015 0.0970111 0.1039 0.115662 0.126134 0.123155 0.0983723 0.0512753 0.0108437 0.0185313 0.0946877 0.23455 0.402133 0.554976 0.675662 0.746236 0.736059 0.62069 0.40176 0.134709 -0.0896776 -0.208549 -0.217837 -0.159449 -0.0879414 -0.0374789 -0.0102483 0 0 
0 0 -0.00578254 -0.0228377 -0.0546092 -0.101677 -0.142401 -0.138041 -0.0574746 0.0913674 0.259213 0.386676 0.449351 0.478404 0.51581 0.560374 0.573116 0.511395 0.372244 0.207138 0.0742132 0.00472387 0.000380989 0.0341444 0.0763469 0.109642 0.123613 0.120862 0.109546 0.094144 0.079611 0.0649299 0.0465465 0.0242266 -0.0025763 -0.0300788 -0.0533428 -0.0705049 -0.0804044 -0.085233 -0.0873394 -0.0866466 -0.0833613 -0.0754917 -0.062696 -0.0460757 -0.0272818 -0.00972726 0.00476386 0.0149552 0.02127 0.0253292 0.0282973 0.0315215 0.0349529 0.0382945 0.0406056 0.0412648 0.0399237 0.0365663 0.0317293 0.025949 0.019764 0.0136717 0.00783729 0.00251988 -0.00250257 -0.00701798 -0.0114123 -0.0154464 -0.0193421 -0.022984 -0.0262338 -0.0291107 -0.0315044 -0.0336877 -0.035233 -0.035782 -0.034562 -0.0312698 -0.0260173 -0.0197347 -0.013428 -0.00808604 -0.00411796 -0.00148109 0.00014214 0.00109065 0.00169694 0.00223814 0.00255863 0.00294893 0.00318753 0.00352047 0.00369491 0.00392144 0.0039937 0.00412568 0.0041224 0.00422821 0.00421072 0.00424262 0.00414994 0.00416499 0.00403759 0.00392569 0.00348234 0.00266413 0.0010044 -0.00131725 -0.00406835 -0.00568703 -0.0045907 0.000594079 0.00856218 0.0151149 0.0148176 0.00467924 -0.0125406 -0.0292838 -0.0384054 -0.0388367 -0.0353015 -0.0333329 -0.0337925 -0.0339243 -0.0316188 -0.0283049 -0.0254578 -0.022916 -0.0194175 -0.015112 -0.0110565 -0.00699978 -0.00253066 0.00265781 0.00789588 0.0134842 0.0194634 0.025389 0.0304275 0.0340402 0.0356452 0.0346508 0.0315002 0.0275383 0.0244355 0.0240537 0.0269197 0.0321634 0.0362335 0.0354958 0.0266853 0.00911865 -0.014477 -0.0400844 -0.062536 -0.0794418 -0.0896967 -0.0939142 -0.0939596 -0.0897926 -0.0822621 -0.0705225 -0.0531864 -0.0308968 -0.00390407 0.0238534 0.047709 0.0666699 0.0803991 0.0936003 0.108423 0.119917 0.122851 0.108813 0.0756355 0.0339345 0.000695658 0.00514224 0.0741955 0.206243 0.370157 0.508147 0.569315 0.556719 0.512606 0.475586 0.44689 0.384801 0.258221 0.0913322 -0.0569661 -0.137955 -0.143782 -0.104878 -0.0587283 -0.0224284 0 0 
0 0 -0.013511 -0.036723 -0.066735 -0.0927859 -0.0880116 -0.0277416 0.0834384 0.201624 0.272248 0.274483 0.242304 0.238897 0.298382 0.399573 0.491684 0.526809 0.485385 0.380701 0.242229 0.110176 0.02251 -0.00555316 0.0172278 0.0639413 0.104284 0.123492 0.121321 0.106257 0.0889603 0.0729432 0.057343 0.039684 0.017124 -0.00894326 -0.0356704 -0.0592162 -0.0763236 -0.087008 -0.0918519 -0.0924219 -0.0897428 -0.083794 -0.0748602 -0.062733 -0.0479717 -0.031579 -0.0146572 0.000878254 0.014012 0.023804 0.0303129 0.0341792 0.0360131 0.0370802 0.0375026 0.0379213 0.0378927 0.0374032 0.0359175 0.0331068 0.0289316 0.0233761 0.01678 0.0093903 0.00170314 -0.00580651 -0.0126593 -0.0187177 -0.0236849 -0.0275229 -0.0302383 -0.0319086 -0.0330126 -0.0337827 -0.0341714 -0.0338483 -0.0320787 -0.028383 -0.0230483 -0.0168708 -0.0108315 -0.00598373 -0.0027141 -0.00101377 -0.000388329 -0.000514343 -0.000873023 -0.00129437 -0.00163509 -0.00192843 -0.00207861 -0.00222495 -0.00227522 -0.00235409 -0.00238226 -0.00235484 -0.00235966 -0.00232448 -0.00236022 -0.00230932 -0.0023332 -0.00231505 -0.00233796 -0.00237273 -0.00257521 -0.00330188 -0.00471476 -0.00691352 -0.00910748 -0.00985147 -0.00710038 0.000119081 0.010186 0.0181065 0.01809 0.00720213 -0.0110076 -0.0282842 -0.0372067 -0.0370702 -0.0332513 -0.0313569 -0.03243 -0.0336515 -0.0328998 -0.0310631 -0.0294531 -0.027359 -0.0236776 -0.0184185 -0.0123509 -0.00578081 0.00166902 0.00946447 0.0167371 0.0230459 0.0283124 0.0318641 0.0334069 0.0330429 0.0311859 0.0286907 0.0264889 0.0263417 0.0285301 0.0330181 0.0375916 0.0393303 0.0349537 0.02265 0.00339839 -0.0200569 -0.0431386 -0.0627331 -0.0774098 -0.0874024 -0.0938128 -0.0966902 -0.0955487 -0.0890897 -0.0765703 -0.0587275 -0.0362389 -0.0113155 0.0141155 0.0380241 0.0578455 0.0745036 0.0898433 0.10583 0.120207 0.122419 0.103472 0.0632667 0.0168076 -0.00560181 0.0225195 0.109659 0.240837 0.378353 0.482301 0.523338 0.48845 0.397093 0.296749 0.23782 0.241329 0.273343 0.270988 0.200454 0.0823649 -0.0291109 -0.0900876 -0.0953055 -0.0682804 -0.0313969 0 0 
0 0 -0.0192997 -0.0431234 -0.0617678 -0.0590181 -0.0156156 0.0686978 0.162281 0.217844 0.209236 0.153591 0.0990473 0.0870819 0.127831 0.211996 0.322605 0.431559 0.503745 0.505224 0.424901 0.291731 0.153668 0.0528074 0.00995477 0.0167139 0.0508096 0.0898686 0.114903 0.119868 0.107857 0.0858773 0.0636503 0.0447299 0.0278216 0.0102347 -0.0119541 -0.037182 -0.0615578 -0.0813135 -0.0929705 -0.0974354 -0.0960826 -0.0908809 -0.0837989 -0.0744649 -0.0633267 -0.0496206 -0.0336608 -0.0167843 -7.94473e-05 0.0143683 0.0258094 0.0335958 0.0379651 0.0401257 0.0404828 0.040259 0.0394702 0.0384383 0.0368112 0.0343769 0.0310322 0.0264059 0.0210233 0.0144559 0.00749102 0.000150814 -0.00712965 -0.0139322 -0.020394 -0.0258086 -0.0305139 -0.0340404 -0.0369191 -0.0390219 -0.0404587 -0.0406432 -0.0388057 -0.0345958 -0.0281433 -0.0205503 -0.0128795 -0.00646623 -0.00170269 0.00116481 0.00273236 0.0032378 0.00334167 0.00314163 0.00292356 0.00266692 0.0024709 0.0022596 0.00210479 0.00190794 0.00179938 0.00168769 0.00162775 0.0015808 0.00154093 0.00159384 0.00165257 0.0017278 0.00184159 0.00186349 0.001701 0.00093182 -0.0006333 -0.00301028 -0.00529233 -0.00585856 -0.00262053 0.00507514 0.0152431 0.0222883 0.0203941 0.00690214 -0.0138054 -0.0331223 -0.0434687 -0.0443174 -0.0407711 -0.0384884 -0.0385002 -0.0384164 -0.0365181 -0.0331986 -0.0297466 -0.0255246 -0.020281 -0.0136813 -0.00689093 0.000191889 0.00747272 0.0144119 0.0207929 0.0257874 0.0297483 0.0319083 0.0324546 0.0316178 0.0300763 0.0290831 0.0295751 0.0325527 0.0369662 0.0413193 0.042012 0.035992 0.0220637 0.00100824 -0.0230555 -0.0460729 -0.0644429 -0.0773416 -0.0865849 -0.0932259 -0.0984155 -0.0997539 -0.0944799 -0.0811145 -0.0598625 -0.035677 -0.0127026 0.00668843 0.0231149 0.041257 0.0625623 0.0863032 0.108166 0.119359 0.113914 0.0888316 0.0501169 0.0161534 0.00943094 0.0521041 0.152473 0.289601 0.421894 0.501681 0.500271 0.428614 0.320537 0.210875 0.127438 0.0871031 0.09903 0.153101 0.208052 0.216046 0.160099 0.0663755 -0.0177035 -0.0601763 -0.0607532 -0.0329211 0 0 
0 0 -0.0205934 -0.0387506 -0.040136 -0.0125437 0.0474579 0.119933 0.168748 0.170068 0.130466 0.076702 0.0342043 0.0110892 0.0093881 0.0465739 0.136417 0.26606 0.401919 0.496378 0.515451 0.45957 0.347382 0.214305 0.101805 0.0333115 0.0159522 0.0386079 0.0745418 0.103498 0.113414 0.102991 0.0825226 0.0589462 0.0372659 0.0190141 0.000412648 -0.0190735 -0.0397305 -0.0607872 -0.0786437 -0.0925528 -0.100538 -0.101946 -0.0977846 -0.0880665 -0.0753206 -0.060487 -0.0450289 -0.0300359 -0.0150221 -0.00117193 0.012109 0.0240118 0.0338763 0.0415302 0.0460178 0.0479841 0.0471272 0.0444389 0.040418 0.0354713 0.0304798 0.0251158 0.0200781 0.0147688 0.00948908 0.00393216 -0.0019074 -0.00795847 -0.0142548 -0.0203696 -0.0263785 -0.031738 -0.0367593 -0.0410726 -0.0445562 -0.0463622 -0.0457736 -0.04219 -0.0357758 -0.0277123 -0.019136 -0.0116115 -0.00555638 -0.0015078 0.00120352 0.00272666 0.00375275 0.00424755 0.00474321 0.00491543 0.005187 0.00526949 0.00540514 0.00546094 0.0054962 0.00547934 0.00548331 0.00546747 0.00551467 0.00547599 0.00550584 0.00552001 0.00553117 0.0053791 0.0048816 0.00366623 0.00160069 -0.00141534 -0.00410164 -0.00500325 -0.00174316 0.00581929 0.015401 0.0210827 0.0172651 0.00170975 -0.0204938 -0.0407514 -0.0516551 -0.0527973 -0.0488374 -0.0449375 -0.0425267 -0.03991 -0.035987 -0.0308984 -0.0256851 -0.0199934 -0.0139976 -0.00772064 -0.00177344 0.00399118 0.00949146 0.01456 0.0194898 0.0238796 0.0280372 0.0311291 0.033584 0.0349829 0.0358112 0.0368559 0.0382933 0.0406 0.0419363 0.040829 0.0345454 0.0215988 0.00293306 -0.0197855 -0.0423651 -0.0626999 -0.0790142 -0.0910468 -0.0995986 -0.103323 -0.102178 -0.094165 -0.0790204 -0.0590492 -0.0365009 -0.0165069 4.78218e-05 0.0151476 0.0315537 0.0538246 0.0793236 0.101339 0.112229 0.102265 0.0733713 0.0375471 0.0151337 0.0322962 0.100301 0.212048 0.344299 0.455762 0.511375 0.492536 0.398876 0.264119 0.135615 0.0466126 0.00983174 0.0116006 0.0344863 0.076421 0.129357 0.168115 0.16625 0.11754 0.0460245 -0.0123909 -0.0378747 -0.0255109 0 0 
0 0 -0.0164158 -0.0246677 -0.00983132 0.0290473 0.0810797 0.121306 0.128944 0.107424 0.0755994 0.0444066 0.0135383 -0.0214648 -0.0531942 -0.0537338 -0.00513276 0.0894528 0.220177 0.358353 0.46681 0.518418 0.493068 0.399762 0.274871 0.153608 0.0670313 0.0286293 0.0291792 0.054314 0.0836532 0.100319 0.100441 0.084101 0.0586177 0.0326686 0.00924556 -0.00915306 -0.0251326 -0.0416375 -0.0583986 -0.0761711 -0.0914896 -0.101791 -0.105819 -0.101932 -0.0921624 -0.0774777 -0.0602461 -0.0426973 -0.0254632 -0.0100968 0.00382475 0.0159561 0.0263927 0.0352697 0.0419728 0.0468709 0.0493077 0.0496386 0.0478074 0.0440022 0.0387701 0.0321014 0.0249209 0.0171262 0.0093777 0.00183864 -0.00519613 -0.0115636 -0.0173613 -0.0223124 -0.0268447 -0.0307199 -0.034466 -0.0378299 -0.0407935 -0.0425341 -0.0423629 -0.0395796 -0.0342198 -0.0272912 -0.0198747 -0.0134201 -0.00840931 -0.00524853 -0.00342226 -0.00266809 -0.00225842 -0.0021962 -0.00203755 -0.00199096 -0.00181214 -0.00169605 -0.0014645 -0.00131798 -0.00113531 -0.00106031 -0.000920489 -0.000940007 -0.000801588 -0.000934473 -0.00089971 -0.00101905 -0.00111073 -0.00144783 -0.00212506 -0.00359887 -0.00589275 -0.00893177 -0.0113833 -0.011499 -0.00709516 0.00171058 0.012201 0.0182838 0.0145792 -0.000391604 -0.021377 -0.040132 -0.0500397 -0.0508709 -0.0467623 -0.0422167 -0.0389042 -0.0360985 -0.0332426 -0.0298958 -0.0262781 -0.0218235 -0.0169264 -0.0113315 -0.00514132 0.0018841 0.00931485 0.0165799 0.0236606 0.0297225 0.0345218 0.0371761 0.0382929 0.0382709 0.0380355 0.0389357 0.040963 0.0435487 0.0437298 0.0390954 0.0273486 0.00829897 -0.015323 -0.0405484 -0.0632854 -0.0820269 -0.0955917 -0.103698 -0.106682 -0.102955 -0.0933346 -0.0778952 -0.0585332 -0.039373 -0.0212816 -0.00597803 0.0094157 0.0291961 0.0528231 0.0780597 0.0954001 0.0963047 0.0803177 0.0515172 0.0270468 0.0269587 0.0652845 0.151176 0.271598 0.395609 0.488314 0.513591 0.462576 0.355098 0.218104 0.0885729 -0.00504648 -0.053074 -0.0524244 -0.0208968 0.0136854 0.0439418 0.0744372 0.105654 0.126887 0.119633 0.0805464 0.0297493 -0.00808066 -0.0116002 0 0 
0 0 -0.00810332 -0.00603679 0.01761 0.0523012 0.0821897 0.0918664 0.0801927 0.0622263 0.0481482 0.031324 0.0052189 -0.0294659 -0.0653656 -0.0861066 -0.0823299 -0.0463084 0.0376533 0.16389 0.305689 0.431255 0.503181 0.504048 0.441491 0.333373 0.212452 0.110783 0.0460558 0.0254438 0.0377428 0.062963 0.0856143 0.0931144 0.0836702 0.062096 0.033674 0.00658505 -0.016114 -0.0339722 -0.0477321 -0.0608241 -0.0738296 -0.0868279 -0.0983072 -0.10492 -0.105204 -0.0973076 -0.0822964 -0.0623804 -0.040228 -0.0194439 -0.0014001 0.0126523 0.0231634 0.0311434 0.0371755 0.0422337 0.0460771 0.0487976 0.0497346 0.0485672 0.0453259 0.0398419 0.0327539 0.0241748 0.0149704 0.00552269 -0.00357503 -0.0119541 -0.0193621 -0.0256762 -0.030946 -0.0352759 -0.0390245 -0.0419594 -0.0442134 -0.0449369 -0.0436695 -0.0397907 -0.0335297 -0.0256858 -0.0176362 -0.0105405 -0.00518865 -0.0018273 -4.00674e-05 0.000486534 0.000440893 7.57248e-05 -0.000301787 -0.000719238 -0.000993826 -0.00127378 -0.00140359 -0.00159405 -0.00165842 -0.00177459 -0.00183758 -0.00183326 -0.00179736 -0.00182849 -0.00181561 -0.00173222 -0.00164564 -0.00178489 -0.00222431 -0.00349498 -0.00557264 -0.00822676 -0.0100169 -0.00908464 -0.00357728 0.00616217 0.0167685 0.0221713 0.0174531 0.00195003 -0.0190752 -0.0377453 -0.0486772 -0.0514894 -0.0495275 -0.0460425 -0.0427465 -0.0397565 -0.0372945 -0.0343983 -0.0304804 -0.0250853 -0.0187544 -0.0117094 -0.0036228 0.00544605 0.0146616 0.0230156 0.0303187 0.0357026 0.0386992 0.0390793 0.0382498 0.0374326 0.037955 0.0410217 0.045519 0.0488949 0.0469554 0.0369008 0.0175719 -0.00916148 -0.038464 -0.0660965 -0.0876612 -0.101434 -0.1072 -0.105528 -0.0988817 -0.0883592 -0.0763491 -0.0631757 -0.0484053 -0.0321714 -0.0126813 0.00950344 0.0339832 0.0591617 0.0785144 0.0871266 0.079633 0.0571426 0.032264 0.0206704 0.0422443 0.107703 0.208885 0.328908 0.436353 0.498498 0.497672 0.426468 0.302144 0.161639 0.0365714 -0.0464316 -0.0818677 -0.0853995 -0.0647482 -0.029162 0.00503824 0.0305561 0.0469381 0.0608734 0.0789973 0.0911909 0.0822459 0.0526158 0.0178405 0.00347213 0 0 
0 0 0.00122197 0.0104827 0.0333145 0.0544683 0.0630118 0.0572962 0.0458582 0.0384803 0.032885 0.0197632 0.000196141 -0.021977 -0.0487721 -0.0779676 -0.104348 -0.113877 -0.0838727 -0.0081701 0.106011 0.243959 0.374486 0.467273 0.501553 0.468278 0.382363 0.270581 0.161046 0.0793009 0.0356057 0.0273518 0.0434831 0.0663521 0.0821615 0.0823635 0.0652702 0.0376493 0.00677154 -0.0201924 -0.0401439 -0.0546112 -0.0655422 -0.075794 -0.0859265 -0.0948684 -0.101125 -0.101872 -0.0959657 -0.082896 -0.0638364 -0.0413683 -0.0180111 0.00308156 0.0204426 0.0330443 0.041291 0.0459505 0.0478925 0.0482624 0.0472152 0.0453768 0.0425347 0.0388785 0.0341385 0.0282372 0.0213823 0.0134482 0.00496166 -0.00409412 -0.0130801 -0.0217932 -0.0299578 -0.0372995 -0.0438279 -0.049065 -0.0527494 -0.0541174 -0.0527673 -0.0481928 -0.0408332 -0.031461 -0.0216144 -0.0125417 -0.00534623 -0.000193856 0.00299374 0.00477224 0.00558386 0.00585969 0.00587963 0.0057862 0.00564339 0.00541875 0.00520766 0.00504091 0.00490295 0.00473232 0.0046156 0.00451866 0.00455058 0.00452656 0.00464287 0.00477401 0.00489702 0.0047794 0.00420367 0.00285234 0.000573722 -0.00222532 -0.00408018 -0.00298415 0.0025315 0.0117428 0.0207505 0.0238253 0.0164928 -0.000817171 -0.0228412 -0.0422688 -0.054767 -0.0599462 -0.0600581 -0.0568979 -0.0520235 -0.0465809 -0.0415927 -0.0362594 -0.0295373 -0.0211483 -0.0123459 -0.00385742 0.00474509 0.0131023 0.0205397 0.0260205 0.0299935 0.0323803 0.0333059 0.033894 0.0356017 0.0399246 0.0464729 0.0541551 0.059273 0.0574473 0.0454172 0.0226666 -0.00743173 -0.0398071 -0.0682169 -0.0891039 -0.100941 -0.1045 -0.101892 -0.0950592 -0.0868226 -0.0780372 -0.0689604 -0.0579136 -0.0417828 -0.0194784 0.00903885 0.0394683 0.0649805 0.0796448 0.077802 0.0610795 0.0375337 0.0207196 0.0287911 0.0729379 0.155445 0.265601 0.376697 0.462076 0.49533 0.461425 0.369379 0.240033 0.103508 -0.00949859 -0.0843546 -0.113766 -0.103969 -0.0776077 -0.0486357 -0.0221476 -0.000356614 0.0188248 0.03183 0.0376944 0.0455073 0.0573067 0.0630599 0.0539662 0.03238 0.014279 0 0 
0 0 0.00825041 0.0201278 0.0353458 0.0427964 0.0401763 0.0332695 0.0282347 0.0253268 0.0194081 0.0091507 -1.1735e-05 -0.00979517 -0.0282898 -0.0563719 -0.0901039 -0.119649 -0.130678 -0.113085 -0.055564 0.0455146 0.174704 0.308079 0.416835 0.476116 0.476826 0.421626 0.327185 0.220278 0.12491 0.059894 0.0309449 0.0308264 0.0472954 0.0647433 0.0716433 0.0637878 0.0418459 0.0126128 -0.0173793 -0.0431685 -0.0618822 -0.0746402 -0.0825508 -0.0879826 -0.0921358 -0.0945386 -0.0945488 -0.0896727 -0.0791293 -0.0624077 -0.0407623 -0.0171529 0.00601819 0.0255314 0.0403311 0.0497716 0.0541943 0.0549456 0.0527455 0.0489992 0.0439992 0.038545 0.0325214 0.0260419 0.0192669 0.0119819 0.00463313 -0.0030896 -0.0106076 -0.018188 -0.0255423 -0.0326686 -0.0395068 -0.0455645 -0.0503094 -0.0530158 -0.0532722 -0.0503133 -0.0446397 -0.0366745 -0.027991 -0.0196806 -0.0128649 -0.00787723 -0.00456978 -0.00259256 -0.0014558 -0.000752259 -0.000268308 0.000197552 0.000586016 0.000883773 0.00120987 0.00140362 0.00168863 0.00180932 0.00191023 0.00198617 0.0020634 0.0019965 0.00194228 0.00184908 0.00165837 0.00106093 6.11504e-06 -0.00204497 -0.00496746 -0.00825738 -0.0103574 -0.00913025 -0.00341706 0.00566297 0.0139156 0.0157759 0.00777018 -0.00894035 -0.028932 -0.0458934 -0.0568973 -0.0617192 -0.0618201 -0.0576034 -0.050651 -0.0430612 -0.0368015 -0.0313622 -0.0251023 -0.0175418 -0.00982467 -0.00287992 0.00415397 0.0110802 0.017432 0.0221993 0.0260814 0.0294568 0.0327425 0.0373007 0.0440411 0.053196 0.0621926 0.0677734 0.06522 0.0512677 0.0262816 -0.00623838 -0.039316 -0.0673768 -0.0862139 -0.0956032 -0.0980652 -0.0959283 -0.0923927 -0.0883447 -0.0840703 -0.0777921 -0.0662691 -0.0474659 -0.0200569 0.0121023 0.042555 0.0639715 0.0701944 0.0617901 0.0435722 0.0265299 0.0257441 0.0535968 0.11808 0.213555 0.320759 0.415291 0.46998 0.469382 0.410904 0.303125 0.170809 0.0428215 -0.0571005 -0.113862 -0.131038 -0.119758 -0.0901428 -0.0565495 -0.0287362 -0.0104789 -0.000859205 0.00826372 0.0187368 0.0251046 0.0283692 0.0333723 0.0398156 0.0418532 0.0345213 0.0181402 0 0 
0 0 0.011173 0.0220392 0.0283052 0.0279254 0.0240161 0.0210015 0.0188425 0.0147977 0.00845136 0.00385693 0.00243547 -0.00271143 -0.0154939 -0.034412 -0.0608766 -0.0926702 -0.123955 -0.145411 -0.13897 -0.0942535 -0.0114809 0.104225 0.233402 0.351529 0.436457 0.468901 0.44582 0.377793 0.282263 0.183987 0.102324 0.0489828 0.0276397 0.0295693 0.0428293 0.0544923 0.054572 0.0417134 0.0176034 -0.0117703 -0.0400988 -0.0641466 -0.0807003 -0.0906539 -0.0949831 -0.0948367 -0.0922361 -0.0867149 -0.0787378 -0.0673591 -0.0522444 -0.0342263 -0.0138297 0.00646609 0.0254592 0.0411117 0.0524833 0.0592943 0.0611923 0.059389 0.0539746 0.0464044 0.0373 0.0275328 0.0178104 0.00830968 -0.000328666 -0.00838138 -0.0154685 -0.0220439 -0.0280689 -0.0338434 -0.0393097 -0.0440255 -0.0477741 -0.0496211 -0.0494934 -0.0466336 -0.0414934 -0.0343102 -0.0265298 -0.0190773 -0.013135 -0.0088533 -0.00645229 -0.00529531 -0.00490301 -0.00489103 -0.00497362 -0.00507097 -0.00508636 -0.00505066 -0.00499861 -0.00497671 -0.00488061 -0.00480645 -0.00470556 -0.00472931 -0.00467881 -0.00471405 -0.00467097 -0.00477003 -0.00493894 -0.0054136 -0.00641708 -0.00834714 -0.0111091 -0.013913 -0.0150819 -0.0126688 -0.00568601 0.00421085 0.0125666 0.0141263 0.00598418 -0.00952441 -0.0271941 -0.0417487 -0.0517203 -0.0572708 -0.058991 -0.0559962 -0.0494513 -0.0418573 -0.0363063 -0.0321979 -0.0275246 -0.0214256 -0.0147408 -0.00833486 -0.00124769 0.00645782 0.0143779 0.0215023 0.0283609 0.0352613 0.0423642 0.0504248 0.0589437 0.0669024 0.0703753 0.0662261 0.0518446 0.0275247 -0.00245503 -0.0328572 -0.0577433 -0.0753192 -0.0856904 -0.0912606 -0.0945376 -0.0957053 -0.0953869 -0.091567 -0.0830596 -0.0683294 -0.045558 -0.016922 0.0141212 0.0401439 0.053813 0.0530462 0.0400951 0.0262151 0.0244043 0.0457343 0.0983144 0.178854 0.27659 0.372146 0.440088 0.462705 0.430087 0.34592 0.229048 0.100984 -0.0138196 -0.0958197 -0.139854 -0.145961 -0.124456 -0.0931633 -0.0614581 -0.0351774 -0.0164673 -0.00377375 0.0014777 0.00320464 0.00822736 0.0149337 0.0189976 0.0207851 0.0233597 0.0273847 0.0286773 0.0160853 0 0 
0 0 0.0103606 0.0187408 0.0190824 0.0169812 0.0155637 0.0144018 0.0113679 0.00684589 0.00320276 0.00278459 0.00276321 -0.0021663 -0.00897042 -0.017325 -0.0347813 -0.060535 -0.0925151 -0.127312 -0.150874 -0.154153 -0.128064 -0.0619105 0.0377556 0.157844 0.280792 0.381246 0.442695 0.455452 0.417425 0.342561 0.248611 0.15646 0.0847556 0.0394641 0.020957 0.0214772 0.0291722 0.035726 0.0328946 0.01879 -0.00428826 -0.0329226 -0.0602602 -0.0824814 -0.0966157 -0.101915 -0.100316 -0.0929174 -0.0823923 -0.0692921 -0.054445 -0.0385251 -0.0211689 -0.00389408 0.0131019 0.0282954 0.0409022 0.0504919 0.0562984 0.0588048 0.0575263 0.0532979 0.0463137 0.0373225 0.0269555 0.0156011 0.00426343 -0.0070096 -0.0173074 -0.0269179 -0.0353438 -0.0428861 -0.0490647 -0.0536655 -0.0562962 -0.0565679 -0.0544272 -0.049599 -0.0425262 -0.0335804 -0.0242288 -0.0153343 -0.00828188 -0.00320487 -0.000252463 0.00109035 0.00135908 0.00107487 0.000491894 -0.000124083 -0.000693436 -0.00123612 -0.00170739 -0.00211336 -0.00242077 -0.00268436 -0.00286065 -0.00295857 -0.0029449 -0.00293744 -0.0028225 -0.00265336 -0.00251287 -0.00265935 -0.00335592 -0.00489881 -0.00716313 -0.00930273 -0.0095398 -0.00598008 0.00183326 0.011799 0.0191264 0.0188656 0.00908886 -0.00714193 -0.0246872 -0.0391855 -0.0504887 -0.0590394 -0.064444 -0.0645652 -0.0595248 -0.0522505 -0.0460148 -0.040883 -0.03457 -0.026338 -0.0168119 -0.00734712 0.00257243 0.012267 0.0213444 0.0288376 0.0353596 0.0417073 0.0483748 0.0560066 0.0632939 0.0680338 0.0661281 0.0552634 0.0349429 0.00806377 -0.019739 -0.0445094 -0.0633068 -0.0772937 -0.087961 -0.0962338 -0.102085 -0.10284 -0.0974589 -0.0841569 -0.0636183 -0.0381635 -0.0105246 0.0131446 0.0290304 0.0336132 0.0274986 0.0189363 0.0174019 0.0359872 0.0821289 0.15438 0.246009 0.339084 0.413683 0.451968 0.439135 0.376939 0.276609 0.1546 0.0357169 -0.063102 -0.12879 -0.154659 -0.151219 -0.127714 -0.0931433 -0.0613583 -0.0358251 -0.0185686 -0.0102708 -0.00334221 0.00191634 0.0024236 0.00326282 0.00700128 0.0112353 0.0138969 0.0151224 0.0174665 0.0207314 0.0114437 0 0 
0 0 0.00767226 0.013828 0.0123285 0.0111934 0.0109867 0.00897148 0.00546184 0.00330701 0.00219793 0.00163968 0.000325098 -0.00345763 -0.00542572 -0.00818497 -0.0197202 -0.036157 -0.058457 -0.0904435 -0.123158 -0.1511 -0.164894 -0.149294 -0.101933 -0.0217888 0.0868197 0.205425 0.316913 0.402256 0.444326 0.439884 0.391408 0.311874 0.221242 0.135217 0.0681329 0.0260755 0.00681273 0.00516536 0.0103893 0.0140235 0.0101008 -0.00417494 -0.0257324 -0.051288 -0.0752683 -0.0934569 -0.103845 -0.104808 -0.0977265 -0.0837977 -0.0653009 -0.0447672 -0.0238306 -0.00474558 0.0119534 0.0253544 0.0355677 0.0429384 0.0476065 0.0502388 0.0505081 0.0489016 0.0450849 0.0392459 0.0315247 0.0221139 0.0116084 0.000288718 -0.0111 -0.0225877 -0.0334259 -0.0435755 -0.0522557 -0.0590413 -0.0633487 -0.0648856 -0.0634928 -0.0591692 -0.0522317 -0.0431154 -0.033112 -0.0232341 -0.0149044 -0.008496 -0.00419961 -0.00152814 -0.000191753 0.00054926 0.000837431 0.00095003 0.000960839 0.000957845 0.000910458 0.00086991 0.000791683 0.000735833 0.000711892 0.000679768 0.000717361 0.000705042 0.00075508 0.000760363 0.000658309 0.000207162 -0.000974747 -0.00307023 -0.00593337 -0.00850898 -0.00902769 -0.00569659 0.00157183 0.0103299 0.0154005 0.0124856 0.000567916 -0.0165091 -0.0334794 -0.0469808 -0.0578489 -0.0670614 -0.0735122 -0.0741575 -0.0682342 -0.0587982 -0.0495128 -0.0412693 -0.0323375 -0.0220846 -0.0110773 -0.000849248 0.0086324 0.0167974 0.0234671 0.0286944 0.0336025 0.0395196 0.0471361 0.0564324 0.0645619 0.0680654 0.0629969 0.0480323 0.0246494 -0.00313926 -0.0302574 -0.0544338 -0.0743096 -0.0904318 -0.102032 -0.107558 -0.105646 -0.0946776 -0.0766402 -0.0537329 -0.0299489 -0.0100638 0.00358604 0.00848636 0.00684689 0.0032321 0.00502469 0.0232238 0.0644605 0.132124 0.219563 0.311057 0.390305 0.438122 0.442657 0.401225 0.31609 0.203966 0.0855844 -0.0222856 -0.101709 -0.148699 -0.16431 -0.150713 -0.123012 -0.090632 -0.0590502 -0.0371005 -0.0209721 -0.00961861 -0.00675839 -0.00446187 -0.000244891 0.00150066 0.00226221 0.00320442 0.00503857 0.00855295 0.0112281 0.0126412 0.0144338 0.00734075 0 0 
0 0 0.00503854 0.00974875 0.008816 0.00827599 0.00729884 0.00450357 0.00253895 0.00279335 0.00152085 -0.000762334 -0.00186491 -0.00378094 -0.00468444 -0.00641396 -0.0135669 -0.0217092 -0.0344949 -0.0579373 -0.0856805 -0.116879 -0.147348 -0.16446 -0.162328 -0.132141 -0.0684325 0.022208 0.132147 0.246295 0.345198 0.414339 0.440647 0.422034 0.366429 0.285668 0.197081 0.114978 0.0496884 0.0079448 -0.0122767 -0.0161359 -0.0123711 -0.00974254 -0.0130228 -0.0247643 -0.0428054 -0.0635271 -0.082716 -0.0961355 -0.10164 -0.0977442 -0.0853227 -0.0659968 -0.0422981 -0.0175416 0.00586355 0.0251169 0.0394326 0.0480229 0.0516758 0.0513579 0.0480495 0.0431065 0.03684 0.0300527 0.0227436 0.0151285 0.00716314 -0.00115857 -0.00976874 -0.0189487 -0.0282937 -0.0377488 -0.0465044 -0.05399 -0.0595288 -0.0627623 -0.0634493 -0.061374 -0.0566982 -0.0496547 -0.0413404 -0.0327257 -0.0251699 -0.0190841 -0.0148935 -0.0120613 -0.0104134 -0.00927088 -0.00851749 -0.00777616 -0.00727631 -0.00664978 -0.00621685 -0.00578336 -0.00548683 -0.00517452 -0.00504424 -0.0048433 -0.00483443 -0.00481388 -0.00499866 -0.00516237 -0.00566865 -0.00656864 -0.0083426 -0.0110425 -0.0145719 -0.0174554 -0.0181257 -0.0146342 -0.00736285 0.000864824 0.00480231 0.000697747 -0.0116555 -0.0275204 -0.041757 -0.0519771 -0.0600181 -0.0674466 -0.0729587 -0.0728655 -0.0660069 -0.0552393 -0.0444743 -0.035351 -0.0269222 -0.0186351 -0.0105779 -0.00360508 0.00243005 0.0076039 0.0125984 0.018776 0.027299 0.0391347 0.0532882 0.0674145 0.0764958 0.0757915 0.0628963 0.0387096 0.0079187 -0.024299 -0.0528446 -0.0760521 -0.0929621 -0.103007 -0.105267 -0.0987417 -0.0846085 -0.0649865 -0.0445467 -0.0276508 -0.0175543 -0.0156793 -0.0185352 -0.020925 -0.0148867 0.00682761 0.0484512 0.112484 0.193923 0.283381 0.365869 0.422494 0.440887 0.414001 0.345136 0.247167 0.133556 0.0233592 -0.0671754 -0.13057 -0.160579 -0.162765 -0.145935 -0.115864 -0.0851236 -0.0578751 -0.034952 -0.0225758 -0.0147617 -0.0077087 -0.00574099 -0.00442877 -0.00214037 -0.000834086 0.0013844 0.00239709 0.00208085 0.00454615 0.00826719 0.010052 0.0104533 0.00502504 0 0 
0 0 0.00339685 0.00708823 0.00696059 0.00605211 0.00424721 0.00218515 0.00191071 0.00224764 -0.000226221 -0.00247928 -0.00246768 -0.00432008 -0.00642191 -0.00797898 -0.0119377 -0.0159149 -0.0233294 -0.0376746 -0.0554083 -0.079748 -0.109765 -0.13776 -0.159511 -0.165904 -0.14881 -0.105288 -0.0321906 0.0644451 0.172525 0.278316 0.36396 0.417041 0.430677 0.403663 0.343886 0.262329 0.173688 0.0927965 0.0290095 -0.0122874 -0.0330888 -0.0391498 -0.0372149 -0.0347771 -0.0354365 -0.0417568 -0.0528764 -0.0663344 -0.0793589 -0.0877171 -0.0893217 -0.0821013 -0.0663721 -0.0441767 -0.018147 0.00746875 0.0299633 0.0464542 0.0561503 0.0592278 0.0565668 0.0499726 0.0405627 0.0299294 0.0187697 0.0079434 -0.00233256 -0.0119426 -0.020809 -0.0293222 -0.037205 -0.0445634 -0.0507286 -0.0554774 -0.0582939 -0.0591881 -0.0580797 -0.0549696 -0.0498294 -0.0429162 -0.0350809 -0.0271865 -0.0204776 -0.0153727 -0.0122326 -0.0105787 -0.0101244 -0.0101239 -0.0105248 -0.0107743 -0.01114 -0.011236 -0.0114528 -0.0114373 -0.0115176 -0.0115282 -0.0115491 -0.0115477 -0.011536 -0.0115144 -0.0115051 -0.0115319 -0.0117499 -0.012348 -0.0138217 -0.0159912 -0.0188101 -0.0206116 -0.0198074 -0.0145649 -0.00580666 0.00333022 0.00745251 0.00315805 -0.00890459 -0.0235174 -0.0357078 -0.0439549 -0.0510393 -0.0590878 -0.0665685 -0.0695594 -0.0661209 -0.0584293 -0.0498945 -0.0424668 -0.035742 -0.0293971 -0.0228347 -0.0162015 -0.00911847 -0.00146385 0.00776256 0.0201721 0.0360057 0.0542532 0.0714691 0.0833186 0.0841503 0.0708122 0.0445291 0.0101954 -0.0249524 -0.055534 -0.0775418 -0.0907233 -0.0954488 -0.0921369 -0.0826907 -0.0688216 -0.0546287 -0.0431112 -0.0371268 -0.0375614 -0.0414752 -0.0445409 -0.0383645 -0.0158652 0.0277247 0.0928228 0.173266 0.260463 0.341371 0.402178 0.431052 0.418424 0.365062 0.278806 0.173258 0.0661417 -0.0297005 -0.102665 -0.146184 -0.16337 -0.157186 -0.135754 -0.108096 -0.0785159 -0.054682 -0.0375111 -0.0236652 -0.0166275 -0.012877 -0.00887902 -0.00700635 -0.00456995 -0.00258119 -0.00265082 -0.000583491 0.00177459 0.00173437 0.00277172 0.00555364 0.00748319 0.00779274 0.0039794 0 0 
0 0 0.0026058 0.00530858 0.00527338 0.00403307 0.00256927 0.00170702 0.00153796 0.000602262 -0.00174906 -0.00263533 -0.00299729 -0.00607447 -0.00843907 -0.00980083 -0.0129025 -0.0157832 -0.0205474 -0.0281819 -0.0377813 -0.05387 -0.0752177 -0.0993785 -0.126281 -0.148867 -0.161094 -0.157065 -0.128484 -0.074142 0.00444577 0.101353 0.203576 0.298935 0.372983 0.414209 0.418146 0.384295 0.320513 0.238723 0.151586 0.0727495 0.00984553 -0.0327746 -0.0556049 -0.063727 -0.0619111 -0.0570284 -0.0530649 -0.052299 -0.0557283 -0.0612282 -0.0671451 -0.0698973 -0.0673703 -0.0581792 -0.0422137 -0.0216872 0.0011865 0.0226642 0.0403821 0.0523593 0.0577432 0.0571972 0.0510676 0.0411686 0.0283936 0.0144497 0.000103365 -0.0137629 -0.0266956 -0.0385113 -0.0487179 -0.057301 -0.0634722 -0.0672246 -0.0681667 -0.0668265 -0.0632346 -0.0576658 -0.0502411 -0.0412113 -0.0314196 -0.0217799 -0.0134783 -0.00705358 -0.00292341 -0.000599097 0.000258497 0.000403259 -6.82993e-05 -0.000495312 -0.00111286 -0.00151992 -0.00206708 -0.00231906 -0.00274627 -0.0028629 -0.00313154 -0.00317484 -0.00329727 -0.00314062 -0.00309056 -0.00288134 -0.00303186 -0.00336242 -0.00468614 -0.0066278 -0.00912347 -0.0104338 -0.00896996 -0.00309527 0.00580827 0.0142064 0.0166708 0.0102252 -0.00377963 -0.0196253 -0.0323967 -0.0412923 -0.0496454 -0.0598068 -0.0702645 -0.0768464 -0.0769647 -0.0719923 -0.0643021 -0.0560434 -0.0476058 -0.0392975 -0.0302483 -0.0200772 -0.00858204 0.00417214 0.0186492 0.0358133 0.0542241 0.0709722 0.0809004 0.0801719 0.0656217 0.0385033 0.0047372 -0.0283334 -0.0541148 -0.0704329 -0.0770936 -0.07678 -0.0721429 -0.0650793 -0.0586294 -0.0543074 -0.0542842 -0.0578569 -0.0630523 -0.0658784 -0.0592058 -0.0373678 0.00563475 0.0704552 0.151555 0.239705 0.320678 0.382758 0.415969 0.413128 0.373772 0.300694 0.204997 0.102119 0.00529008 -0.0724856 -0.126054 -0.154204 -0.158277 -0.146311 -0.124135 -0.0976551 -0.073808 -0.0528106 -0.0372574 -0.0281989 -0.0209558 -0.016397 -0.0135293 -0.0102581 -0.00857581 -0.00605897 -0.00311563 -0.00296672 -0.00217558 0.000344025 0.00179087 0.00260019 0.00371584 0.00485721 0.00558513 0.00318811 0 0 
0 0 0.00209378 0.00384041 0.003506 0.00264492 0.00209189 0.00155286 0.000544897 -0.000976207 -0.00224629 -0.00259117 -0.00452461 -0.00793351 -0.00930006 -0.0115304 -0.0153515 -0.0175055 -0.0210961 -0.025622 -0.0305932 -0.040243 -0.0523152 -0.0681035 -0.0900328 -0.112642 -0.134305 -0.150982 -0.154222 -0.140435 -0.103971 -0.0432528 0.0362907 0.129767 0.225566 0.310869 0.374742 0.405746 0.401017 0.362686 0.297449 0.217534 0.13326 0.0558779 -0.00682879 -0.0515098 -0.0766986 -0.0862108 -0.0840043 -0.075429 -0.0655453 -0.0568668 -0.0517721 -0.0491479 -0.0479372 -0.0457326 -0.0402856 -0.031092 -0.0178207 -0.00250077 0.0132263 0.0270846 0.0373172 0.0432961 0.0442649 0.0409574 0.0336731 0.0236347 0.0114402 -0.00203405 -0.0160668 -0.0301465 -0.0432918 -0.0551323 -0.0643885 -0.0710452 -0.0743952 -0.0749585 -0.0727172 -0.0680459 -0.0608635 -0.0516064 -0.0409123 -0.0300175 -0.0199788 -0.0116448 -0.00549212 -0.00125261 0.00140147 0.00316572 0.00414495 0.00495218 0.00543996 0.00588727 0.00613239 0.00644401 0.00653607 0.00671485 0.00673027 0.00683129 0.00684026 0.00686559 0.00676927 0.00667832 0.0061927 0.00526388 0.00326555 0.000437639 -0.00288031 -0.00503598 -0.00432586 0.000620814 0.0081291 0.0143473 0.0139408 0.00440939 -0.0120383 -0.029291 -0.0423484 -0.0510687 -0.0588211 -0.0683174 -0.0779976 -0.0840578 -0.0836806 -0.0775673 -0.0673131 -0.0554344 -0.0431424 -0.031984 -0.0212957 -0.0102609 0.00169041 0.0143468 0.027889 0.0427287 0.0565166 0.0654338 0.0648008 0.052907 0.0304759 0.0024021 -0.0240685 -0.0434922 -0.0534766 -0.0564836 -0.0555937 -0.054613 -0.0558721 -0.0599411 -0.0676089 -0.076547 -0.0843773 -0.0862076 -0.0770422 -0.0529804 -0.0098608 0.0519039 0.129825 0.216071 0.298116 0.364106 0.401319 0.404191 0.372529 0.309792 0.226336 0.131439 0.0376276 -0.0425889 -0.103327 -0.13928 -0.152442 -0.148675 -0.13196 -0.110537 -0.0883559 -0.0668781 -0.0513869 -0.0396097 -0.0304453 -0.02596 -0.0216592 -0.0180313 -0.0156852 -0.0116347 -0.00921352 -0.00788425 -0.00474914 -0.0030039 -0.00252962 -0.000866946 0.00112172 0.00240563 0.00281607 0.0030385 0.00373452 0.0022041 0 0 
0 0 0.00151691 0.00256831 0.00213752 0.00199265 0.00182377 0.000828768 -0.000409188 -0.00155524 -0.00256179 -0.00343649 -0.00609883 -0.00884806 -0.00974091 -0.013381 -0.0174573 -0.0186226 -0.0224198 -0.0261907 -0.028499 -0.0344438 -0.0406814 -0.0492079 -0.0633434 -0.078901 -0.0978787 -0.11862 -0.134834 -0.144868 -0.141494 -0.11966 -0.0790449 -0.0169733 0.06217 0.150748 0.239591 0.314667 0.366954 0.389535 0.379644 0.341026 0.27828 0.201018 0.11934 0.042557 -0.0205096 -0.066187 -0.0928285 -0.10268 -0.0999476 -0.0886463 -0.0740697 -0.058929 -0.045591 -0.0347039 -0.0255866 -0.0178856 -0.0102299 -0.00275116 0.00472677 0.0115686 0.0172065 0.0212248 0.0231214 0.022977 0.0204616 0.0159989 0.0093526 0.000948843 -0.00910628 -0.0201761 -0.0314817 -0.0424397 -0.0517292 -0.0591357 -0.0638884 -0.0664365 -0.066565 -0.0645073 -0.0600261 -0.0533608 -0.0449918 -0.0360347 -0.0275229 -0.0204087 -0.0151021 -0.0114497 -0.0092314 -0.00778612 -0.00688391 -0.00610008 -0.00553321 -0.00494019 -0.00452267 -0.00401915 -0.0037492 -0.00341451 -0.00329387 -0.00313037 -0.00311194 -0.00309948 -0.003259 -0.00346665 -0.00415009 -0.00533812 -0.00763648 -0.0107163 -0.01413 -0.0160949 -0.0148863 -0.00938125 -0.00139164 0.00484379 0.00410675 -0.00553822 -0.0211979 -0.036608 -0.0469494 -0.0524997 -0.0569398 -0.0631801 -0.0699935 -0.07414 -0.0731222 -0.0672137 -0.057097 -0.0450331 -0.0330377 -0.0234669 -0.0158163 -0.00830301 0.00021358 0.0101173 0.0212283 0.0333944 0.0437097 0.0482615 0.0436401 0.0302133 0.0111949 -0.00814254 -0.0228617 -0.0319783 -0.0373478 -0.0431193 -0.0513531 -0.0630658 -0.0770567 -0.0905776 -0.100904 -0.102806 -0.0922697 -0.0653869 -0.0203007 0.0413742 0.116497 0.197236 0.275172 0.339928 0.380594 0.391004 0.367068 0.312873 0.237217 0.149598 0.0627792 -0.0154731 -0.0778649 -0.119008 -0.140935 -0.144048 -0.133662 -0.116962 -0.0960483 -0.077123 -0.0619864 -0.0483461 -0.0401611 -0.0342136 -0.0287102 -0.026739 -0.0230212 -0.0189803 -0.0175346 -0.013294 -0.00967357 -0.00896863 -0.00643835 -0.00376287 -0.00256466 -0.00114795 0.000238077 0.00142398 0.00218471 0.00226269 0.00245788 0.00125211 0 0 
0 0 0.000927343 0.00163143 0.00141698 0.00162984 0.00114122 -0.000138475 -0.00070652 -0.00162642 -0.00347751 -0.00458407 -0.00672818 -0.0093212 -0.0105555 -0.014481 -0.0181307 -0.0191023 -0.0233993 -0.0267278 -0.0277957 -0.0322693 -0.0357789 -0.0397396 -0.0477731 -0.0563822 -0.0686389 -0.0844564 -0.100131 -0.116978 -0.129663 -0.133216 -0.125151 -0.0995237 -0.0555772 0.00594297 0.0820835 0.16335 0.241612 0.306917 0.350715 0.368933 0.358157 0.320777 0.261649 0.188069 0.110109 0.0360212 -0.0262623 -0.0723558 -0.100675 -0.111895 -0.109519 -0.097025 -0.0789908 -0.058577 -0.0384006 -0.0201744 -0.00433945 0.00812558 0.0172592 0.0225381 0.024192 0.0226237 0.018402 0.0126337 0.00571968 -0.00126801 -0.00851758 -0.0156369 -0.0228915 -0.0300253 -0.0368634 -0.0430221 -0.0479698 -0.0516247 -0.0536284 -0.0544816 -0.0538619 -0.0521554 -0.0487305 -0.0437785 -0.0374353 -0.0307017 -0.0244192 -0.019562 -0.0164091 -0.014873 -0.014656 -0.0150198 -0.0158307 -0.0165136 -0.017238 -0.0177741 -0.0182838 -0.0185476 -0.018903 -0.0190166 -0.0191868 -0.019231 -0.0192637 -0.0192041 -0.0191544 -0.0190827 -0.0193624 -0.0200068 -0.0216401 -0.02386 -0.0260749 -0.0264737 -0.0233471 -0.0156894 -0.0057865 0.00201316 0.00253026 -0.00579844 -0.0195415 -0.0324346 -0.0399224 -0.0428402 -0.0450405 -0.049597 -0.055489 -0.0604866 -0.0623219 -0.0609431 -0.0559725 -0.0485589 -0.0408255 -0.0349498 -0.0304059 -0.0243558 -0.0148402 -0.00138299 0.0146362 0.0314254 0.0444435 0.0495524 0.0444073 0.0308338 0.0131548 -0.00434896 -0.0192423 -0.0329314 -0.0475273 -0.0646173 -0.0830329 -0.0998091 -0.111184 -0.112617 -0.100665 -0.0716867 -0.02509 0.0371803 0.110387 0.186735 0.258589 0.316892 0.35511 0.368046 0.351822 0.308413 0.24161 0.16147 0.0797514 0.00482573 -0.054991 -0.0981399 -0.123978 -0.132388 -0.128896 -0.116117 -0.0992331 -0.0832238 -0.0671085 -0.0547412 -0.0464721 -0.0390436 -0.0354996 -0.0323053 -0.0281359 -0.0272382 -0.0237721 -0.0191739 -0.0179941 -0.0143645 -0.0106415 -0.00962717 -0.00708298 -0.00469592 -0.00321046 -0.00112717 -0.000210517 0.000198492 0.00135012 0.00192094 0.00172471 0.000674897 0 0 
0 0 0.000519949 0.00106771 0.00107593 0.00113275 0.000267764 -0.000743051 -0.000699458 -0.00199928 -0.00452535 -0.0051359 -0.0068233 -0.0099811 -0.0112581 -0.0143445 -0.0178428 -0.0192412 -0.0231985 -0.026036 -0.027132 -0.0310184 -0.0332233 -0.0353292 -0.0401 -0.0441368 -0.0504879 -0.0596747 -0.0699112 -0.083689 -0.0980352 -0.110545 -0.119539 -0.11921 -0.106994 -0.0795092 -0.035079 0.0229835 0.0916307 0.163832 0.232311 0.290132 0.329354 0.345638 0.336069 0.301887 0.248037 0.180656 0.10876 0.0395802 -0.0200526 -0.0657754 -0.09599 -0.110042 -0.11058 -0.0997832 -0.08112 -0.0578888 -0.0326051 -0.00866303 0.012322 0.0278437 0.0370522 0.039535 0.0357933 0.0272536 0.0152126 0.0016125 -0.0126966 -0.0263633 -0.0390769 -0.050008 -0.0588565 -0.0653072 -0.069198 -0.0707535 -0.0700403 -0.0678999 -0.0643291 -0.0598383 -0.0539318 -0.0469591 -0.0389381 -0.0309056 -0.0236362 -0.0181203 -0.0146623 -0.0131942 -0.0132706 -0.0142765 -0.0157839 -0.0172984 -0.0189598 -0.020277 -0.0215703 -0.0225665 -0.0235275 -0.0241175 -0.0246456 -0.0249024 -0.0249867 -0.024875 -0.0246153 -0.0241999 -0.0240483 -0.0241689 -0.025161 -0.0266457 -0.0280036 -0.0271901 -0.0228022 -0.0140599 -0.00345424 0.00418707 0.00396834 -0.00538475 -0.0200281 -0.0336292 -0.0419333 -0.0461638 -0.0500425 -0.056465 -0.0643877 -0.0721161 -0.0778347 -0.0809621 -0.0798081 -0.0741841 -0.0656707 -0.0564088 -0.0462095 -0.0325122 -0.013918 0.00891827 0.0323135 0.052105 0.0628328 0.0612606 0.0474902 0.0254583 0.000424049 -0.0240767 -0.0463442 -0.0677114 -0.0874221 -0.103738 -0.113013 -0.111408 -0.0964895 -0.0656486 -0.0194746 0.0406227 0.110082 0.181704 0.247982 0.300166 0.332662 0.341561 0.326341 0.289435 0.233612 0.165366 0.0916036 0.0211655 -0.0372625 -0.0804415 -0.106357 -0.117899 -0.11837 -0.10954 -0.0969524 -0.082666 -0.0690771 -0.058734 -0.049201 -0.0426172 -0.0389057 -0.0347587 -0.0331451 -0.0312031 -0.0274348 -0.0262735 -0.0231831 -0.0190076 -0.0175833 -0.0142959 -0.0114892 -0.010341 -0.00704078 -0.00500639 -0.00413205 -0.0016024 -0.000416413 -0.000532367 0.000468916 0.00138662 0.00123411 0.000489727 0 0 
0 0 0.000350791 0.000727139 0.000722951 0.000500007 -0.000312061 -0.000946358 -0.00102559 -0.0026821 -0.00490292 -0.00519861 -0.00720134 -0.010424 -0.0112017 -0.0137821 -0.0172057 -0.0186721 -0.0219482 -0.0244629 -0.0260172 -0.0293038 -0.0308588 -0.0328417 -0.0362243 -0.0380091 -0.0411782 -0.0455741 -0.0506606 -0.0588071 -0.0681637 -0.0792097 -0.0915665 -0.1012 -0.106536 -0.103241 -0.0886353 -0.0621968 -0.0220922 0.0294133 0.0898681 0.15463 0.215987 0.268261 0.304161 0.319765 0.313726 0.286147 0.241312 0.183809 0.120375 0.057661 0.00094702 -0.0447366 -0.0776376 -0.0963817 -0.101996 -0.0959443 -0.0804114 -0.0586113 -0.033303 -0.00848087 0.0131994 0.0287551 0.0369335 0.0374808 0.0308179 0.0187201 0.00222699 -0.0163357 -0.0358033 -0.0541553 -0.0704022 -0.0834688 -0.0929149 -0.0988412 -0.101263 -0.101042 -0.0982596 -0.0936694 -0.0869395 -0.0786364 -0.0687418 -0.0585461 -0.0489264 -0.0410045 -0.0351321 -0.0315145 -0.0296185 -0.0289586 -0.028969 -0.029358 -0.029878 -0.0304563 -0.0310353 -0.0315266 -0.0320377 -0.0323558 -0.0326971 -0.0328161 -0.0328901 -0.0327844 -0.0326665 -0.032458 -0.0326242 -0.0332718 -0.034853 -0.0370845 -0.039095 -0.0391538 -0.0354848 -0.0279007 -0.0189457 -0.0137246 -0.0168328 -0.0292144 -0.0464172 -0.0620939 -0.0722105 -0.078144 -0.0831974 -0.0899529 -0.0971696 -0.103618 -0.10797 -0.109542 -0.105804 -0.0956214 -0.0800144 -0.0614689 -0.0411174 -0.0178181 0.00791929 0.0338092 0.054259 0.0644196 0.0600979 0.0415103 0.0129532 -0.0192292 -0.0488466 -0.0732577 -0.0910295 -0.102517 -0.105875 -0.0985937 -0.07868 -0.0449792 0.00109023 0.0580855 0.12106 0.184753 0.242411 0.28685 0.31331 0.317673 0.300478 0.264124 0.213157 0.154244 0.091445 0.0310787 -0.0220491 -0.0638977 -0.0905878 -0.103975 -0.105865 -0.100048 -0.0904848 -0.0781298 -0.0668237 -0.0575667 -0.0497864 -0.0448136 -0.0401395 -0.0367284 -0.0352426 -0.0324801 -0.0309751 -0.0295537 -0.0261693 -0.0243379 -0.021555 -0.0182259 -0.0169544 -0.0138407 -0.0114677 -0.0106621 -0.00718956 -0.00490286 -0.00453875 -0.00246391 -0.000883992 -0.000746881 -0.000117701 0.000614272 0.000739514 0.000432875 0 0 
0 0 0.000295676 0.000431786 0.00025091 -2.24078e-05 -0.00051556 -0.00111748 -0.00171805 -0.00318718 -0.00463636 -0.0053536 -0.00780232 -0.0100924 -0.0106729 -0.0135234 -0.0160995 -0.0172228 -0.0204643 -0.022517 -0.0240874 -0.0271203 -0.028413 -0.0305218 -0.0332841 -0.0344335 -0.0367825 -0.0387021 -0.0406292 -0.0449198 -0.0491214 -0.0552283 -0.0637297 -0.0725653 -0.0823067 -0.0893011 -0.0913892 -0.0878183 -0.0747574 -0.0518187 -0.0172024 0.0290012 0.0826541 0.14045 0.195693 0.243055 0.277873 0.29579 0.296107 0.277989 0.244009 0.197915 0.144134 0.0884615 0.0348397 -0.0119033 -0.0493949 -0.0755411 -0.0894493 -0.0919033 -0.083922 -0.0687229 -0.0491405 -0.0292597 -0.0121449 -3.99849e-05 0.00551189 0.00457349 -0.00279697 -0.0149839 -0.0308149 -0.0480775 -0.0654221 -0.0814929 -0.0951833 -0.106249 -0.114293 -0.119718 -0.122387 -0.122576 -0.119955 -0.114991 -0.107522 -0.0989298 -0.0900447 -0.082268 -0.0759848 -0.0715661 -0.0686427 -0.0667025 -0.0654513 -0.0645318 -0.063802 -0.0631079 -0.0625713 -0.0620797 -0.061783 -0.0614098 -0.0612515 -0.0610928 -0.0611172 -0.0610622 -0.0612221 -0.0615304 -0.0624371 -0.0639641 -0.0666018 -0.069975 -0.0731602 -0.0742086 -0.071476 -0.0648538 -0.0572046 -0.0534482 -0.0580297 -0.0713451 -0.0884757 -0.103138 -0.111397 -0.114905 -0.116668 -0.118987 -0.12067 -0.121047 -0.119916 -0.11697 -0.109676 -0.0962844 -0.0772218 -0.0553716 -0.03283 -0.0101728 0.0105385 0.0262249 0.0318995 0.0243967 0.00320992 -0.0268989 -0.0583473 -0.0839742 -0.0992083 -0.103445 -0.0964393 -0.0793093 -0.0513864 -0.0128051 0.0347265 0.0886763 0.144379 0.198245 0.244485 0.278672 0.296877 0.296177 0.277179 0.240719 0.191888 0.136449 0.0801401 0.0289996 -0.0153371 -0.0500159 -0.0746729 -0.0894275 -0.0931544 -0.0898443 -0.0816403 -0.0715504 -0.062828 -0.0541257 -0.0476183 -0.0434569 -0.0396637 -0.0380882 -0.0360482 -0.03358 -0.0326525 -0.0304229 -0.0286064 -0.0273083 -0.0239957 -0.0220659 -0.0198205 -0.0167385 -0.0159792 -0.0136594 -0.0108437 -0.0101072 -0.00758999 -0.00502249 -0.00439002 -0.00309555 -0.00161158 -0.000912562 -0.000394731 -5.03162e-05 0.000236516 0.000275116 0 0 
0 0 0.000202792 0.000122955 -0.000175471 -0.00030644 -0.000652975 -0.00145311 -0.00227658 -0.0033482 -0.00440406 -0.00563 -0.00801693 -0.00932086 -0.0102168 -0.0132946 -0.0145361 -0.0154785 -0.0190489 -0.0201966 -0.0215923 -0.0248277 -0.0256875 -0.027896 -0.0306113 -0.0315741 -0.0341459 -0.0355308 -0.0362976 -0.0388904 -0.0402229 -0.0424041 -0.0460647 -0.0502562 -0.0571561 -0.0640354 -0.0700688 -0.0756022 -0.077399 -0.0749935 -0.0647631 -0.0440912 -0.0132883 0.0277005 0.0749517 0.125152 0.17459 0.218232 0.253265 0.275393 0.282745 0.274501 0.250987 0.215214 0.16984 0.11959 0.0681474 0.0195497 -0.0228363 -0.0568463 -0.0803105 -0.0935891 -0.0971844 -0.0937188 -0.0856807 -0.0759628 -0.0671429 -0.0608114 -0.0582314 -0.0592568 -0.0637651 -0.0705639 -0.0789464 -0.0877373 -0.0963835 -0.104333 -0.11125 -0.116993 -0.121196 -0.123933 -0.124419 -0.122793 -0.118852 -0.113603 -0.107771 -0.102781 -0.0989366 -0.096695 -0.095547 -0.0951673 -0.0951879 -0.0952697 -0.0953969 -0.0953352 -0.0953094 -0.0951028 -0.0950473 -0.0948289 -0.0947907 -0.094629 -0.0947013 -0.0945998 -0.0947643 -0.0949726 -0.0957664 -0.0971168 -0.0995353 -0.102412 -0.104867 -0.104815 -0.100744 -0.0925906 -0.083428 -0.0783222 -0.0813327 -0.0926497 -0.107023 -0.118346 -0.123072 -0.123185 -0.121836 -0.120927 -0.119469 -0.117589 -0.115881 -0.114597 -0.111486 -0.103948 -0.0917179 -0.0766593 -0.0614018 -0.0475573 -0.0379448 -0.0352331 -0.0420106 -0.0580753 -0.0800562 -0.100632 -0.111805 -0.109301 -0.0925936 -0.0644505 -0.0267527 0.0177608 0.0674175 0.11947 0.170044 0.215321 0.250944 0.274489 0.282927 0.275821 0.253853 0.218484 0.173746 0.122714 0.0711497 0.0238215 -0.0155169 -0.0437741 -0.0627255 -0.0731359 -0.0773738 -0.0771867 -0.0716698 -0.0644172 -0.0564665 -0.0493737 -0.0453308 -0.0413377 -0.0385757 -0.0371825 -0.0351394 -0.0349292 -0.0336666 -0.0311324 -0.0303716 -0.0279507 -0.0258001 -0.0247708 -0.0212081 -0.0195158 -0.0183715 -0.0151235 -0.0145577 -0.0134223 -0.0102023 -0.00911153 -0.00771815 -0.00537194 -0.00427008 -0.00329051 -0.00215636 -0.00129432 -0.000635058 -0.000380936 -0.00014715 8.93885e-06 0 0 
0 0 3.22693e-05 -0.000150182 -0.0004015 -0.0004492 -0.000972724 -0.00180644 -0.002378 -0.00344624 -0.00457202 -0.00560492 -0.0077103 -0.00879259 -0.00976507 -0.0125915 -0.0130567 -0.0139568 -0.0174173 -0.0177571 -0.0192039 -0.0225429 -0.0229376 -0.0253099 -0.0281409 -0.028894 -0.031871 -0.0338972 -0.0348338 -0.0370562 -0.0374415 -0.0378977 -0.0388048 -0.0390332 -0.0410034 -0.0433003 -0.0463908 -0.0512708 -0.0559663 -0.0607963 -0.0629419 -0.0600282 -0.0507507 -0.0327421 -0.00691312 0.0265689 0.0659886 0.108487 0.151822 0.191837 0.225638 0.249935 0.262041 0.260956 0.245939 0.218765 0.180996 0.136059 0.0873368 0.0384322 -0.00674802 -0.0459725 -0.0770614 -0.100183 -0.115787 -0.125487 -0.13113 -0.13405 -0.135771 -0.136499 -0.136902 -0.136466 -0.135571 -0.133887 -0.131912 -0.129664 -0.127233 -0.12509 -0.122671 -0.12036 -0.117173 -0.113204 -0.107963 -0.102402 -0.0968863 -0.0927418 -0.0902189 -0.0894947 -0.0900743 -0.0915491 -0.0933932 -0.0953045 -0.0971061 -0.0986094 -0.0998652 -0.100891 -0.101725 -0.102311 -0.102769 -0.102972 -0.103063 -0.102936 -0.102743 -0.102477 -0.10251 -0.103031 -0.104267 -0.105868 -0.106666 -0.104713 -0.0985034 -0.0883139 -0.0773597 -0.0709247 -0.0729691 -0.0833385 -0.0968389 -0.107579 -0.112498 -0.114136 -0.115494 -0.118349 -0.121511 -0.125488 -0.131014 -0.138944 -0.146382 -0.149823 -0.147669 -0.140189 -0.12972 -0.118632 -0.110746 -0.10805 -0.111054 -0.116568 -0.119532 -0.113327 -0.0930779 -0.0591353 -0.0149711 0.0342869 0.0855489 0.135413 0.180893 0.218814 0.245919 0.260709 0.261664 0.249677 0.22563 0.192163 0.152346 0.108664 0.0650808 0.0240462 -0.010747 -0.0365025 -0.0527632 -0.0594844 -0.0607411 -0.0589306 -0.0559343 -0.0527555 -0.0477503 -0.0434403 -0.0401804 -0.0382049 -0.038166 -0.0368646 -0.0357104 -0.0352035 -0.0335632 -0.0333344 -0.0316837 -0.0288968 -0.0282489 -0.0253859 -0.0227942 -0.0220753 -0.0185391 -0.0169947 -0.0168268 -0.0137373 -0.0131102 -0.0125972 -0.00954932 -0.00845885 -0.00743748 -0.00545053 -0.00448794 -0.00336249 -0.00226205 -0.00173849 -0.00102016 -0.000478332 -0.000354444 -0.000229263 0 0 
0 0 -0.000143163 -0.000335258 -0.000464839 -0.000604387 -0.00139733 -0.00198234 -0.0022086 -0.00369383 -0.00487412 -0.00517119 -0.00728502 -0.00861795 -0.0089983 -0.0115267 -0.0121311 -0.0125846 -0.0154751 -0.0157745 -0.0172124 -0.0203035 -0.0206885 -0.0231762 -0.0260511 -0.0269874 -0.0301457 -0.0326589 -0.0344424 -0.0369891 -0.0373854 -0.0374568 -0.0372286 -0.0354998 -0.0341845 -0.0319741 -0.0301205 -0.0300599 -0.0311731 -0.0346248 -0.0384483 -0.0416022 -0.0432562 -0.0410234 -0.0349333 -0.0229663 -0.00485287 0.0192222 0.0491328 0.0824069 0.117858 0.152053 0.182458 0.206464 0.220958 0.225045 0.217077 0.197946 0.168686 0.131506 0.0899252 0.0463767 0.00440455 -0.0345383 -0.0690341 -0.0991359 -0.125102 -0.147167 -0.165892 -0.18066 -0.191711 -0.198315 -0.201036 -0.199862 -0.195671 -0.189145 -0.180865 -0.17173 -0.161919 -0.151919 -0.141358 -0.130432 -0.118877 -0.107677 -0.0972881 -0.0890497 -0.0831274 -0.0797217 -0.0782412 -0.0782925 -0.0791361 -0.0804402 -0.0817923 -0.0832167 -0.0845009 -0.0856103 -0.0865896 -0.0873637 -0.0879217 -0.0881953 -0.0883102 -0.0881541 -0.0878981 -0.0875523 -0.0874347 -0.0878597 -0.0890602 -0.0906362 -0.0914266 -0.0897132 -0.0838301 -0.0744609 -0.0650125 -0.0610072 -0.0662351 -0.0803136 -0.0978525 -0.113227 -0.123724 -0.131965 -0.140734 -0.151195 -0.16176 -0.17236 -0.183931 -0.19691 -0.208158 -0.213641 -0.210661 -0.198676 -0.180155 -0.158634 -0.139357 -0.124389 -0.112724 -0.0995387 -0.0798481 -0.0500419 -0.00961804 0.0372237 0.0854158 0.129694 0.167994 0.197712 0.217041 0.224918 0.220591 0.205893 0.181891 0.151666 0.117705 0.0826604 0.0496395 0.0193505 -0.00589099 -0.0255902 -0.0387699 -0.0447106 -0.0450285 -0.0408057 -0.036073 -0.0326841 -0.0311015 -0.0313929 -0.0312269 -0.0318274 -0.0332022 -0.034646 -0.0366689 -0.0364957 -0.0357124 -0.0351246 -0.0331532 -0.0321409 -0.0301951 -0.0273488 -0.0264461 -0.0232285 -0.0202238 -0.0194806 -0.0163568 -0.0151116 -0.0150637 -0.0124681 -0.0120969 -0.0113347 -0.00863228 -0.00825178 -0.00707935 -0.00507738 -0.00478611 -0.00359 -0.00213319 -0.00199362 -0.00145267 -0.000578583 -0.000461413 -0.000342329 0 0 
0 0 -0.000238496 -0.000442431 -0.000525153 -0.000809943 -0.00168028 -0.00200059 -0.00215531 -0.00394791 -0.00491153 -0.00471263 -0.00702176 -0.00836609 -0.0080855 -0.0105691 -0.0114685 -0.011361 -0.0138163 -0.0144214 -0.0156718 -0.018601 -0.0194692 -0.0217887 -0.0245098 -0.0261022 -0.0292098 -0.0315781 -0.0339555 -0.0369213 -0.0375843 -0.0377162 -0.0369153 -0.0346316 -0.0322442 -0.0276378 -0.0223266 -0.0176943 -0.0140486 -0.0135251 -0.0143217 -0.0163685 -0.0195832 -0.0228143 -0.0269131 -0.0297478 -0.0301442 -0.0267419 -0.0175685 -0.00324988 0.0166313 0.0405628 0.0671309 0.0947758 0.120642 0.143356 0.159795 0.168701 0.168514 0.158786 0.140677 0.115328 0.0854365 0.0525529 0.0187576 -0.0154217 -0.0494084 -0.0826916 -0.114906 -0.144747 -0.171574 -0.193879 -0.211553 -0.223918 -0.231442 -0.234365 -0.23322 -0.228701 -0.221391 -0.211776 -0.200037 -0.186623 -0.171574 -0.156252 -0.141337 -0.128327 -0.117748 -0.109882 -0.10433 -0.100632 -0.0981481 -0.0965889 -0.0954259 -0.0947338 -0.0942535 -0.0939607 -0.0937557 -0.0936582 -0.0935948 -0.0935449 -0.0935317 -0.0935028 -0.0935814 -0.0938718 -0.0946505 -0.0963014 -0.0989533 -0.102307 -0.105122 -0.10572 -0.102457 -0.0962682 -0.0906582 -0.091077 -0.101218 -0.120213 -0.142462 -0.162172 -0.176777 -0.188827 -0.200558 -0.212466 -0.222448 -0.22983 -0.23563 -0.240094 -0.240702 -0.233753 -0.217014 -0.190295 -0.156874 -0.121524 -0.0906028 -0.0661234 -0.0456628 -0.0234827 0.00436045 0.0381755 0.0752929 0.110128 0.138661 0.158077 0.168229 0.168531 0.159565 0.142916 0.119997 0.0940127 0.0664376 0.0400444 0.0164443 -0.00302854 -0.0171059 -0.0266955 -0.0312774 -0.0324369 -0.0307342 -0.0263657 -0.0211256 -0.0153124 -0.0117941 -0.0115483 -0.0139374 -0.0189037 -0.0231955 -0.0272535 -0.0311093 -0.0337508 -0.0364124 -0.0368706 -0.036066 -0.0352181 -0.032823 -0.0312059 -0.0294713 -0.0266698 -0.0249903 -0.0216974 -0.0186773 -0.0175084 -0.0148084 -0.0139432 -0.0136115 -0.0112514 -0.0112474 -0.0101919 -0.00766513 -0.00805753 -0.00686794 -0.00460987 -0.00480099 -0.00386355 -0.00212944 -0.00203604 -0.00172049 -0.000789403 -0.000581755 -0.000357234 0 0 
0 0 -0.000242045 -0.000523011 -0.000681827 -0.000993504 -0.00170693 -0.00202692 -0.0023662 -0.00395131 -0.00462669 -0.0046357 -0.00684892 -0.00770469 -0.00747998 -0.00999783 -0.0106438 -0.0105992 -0.013011 -0.0135133 -0.0148324 -0.0177525 -0.0189445 -0.0213795 -0.0237075 -0.0254945 -0.0287016 -0.0305679 -0.0326932 -0.0355164 -0.0361705 -0.0367008 -0.0359591 -0.0336318 -0.0314598 -0.0268324 -0.0211514 -0.015318 -0.0092868 -0.00572995 -0.00335601 -0.00261995 -0.00388054 -0.0062518 -0.0115587 -0.0186139 -0.0269934 -0.0355381 -0.0417551 -0.0451298 -0.0436845 -0.0373327 -0.0259313 -0.00985264 0.00941495 0.0311864 0.0530648 0.0738555 0.0912192 0.103713 0.110443 0.110489 0.104853 0.0935628 0.0779262 0.057899 0.0340099 0.0066873 -0.0236292 -0.0552796 -0.087366 -0.117976 -0.14655 -0.171698 -0.193344 -0.210856 -0.2243 -0.233711 -0.23925 -0.241174 -0.239361 -0.234244 -0.225887 -0.215601 -0.204284 -0.193607 -0.184175 -0.17672 -0.170784 -0.16633 -0.162644 -0.159726 -0.157105 -0.154884 -0.152967 -0.151364 -0.150056 -0.149056 -0.14833 -0.147866 -0.147729 -0.147822 -0.148321 -0.149288 -0.150992 -0.153785 -0.157791 -0.162587 -0.166847 -0.168718 -0.166604 -0.161503 -0.15675 -0.157889 -0.168011 -0.186079 -0.205968 -0.221945 -0.231514 -0.237143 -0.240998 -0.243239 -0.241524 -0.235383 -0.226012 -0.214168 -0.198397 -0.17613 -0.146588 -0.110366 -0.0713091 -0.0342081 -0.00504745 0.0152035 0.0300262 0.0452944 0.0634472 0.0825018 0.0988543 0.108174 0.109652 0.103317 0.0909799 0.0735638 0.0525516 0.030496 0.00859647 -0.0107152 -0.0267384 -0.0379455 -0.0439403 -0.0449526 -0.0413563 -0.0355468 -0.0281606 -0.0213314 -0.0153754 -0.00966675 -0.00519909 -0.00133241 -0.000673675 -0.0037106 -0.00914943 -0.0164377 -0.0218366 -0.0262455 -0.0301747 -0.0327054 -0.0354751 -0.0359772 -0.0348504 -0.0340922 -0.0317917 -0.0303815 -0.0290189 -0.0260469 -0.0240698 -0.0210643 -0.0179315 -0.0165768 -0.014068 -0.0132267 -0.0129006 -0.0103979 -0.0102362 -0.00950232 -0.00707814 -0.00747484 -0.0067046 -0.00449099 -0.00451701 -0.00391703 -0.00236388 -0.00203668 -0.00175096 -0.00103652 -0.000754564 -0.000365921 0 0 
0 0 -0.000215759 -0.000612034 -0.000887492 -0.00109232 -0.00160388 -0.00214513 -0.0026545 -0.00371035 -0.00429328 -0.00486778 -0.00658872 -0.00687623 -0.00736464 -0.00973475 -0.00975559 -0.0105052 -0.0130227 -0.0130352 -0.0149258 -0.017751 -0.0185762 -0.0214405 -0.0233506 -0.0243885 -0.0274915 -0.028906 -0.0303107 -0.0326652 -0.0331409 -0.034259 -0.0344706 -0.0332619 -0.0325654 -0.0298233 -0.0262775 -0.0221633 -0.0172417 -0.0136722 -0.0102057 -0.00742583 -0.00583282 -0.00501114 -0.00688712 -0.010971 -0.0179288 -0.0273252 -0.0374967 -0.0483103 -0.0573965 -0.0642943 -0.0678222 -0.0671378 -0.0627653 -0.0538775 -0.0418088 -0.0267875 -0.0103126 0.00642183 0.0223214 0.0359391 0.0471336 0.0550413 0.0598258 0.060663 0.0571284 0.048926 0.0357037 0.0182329 -0.00316023 -0.0269117 -0.0524433 -0.0783273 -0.103956 -0.128303 -0.150672 -0.170633 -0.187732 -0.201765 -0.212233 -0.219046 -0.222151 -0.222409 -0.22079 -0.218734 -0.216903 -0.215949 -0.215582 -0.215807 -0.216012 -0.216202 -0.216083 -0.215843 -0.21538 -0.21493 -0.214421 -0.214021 -0.213623 -0.213424 -0.213321 -0.213376 -0.213614 -0.214269 -0.215397 -0.217426 -0.220316 -0.223655 -0.225855 -0.225069 -0.219675 -0.210601 -0.201274 -0.197144 -0.201118 -0.211797 -0.223068 -0.229236 -0.228241 -0.2226 -0.214828 -0.204971 -0.191022 -0.172734 -0.151596 -0.128944 -0.104193 -0.0764545 -0.046414 -0.0157151 0.0122373 0.0340359 0.0459452 0.0490102 0.0476332 0.0469348 0.0478947 0.0479896 0.0443817 0.0351937 0.0219074 0.00601005 -0.0106058 -0.0272223 -0.0425612 -0.0547715 -0.0636692 -0.0681323 -0.0687648 -0.064979 -0.0576826 -0.0481657 -0.0371292 -0.0273412 -0.0191015 -0.0136987 -0.0106451 -0.00825523 -0.00695567 -0.0059503 -0.00737484 -0.0115574 -0.0170352 -0.0231345 -0.0267687 -0.0290292 -0.0311301 -0.0322652 -0.0340041 -0.0336753 -0.0321286 -0.0316512 -0.0297954 -0.0288991 -0.0277279 -0.0246522 -0.0233337 -0.0208515 -0.0174748 -0.0166703 -0.0143118 -0.0128462 -0.0128611 -0.0101487 -0.00922265 -0.00921931 -0.00704134 -0.00670654 -0.00642323 -0.00468219 -0.00420279 -0.00372255 -0.00264648 -0.00212304 -0.00167896 -0.00119972 -0.000927702 -0.000422738 0 0 
0 0 -0.000230373 -0.000703319 -0.0010223 -0.00112849 -0.00158866 -0.00227103 -0.00275777 -0.00351461 -0.00415105 -0.00497552 -0.00632824 -0.00644417 -0.00743847 -0.00962717 -0.00942686 -0.0109079 -0.0134391 -0.0131359 -0.0154327 -0.0178366 -0.0178796 -0.0207625 -0.0223483 -0.0225322 -0.0250287 -0.0260259 -0.0273452 -0.0298173 -0.0307875 -0.0329613 -0.0352431 -0.0367958 -0.0390327 -0.0394351 -0.0391149 -0.0382755 -0.036321 -0.0347795 -0.0317512 -0.0278434 -0.0234438 -0.0185431 -0.0153104 -0.0134587 -0.0140875 -0.0172665 -0.0226399 -0.0307714 -0.0403289 -0.0512367 -0.0621971 -0.0720599 -0.0804653 -0.0858909 -0.0887671 -0.0881709 -0.0847967 -0.0787567 -0.0704106 -0.0606456 -0.0493642 -0.0375054 -0.0248617 -0.0125397 -0.00115415 0.0080934 0.0141345 0.0164696 0.0144057 0.0082874 -0.00185437 -0.0150597 -0.0309948 -0.0483577 -0.066462 -0.0846492 -0.102063 -0.118344 -0.132465 -0.144221 -0.153014 -0.159605 -0.164483 -0.169049 -0.173661 -0.179035 -0.184544 -0.190242 -0.195472 -0.200137 -0.204026 -0.207201 -0.209625 -0.211565 -0.213008 -0.214061 -0.214721 -0.21516 -0.215271 -0.215111 -0.214711 -0.214322 -0.214021 -0.214125 -0.214648 -0.215099 -0.21382 -0.208898 -0.198895 -0.184745 -0.170058 -0.160326 -0.158286 -0.16272 -0.167372 -0.166937 -0.159551 -0.148308 -0.135759 -0.122348 -0.106041 -0.0869479 -0.066462 -0.0461964 -0.0261834 -0.00662202 0.0101683 0.0221399 0.0271937 0.0247525 0.0148367 0.000660588 -0.0134614 -0.0245471 -0.0328756 -0.0410889 -0.0502763 -0.0608227 -0.0707689 -0.0792008 -0.0851858 -0.0887664 -0.0896634 -0.0868486 -0.0814603 -0.0731838 -0.063231 -0.0519686 -0.0406198 -0.030623 -0.0222737 -0.0172986 -0.0152821 -0.0161911 -0.019003 -0.0216542 -0.0243558 -0.026148 -0.0287241 -0.0325395 -0.0360407 -0.0391228 -0.0394579 -0.0384864 -0.0375305 -0.035748 -0.0348551 -0.0325564 -0.0301207 -0.0292949 -0.027256 -0.0261993 -0.0250702 -0.0223469 -0.0218916 -0.019989 -0.0169115 -0.017038 -0.015003 -0.0129188 -0.0131026 -0.0103915 -0.0088616 -0.00915687 -0.00716135 -0.00627126 -0.00614116 -0.00479348 -0.00408537 -0.00353565 -0.00273554 -0.00225079 -0.00169595 -0.00125001 -0.00103098 -0.000507319 0 0 
0 0 -0.000304401 -0.000773626 -0.0010304 -0.00117006 -0.00174798 -0.0022905 -0.00262525 -0.00359655 -0.00421102 -0.00473427 -0.00629238 -0.00664214 -0.007435 -0.0097182 -0.00982444 -0.0112986 -0.0138371 -0.013483 -0.0153328 -0.0172435 -0.0165923 -0.0186658 -0.0200904 -0.0203404 -0.022559 -0.0237457 -0.0260877 -0.0300165 -0.0329138 -0.0374518 -0.042428 -0.0475011 -0.0535376 -0.0575137 -0.0604215 -0.0622717 -0.0625437 -0.0625076 -0.0599681 -0.0552056 -0.0482495 -0.0392017 -0.0304349 -0.0220176 -0.015334 -0.0108777 -0.00859129 -0.00960142 -0.0134188 -0.0207028 -0.0308005 -0.0431031 -0.0572522 -0.0715827 -0.0860515 -0.0991133 -0.110674 -0.119998 -0.126731 -0.131131 -0.132515 -0.131215 -0.126439 -0.118602 -0.107582 -0.0942548 -0.0798953 -0.0655158 -0.0528693 -0.0423301 -0.0350782 -0.0307916 -0.0296757 -0.0308837 -0.0342289 -0.0389828 -0.0446639 -0.0507224 -0.0562628 -0.0608988 -0.0639806 -0.066047 -0.0674891 -0.0695213 -0.0724254 -0.0767682 -0.0817835 -0.087454 -0.0929013 -0.0981203 -0.102643 -0.106579 -0.10971 -0.112398 -0.114397 -0.115985 -0.117051 -0.117705 -0.117891 -0.117657 -0.117044 -0.116258 -0.115442 -0.115011 -0.1148 -0.114538 -0.112453 -0.106811 -0.0961661 -0.0817727 -0.067225 -0.058236 -0.0575035 -0.0638101 -0.0709769 -0.0738405 -0.0708679 -0.0653285 -0.0599566 -0.055167 -0.0489885 -0.0411907 -0.0331069 -0.0258482 -0.0199236 -0.0161906 -0.0179354 -0.0271939 -0.0442261 -0.0657065 -0.0883127 -0.10736 -0.120342 -0.127336 -0.130596 -0.132436 -0.132651 -0.131205 -0.127016 -0.120394 -0.111174 -0.099857 -0.0870227 -0.072648 -0.0583836 -0.0443275 -0.031909 -0.021463 -0.0137746 -0.0094829 -0.00819311 -0.0109294 -0.0165408 -0.0246888 -0.0340362 -0.0421009 -0.0488916 -0.0532287 -0.0567389 -0.0601567 -0.0622047 -0.0630923 -0.0607266 -0.0565294 -0.0520197 -0.0464962 -0.0421218 -0.0372691 -0.0326708 -0.0300098 -0.026437 -0.0240231 -0.0223281 -0.0196468 -0.0192181 -0.0178272 -0.0159043 -0.0167978 -0.01505 -0.0131223 -0.0132812 -0.0106836 -0.00932358 -0.00933009 -0.00715484 -0.00642116 -0.00609332 -0.0045898 -0.00415837 -0.00359191 -0.00260191 -0.00230831 -0.0018631 -0.00125423 -0.00105181 -0.000569642 0 0 
0 0 -0.000397375 -0.00081762 -0.000975628 -0.00125134 -0.00197657 -0.00221421 -0.00244624 -0.00389326 -0.00434067 -0.00439047 -0.00654632 -0.00718152 -0.00739218 -0.010014 -0.0104605 -0.0112287 -0.0137241 -0.0133555 -0.0140597 -0.0154681 -0.0148723 -0.0163414 -0.0179136 -0.0195845 -0.0232032 -0.0259746 -0.0304263 -0.0369501 -0.0431551 -0.0510179 -0.0587906 -0.0666455 -0.0754523 -0.0820387 -0.086934 -0.0897636 -0.0901251 -0.0897919 -0.0864855 -0.0803464 -0.0711109 -0.0585971 -0.0452968 -0.0314315 -0.0188036 -0.00793275 0.00126229 0.00721933 0.0105252 0.00965591 0.0047387 -0.00428903 -0.0175777 -0.0337543 -0.0528971 -0.0733634 -0.0949249 -0.116513 -0.137417 -0.157259 -0.175003 -0.190375 -0.201827 -0.208693 -0.209895 -0.205227 -0.195524 -0.181687 -0.165526 -0.148134 -0.130981 -0.114382 -0.0989129 -0.0845307 -0.0711347 -0.0586054 -0.0469029 -0.0357334 -0.0246311 -0.0133628 -0.00150441 0.0103056 0.0216122 0.0311076 0.0385281 0.0434203 0.0463564 0.0476574 0.0481099 0.0479584 0.0476777 0.0472031 0.0468654 0.0464707 0.0461816 0.0458699 0.0456699 0.0455534 0.0455637 0.0456003 0.0456776 0.0455955 0.0451161 0.0438155 0.0417282 0.0392005 0.0378468 0.0392936 0.0449178 0.0533986 0.0608625 0.0616953 0.052977 0.0362414 0.0176085 0.00217076 -0.0085763 -0.0179145 -0.028461 -0.0403208 -0.0512522 -0.0604147 -0.068631 -0.0765395 -0.0846023 -0.0946932 -0.110341 -0.133352 -0.161888 -0.189835 -0.211267 -0.221808 -0.221639 -0.214018 -0.202954 -0.190241 -0.174928 -0.157277 -0.137504 -0.11685 -0.0955657 -0.0742466 -0.0539272 -0.0348901 -0.0188242 -0.0055919 0.00359773 0.00884958 0.0101431 0.00737149 0.00164411 -0.00795105 -0.0199753 -0.0340423 -0.0487479 -0.0613042 -0.0715291 -0.0781849 -0.0831459 -0.0874376 -0.0897909 -0.0905932 -0.0871959 -0.081014 -0.073884 -0.0656221 -0.0585494 -0.0510363 -0.0432436 -0.0373398 -0.0310104 -0.0261503 -0.0225461 -0.0183348 -0.016693 -0.015509 -0.0145131 -0.0153428 -0.0138617 -0.0128241 -0.0129829 -0.0105865 -0.0100501 -0.00969904 -0.0070937 -0.00691934 -0.00636095 -0.00428612 -0.00427857 -0.003853 -0.00243798 -0.00227862 -0.00207656 -0.00128769 -0.00104474 -0.000590859 0 0 
0 0 -0.000453019 -0.000854489 -0.000974947 -0.0013476 -0.00210677 -0.00218026 -0.00245343 -0.00412917 -0.00443642 -0.00439199 -0.00690725 -0.00755847 -0.00749975 -0.0102429 -0.0104946 -0.0105779 -0.0128624 -0.0123595 -0.0125509 -0.0138639 -0.0141732 -0.0168535 -0.0198579 -0.0237961 -0.0303778 -0.0364628 -0.0439266 -0.0530687 -0.0619109 -0.0724832 -0.0824323 -0.0915644 -0.100804 -0.107375 -0.112213 -0.114634 -0.113949 -0.111835 -0.106423 -0.0982406 -0.0870562 -0.0724562 -0.0565105 -0.0390508 -0.0220719 -0.00631045 0.0079595 0.0192175 0.0278979 0.0326247 0.033298 0.0294365 0.0203714 0.00674658 -0.0119871 -0.0345715 -0.0606904 -0.0892058 -0.119078 -0.149761 -0.179925 -0.209006 -0.235004 -0.256741 -0.27215 -0.280189 -0.280761 -0.274301 -0.262292 -0.24573 -0.226349 -0.204503 -0.181311 -0.156811 -0.131583 -0.105657 -0.0795323 -0.0532918 -0.0268364 -0.000259232 0.0266298 0.0529328 0.0779589 0.100358 0.119845 0.135717 0.148698 0.158931 0.167313 0.174076 0.179848 0.184505 0.1885 0.191594 0.194096 0.195905 0.197245 0.198012 0.198288 0.198062 0.197257 0.195632 0.193017 0.188908 0.183323 0.176464 0.169979 0.165377 0.164088 0.164598 0.16302 0.153663 0.133853 0.105038 0.0736133 0.0446395 0.0195507 -0.00476292 -0.0306309 -0.0578226 -0.0836346 -0.106659 -0.127264 -0.145786 -0.163136 -0.18136 -0.204403 -0.233011 -0.26376 -0.288599 -0.301067 -0.298126 -0.282455 -0.259653 -0.234371 -0.208139 -0.179653 -0.149622 -0.119023 -0.0895659 -0.0614353 -0.0355303 -0.013093 0.00551875 0.0190206 0.0280877 0.032147 0.0317675 0.0274709 0.0193607 0.00838089 -0.00626526 -0.0231372 -0.041515 -0.0597648 -0.0749764 -0.0872942 -0.0959661 -0.103048 -0.109524 -0.113667 -0.115507 -0.112491 -0.106334 -0.0992477 -0.0906029 -0.0823376 -0.0727201 -0.0622859 -0.05366 -0.0445269 -0.0363281 -0.0292832 -0.0221281 -0.0184712 -0.0161282 -0.0140548 -0.0138994 -0.012316 -0.0117053 -0.0120149 -0.00996655 -0.0101447 -0.00995151 -0.00718434 -0.00728416 -0.00673939 -0.00430576 -0.00436683 -0.00407427 -0.00245966 -0.00226494 -0.00219324 -0.00137153 -0.00107903 -0.000595364 0 0 
0 0 -0.000449484 -0.000905522 -0.00108772 -0.0014249 -0.00208212 -0.00229794 -0.00270832 -0.00414091 -0.0045119 -0.00487629 -0.00710313 -0.00745672 -0.00771151 -0.0100547 -0.0096637 -0.00986975 -0.0119399 -0.0115346 -0.0131494 -0.015783 -0.0177659 -0.0236701 -0.0299706 -0.0366927 -0.0464299 -0.0556739 -0.065826 -0.0769282 -0.086534 -0.0972754 -0.107316 -0.116057 -0.124155 -0.128846 -0.13163 -0.132323 -0.130349 -0.126799 -0.119651 -0.109423 -0.0961776 -0.0797604 -0.0621946 -0.0429682 -0.0236141 -0.00461855 0.0133552 0.0286995 0.0411962 0.0495265 0.0536369 0.0529166 0.0468546 0.0358321 0.0189483 -0.0027056 -0.029348 -0.0598007 -0.0930881 -0.128315 -0.16398 -0.199296 -0.231986 -0.260647 -0.282854 -0.297326 -0.303444 -0.301293 -0.292244 -0.277156 -0.25788 -0.234824 -0.20928 -0.181309 -0.151694 -0.120591 -0.0885864 -0.0561389 -0.0230487 0.0100996 0.0436849 0.0763904 0.107689 0.135927 0.160886 0.181795 0.199346 0.213708 0.225781 0.235847 0.244316 0.251353 0.257368 0.26212 0.265972 0.268807 0.270836 0.271959 0.27238 0.272014 0.270856 0.268532 0.264886 0.259417 0.252164 0.243272 0.234381 0.227038 0.222397 0.219159 0.213379 0.199399 0.174568 0.140366 0.103235 0.0681264 0.0367191 0.00571009 -0.0267444 -0.0604834 -0.0921334 -0.120262 -0.145035 -0.167218 -0.188234 -0.21032 -0.237085 -0.267967 -0.298204 -0.31913 -0.325175 -0.314827 -0.292056 -0.262727 -0.230888 -0.198056 -0.163278 -0.127889 -0.0930082 -0.0602154 -0.030118 -0.00370838 0.0177578 0.0345381 0.0454584 0.0515384 0.0524207 0.0486116 0.0407923 0.0288711 0.0138639 -0.00447731 -0.0245167 -0.0452454 -0.0653133 -0.0821289 -0.0963437 -0.107117 -0.116327 -0.12455 -0.130157 -0.133237 -0.131892 -0.127766 -0.122542 -0.115114 -0.107293 -0.0976674 -0.087021 -0.0774448 -0.0661171 -0.0550319 -0.0448298 -0.0347287 -0.0285279 -0.0230276 -0.0176954 -0.0157808 -0.0128269 -0.0108539 -0.0111536 -0.00931729 -0.00932981 -0.00974918 -0.00739334 -0.00720281 -0.0069412 -0.00477341 -0.00443852 -0.00410524 -0.00272089 -0.002366 -0.00217527 -0.00148418 -0.00118153 -0.000615719 0 0 
0 0 -0.000416912 -0.000974556 -0.00126717 -0.00148792 -0.0020111 -0.00253198 -0.00306386 -0.00405524 -0.00461657 -0.00545525 -0.0070356 -0.00704012 -0.00779752 -0.00962573 -0.00893232 -0.0103105 -0.0130976 -0.0138766 -0.018702 -0.0245854 -0.02934 -0.0388597 -0.0487079 -0.0580628 -0.0700284 -0.0803967 -0.0911118 -0.102419 -0.111136 -0.119983 -0.12782 -0.134413 -0.140849 -0.143928 -0.144636 -0.143097 -0.139195 -0.134504 -0.126584 -0.11532 -0.100431 -0.0819703 -0.0623792 -0.0414997 -0.020931 -0.000754374 0.0188031 0.035958 0.050684 0.0608557 0.0661673 0.0660936 0.0602407 0.0494855 0.0333251 0.013008 -0.0115367 -0.0394921 -0.0700251 -0.102408 -0.135131 -0.167247 -0.196651 -0.221825 -0.240672 -0.251935 -0.254999 -0.250092 -0.238646 -0.221708 -0.201277 -0.178198 -0.153644 -0.127774 -0.101157 -0.0740158 -0.046618 -0.0191491 0.00850106 0.0361746 0.0640317 0.0912036 0.11699 0.140017 0.159989 0.176267 0.189553 0.200037 0.208602 0.215548 0.221343 0.226035 0.230052 0.23315 0.235631 0.237444 0.238814 0.239536 0.239851 0.239589 0.238835 0.237173 0.234546 0.230439 0.224818 0.217892 0.211294 0.206546 0.204942 0.205152 0.203241 0.193593 0.173538 0.144482 0.112658 0.0830844 0.0571907 0.0318516 0.00487509 -0.0231575 -0.0491619 -0.0717073 -0.0916609 -0.110803 -0.131039 -0.154652 -0.184004 -0.217045 -0.247892 -0.2686 -0.275242 -0.267681 -0.249411 -0.224596 -0.196231 -0.165897 -0.133869 -0.10167 -0.0699613 -0.0399505 -0.0122521 0.0120259 0.032074 0.0481303 0.0588289 0.0646808 0.064892 0.0599512 0.0503081 0.0361838 0.0194035 -0.000428594 -0.0216447 -0.0436261 -0.0653478 -0.0843054 -0.100621 -0.113122 -0.12337 -0.132312 -0.139029 -0.143946 -0.14479 -0.142765 -0.139216 -0.133563 -0.127949 -0.120496 -0.111546 -0.102649 -0.0908604 -0.0792337 -0.0680802 -0.0560807 -0.0473728 -0.0382522 -0.0291022 -0.0243004 -0.0182325 -0.0132238 -0.0124312 -0.00976403 -0.00853119 -0.00927398 -0.00749983 -0.00683918 -0.00686698 -0.00531073 -0.00454952 -0.00405837 -0.00307194 -0.00256605 -0.00212791 -0.00160291 -0.00132131 -0.000658987 0 0 
0 0 -0.000412158 -0.00105256 -0.00141289 -0.0015704 -0.00206449 -0.00275562 -0.00329708 -0.00411766 -0.00478118 -0.00562716 -0.00689331 -0.00690628 -0.00788697 -0.010016 -0.0103478 -0.0135531 -0.0187811 -0.0225821 -0.030912 -0.0408118 -0.0492551 -0.061032 -0.07251 -0.0832887 -0.0954079 -0.104772 -0.11391 -0.12321 -0.12998 -0.136748 -0.141955 -0.145861 -0.150081 -0.151696 -0.151329 -0.148711 -0.14321 -0.136658 -0.127216 -0.114966 -0.0994521 -0.0800397 -0.059067 -0.0366556 -0.0147907 0.00575822 0.024722 0.0407014 0.0540857 0.0634409 0.0684539 0.0685337 0.0631224 0.0530772 0.0382824 0.0206115 0.000249674 -0.0213733 -0.0434295 -0.0655394 -0.0865571 -0.106305 -0.123312 -0.136936 -0.145738 -0.148767 -0.145696 -0.136425 -0.12244 -0.104658 -0.0852492 -0.0651193 -0.0457086 -0.0272536 -0.0100781 0.00580105 0.0205237 0.0341535 0.0472942 0.0601255 0.0731712 0.0858219 0.0976361 0.107418 0.115063 0.120022 0.123062 0.124402 0.124922 0.124836 0.124588 0.124205 0.123984 0.123602 0.123362 0.12311 0.122949 0.122817 0.122851 0.122864 0.122966 0.12284 0.122274 0.120873 0.118703 0.115965 0.114362 0.115555 0.120891 0.12912 0.136435 0.137229 0.128724 0.112152 0.0935867 0.0778728 0.0663359 0.0557179 0.0437464 0.0307808 0.0195667 0.0107561 0.00256508 -0.0079661 -0.023186 -0.044787 -0.0733057 -0.10484 -0.133492 -0.153054 -0.162233 -0.161914 -0.154449 -0.141384 -0.124402 -0.105318 -0.0849342 -0.0644758 -0.0433066 -0.0217815 -0.000374568 0.0196439 0.0369811 0.0516431 0.0617091 0.0671109 0.0671393 0.0625714 0.0538181 0.0410551 0.0254512 0.00628935 -0.0153312 -0.0386455 -0.0619984 -0.08247 -0.0998132 -0.112944 -0.124113 -0.134473 -0.142911 -0.149403 -0.151335 -0.150407 -0.148433 -0.145042 -0.142175 -0.137237 -0.130143 -0.122901 -0.112999 -0.103096 -0.0932668 -0.0814024 -0.0712854 -0.0602973 -0.048579 -0.0400692 -0.0302132 -0.0219727 -0.0182176 -0.0130305 -0.00987295 -0.00959322 -0.00760271 -0.00673374 -0.00671755 -0.00545596 -0.00471759 -0.00414876 -0.00330322 -0.00276987 -0.00220098 -0.00171948 -0.00144345 -0.000710253 0 0 
0 0 -0.000472126 -0.00113674 -0.00147187 -0.00168983 -0.00231371 -0.00289534 -0.00330726 -0.00441023 -0.00503215 -0.00541119 -0.00711358 -0.00778028 -0.0089505 -0.0128046 -0.0158561 -0.0212134 -0.0299744 -0.0379734 -0.0488657 -0.0614475 -0.0725841 -0.0848403 -0.0955223 -0.105242 -0.115691 -0.12327 -0.130154 -0.136643 -0.14099 -0.14589 -0.149426 -0.151627 -0.153892 -0.153527 -0.15184 -0.148416 -0.142046 -0.134345 -0.123255 -0.109421 -0.092991 -0.0735018 -0.0531533 -0.0316366 -0.0105965 0.00893426 0.0266626 0.0407733 0.0518446 0.0591117 0.0629416 0.0636044 0.0609626 0.0560585 0.0486025 0.0398842 0.0300754 0.0201215 0.010732 0.00218292 -0.00471054 -0.010196 -0.0135508 -0.0151663 -0.0145748 -0.0116812 -0.0064216 0.00130684 0.0104683 0.0207458 0.0303627 0.0388316 0.0451273 0.0493552 0.0513808 0.0517539 0.0507122 0.0488376 0.0467995 0.0450957 0.0443027 0.0439846 0.0436945 0.0424017 0.0399353 0.0357825 0.0307771 0.0250242 0.0194566 0.0140872 0.00943925 0.00535643 0.00210021 -0.000676715 -0.00282476 -0.00445957 -0.00558504 -0.0062226 -0.00642272 -0.00618172 -0.00557646 -0.00474003 -0.0039305 -0.00344327 -0.00326136 -0.00303113 -0.00102575 0.00446897 0.015016 0.0293572 0.0439448 0.0530631 0.0539234 0.0475671 0.0399685 0.0360899 0.0372764 0.0405183 0.0434971 0.0465686 0.0520068 0.059889 0.0671198 0.0699955 0.0657939 0.054065 0.0359629 0.0160978 -0.000841352 -0.0116126 -0.0180163 -0.0217394 -0.0232463 -0.0215327 -0.0166357 -0.0102659 -0.00326284 0.00346656 0.0111038 0.0198843 0.0295311 0.0389543 0.0472845 0.0545812 0.0595469 0.0621862 0.0616955 0.0583242 0.0516572 0.0412579 0.027612 0.00964581 -0.0110226 -0.0336211 -0.0561857 -0.0761274 -0.0935669 -0.107518 -0.120128 -0.131979 -0.141521 -0.148854 -0.15168 -0.152165 -0.152258 -0.150894 -0.149702 -0.146269 -0.140781 -0.135737 -0.128666 -0.121299 -0.113664 -0.10367 -0.094465 -0.0838813 -0.0714017 -0.0601993 -0.0478821 -0.0373036 -0.0294204 -0.0206371 -0.0152634 -0.0122984 -0.00864637 -0.00760623 -0.00693352 -0.00523852 -0.0049662 -0.00443991 -0.00332173 -0.00292567 -0.0024528 -0.00182684 -0.0015207 -0.000762102 0 0 
0 0 -0.00058245 -0.00123783 -0.00149336 -0.00183031 -0.00265527 -0.00300328 -0.00323424 -0.00481194 -0.00546902 -0.00551213 -0.0082486 -0.0103309 -0.0124776 -0.0190099 -0.0255256 -0.0332307 -0.044987 -0.0561537 -0.0682417 -0.0810802 -0.0920551 -0.103317 -0.112257 -0.119345 -0.127189 -0.132931 -0.138128 -0.14293 -0.145437 -0.14834 -0.150513 -0.151647 -0.152598 -0.150702 -0.14715 -0.141984 -0.134793 -0.126833 -0.115675 -0.101685 -0.085185 -0.0663573 -0.0477969 -0.0291404 -0.0116262 0.00470654 0.0200919 0.0331924 0.0448065 0.0539017 0.0613352 0.0676129 0.073043 0.0789485 0.0847685 0.0912598 0.0975929 0.103528 0.108772 0.112615 0.115522 0.116872 0.117231 0.115948 0.113372 0.109642 0.104925 0.099998 0.0946059 0.0890369 0.0823649 0.0744981 0.0648855 0.053791 0.041583 0.0289679 0.0163634 0.00452595 -0.00583188 -0.0142564 -0.0202417 -0.0244141 -0.0273883 -0.0304041 -0.033886 -0.0383397 -0.0432298 -0.048506 -0.0533601 -0.0578014 -0.06148 -0.0645026 -0.0668753 -0.0687375 -0.0701227 -0.0711526 -0.0717948 -0.0722041 -0.072318 -0.0721743 -0.0718098 -0.0714664 -0.0712748 -0.0715794 -0.072358 -0.0730695 -0.072198 -0.0677501 -0.0581671 -0.0444706 -0.0301373 -0.0208249 -0.0194382 -0.0247708 -0.0308755 -0.032433 -0.0276072 -0.0189499 -0.00852787 0.00395655 0.0205274 0.0405357 0.0599056 0.0744202 0.081949 0.0833749 0.0815315 0.0809622 0.0843911 0.0916187 0.0984793 0.102844 0.105255 0.108153 0.112034 0.115039 0.116046 0.113806 0.109485 0.10354 0.0971363 0.090372 0.0835312 0.0775881 0.071614 0.0662125 0.0601869 0.0532516 0.0447814 0.033865 0.0212186 0.00545019 -0.0120347 -0.0311832 -0.0510098 -0.0691841 -0.0859044 -0.0997719 -0.112352 -0.124108 -0.13387 -0.14216 -0.146901 -0.149371 -0.151121 -0.151069 -0.150864 -0.14858 -0.144811 -0.141457 -0.136249 -0.130966 -0.125512 -0.118158 -0.11135 -0.102139 -0.0904461 -0.0794252 -0.0670123 -0.0553475 -0.0443288 -0.0325602 -0.0248387 -0.0184125 -0.012082 -0.0100885 -0.00806393 -0.00536734 -0.0053978 -0.00481353 -0.00326225 -0.00307899 -0.00278886 -0.0019244 -0.00158291 -0.000828139 0 0 
0 0 -0.000687887 -0.00136531 -0.00158442 -0.0019792 -0.00290552 -0.00318827 -0.00340351 -0.00526106 -0.00626001 -0.0068725 -0.0108616 -0.0147169 -0.0190581 -0.0281403 -0.0371063 -0.0470033 -0.060024 -0.0711887 -0.0831201 -0.0949006 -0.103084 -0.112199 -0.119747 -0.124396 -0.130012 -0.134154 -0.138002 -0.142121 -0.143709 -0.145045 -0.145698 -0.145373 -0.145151 -0.142372 -0.137773 -0.131548 -0.123639 -0.115695 -0.105888 -0.0942144 -0.0806319 -0.0649246 -0.0492584 -0.0335008 -0.0187152 -0.00449907 0.010265 0.0253796 0.0423057 0.0604325 0.0801818 0.101249 0.122845 0.145419 0.167479 0.188932 0.20822 0.224333 0.236224 0.242538 0.243398 0.238031 0.227188 0.21089 0.190035 0.165941 0.139629 0.113241 0.0876827 0.0643636 0.042901 0.0235474 0.00563208 -0.0107983 -0.0257214 -0.0390154 -0.0502364 -0.059256 -0.0653534 -0.0685761 -0.068509 -0.0662827 -0.0625975 -0.0588964 -0.0557866 -0.0539325 -0.0528792 -0.0526132 -0.0524691 -0.0524026 -0.0520406 -0.0516675 -0.0510726 -0.0505619 -0.0499619 -0.0495097 -0.0490863 -0.0488666 -0.0487636 -0.0488558 -0.0491436 -0.0498929 -0.0512106 -0.0535309 -0.0566993 -0.0604048 -0.0629676 -0.0626041 -0.0575387 -0.0487587 -0.039766 -0.0361249 -0.0408705 -0.0528587 -0.0659971 -0.0745805 -0.0762287 -0.0731569 -0.0669327 -0.0574602 -0.0427444 -0.0241891 -0.00584325 0.00820242 0.0176559 0.0256445 0.0364699 0.0542861 0.0794996 0.109315 0.137748 0.16228 0.18322 0.202681 0.220271 0.233954 0.242148 0.243081 0.237109 0.224678 0.207926 0.188152 0.166418 0.144163 0.12146 0.0999148 0.079195 0.0599588 0.0424323 0.0261916 0.0114399 -0.00376722 -0.0192403 -0.035735 -0.0526395 -0.0678345 -0.081302 -0.0920844 -0.102205 -0.112565 -0.122362 -0.13156 -0.137495 -0.141201 -0.143863 -0.144999 -0.14612 -0.145105 -0.142675 -0.140209 -0.135954 -0.132431 -0.128793 -0.12358 -0.118883 -0.110826 -0.101193 -0.0930107 -0.0816799 -0.0701689 -0.0591742 -0.0462069 -0.0363627 -0.0274799 -0.0185355 -0.0143602 -0.0106521 -0.00675563 -0.00618749 -0.00523158 -0.00343828 -0.00330643 -0.00304462 -0.00204652 -0.00169727 -0.000921457 0 0 
0 0 -0.000740855 -0.00151128 -0.00180384 -0.00216549 -0.00300417 -0.00352359 -0.00408115 -0.00597842 -0.00764343 -0.00985896 -0.0151011 -0.0204589 -0.0274017 -0.0380801 -0.0474181 -0.0582365 -0.0709465 -0.0796009 -0.0896005 -0.0998604 -0.105229 -0.111702 -0.117566 -0.120938 -0.125391 -0.128128 -0.130474 -0.133924 -0.135027 -0.135558 -0.135212 -0.133425 -0.132101 -0.1289 -0.124352 -0.118998 -0.112329 -0.106218 -0.0992451 -0.0912997 -0.0822712 -0.0710363 -0.0589063 -0.0448322 -0.0289269 -0.0106256 0.0114192 0.0369566 0.0672548 0.101516 0.139311 0.179473 0.219606 0.2582 0.292254 0.32024 0.340021 0.350447 0.351133 0.341704 0.323352 0.296571 0.263115 0.224002 0.181047 0.136076 0.0910989 0.0487894 0.0108554 -0.0208754 -0.0462795 -0.0651679 -0.0786783 -0.0873162 -0.0919381 -0.0932108 -0.0912577 -0.0867619 -0.0793205 -0.069505 -0.0571458 -0.0436732 -0.0297807 -0.0172319 -0.00644721 0.00196505 0.00844259 0.0131696 0.0169005 0.0197953 0.0223089 0.024403 0.0261664 0.0276716 0.0288606 0.0298005 0.0304229 0.0308217 0.0309614 0.0307953 0.0302876 0.0293011 0.0274638 0.0245478 0.0204025 0.015553 0.0112799 0.0094795 0.0116948 0.0169173 0.0215797 0.0200001 0.00883527 -0.0109253 -0.0332296 -0.0522952 -0.0650661 -0.0735668 -0.0791702 -0.0819956 -0.0802874 -0.0758045 -0.0719447 -0.0715585 -0.0726256 -0.0694551 -0.0567792 -0.0313793 0.00515948 0.0484657 0.0926191 0.135222 0.176272 0.216604 0.255299 0.290246 0.319792 0.340898 0.351701 0.350987 0.339972 0.319715 0.291419 0.257128 0.2184 0.178305 0.138496 0.101179 0.0674861 0.0378405 0.0125508 -0.010001 -0.0296277 -0.047198 -0.0623017 -0.0738671 -0.0827509 -0.0888573 -0.0952125 -0.102747 -0.110825 -0.118926 -0.124212 -0.127983 -0.131087 -0.133206 -0.135582 -0.135341 -0.133568 -0.131696 -0.128451 -0.12678 -0.1246 -0.12031 -0.116638 -0.110184 -0.103259 -0.0979351 -0.0880478 -0.0783686 -0.0698541 -0.0573208 -0.0466623 -0.0373695 -0.0267539 -0.0199759 -0.0148264 -0.00973478 -0.00757651 -0.00594321 -0.00411058 -0.00364854 -0.00316631 -0.0022631 -0.00190935 -0.00102646 0 0 
0 0 -0.000750228 -0.00166131 -0.00210405 -0.0024411 -0.00312571 -0.00405059 -0.00524835 -0.00732033 -0.0098452 -0.0138753 -0.0202751 -0.0265926 -0.034956 -0.0459399 -0.0542365 -0.0638101 -0.0749916 -0.0811392 -0.0879961 -0.0957318 -0.0995356 -0.104083 -0.107586 -0.10949 -0.11327 -0.115128 -0.116261 -0.118569 -0.11893 -0.119363 -0.11906 -0.117013 -0.115687 -0.113038 -0.110012 -0.107657 -0.10481 -0.103121 -0.100773 -0.0969079 -0.0912697 -0.0818992 -0.0690484 -0.0507718 -0.0263728 0.00467324 0.0433796 0.0883197 0.138877 0.192804 0.247626 0.300837 0.348682 0.388913 0.41814 0.434684 0.437171 0.425353 0.400529 0.364059 0.318864 0.267293 0.212366 0.156283 0.101296 0.0493638 0.00220544 -0.038154 -0.0705355 -0.0936672 -0.107971 -0.113911 -0.113256 -0.107284 -0.0974823 -0.0850324 -0.0705905 -0.0548886 -0.037762 -0.0196265 -0.000512687 0.0184526 0.0364946 0.0520613 0.0648059 0.0744547 0.0813101 0.0860684 0.089278 0.0913565 0.0928545 0.0938323 0.0945302 0.0949857 0.0952037 0.0953569 0.0954502 0.0954873 0.0954405 0.0953965 0.0951912 0.0946938 0.0936311 0.0917155 0.0886929 0.0850013 0.0818986 0.0810856 0.0840254 0.0896974 0.0943576 0.0925385 0.0802748 0.0585276 0.0329854 0.00962634 -0.00832196 -0.0226366 -0.0352617 -0.0468013 -0.0564269 -0.0661338 -0.0790085 -0.096176 -0.113441 -0.123426 -0.120638 -0.103197 -0.073758 -0.036076 0.00577922 0.0507455 0.0990266 0.150763 0.204703 0.259349 0.31292 0.361228 0.40005 0.425711 0.437397 0.434481 0.417559 0.38812 0.34779 0.299978 0.246998 0.192603 0.139188 0.089051 0.0442766 0.00507697 -0.0271384 -0.0530521 -0.0722184 -0.0844024 -0.0914564 -0.0942584 -0.0965135 -0.0994684 -0.103237 -0.107693 -0.110219 -0.112554 -0.115067 -0.116968 -0.11931 -0.118793 -0.117079 -0.116184 -0.114431 -0.114214 -0.112793 -0.108894 -0.106539 -0.102512 -0.0977092 -0.0939657 -0.0864637 -0.0797383 -0.0737276 -0.0628221 -0.0534807 -0.0452195 -0.0342341 -0.0260035 -0.0199038 -0.0136881 -0.00977116 -0.00731155 -0.00527536 -0.0041426 -0.00331087 -0.00262227 -0.00220095 -0.00110926 0 0 
0 0 -0.000784378 -0.00182883 -0.0023921 -0.00282135 -0.00355228 -0.00484405 -0.00663278 -0.00935051 -0.0128502 -0.0178182 -0.0249952 -0.031935 -0.0397071 -0.0496026 -0.0568981 -0.0637071 -0.0719203 -0.0765774 -0.0806677 -0.0847001 -0.0866323 -0.0899385 -0.0915592 -0.0913863 -0.0935659 -0.0947759 -0.0956752 -0.0973901 -0.0970747 -0.0976388 -0.0984382 -0.0982422 -0.0992458 -0.0993161 -0.100014 -0.102495 -0.105102 -0.108856 -0.110485 -0.108196 -0.100824 -0.0855071 -0.0623843 -0.029727 0.0127745 0.064257 0.124178 0.189052 0.25607 0.320894 0.37939 0.428246 0.463653 0.484239 0.488194 0.476051 0.448763 0.408347 0.358215 0.301045 0.240894 0.180261 0.12218 0.0686203 0.0209602 -0.0196006 -0.0528002 -0.0776106 -0.0940533 -0.101586 -0.101283 -0.0940583 -0.081911 -0.0665156 -0.0494332 -0.0320744 -0.0148272 0.00167695 0.0179304 0.0339042 0.0499149 0.0651671 0.0790601 0.0903819 0.0990052 0.104552 0.107782 0.109094 0.109275 0.108678 0.107849 0.106768 0.105762 0.104821 0.103927 0.103214 0.102631 0.102313 0.102099 0.102138 0.102218 0.102359 0.102184 0.101468 0.0999826 0.0981336 0.0971418 0.0985708 0.103983 0.112472 0.120513 0.122453 0.114506 0.0969724 0.0756076 0.0564169 0.0426637 0.0325259 0.0232864 0.0131473 0.00182755 -0.0131219 -0.0341233 -0.060999 -0.087863 -0.107088 -0.114224 -0.109187 -0.0951744 -0.074376 -0.0484353 -0.0166449 0.0212259 0.0655765 0.115733 0.171777 0.233061 0.295919 0.355944 0.40791 0.449017 0.476157 0.487893 0.483735 0.463181 0.427746 0.378962 0.320769 0.256286 0.189609 0.124852 0.0645534 0.0120689 -0.031718 -0.0651306 -0.087668 -0.100797 -0.105453 -0.106181 -0.105182 -0.10353 -0.102745 -0.100616 -0.0993372 -0.0989619 -0.098251 -0.0983961 -0.0966451 -0.0948959 -0.0950254 -0.0941885 -0.0943061 -0.0933008 -0.0907347 -0.0904079 -0.0884825 -0.0851054 -0.0832357 -0.0792224 -0.0751214 -0.0705423 -0.0626489 -0.0561006 -0.0488795 -0.0389875 -0.0313067 -0.0245251 -0.0175179 -0.0127356 -0.00937719 -0.00667547 -0.00489733 -0.00374162 -0.00308561 -0.00251351 -0.00117013 0 0 
0 0 -0.000915873 -0.00207095 -0.00265771 -0.00326761 -0.00439514 -0.00598964 -0.00799269 -0.0116354 -0.0161673 -0.0208816 -0.0280255 -0.0353854 -0.041293 -0.0488979 -0.0553039 -0.0593541 -0.0638371 -0.0664727 -0.0682708 -0.0692453 -0.068081 -0.0688269 -0.0695762 -0.0682854 -0.0682991 -0.0681681 -0.0690057 -0.0714387 -0.0722957 -0.0738751 -0.0767614 -0.080499 -0.0866596 -0.0928144 -0.0994181 -0.107023 -0.11375 -0.119352 -0.119392 -0.110781 -0.0916934 -0.0595999 -0.0159258 0.0392905 0.103934 0.174596 0.248514 0.320039 0.385097 0.439016 0.478148 0.500832 0.505299 0.49297 0.464857 0.424099 0.374048 0.318205 0.260702 0.204293 0.15205 0.10511 0.0647938 0.0311621 0.0039401 -0.0172231 -0.0333647 -0.0443487 -0.0508876 -0.052345 -0.0493441 -0.0422528 -0.0323465 -0.0208058 -0.00865884 0.00290187 0.0137943 0.0237675 0.0334845 0.0432582 0.0535198 0.0635053 0.0727585 0.0802005 0.0855464 0.0885321 0.0898077 0.0897256 0.0889269 0.0877467 0.0865111 0.0853109 0.0842304 0.0833072 0.0824758 0.0819123 0.0813607 0.0810403 0.0808493 0.0807723 0.0807897 0.0808867 0.0806261 0.0800024 0.0786896 0.077053 0.0761887 0.0778404 0.0834882 0.0926263 0.10195 0.106032 0.100991 0.0870008 0.0696153 0.0552285 0.047339 0.0440283 0.041968 0.0383158 0.0318572 0.020287 0.00211411 -0.0211587 -0.0429702 -0.0568879 -0.0609371 -0.0575645 -0.0505643 -0.0410016 -0.0291092 -0.013351 0.00632371 0.0306574 0.0603531 0.0973757 0.143329 0.19703 0.256138 0.31629 0.373844 0.424366 0.464869 0.492799 0.505184 0.5007 0.477987 0.438966 0.385222 0.320401 0.249055 0.17495 0.103523 0.037761 -0.0182323 -0.0615094 -0.0916489 -0.1082 -0.11525 -0.115766 -0.112308 -0.107592 -0.100549 -0.0933541 -0.0866315 -0.0803539 -0.0762808 -0.0724386 -0.0699356 -0.0693026 -0.0679957 -0.0681557 -0.0682047 -0.067623 -0.0684674 -0.0677021 -0.0669832 -0.0681338 -0.0669963 -0.0650738 -0.0624713 -0.0582297 -0.0544387 -0.0481631 -0.0406167 -0.0347778 -0.027492 -0.0204638 -0.0159738 -0.0116649 -0.00806387 -0.00604234 -0.00457704 -0.00355734 -0.00282955 -0.00127925 0 0 
0 0 -0.00115066 -0.0024486 -0.00302334 -0.00376216 -0.00545261 -0.00741945 -0.00934447 -0.013577 -0.0188845 -0.0228991 -0.0291484 -0.0361207 -0.0401764 -0.0452674 -0.0496876 -0.0512177 -0.0528754 -0.0520684 -0.0504969 -0.0498582 -0.0461388 -0.043081 -0.0421406 -0.040547 -0.0398687 -0.0389425 -0.0390577 -0.0426251 -0.0470349 -0.0528625 -0.060672 -0.0699618 -0.0825269 -0.095789 -0.108138 -0.11823 -0.12268 -0.120111 -0.106815 -0.0799719 -0.0389978 0.0167056 0.0834887 0.15796 0.234955 0.308692 0.374819 0.428181 0.466246 0.486968 0.489955 0.476929 0.449438 0.411586 0.366272 0.317806 0.269585 0.224169 0.184201 0.149786 0.121736 0.0988156 0.0803391 0.0649892 0.0516055 0.0394207 0.0273516 0.015826 0.00474841 -0.00457504 -0.0117027 -0.0157501 -0.0169938 -0.0158784 -0.013025 -0.00920975 -0.00459029 0.000572489 0.00700065 0.0147002 0.0240415 0.0339862 0.0440334 0.0528182 0.0599885 0.0652197 0.0688638 0.0713112 0.0729629 0.0742265 0.0751319 0.0759134 0.0764602 0.0769954 0.0772498 0.0775329 0.0775641 0.0776482 0.0774583 0.0773017 0.0768769 0.0764278 0.0754396 0.0739153 0.0713318 0.06817 0.0652402 0.0644467 0.0671991 0.0734876 0.0801737 0.0821649 0.0753859 0.0600156 0.0415511 0.0266638 0.0194504 0.0179981 0.0185927 0.0175218 0.0135105 0.00505131 -0.00767861 -0.0216995 -0.03074 -0.0301791 -0.0209126 -0.00748767 0.00583694 0.0186181 0.0310109 0.0436004 0.0553261 0.0665997 0.0783238 0.0929482 0.113397 0.141191 0.177379 0.220198 0.268237 0.317844 0.366563 0.411782 0.44961 0.477044 0.489932 0.486925 0.466268 0.428468 0.375467 0.30935 0.235009 0.156936 0.0815127 0.014818 -0.0391795 -0.0777216 -0.10291 -0.116689 -0.121446 -0.119222 -0.109812 -0.0967753 -0.0825584 -0.0694145 -0.0595851 -0.0509825 -0.0446552 -0.0408568 -0.0385639 -0.0392926 -0.0398858 -0.0398906 -0.041244 -0.0423315 -0.0454781 -0.0490574 -0.0494608 -0.0508467 -0.0515938 -0.0500806 -0.0487344 -0.0445049 -0.0395588 -0.0355812 -0.0286205 -0.0224067 -0.0185854 -0.0135431 -0.00942699 -0.00752385 -0.00565025 -0.00401904 -0.00322751 -0.00153271 0 0 
0 0 -0.00141404 -0.00295831 -0.00362979 -0.00438658 -0.00640041 -0.00881148 -0.0108253 -0.0149703 -0.0202141 -0.0238125 -0.0289383 -0.0341415 -0.0365193 -0.0398745 -0.0410241 -0.0392581 -0.039188 -0.0352247 -0.0292043 -0.0264384 -0.021403 -0.015901 -0.012686 -0.00939035 -0.0091705 -0.0101714 -0.0114305 -0.0171228 -0.0261175 -0.0389134 -0.0553275 -0.0721844 -0.089638 -0.105028 -0.115441 -0.118857 -0.110174 -0.0876454 -0.0494269 0.00431844 0.0699054 0.14394 0.220141 0.292954 0.357019 0.406905 0.44024 0.455051 0.452502 0.435174 0.406651 0.371692 0.333828 0.297038 0.263353 0.234608 0.211413 0.193389 0.180028 0.169382 0.160299 0.150721 0.139552 0.12585 0.109124 0.0897084 0.0676861 0.0444313 0.020892 -0.000766231 -0.0191749 -0.0328931 -0.0414927 -0.0452276 -0.0447192 -0.0411583 -0.0350742 -0.0272086 -0.0172516 -0.00561636 0.00779807 0.0217348 0.0355189 0.0477278 0.0579326 0.065878 0.0718977 0.076459 0.079913 0.0826005 0.0846937 0.0863874 0.0876027 0.088617 0.0892187 0.0896552 0.0898351 0.0898387 0.0897065 0.0894686 0.0891418 0.0886231 0.0876295 0.0859365 0.0830078 0.0791952 0.0751755 0.0728024 0.0736232 0.0777018 0.082212 0.0822048 0.0733605 0.0555781 0.0341153 0.0158734 0.00525915 0.000403521 -0.00289684 -0.00888954 -0.0184049 -0.031278 -0.0450946 -0.0555435 -0.0566092 -0.0456957 -0.0255942 -0.00177834 0.0221795 0.0463983 0.0705813 0.0937002 0.113358 0.128864 0.13984 0.147387 0.153541 0.160664 0.171573 0.187216 0.208309 0.233855 0.263675 0.297553 0.334174 0.371804 0.406587 0.4351 0.452545 0.455468 0.441226 0.408049 0.357608 0.292358 0.218339 0.141946 0.0693703 0.00617733 -0.0459057 -0.0844916 -0.109289 -0.12032 -0.117687 -0.106327 -0.0895357 -0.071057 -0.0536165 -0.0367616 -0.0239843 -0.0159388 -0.0114904 -0.0108595 -0.00930016 -0.00892168 -0.012101 -0.0156 -0.0210907 -0.0259195 -0.0284097 -0.0342523 -0.0381019 -0.0381709 -0.040042 -0.0390811 -0.0359337 -0.0336675 -0.0284689 -0.0233233 -0.0198282 -0.0148098 -0.0108583 -0.00898021 -0.00666448 -0.00462474 -0.00382996 -0.00194698 0 0 
0 0 -0.00162502 -0.0035157 -0.00445221 -0.0052667 -0.00715721 -0.0098016 -0.0123031 -0.0160095 -0.0201441 -0.0233532 -0.0276601 -0.0303339 -0.0304523 -0.0323727 -0.030589 -0.0249389 -0.0223571 -0.0164077 -0.00745776 -0.00136894 0.00596959 0.0118203 0.0153164 0.0199381 0.0199102 0.0155525 0.00895104 -0.00301815 -0.0181279 -0.037386 -0.0607612 -0.0825598 -0.0997163 -0.107316 -0.101688 -0.0830284 -0.0486389 0.000749439 0.0637431 0.137044 0.212542 0.283717 0.34273 0.384788 0.408437 0.413303 0.402746 0.379766 0.349274 0.316117 0.2842 0.257747 0.238211 0.226727 0.222302 0.22298 0.226508 0.229759 0.230747 0.226934 0.217562 0.201935 0.18057 0.154427 0.124752 0.0932993 0.0611435 0.0300865 0.00125194 -0.0236174 -0.0433606 -0.0568814 -0.063809 -0.0647408 -0.0606283 -0.0529438 -0.042701 -0.0309099 -0.0175514 -0.00319295 0.0122087 0.0274767 0.0417913 0.0541017 0.0639333 0.0711473 0.076365 0.0800201 0.0825087 0.0842661 0.0854939 0.0862651 0.0866947 0.0868929 0.0868657 0.0867415 0.0864814 0.0862773 0.0860385 0.0859807 0.0859471 0.085978 0.0856815 0.0847315 0.0826683 0.0795711 0.076234 0.0743023 0.0755445 0.080196 0.0855939 0.0868449 0.0795129 0.0628993 0.0419215 0.0235737 0.0120639 0.00549397 -0.00110037 -0.0124621 -0.0288461 -0.0482741 -0.0664108 -0.0781404 -0.0786605 -0.0671458 -0.0471006 -0.0233514 0.00236833 0.0313133 0.0633507 0.0967637 0.128745 0.157992 0.182677 0.201239 0.21317 0.219391 0.221904 0.221901 0.221321 0.220737 0.222053 0.227286 0.238648 0.25778 0.283991 0.315931 0.349352 0.380439 0.404132 0.414931 0.409488 0.384473 0.340994 0.281564 0.211625 0.138411 0.0668214 0.00351183 -0.0481491 -0.0849497 -0.10433 -0.108741 -0.0992298 -0.0807669 -0.0585416 -0.0352621 -0.0165851 -0.00259471 0.00830866 0.0146368 0.0196251 0.0201829 0.0154867 0.0117327 0.00593284 -0.00109513 -0.00698757 -0.0157925 -0.0215701 -0.0240161 -0.029638 -0.0315618 -0.0298352 -0.0298727 -0.0272596 -0.0229313 -0.0197321 -0.0157137 -0.0122197 -0.00997584 -0.00750897 -0.00558146 -0.004669 -0.00240405 0 0 
0 0 -0.00179928 -0.00403891 -0.00527167 -0.00638679 -0.00798591 -0.0103957 -0.0133189 -0.0167136 -0.0194177 -0.0215075 -0.0247697 -0.025545 -0.0230419 -0.0222773 -0.0185728 -0.0104512 -0.00399478 0.00439142 0.01404 0.0220317 0.0321618 0.0388478 0.0405604 0.0421996 0.0391151 0.0305532 0.0170358 -0.00388586 -0.0268117 -0.0496547 -0.0712961 -0.0852515 -0.0884511 -0.0752214 -0.0421143 0.00747556 0.0711757 0.14184 0.212986 0.27912 0.332506 0.369034 0.384945 0.379742 0.357499 0.323209 0.285005 0.249284 0.221633 0.205266 0.20006 0.205365 0.217567 0.233805 0.250558 0.264678 0.274051 0.276277 0.271022 0.257427 0.236411 0.209098 0.177014 0.14241 0.106884 0.0725711 0.0403165 0.0114949 -0.0135921 -0.0340334 -0.0492825 -0.0589762 -0.0627316 -0.0613877 -0.0557055 -0.0474255 -0.0373569 -0.0265155 -0.0149461 -0.00290621 0.00959622 0.0216212 0.0325437 0.041409 0.0480344 0.0524141 0.055046 0.056646 0.0574229 0.0578804 0.0579344 0.0579587 0.0577099 0.0574818 0.0570498 0.0567057 0.0562401 0.0559728 0.0557876 0.0558476 0.056022 0.0563798 0.0563804 0.0558676 0.0542074 0.051662 0.0488183 0.0476567 0.0497189 0.0557086 0.063155 0.0675019 0.0639111 0.0514696 0.0346645 0.0201159 0.0120299 0.0081343 0.00268139 -0.00926982 -0.0274866 -0.0482653 -0.0660324 -0.0762978 -0.0759666 -0.0663144 -0.0508427 -0.0330918 -0.0127891 0.0122062 0.0419862 0.0752853 0.110128 0.145892 0.180199 0.210553 0.234665 0.252156 0.263193 0.267748 0.26699 0.26045 0.248998 0.233811 0.217875 0.20534 0.199765 0.205052 0.221841 0.250217 0.286644 0.325076 0.358759 0.37956 0.38319 0.366685 0.331216 0.280048 0.215587 0.144237 0.0713501 0.00527777 -0.0449188 -0.0764809 -0.0874504 -0.0827975 -0.068811 -0.047895 -0.0261007 -0.00423812 0.0159934 0.0295783 0.0387495 0.0421718 0.040365 0.0384217 0.0319007 0.0220885 0.0142403 0.00467644 -0.00348813 -0.00971341 -0.0177326 -0.021482 -0.0223774 -0.0250284 -0.0243981 -0.0211878 -0.0190508 -0.0163474 -0.0131019 -0.0104661 -0.00836 -0.0068709 -0.0056136 -0.00274413 0 0 
0 0 -0.00206177 -0.00455739 -0.00590678 -0.00750334 -0.00914217 -0.0110847 -0.0136264 -0.0166147 -0.0186127 -0.0190355 -0.0199827 -0.0196885 -0.0155423 -0.010855 -0.00493724 0.003895 0.0132463 0.0246497 0.0353878 0.0431006 0.0524191 0.0588622 0.0584989 0.0536623 0.0421719 0.0258299 0.00628982 -0.0186371 -0.042923 -0.060991 -0.068286 -0.057959 -0.0298879 0.0163348 0.0786369 0.149553 0.222881 0.288453 0.33791 0.36637 0.370367 0.353105 0.31923 0.275764 0.231325 0.191817 0.163668 0.149773 0.150961 0.166125 0.19083 0.220962 0.250632 0.275533 0.292382 0.299261 0.296601 0.284662 0.265688 0.241263 0.213482 0.183957 0.153771 0.124226 0.0953475 0.0682719 0.0426512 0.0190009 -0.00287908 -0.0224138 -0.0389262 -0.0517409 -0.0599876 -0.0637522 -0.0631841 -0.0596343 -0.0536557 -0.0463129 -0.037565 -0.0277697 -0.017106 -0.00649764 0.00326202 0.0113313 0.0174494 0.0217501 0.0245295 0.0265445 0.0278809 0.0291019 0.030002 0.0308161 0.0313581 0.0318585 0.0319744 0.0321866 0.0321106 0.0321443 0.032114 0.0322418 0.0322982 0.0323724 0.0318393 0.0307396 0.0282773 0.0248269 0.0209757 0.0186146 0.0194553 0.0245014 0.0315071 0.0362498 0.0337661 0.0229724 0.00779289 -0.00524888 -0.012082 -0.0149445 -0.0198776 -0.0315319 -0.0485549 -0.0657559 -0.0767846 -0.07861 -0.0707388 -0.0562851 -0.0389497 -0.0212627 -0.0023718 0.0194159 0.0438978 0.0702181 0.0976505 0.127156 0.157291 0.186847 0.214119 0.2388 0.260063 0.276773 0.288505 0.29299 0.288772 0.27417 0.250433 0.220943 0.190612 0.166002 0.151345 0.150866 0.165327 0.193618 0.232494 0.275476 0.317358 0.350532 0.368657 0.366713 0.339966 0.290436 0.222849 0.147341 0.0760074 0.015508 -0.0282042 -0.0549668 -0.0657488 -0.0598341 -0.0430657 -0.0195592 0.00522581 0.0251479 0.0419623 0.0535586 0.058111 0.0583106 0.0520896 0.0430366 0.0353721 0.0246961 0.0135272 0.00444656 -0.00424828 -0.0101264 -0.0148229 -0.0190891 -0.0196007 -0.0187854 -0.0183389 -0.0162904 -0.0133341 -0.01097 -0.00939721 -0.0081256 -0.00647968 -0.00295562 0 0 
0 0 -0.00250433 -0.00518447 -0.00649643 -0.00838263 -0.0104668 -0.0123311 -0.0137051 -0.0154586 -0.0174205 -0.0167218 -0.0144578 -0.0126104 -0.00778475 -0.000129295 0.00848196 0.0186438 0.0288922 0.0406884 0.0528364 0.0601268 0.0642752 0.0651427 0.0595207 0.0474223 0.0271649 0.00231813 -0.020637 -0.0391973 -0.0479465 -0.0426758 -0.0203364 0.0237155 0.0863998 0.160862 0.237309 0.302872 0.350024 0.373238 0.370687 0.345295 0.30091 0.246166 0.190279 0.14248 0.111029 0.0985133 0.105497 0.127609 0.159228 0.194636 0.227898 0.255834 0.275737 0.287059 0.290103 0.285268 0.274548 0.25862 0.239445 0.217856 0.195042 0.171791 0.148249 0.125004 0.1014 0.0779609 0.0541519 0.0303079 0.00642273 -0.0169395 -0.038837 -0.0580723 -0.073101 -0.0833994 -0.088439 -0.0891446 -0.085922 -0.0797888 -0.0710252 -0.0601044 -0.047637 -0.0347336 -0.0224709 -0.011725 -0.00289356 0.00409012 0.00951683 0.0139924 0.0176177 0.0209776 0.0236868 0.0262146 0.0281506 0.0298236 0.0309607 0.0319364 0.0324876 0.032945 0.033102 0.033263 0.0330544 0.0325726 0.0312661 0.0290914 0.0254 0.0204895 0.0147791 0.0102992 0.00854588 0.0108889 0.0153757 0.0180239 0.0139881 0.00177861 -0.0151567 -0.0304827 -0.0401894 -0.0462635 -0.0544851 -0.0685771 -0.0859273 -0.0997917 -0.103871 -0.0969426 -0.0809273 -0.0602355 -0.0380156 -0.0159198 0.00674573 0.0306639 0.0550909 0.0791853 0.102803 0.127234 0.151555 0.175292 0.197483 0.218147 0.236642 0.252575 0.266576 0.277475 0.284167 0.283594 0.274403 0.255628 0.227921 0.194831 0.159772 0.128655 0.107037 0.10009 0.111923 0.141961 0.188173 0.24319 0.298603 0.344962 0.372148 0.374869 0.349981 0.300877 0.235112 0.160679 0.088701 0.0270613 -0.0180123 -0.0421893 -0.0487167 -0.0402126 -0.0212262 0.00233239 0.0274136 0.0474769 0.0592371 0.0647388 0.0640396 0.0600239 0.0527289 0.0406164 0.0290191 0.0189974 0.00896331 0.000461805 -0.00708625 -0.0119716 -0.0140342 -0.0164676 -0.0172231 -0.015263 -0.0134491 -0.0120518 -0.0104797 -0.00895347 -0.00724737 -0.00325341 0 0 
0 0 -0.00297655 -0.00588079 -0.00743681 -0.00919809 -0.0115554 -0.013924 -0.0143623 -0.0140915 -0.0153585 -0.0142699 -0.00982605 -0.00561765 0.000814065 0.00953374 0.0190742 0.0316594 0.0426442 0.0512097 0.060998 0.0659451 0.0633451 0.054352 0.037828 0.0175429 -0.00518751 -0.0280385 -0.0418623 -0.0398808 -0.0167844 0.028479 0.0906523 0.164848 0.242665 0.313817 0.367931 0.393924 0.387781 0.35207 0.294802 0.228922 0.165144 0.113253 0.0788856 0.0639453 0.0685363 0.0888719 0.120513 0.157347 0.193164 0.223511 0.244899 0.257132 0.260863 0.258743 0.253388 0.246555 0.239704 0.232377 0.224236 0.213794 0.200306 0.183018 0.161641 0.136839 0.108962 0.0795822 0.0492389 0.0194333 -0.00915146 -0.0357723 -0.0593739 -0.0791991 -0.0937726 -0.102938 -0.106133 -0.104493 -0.098559 -0.0896237 -0.078141 -0.0649326 -0.0506464 -0.0364911 -0.0234163 -0.0123269 -0.00350899 0.00339691 0.00862346 0.0129454 0.0163568 0.0195159 0.0220976 0.0244946 0.0263811 0.0280618 0.0293066 0.0304302 0.0312138 0.0317805 0.0321048 0.0322359 0.0320078 0.0313309 0.0298787 0.0275986 0.023909 0.0190552 0.0133995 0.00878394 0.00675579 0.00883576 0.0133619 0.0167762 0.0140402 0.00328296 -0.0129933 -0.029093 -0.0411196 -0.0510018 -0.0639331 -0.082786 -0.103526 -0.118573 -0.121979 -0.114249 -0.098692 -0.0796394 -0.0582756 -0.0349813 -0.00886168 0.0198538 0.0499487 0.0802318 0.109715 0.138417 0.164379 0.186472 0.203727 0.21621 0.224232 0.22891 0.233082 0.238319 0.245529 0.252909 0.257757 0.256172 0.244988 0.224048 0.193877 0.158295 0.12181 0.0901589 0.0691398 0.0631407 0.0764727 0.109817 0.162154 0.227775 0.29553 0.353248 0.387707 0.392227 0.36625 0.314151 0.24535 0.168149 0.0924921 0.0282865 -0.0178795 -0.0405601 -0.041642 -0.0272047 -0.00440754 0.0179461 0.0378919 0.0542608 0.0632918 0.0658939 0.0608712 0.0510946 0.0426677 0.0318284 0.0193221 0.0099215 0.00137649 -0.00501902 -0.00935142 -0.0139447 -0.0151738 -0.0140214 -0.0142305 -0.0136074 -0.0113312 -0.00948332 -0.00810136 -0.00387638 0 0 
0 0 -0.00301323 -0.00617391 -0.008826 -0.0105354 -0.0124777 -0.0151716 -0.0157047 -0.013998 -0.0132196 -0.0109927 -0.00619792 -0.000621986 0.00873914 0.0185155 0.0265186 0.0392302 0.050366 0.0546901 0.0570471 0.0528594 0.0409405 0.0231617 -0.00250533 -0.027015 -0.0420869 -0.0446866 -0.0270529 0.0129103 0.0750651 0.156237 0.243221 0.322601 0.381445 0.409465 0.404752 0.368662 0.308137 0.234832 0.160223 0.0973997 0.0547282 0.0363212 0.0412987 0.0635039 0.0956432 0.12952 0.159379 0.182488 0.197996 0.207777 0.213435 0.217298 0.220668 0.22398 0.227466 0.230154 0.231415 0.229997 0.225143 0.215928 0.201828 0.182986 0.159307 0.131958 0.101658 0.0699424 0.0380229 0.00728728 -0.0212409 -0.0469521 -0.0688995 -0.0866841 -0.0991484 -0.106064 -0.107093 -0.103335 -0.0954103 -0.0846785 -0.0717642 -0.0576581 -0.0432613 -0.0295653 -0.0177593 -0.00820694 -0.00125658 0.00367535 0.0069604 0.00939683 0.0111345 0.0127447 0.0140769 0.0153996 0.0164957 0.0175965 0.0184858 0.0194113 0.0201015 0.020705 0.0210043 0.0211545 0.0208923 0.020322 0.0191177 0.0172715 0.0142734 0.0103136 0.00571945 0.00210528 0.00112773 0.00434843 0.0105864 0.0164903 0.0170342 0.00972484 -0.00397858 -0.0190184 -0.0321719 -0.0446372 -0.0609473 -0.0826496 -0.104777 -0.119554 -0.122101 -0.114645 -0.101517 -0.0860652 -0.067911 -0.0463743 -0.0208324 0.0078252 0.0385416 0.0702377 0.102064 0.13305 0.161407 0.185994 0.205437 0.219481 0.227232 0.229124 0.226995 0.222847 0.218867 0.216193 0.215381 0.214822 0.212944 0.208326 0.198836 0.183413 0.16045 0.130579 0.0960231 0.0624827 0.0386097 0.0324158 0.0510385 0.0953759 0.160124 0.235547 0.308066 0.367317 0.403543 0.410104 0.384123 0.325497 0.244424 0.155544 0.073987 0.0129208 -0.025926 -0.0431807 -0.0408694 -0.0261977 -0.00199414 0.023489 0.0411263 0.0529054 0.0569326 0.0545535 0.0502523 0.0391817 0.0265344 0.018658 0.00908907 -0.000145564 -0.00572287 -0.0105792 -0.0129605 -0.0139497 -0.0156919 -0.0149682 -0.0121735 -0.0104464 -0.00909214 -0.00469632 0 0 
0 0 -0.00204392 -0.00516183 -0.00982547 -0.0126444 -0.014105 -0.0160697 -0.0170188 -0.0156195 -0.0128874 -0.00792935 -0.00266315 0.00240357 0.0131812 0.0246418 0.031237 0.0397937 0.0460991 0.044532 0.0372899 0.0193215 -0.0048973 -0.0274736 -0.0492426 -0.0603136 -0.0506517 -0.0168505 0.04571 0.129444 0.221443 0.31066 0.380725 0.421202 0.425586 0.391236 0.327094 0.245284 0.162164 0.0935471 0.0471224 0.026661 0.0285526 0.0461031 0.0731373 0.101989 0.128346 0.148573 0.161286 0.167646 0.169489 0.170831 0.174056 0.181294 0.19274 0.206521 0.220471 0.23114 0.236501 0.23487 0.225944 0.2106 0.189992 0.166063 0.140009 0.113378 0.0869005 0.0611131 0.0363671 0.0126606 -0.00974813 -0.0310965 -0.0507977 -0.068652 -0.0833844 -0.0941959 -0.10026 -0.101565 -0.098529 -0.0918539 -0.0821681 -0.0703374 -0.0576619 -0.045045 -0.0338835 -0.0245926 -0.0175393 -0.0122105 -0.00832797 -0.00511691 -0.00249897 -4.71755e-05 0.00218315 0.00434675 0.00624004 0.00817068 0.00984423 0.0113453 0.0125112 0.0133945 0.0137737 0.0137171 0.0130844 0.0120347 0.0103407 0.0078759 0.00426066 -0.000318652 -0.00571755 -0.0104691 -0.0127899 -0.0110303 -0.00580019 4.95891e-05 0.00156962 -0.00416795 -0.0166084 -0.031496 -0.0456387 -0.0592286 -0.0755791 -0.0947176 -0.111416 -0.118565 -0.113447 -0.0999588 -0.0837764 -0.0675569 -0.0500939 -0.0305913 -0.00909975 0.0132778 0.036714 0.061303 0.0872588 0.1142 0.141495 0.168385 0.193195 0.214316 0.229104 0.236043 0.234624 0.225884 0.212606 0.197893 0.185474 0.176636 0.17205 0.170677 0.1702 0.168588 0.162263 0.149498 0.128605 0.100883 0.070286 0.0419092 0.0242728 0.0238431 0.0462911 0.0938583 0.162148 0.244388 0.326281 0.391972 0.427894 0.423433 0.381268 0.309639 0.220628 0.129996 0.0473269 -0.0154042 -0.0495209 -0.0593936 -0.0483779 -0.0267477 -0.00443327 0.0195052 0.0372641 0.0444072 0.045919 0.0395967 0.0310626 0.0245523 0.0132818 0.00269378 -0.00226119 -0.0074638 -0.012494 -0.0154498 -0.0170164 -0.0160316 -0.0139198 -0.0123369 -0.00961583 -0.00499731 0 0 
0 0 0.000194484 -0.00198684 -0.00866551 -0.0144127 -0.0171336 -0.0180214 -0.0182852 -0.0178636 -0.0151011 -0.00784704 -0.000238192 0.00480763 0.0135039 0.0239476 0.0297079 0.0321558 0.0272262 0.014004 -0.00381094 -0.0311105 -0.0606856 -0.0781102 -0.0780598 -0.0520068 0.00246659 0.0798253 0.1767 0.278372 0.364917 0.421343 0.434273 0.404834 0.343065 0.260911 0.175745 0.100119 0.0446094 0.0165193 0.0142052 0.0328633 0.0620598 0.0909783 0.113205 0.124684 0.128056 0.127194 0.126167 0.129133 0.136202 0.148062 0.16251 0.177841 0.192808 0.205313 0.215143 0.220751 0.222061 0.21855 0.210159 0.197488 0.180721 0.16117 0.139176 0.116084 0.0922766 0.0684787 0.0450508 0.0221411 0.000109315 -0.0212788 -0.0415631 -0.0607182 -0.0775277 -0.0911881 -0.100638 -0.105402 -0.105664 -0.101644 -0.0941903 -0.0839878 -0.0725398 -0.0609011 -0.0503994 -0.0414321 -0.0344743 -0.0288564 -0.0244233 -0.020522 -0.0171112 -0.0137308 -0.0105969 -0.00749775 -0.00461957 -0.00187351 0.000579987 0.00272636 0.0043353 0.00540326 0.00575171 0.00552055 0.0045765 0.00305992 0.000814673 -0.00223219 -0.00640107 -0.0117243 -0.0179711 -0.0238245 -0.0275829 -0.0272214 -0.0229515 -0.0171311 -0.0144743 -0.0184008 -0.0296081 -0.0446419 -0.0603084 -0.0757098 -0.092376 -0.109098 -0.120963 -0.121932 -0.11141 -0.0943835 -0.0765836 -0.0595466 -0.0411254 -0.0207174 0.00101003 0.0228386 0.045346 0.0687454 0.0927601 0.116751 0.140176 0.162769 0.183093 0.200548 0.213374 0.220936 0.222426 0.218126 0.209355 0.197318 0.184425 0.170927 0.158137 0.146261 0.136186 0.129954 0.1272 0.128091 0.128359 0.123664 0.110425 0.086643 0.0574209 0.0293837 0.0127295 0.0165314 0.0447937 0.0997613 0.175381 0.261636 0.344846 0.406335 0.434301 0.420264 0.364406 0.279195 0.178084 0.0804587 0.00283702 -0.0513644 -0.0770575 -0.0770826 -0.0599876 -0.0307351 -0.00367057 0.0139818 0.0270317 0.0318745 0.0294289 0.0237093 0.013416 0.00490627 3.72859e-05 -0.00739592 -0.0145889 -0.0174835 -0.0181365 -0.0180396 -0.0171433 -0.0141835 -0.00827748 -0.00375128 0 0 
0 0 0.0033295 0.00343452 -0.00364743 -0.0131963 -0.0202882 -0.0224684 -0.0214645 -0.0202716 -0.018455 -0.0121097 -0.00239048 0.00514782 0.0107347 0.0150556 0.0156481 0.0103229 -0.00687236 -0.0345909 -0.0627768 -0.0876979 -0.101547 -0.0916779 -0.0520138 0.0216971 0.121668 0.22847 0.325887 0.396488 0.427316 0.415059 0.360247 0.275933 0.182302 0.0977869 0.0388136 0.0101005 0.00811302 0.0254686 0.0505536 0.0758207 0.0953986 0.10641 0.110334 0.108377 0.104682 0.102445 0.104257 0.112387 0.1256 0.143018 0.16147 0.178205 0.191577 0.199835 0.203985 0.2043 0.202432 0.198934 0.19398 0.187659 0.178666 0.166934 0.151169 0.131748 0.108661 0.082693 0.0549997 0.026533 -0.00127185 -0.0278162 -0.0519819 -0.0735376 -0.0914166 -0.104923 -0.11325 -0.116096 -0.113894 -0.106989 -0.096569 -0.0836349 -0.0700856 -0.0570353 -0.0459475 -0.0370464 -0.0306242 -0.0258671 -0.022553 -0.0198162 -0.0176578 -0.0155055 -0.0134912 -0.0113705 -0.00933402 -0.00732545 -0.00549243 -0.00385634 -0.00260451 -0.00188111 -0.00166181 -0.00194979 -0.00268586 -0.00389115 -0.00556581 -0.00781516 -0.0109815 -0.0151854 -0.0203173 -0.0252148 -0.0282329 -0.0272244 -0.0220843 -0.014616 -0.00966845 -0.0113724 -0.0217662 -0.038498 -0.0583867 -0.0789376 -0.0997616 -0.118411 -0.130407 -0.131133 -0.121344 -0.106021 -0.0897163 -0.0725134 -0.0517191 -0.0270528 -7.70497e-05 0.0272824 0.0553133 0.0831718 0.109319 0.132286 0.151712 0.16782 0.180063 0.189628 0.196544 0.201655 0.2043 0.204208 0.200931 0.193682 0.183364 0.169766 0.15462 0.138778 0.123957 0.112566 0.105254 0.103499 0.105127 0.107612 0.107842 0.102253 0.090605 0.0718981 0.0486151 0.0253671 0.00871993 0.0104495 0.039021 0.0985044 0.183569 0.27678 0.359906 0.414038 0.426889 0.397044 0.326332 0.227683 0.12074 0.0215415 -0.051343 -0.0907477 -0.100764 -0.0871174 -0.0623229 -0.0343829 -0.00692467 0.010112 0.0154045 0.0148127 0.010532 0.00508591 -0.00225146 -0.0117408 -0.0179055 -0.0196934 -0.0210481 -0.0223249 -0.0203625 -0.0132431 -0.00357023 -0.000331952 0 0 
0 0 0.00639016 0.00996276 0.00539343 -0.00622773 -0.0196238 -0.0279261 -0.0287608 -0.0253156 -0.0222887 -0.0188978 -0.0110418 -0.00191167 0.00195484 -0.00166063 -0.0131215 -0.0312247 -0.0570278 -0.0898415 -0.116577 -0.122348 -0.0974816 -0.0375442 0.0517038 0.159926 0.271265 0.362128 0.413121 0.413391 0.364559 0.282752 0.187498 0.0988879 0.0326633 -0.00467488 -0.0119646 0.00422086 0.0331845 0.0642827 0.0872789 0.0981857 0.0979297 0.0909253 0.0843848 0.0822466 0.0868228 0.0968397 0.109232 0.121988 0.132958 0.14259 0.151357 0.160213 0.169842 0.179492 0.188841 0.196186 0.200862 0.201851 0.19865 0.191472 0.180033 0.165135 0.146688 0.125595 0.102113 0.0768516 0.0506873 0.0240389 -0.00191054 -0.0268975 -0.0500315 -0.0711858 -0.0893142 -0.103743 -0.113394 -0.117892 -0.11699 -0.110961 -0.10094 -0.0880537 -0.0743599 -0.0611296 -0.0499682 -0.0410396 -0.0345822 -0.0298495 -0.0265427 -0.023805 -0.0216036 -0.0194204 -0.0173777 -0.0152327 -0.0132381 -0.0112836 -0.00955203 -0.00808979 -0.00706273 -0.00644814 -0.00638129 -0.00662896 -0.00736063 -0.00840637 -0.00989156 -0.0119124 -0.0148076 -0.0187243 -0.0237362 -0.0287686 -0.0322335 -0.0318236 -0.0269479 -0.0189782 -0.0126464 -0.0128074 -0.0226676 -0.040857 -0.0639071 -0.0874464 -0.109044 -0.125508 -0.133538 -0.130666 -0.118877 -0.103335 -0.0873275 -0.0703183 -0.0497231 -0.0258671 -0.000514748 0.024861 0.0511166 0.0775367 0.102856 0.125941 0.14681 0.165356 0.180456 0.192275 0.20023 0.204232 0.203373 0.197818 0.188376 0.175908 0.163181 0.151661 0.142781 0.135767 0.128902 0.120612 0.109596 0.097937 0.0876282 0.0818955 0.0823403 0.0871047 0.0931814 0.0940256 0.0850295 0.0642697 0.0344135 0.0055455 -0.0110592 -0.00388931 0.0334053 0.099139 0.186819 0.281628 0.363819 0.413104 0.412279 0.359941 0.268973 0.158608 0.0515247 -0.037166 -0.096889 -0.121644 -0.115827 -0.0893138 -0.0568291 -0.0311865 -0.0131884 -0.00182024 0.00174289 -0.00203175 -0.0109846 -0.0186467 -0.0218096 -0.0246319 -0.0280601 -0.027443 -0.0195021 -0.00646395 0.00488168 0.00482023 0 0 
0 0 0.00824514 0.0155148 0.0162989 0.00707283 -0.0104586 -0.0284906 -0.0381991 -0.0363166 -0.0301589 -0.0272501 -0.0242793 -0.0200686 -0.0204216 -0.0300331 -0.0537476 -0.0863492 -0.114745 -0.133436 -0.131967 -0.0957706 -0.0211714 0.0866085 0.207429 0.312939 0.382808 0.403204 0.371292 0.296926 0.196678 0.0946909 0.0139309 -0.0321176 -0.0402159 -0.0205284 0.0119713 0.0440455 0.0667534 0.0789917 0.0827691 0.0816277 0.0793921 0.0779169 0.0792404 0.0836407 0.0910668 0.100488 0.110166 0.119175 0.12649 0.132807 0.139074 0.146366 0.155865 0.167127 0.179495 0.190901 0.199523 0.203383 0.201078 0.192645 0.178095 0.159034 0.136594 0.112568 0.0881154 0.0641124 0.0412809 0.0196674 -0.000579289 -0.0197468 -0.0379446 -0.0554223 -0.0717974 -0.0863792 -0.098241 -0.106243 -0.109759 -0.108346 -0.102726 -0.0938185 -0.0835796 -0.0732889 -0.0643693 -0.0571594 -0.0516313 -0.0474086 -0.0439404 -0.0407457 -0.0376489 -0.0344687 -0.0312729 -0.0281402 -0.0251302 -0.0224337 -0.0200805 -0.0182512 -0.0168972 -0.0162469 -0.016021 -0.0164564 -0.0172647 -0.0186884 -0.0205601 -0.0231582 -0.0266653 -0.0314117 -0.0372786 -0.0435181 -0.0482966 -0.0492488 -0.0450736 -0.0368159 -0.0287387 -0.0265938 -0.0343911 -0.0518905 -0.0749425 -0.0975232 -0.115317 -0.125035 -0.125321 -0.116299 -0.101383 -0.0850322 -0.0698338 -0.0546344 -0.0374134 -0.0184363 0.000927429 0.0205378 0.0418222 0.0648842 0.0887913 0.112634 0.136263 0.158684 0.177742 0.192477 0.201667 0.205004 0.201845 0.193254 0.1808 0.166033 0.151603 0.139202 0.130217 0.124142 0.119849 0.115426 0.109094 0.101151 0.0920894 0.0838745 0.077737 0.0745197 0.0748057 0.0773602 0.0804248 0.0792149 0.0688266 0.046496 0.0136601 -0.0197324 -0.040118 -0.0326061 0.0128361 0.093295 0.195416 0.295703 0.369489 0.400513 0.37981 0.310658 0.206161 0.0860691 -0.0211694 -0.0952565 -0.131143 -0.13267 -0.114191 -0.0859663 -0.0535218 -0.0300121 -0.0205049 -0.0201077 -0.0242401 -0.0271152 -0.029799 -0.0356335 -0.03733 -0.0276735 -0.0099401 0.0069867 0.0154279 0.0101407 0 0 
0 0 0.00818296 0.0180226 0.0252811 0.0236664 0.00882031 -0.0166054 -0.041093 -0.0510038 -0.047234 -0.0422557 -0.0417288 -0.0477088 -0.0600601 -0.0761205 -0.102844 -0.136025 -0.152085 -0.137249 -0.0832747 0.0104962 0.125961 0.244831 0.343262 0.392423 0.381469 0.314109 0.20904 0.0978915 0.00454381 -0.0551821 -0.075639 -0.0644181 -0.0316304 0.00842422 0.0421528 0.0634634 0.0701682 0.0677181 0.063494 0.062659 0.0685071 0.0784496 0.08897 0.0965831 0.0992206 0.0986986 0.0973162 0.0985911 0.104546 0.115334 0.12991 0.145557 0.16042 0.172503 0.181048 0.186072 0.187663 0.186386 0.182261 0.175486 0.165782 0.152998 0.137274 0.118655 0.0977972 0.0752136 0.0518648 0.0283047 0.00550715 -0.016223 -0.0364439 -0.0550761 -0.0718409 -0.0862281 -0.0976096 -0.104956 -0.107644 -0.105339 -0.0986852 -0.0890509 -0.0781934 -0.067866 -0.0591723 -0.0525987 -0.0478321 -0.0444543 -0.0418159 -0.0394772 -0.0371444 -0.0347461 -0.0322388 -0.0298127 -0.0274632 -0.0254214 -0.0237047 -0.0224373 -0.0214931 -0.0210005 -0.020876 -0.0211671 -0.0218016 -0.0228352 -0.0241857 -0.0261676 -0.0289667 -0.0329358 -0.0379936 -0.0435604 -0.0477814 -0.048352 -0.0435343 -0.0340623 -0.0240828 -0.0200572 -0.0271122 -0.0459783 -0.0717643 -0.0969436 -0.115063 -0.123142 -0.121425 -0.112156 -0.0988382 -0.084449 -0.0700613 -0.0542042 -0.0355911 -0.0147345 0.00701909 0.0291915 0.0524635 0.0759209 0.0981859 0.118323 0.136567 0.152217 0.16488 0.174629 0.182022 0.187086 0.189153 0.18815 0.183079 0.173257 0.158734 0.140834 0.122432 0.106339 0.0960199 0.0922261 0.0939613 0.098056 0.100067 0.0972854 0.0881522 0.075628 0.0641797 0.0584834 0.0612343 0.0683919 0.0731421 0.0670078 0.0445077 0.00895134 -0.0324553 -0.0659386 -0.0773812 -0.0569501 0.00287498 0.0962048 0.207197 0.312138 0.378977 0.389951 0.341253 0.243275 0.125053 0.0103453 -0.0827444 -0.13647 -0.151306 -0.135314 -0.102306 -0.0757871 -0.0598621 -0.0475676 -0.0416289 -0.042151 -0.0469478 -0.0504067 -0.0402767 -0.015679 0.00971963 0.0240922 0.0247098 0.0136412 0 0 
0 0 0.00626887 0.0165003 0.0288186 0.0377732 0.0340314 0.0108476 -0.0260273 -0.0574823 -0.0710897 -0.0715609 -0.071056 -0.0837896 -0.11019 -0.134542 -0.152447 -0.158618 -0.134139 -0.0703035 0.0348919 0.167244 0.286711 0.363344 0.381427 0.335146 0.241818 0.124458 0.00877105 -0.0755959 -0.115909 -0.11267 -0.0777027 -0.0335099 0.00524586 0.0303367 0.0411742 0.0455764 0.0480396 0.052636 0.0604193 0.0683542 0.0759972 0.0813753 0.0842073 0.0854366 0.0848923 0.0847443 0.0857548 0.0897523 0.0977895 0.109394 0.124495 0.140347 0.155498 0.167803 0.176056 0.18026 0.180458 0.177947 0.173057 0.166756 0.159091 0.149645 0.138256 0.124036 0.107112 0.0871356 0.0648675 0.0408828 0.0161528 -0.00823614 -0.0316201 -0.0530762 -0.0722597 -0.0883036 -0.100779 -0.108478 -0.110822 -0.107414 -0.0991404 -0.087517 -0.0745865 -0.0624168 -0.0521603 -0.044395 -0.0387576 -0.034871 -0.0318882 -0.0296177 -0.0274779 -0.0255255 -0.0236628 -0.0220247 -0.0204736 -0.0193028 -0.0183478 -0.0177512 -0.0172875 -0.0171498 -0.0170165 -0.0172376 -0.0174686 -0.0180171 -0.0187275 -0.019976 -0.0218939 -0.025012 -0.0292148 -0.0341288 -0.0380639 -0.0387431 -0.0340437 -0.0246474 -0.0143729 -0.0103913 -0.0187057 -0.040641 -0.0705517 -0.0991798 -0.118382 -0.125355 -0.12228 -0.112917 -0.1006 -0.0864963 -0.0706966 -0.0520087 -0.0304339 -0.00668641 0.0175543 0.041715 0.0653865 0.0875599 0.107098 0.123354 0.137238 0.148547 0.157839 0.165489 0.172157 0.177666 0.180848 0.18147 0.177861 0.169401 0.155813 0.138342 0.119507 0.101752 0.0889178 0.0815345 0.0798944 0.0819704 0.0846202 0.0860995 0.0840126 0.0792508 0.0721618 0.0643647 0.0584657 0.0538845 0.0519204 0.0499548 0.043706 0.0301549 0.00310411 -0.0362331 -0.080031 -0.114506 -0.117416 -0.0768434 0.00794053 0.124254 0.240999 0.333667 0.379466 0.361267 0.284944 0.166225 0.0347094 -0.0699443 -0.133471 -0.157774 -0.151603 -0.133817 -0.109632 -0.083382 -0.0707712 -0.0713228 -0.0707831 -0.0570612 -0.0255241 0.0115483 0.0350694 0.0388374 0.0292168 0.0139502 0 0 
0 0 0.00327163 0.0115456 0.0255367 0.0437715 0.0561958 0.0478843 0.0118293 -0.0398261 -0.0857713 -0.112106 -0.121474 -0.134168 -0.160304 -0.181759 -0.178252 -0.135657 -0.0481999 0.0680032 0.194101 0.306812 0.368789 0.359959 0.283084 0.158992 0.0288043 -0.0746057 -0.13567 -0.149666 -0.129432 -0.0905844 -0.0459741 -0.00997019 0.0132632 0.0238314 0.0255884 0.0280024 0.0347224 0.0469747 0.0617743 0.0723526 0.0766877 0.0737886 0.0671752 0.0622813 0.06163 0.0675891 0.0780339 0.0907646 0.103507 0.114191 0.123637 0.131981 0.140793 0.15062 0.160884 0.171043 0.17895 0.183628 0.183532 0.178516 0.16876 0.154846 0.138161 0.119076 0.099228 0.0785663 0.0582141 0.0379806 0.0182898 -0.0007171 -0.0191372 -0.03658 -0.0533364 -0.0685843 -0.0821719 -0.0924245 -0.0984742 -0.0992441 -0.0952328 -0.0876548 -0.0784063 -0.0693172 -0.0615909 -0.0557088 -0.0512628 -0.0480346 -0.0452187 -0.042818 -0.0402465 -0.0379074 -0.0355271 -0.0335208 -0.0315669 -0.0301712 -0.0289269 -0.0281208 -0.0274651 -0.0271407 -0.0269869 -0.027153 -0.0275057 -0.0282158 -0.0291431 -0.0307053 -0.0328574 -0.0363376 -0.0408422 -0.0462576 -0.0506909 -0.0520462 -0.0476703 -0.0379996 -0.0265767 -0.0209068 -0.0275327 -0.0481793 -0.0766939 -0.102363 -0.116296 -0.116502 -0.107377 -0.0944179 -0.0810577 -0.0670109 -0.051985 -0.0352478 -0.0176845 0.000731045 0.0194258 0.03865 0.0585347 0.0785732 0.0987537 0.118098 0.136925 0.153521 0.167301 0.176972 0.18213 0.182502 0.178258 0.171157 0.161881 0.152151 0.142163 0.13214 0.121473 0.109114 0.0960331 0.0822471 0.070358 0.0623736 0.0593237 0.0619863 0.0670494 0.0723221 0.0735689 0.068933 0.0602461 0.0487478 0.0392305 0.0326873 0.0277552 0.0224489 0.00962855 -0.0137013 -0.0484471 -0.0918423 -0.130072 -0.149821 -0.135036 -0.0730288 0.030024 0.159112 0.282122 0.358211 0.366835 0.30514 0.193026 0.0675451 -0.0480563 -0.134955 -0.177272 -0.180733 -0.159395 -0.133406 -0.120823 -0.111583 -0.0854269 -0.039696 0.0118226 0.0480916 0.0570425 0.045268 0.027135 0.0110193 0 0 
0 0 0.000243765 0.00498404 0.016856 0.0392315 0.0660769 0.0806303 0.0633876 0.0083685 -0.069312 -0.140904 -0.183928 -0.200829 -0.20471 -0.192278 -0.147098 -0.0537093 0.0823802 0.221903 0.321317 0.354463 0.312022 0.210172 0.0790824 -0.0501988 -0.144358 -0.186008 -0.178542 -0.137574 -0.0889721 -0.0509014 -0.027424 -0.015895 -0.00731036 0.0035005 0.0158607 0.029071 0.0394321 0.0463017 0.0504653 0.051812 0.0526014 0.0526637 0.0528117 0.0542129 0.0569595 0.0627049 0.0710037 0.0816931 0.0940453 0.106368 0.1187 0.129855 0.140431 0.150531 0.159904 0.168784 0.175699 0.180417 0.1813 0.177892 0.169865 0.15732 0.14133 0.122261 0.101718 0.080311 0.0592819 0.0388909 0.0197176 0.00191024 -0.0146477 -0.0298438 -0.0442557 -0.0575097 -0.0696056 -0.0793353 -0.0856817 -0.087556 -0.0852523 -0.0797277 -0.0727957 -0.0661371 -0.0607857 -0.0571213 -0.0546827 -0.0531003 -0.051718 -0.0504696 -0.049009 -0.0475322 -0.0459817 -0.0446091 -0.0433093 -0.0423028 -0.041379 -0.040718 -0.0401634 -0.0399376 -0.039723 -0.0398863 -0.0400925 -0.0406698 -0.0414391 -0.0426766 -0.0444184 -0.0471851 -0.0509667 -0.0555067 -0.0591565 -0.0596061 -0.0543292 -0.04334 -0.0301462 -0.0223083 -0.0269577 -0.0460738 -0.0731196 -0.0965371 -0.107049 -0.103482 -0.09205 -0.0793485 -0.0679969 -0.0563058 -0.0430795 -0.0282792 -0.0130839 0.00307566 0.0204603 0.0392992 0.0592988 0.0798455 0.100841 0.121103 0.139974 0.155829 0.168252 0.176131 0.179429 0.178616 0.174203 0.167848 0.159864 0.151399 0.141924 0.131246 0.11885 0.104296 0.0892477 0.0746614 0.0631446 0.0557882 0.0523136 0.0520096 0.0518593 0.0514317 0.0502627 0.0491099 0.0494265 0.0483081 0.0440007 0.0334735 0.0171825 0.000828677 -0.0121141 -0.0200145 -0.0292597 -0.0508852 -0.0882471 -0.136552 -0.176832 -0.183442 -0.141788 -0.0485561 0.0795987 0.209678 0.310765 0.352769 0.319601 0.220614 0.0818048 -0.0535326 -0.146361 -0.191214 -0.203505 -0.199601 -0.182811 -0.140128 -0.0690618 0.00809291 0.062834 0.080285 0.0664937 0.0407386 0.0192864 0.00607072 0 0 
0 0 -0.00196677 -0.0010664 0.00608173 0.0260558 0.0591837 0.0943272 0.107464 0.0736873 -0.0121267 -0.124547 -0.218499 -0.257467 -0.233877 -0.160461 -0.0525032 0.0767614 0.207812 0.304403 0.327464 0.26356 0.134159 -0.0135545 -0.132547 -0.199069 -0.212161 -0.186632 -0.143478 -0.0990584 -0.0646538 -0.0439751 -0.0329928 -0.0260717 -0.0170562 -0.00356572 0.0117674 0.0254895 0.0336368 0.035136 0.0324313 0.028901 0.028538 0.032661 0.0401872 0.0490083 0.0563788 0.0617516 0.0660019 0.0712151 0.0798204 0.0923978 0.10886 0.126875 0.144229 0.158598 0.168408 0.173737 0.174811 0.172982 0.169062 0.163775 0.157388 0.149541 0.140008 0.12798 0.113461 0.096202 0.0767747 0.0555929 0.0335613 0.0116286 -0.00955452 -0.0289546 -0.0466825 -0.0620566 -0.0750161 -0.0844614 -0.0896355 -0.0896337 -0.0849764 -0.0769274 -0.0674869 -0.0585044 -0.0510116 -0.0456097 -0.0418465 -0.0394023 -0.0376274 -0.0364007 -0.0354016 -0.0346743 -0.0340641 -0.0337479 -0.0334437 -0.0333293 -0.0331732 -0.0331593 -0.0330733 -0.0330087 -0.032928 -0.0329365 -0.032946 -0.0330257 -0.0331218 -0.0335605 -0.0343568 -0.036029 -0.0386164 -0.0421061 -0.0450106 -0.0451829 -0.040229 -0.0300111 -0.0179742 -0.0116729 -0.0182952 -0.039861 -0.0693772 -0.0947701 -0.106457 -0.103783 -0.0937338 -0.083041 -0.0732567 -0.0612803 -0.0456661 -0.0272592 -0.00805192 0.0123352 0.0337928 0.0556831 0.0764594 0.0953093 0.112289 0.126729 0.138562 0.147856 0.15559 0.161823 0.166866 0.170727 0.172735 0.172052 0.167417 0.158542 0.145197 0.128507 0.110414 0.092825 0.078156 0.0669845 0.0596944 0.054705 0.0501682 0.0446323 0.0375037 0.0306994 0.0263821 0.0267738 0.0316763 0.0369519 0.0375463 0.0290292 0.0121256 -0.00703456 -0.0221615 -0.0296501 -0.0335159 -0.0424115 -0.0626831 -0.0973535 -0.14153 -0.184109 -0.209352 -0.19664 -0.130802 -0.0125581 0.134219 0.262652 0.325949 0.302844 0.206637 0.076177 -0.0523739 -0.159614 -0.232482 -0.255851 -0.217108 -0.123795 -0.0121896 0.0729789 0.106522 0.0936017 0.0591326 0.0271637 0.00858886 0.000891097 0 0 
0 0 -0.0030094 -0.00513085 -0.00337221 0.00909585 0.0378154 0.0813498 0.121831 0.126688 0.0701252 -0.0438038 -0.170668 -0.24219 -0.214915 -0.0983663 0.059076 0.194888 0.265371 0.258729 0.179956 0.0521511 -0.0857315 -0.195616 -0.248945 -0.241778 -0.19627 -0.140979 -0.098574 -0.0767099 -0.0670701 -0.0589368 -0.0452428 -0.0262143 -0.00857585 0.00305534 0.00760083 0.00773093 0.00827182 0.0109485 0.0154912 0.0202037 0.0233348 0.0254763 0.0275298 0.0313176 0.0377701 0.0466824 0.0575437 0.0692989 0.0815698 0.0941976 0.107234 0.12077 0.134376 0.147395 0.15868 0.167377 0.172708 0.174374 0.172461 0.167365 0.159646 0.149759 0.138123 0.125058 0.110536 0.0948305 0.0778363 0.0598736 0.0410925 0.0219651 0.00296131 -0.0153124 -0.03264 -0.0486349 -0.0628178 -0.074299 -0.081725 -0.0843493 -0.0821879 -0.0764988 -0.0689529 -0.0613507 -0.0548131 -0.0497522 -0.0461061 -0.0434525 -0.0415192 -0.0399551 -0.0388064 -0.0378474 -0.0371649 -0.0365943 -0.0362276 -0.0359235 -0.0357199 -0.035496 -0.0353847 -0.0352339 -0.0352317 -0.0351586 -0.0352563 -0.0353484 -0.0356197 -0.0360565 -0.0369593 -0.0385542 -0.0412004 -0.0445591 -0.0475926 -0.0480471 -0.0438733 -0.0345135 -0.0234434 -0.0176106 -0.0240776 -0.0444188 -0.0718408 -0.0942615 -0.10241 -0.096492 -0.0839855 -0.0719861 -0.0611436 -0.0482794 -0.0318152 -0.0136323 0.00419539 0.0220996 0.0407872 0.0596048 0.0772097 0.0936443 0.10919 0.123719 0.136559 0.14788 0.157616 0.165214 0.170066 0.171865 0.170318 0.165211 0.156975 0.146531 0.134535 0.121968 0.109188 0.0961958 0.0825187 0.0682648 0.0541904 0.0413501 0.0316333 0.0256015 0.0228461 0.0217213 0.0201048 0.0175842 0.0143596 0.0121224 0.0112122 0.0102871 0.00740216 -0.000297869 -0.0128466 -0.028445 -0.0443108 -0.0562251 -0.0645623 -0.0749975 -0.0969613 -0.138925 -0.193849 -0.239392 -0.246724 -0.193587 -0.0843002 0.0526881 0.179588 0.257801 0.264144 0.193732 0.0585483 -0.0978974 -0.213632 -0.240678 -0.169566 -0.0435163 0.0695924 0.12569 0.120809 0.08055 0.03744 0.0095918 -0.00153078 -0.00304406 0 0 
0 0 -0.0030386 -0.00684837 -0.00953776 -0.00667412 0.00902906 0.0448195 0.0961625 0.139439 0.143448 0.0880273 -0.0109837 -0.0923906 -0.0961572 -0.0115206 0.116891 0.205722 0.194756 0.0920747 -0.0542492 -0.18495 -0.258527 -0.274683 -0.249471 -0.202604 -0.155713 -0.117266 -0.0907013 -0.0768288 -0.0673135 -0.0569643 -0.0427741 -0.0244988 -0.00937377 -0.00119981 -0.000692895 -0.00535229 -0.00803468 -0.00637176 -0.000157405 0.00810363 0.013736 0.0162287 0.0160505 0.0163157 0.0206948 0.0301636 0.0449753 0.0624469 0.0799093 0.0954029 0.107579 0.117481 0.125846 0.134498 0.143964 0.153965 0.163653 0.171267 0.175429 0.17475 0.168998 0.158372 0.143671 0.126466 0.10772 0.0889578 0.0706326 0.0535541 0.0376127 0.0228382 0.00895214 -0.00422358 -0.0168461 -0.0293055 -0.0412445 -0.0520865 -0.0604111 -0.0654002 -0.0666987 -0.0651753 -0.0620329 -0.0587447 -0.0561084 -0.0545166 -0.0537262 -0.0534927 -0.0535387 -0.0536593 -0.0537569 -0.0537579 -0.0537555 -0.0536289 -0.0534731 -0.053242 -0.0531131 -0.0528285 -0.0527147 -0.0525066 -0.0524999 -0.0524499 -0.0526114 -0.0527022 -0.0530251 -0.0533405 -0.0540706 -0.0552799 -0.0572228 -0.0595889 -0.0614243 -0.0606879 -0.0553698 -0.0450478 -0.0328084 -0.0250608 -0.0281909 -0.0437822 -0.0653421 -0.0817803 -0.0848454 -0.0754922 -0.0613656 -0.0494177 -0.0398218 -0.029304 -0.0162534 -0.00280953 0.00970237 0.0223928 0.0368659 0.0529935 0.0697759 0.0875569 0.106238 0.125054 0.141944 0.156254 0.166798 0.172471 0.1729 0.16865 0.161134 0.151574 0.141824 0.133043 0.1253 0.117965 0.109243 0.0978872 0.0824617 0.0641273 0.0449774 0.0279649 0.0165486 0.0109151 0.0100631 0.0101634 0.00802921 0.00336488 -0.00290947 -0.00643646 -0.00599221 -0.00321363 -0.000550326 -0.0034343 -0.0120255 -0.0251102 -0.040712 -0.0538271 -0.0649717 -0.0755476 -0.0895172 -0.115505 -0.15372 -0.2007 -0.247509 -0.272364 -0.256136 -0.182959 -0.0529828 0.092489 0.194322 0.204799 0.116189 -0.0115018 -0.0956335 -0.0918999 -0.0109519 0.0874748 0.142495 0.138448 0.0954019 0.0442382 0.00855061 -0.00676352 -0.00876887 -0.00513264 0 0 
0 0 -0.00253238 -0.00689131 -0.0125097 -0.0186118 -0.0196182 -0.00385082 0.0384303 0.104857 0.179198 0.230678 0.233247 0.195576 0.147047 0.111721 0.094203 0.0610786 -0.0217633 -0.142526 -0.262255 -0.333392 -0.329299 -0.27391 -0.205935 -0.15336 -0.128386 -0.116802 -0.102679 -0.0830121 -0.0586375 -0.0389658 -0.0288496 -0.0240219 -0.0224444 -0.0192188 -0.0139348 -0.0101067 -0.00795325 -0.00925669 -0.0121825 -0.0134661 -0.0123575 -0.00687621 0.00107281 0.0101171 0.0195456 0.0282067 0.0378822 0.0487759 0.0618352 0.0773174 0.0935371 0.110018 0.124631 0.137046 0.146685 0.153557 0.158425 0.161019 0.162107 0.161098 0.157967 0.152351 0.143802 0.132649 0.118593 0.102631 0.0848203 0.06649 0.04784 0.0297148 0.0126055 -0.00325244 -0.0175284 -0.0305619 -0.0418409 -0.0513158 -0.0576756 -0.060689 -0.0600648 -0.0569443 -0.0524493 -0.0480672 -0.0446233 -0.0424948 -0.0415811 -0.041527 -0.042196 -0.0430861 -0.0442598 -0.0453363 -0.0465208 -0.0474728 -0.0483571 -0.0490514 -0.0496853 -0.0499926 -0.0503601 -0.0504243 -0.0505314 -0.0503962 -0.0503082 -0.0499232 -0.0496415 -0.04916 -0.0488747 -0.0488509 -0.0493942 -0.0501501 -0.0505479 -0.0487012 -0.0432029 -0.0335825 -0.0228788 -0.0165618 -0.0203011 -0.0352662 -0.0556085 -0.0714465 -0.0754945 -0.0687933 -0.0578814 -0.0487796 -0.0407883 -0.0308629 -0.0172713 -0.0023058 0.0128158 0.0287975 0.0467639 0.0657097 0.0838035 0.101078 0.116959 0.131095 0.141894 0.150077 0.155642 0.158723 0.15955 0.158405 0.155935 0.151151 0.144425 0.13527 0.123556 0.109841 0.0945705 0.0795805 0.0649824 0.0521986 0.0407465 0.0295825 0.018655 0.00665612 -0.00488286 -0.0148586 -0.0212146 -0.0216571 -0.0178096 -0.0111197 -0.00652599 -0.00747587 -0.0124295 -0.0196671 -0.0233641 -0.0234913 -0.0263789 -0.0360003 -0.0567032 -0.0821026 -0.10171 -0.115137 -0.126649 -0.151864 -0.204359 -0.271748 -0.326658 -0.330643 -0.259744 -0.14047 -0.0204779 0.0614762 0.0939777 0.111098 0.146 0.194123 0.231628 0.229179 0.178051 0.104185 0.0381613 -0.00405027 -0.0200247 -0.0191131 -0.0127862 -0.00571861 0 0 
0 0 -0.00210629 -0.00657544 -0.0141258 -0.0272127 -0.0434165 -0.0505583 -0.028354 0.0439257 0.175561 0.341663 0.481879 0.534073 0.461077 0.275975 0.0457528 -0.161828 -0.307012 -0.375688 -0.386167 -0.359503 -0.30615 -0.245225 -0.189817 -0.147077 -0.123083 -0.108687 -0.0939145 -0.0765788 -0.0551575 -0.0368308 -0.0268825 -0.0231461 -0.0245749 -0.0255099 -0.0234392 -0.0206593 -0.0179038 -0.0186553 -0.0226233 -0.0265954 -0.0285886 -0.0247818 -0.015702 -0.00316326 0.0105966 0.022323 0.0324841 0.0412783 0.050844 0.0630757 0.0780189 0.0957004 0.113591 0.130104 0.143286 0.151959 0.156504 0.157039 0.15527 0.151644 0.147276 0.142157 0.136157 0.129036 0.119906 0.108913 0.0953535 0.0800564 0.0628932 0.044719 0.0262877 0.00825511 -0.00869415 -0.0243145 -0.0378905 -0.0491733 -0.0568771 -0.0608429 -0.0607821 -0.0579213 -0.053231 -0.0482601 -0.0438619 -0.0404824 -0.0383225 -0.0370758 -0.0366648 -0.0367685 -0.0373154 -0.0379454 -0.0388389 -0.0396007 -0.0404994 -0.0411515 -0.0418691 -0.042291 -0.042784 -0.0428712 -0.0430837 -0.0428727 -0.042782 -0.0422828 -0.0418887 -0.0412946 -0.0409633 -0.0407361 -0.0411148 -0.0416545 -0.0420087 -0.0406673 -0.0366037 -0.0296473 -0.0222428 -0.0187757 -0.0237818 -0.0377639 -0.0557391 -0.0695217 -0.0730158 -0.0671332 -0.0569038 -0.0471903 -0.0372758 -0.0248655 -0.00883488 0.00859005 0.0259814 0.0435218 0.0616479 0.0790974 0.0941699 0.107252 0.118153 0.12728 0.134079 0.139793 0.144903 0.149273 0.152765 0.154502 0.154094 0.149662 0.141097 0.128319 0.112297 0.0950506 0.0784544 0.0647828 0.0538928 0.0454413 0.0372038 0.0265318 0.0129839 -0.00387851 -0.0204289 -0.0334806 -0.0399609 -0.0381872 -0.0314672 -0.0227041 -0.017165 -0.0173079 -0.0202507 -0.0240215 -0.024103 -0.022113 -0.0246812 -0.0343496 -0.0535003 -0.0757051 -0.0929672 -0.107166 -0.12148 -0.145632 -0.188302 -0.243279 -0.303857 -0.356834 -0.383054 -0.372161 -0.303683 -0.159645 0.0461796 0.274479 0.458026 0.530371 0.478577 0.33941 0.174461 0.0437173 -0.0281108 -0.0504058 -0.0437308 -0.0279754 -0.0150582 -0.00584517 0 0 
0 0 -0.00250715 -0.00748058 -0.0171676 -0.0350618 -0.0608605 -0.0829551 -0.0757701 -0.00442846 0.1583 0.398038 0.640698 0.7778 0.717304 0.447807 0.0654805 -0.285711 -0.493582 -0.527829 -0.448002 -0.340714 -0.260101 -0.21914 -0.196519 -0.168642 -0.132891 -0.0965649 -0.0702388 -0.0588078 -0.0545308 -0.0497745 -0.0407447 -0.0280626 -0.0192376 -0.0179851 -0.0237452 -0.0331394 -0.0395585 -0.0410104 -0.0379111 -0.0326371 -0.0287936 -0.0261891 -0.0241133 -0.0200024 -0.0115222 0.000995949 0.0170822 0.0340294 0.0499764 0.06396 0.0755804 0.0863183 0.0967137 0.108101 0.120284 0.132407 0.143606 0.151967 0.156946 0.157592 0.15406 0.14688 0.136798 0.124994 0.111948 0.0988454 0.0856129 0.0728393 0.0602245 0.0478636 0.0355852 0.0233113 0.0111386 -0.00115026 -0.0129926 -0.0240812 -0.0334151 -0.0404171 -0.0446804 -0.0468348 -0.0473886 -0.0473 -0.047268 -0.0475649 -0.0483084 -0.0493419 -0.050635 -0.0518981 -0.0531609 -0.0542532 -0.0552756 -0.0560711 -0.0568463 -0.0573518 -0.0579299 -0.058158 -0.058473 -0.0585768 -0.0586964 -0.0585942 -0.0585088 -0.0582077 -0.0580112 -0.0575302 -0.0572668 -0.0569746 -0.0569431 -0.0567982 -0.0561272 -0.053888 -0.0493586 -0.0424796 -0.0351874 -0.030645 -0.0318979 -0.0391552 -0.0488092 -0.0549376 -0.0534241 -0.0451292 -0.0338005 -0.0230259 -0.0128421 -0.0018688 0.0105897 0.023019 0.034841 0.046566 0.0589395 0.0716959 0.0842305 0.0970842 0.110087 0.123063 0.134631 0.144558 0.151727 0.155238 0.154552 0.149608 0.141374 0.130281 0.118295 0.106449 0.0954434 0.0855639 0.0756939 0.0652299 0.0526848 0.0382128 0.0224725 0.00665866 -0.00710504 -0.0185555 -0.0271632 -0.0342114 -0.0406435 -0.0456923 -0.0487793 -0.0470047 -0.0401514 -0.0300736 -0.0198256 -0.0151941 -0.0176849 -0.0267493 -0.0389349 -0.0477983 -0.0529437 -0.0577236 -0.0691252 -0.0951968 -0.13131 -0.167054 -0.194865 -0.217362 -0.258161 -0.338297 -0.444615 -0.523431 -0.489024 -0.282563 0.0659979 0.445368 0.712673 0.772548 0.63635 0.395401 0.157321 -0.00431032 -0.0752441 -0.0826837 -0.0613046 -0.0362466 -0.0180811 -0.00705701 0 0 
0 0 -0.00475938 -0.0136194 -0.0241654 -0.0442779 -0.0714913 -0.0931509 -0.0834967 -0.00853345 0.156528 0.399496 0.654619 0.818634 0.797789 0.56681 0.196987 -0.178868 -0.437078 -0.524044 -0.473259 -0.364682 -0.26828 -0.21354 -0.189265 -0.169755 -0.140497 -0.103459 -0.0707876 -0.0524268 -0.047553 -0.0483615 -0.0466014 -0.0389949 -0.0296458 -0.0244489 -0.0268907 -0.0358725 -0.046053 -0.0523937 -0.0523419 -0.0468123 -0.0392624 -0.0325497 -0.0280585 -0.0247187 -0.019989 -0.0118542 0.00081071 0.0170781 0.0350304 0.0524422 0.0675362 0.0798951 0.089839 0.0986272 0.107268 0.116357 0.125889 0.134965 0.142584 0.147478 0.148769 0.146078 0.139459 0.129548 0.117143 0.103297 0.0887921 0.0744691 0.0607553 0.0479591 0.0361273 0.0252049 0.0150551 0.00547543 -0.00345351 -0.0116224 -0.018603 -0.0240773 -0.0279804 -0.0306179 -0.0324521 -0.0339928 -0.0357548 -0.0378903 -0.0404277 -0.0432589 -0.0462263 -0.0491534 -0.0519427 -0.0544995 -0.0568173 -0.0588191 -0.0605579 -0.062004 -0.0632191 -0.0641035 -0.0647701 -0.065164 -0.0653209 -0.0651906 -0.0648226 -0.064172 -0.063332 -0.0622076 -0.0609252 -0.0594678 -0.0578581 -0.0558587 -0.0531454 -0.0492133 -0.043743 -0.0370548 -0.0304925 -0.0260152 -0.0252603 -0.0281531 -0.0325062 -0.0349234 -0.0331837 -0.027468 -0.0197259 -0.0117345 -0.00381079 0.00466837 0.0141855 0.024355 0.035099 0.0467005 0.0594415 0.0731143 0.0872185 0.101477 0.115178 0.127504 0.137292 0.143823 0.14652 0.14523 0.140361 0.13282 0.123872 0.114468 0.105567 0.0971923 0.0887456 0.0792891 0.067663 0.0535913 0.0374771 0.0209306 0.00586024 -0.00635572 -0.0153542 -0.0225339 -0.0297539 -0.0387192 -0.049138 -0.0583511 -0.0627694 -0.0593544 -0.0486209 -0.0348881 -0.0241636 -0.0216453 -0.0274233 -0.0371878 -0.0448719 -0.0466989 -0.0460863 -0.0511661 -0.0695267 -0.102089 -0.138958 -0.168145 -0.187609 -0.211795 -0.266264 -0.362044 -0.469704 -0.519806 -0.43311 -0.176549 0.196629 0.563676 0.792789 0.813271 0.650272 0.396866 0.155542 -0.00845395 -0.0830857 -0.0931198 -0.0724822 -0.0469704 -0.0291814 -0.0113086 0 0 
0 0 -0.00596375 -0.0161378 -0.0283462 -0.0502547 -0.0794162 -0.103455 -0.0974204 -0.0281783 0.129662 0.369598 0.636494 0.835415 0.870723 0.699542 0.364751 -0.0205569 -0.329471 -0.483853 -0.484955 -0.39469 -0.288519 -0.214491 -0.179316 -0.162945 -0.143496 -0.113006 -0.0785359 -0.052447 -0.0412672 -0.0421751 -0.0467404 -0.0473757 -0.0426617 -0.0364304 -0.0340816 -0.038451 -0.0478368 -0.0575356 -0.0627863 -0.0613312 -0.0542495 -0.0445668 -0.0355801 -0.0288938 -0.0239209 -0.0186624 -0.0107923 0.00102566 0.0166697 0.0346262 0.052746 0.0690813 0.0824706 0.0928174 0.100746 0.107348 0.113604 0.119951 0.126287 0.132002 0.136136 0.137835 0.136346 0.131408 0.12314 0.112053 0.0988318 0.0843284 0.069405 0.054806 0.0410379 0.0284559 0.0172498 0.00737594 -0.00110538 -0.00816857 -0.013751 -0.0177958 -0.0204741 -0.0221593 -0.0233092 -0.0244106 -0.0258432 -0.0278284 -0.0303171 -0.0332742 -0.0364744 -0.0397934 -0.0431246 -0.0463099 -0.0493137 -0.0520457 -0.054465 -0.0565633 -0.0583237 -0.0597183 -0.0607368 -0.0613416 -0.061577 -0.0613733 -0.0607895 -0.0597973 -0.0584301 -0.0567159 -0.0547058 -0.0523936 -0.0497518 -0.046703 -0.0430762 -0.0386594 -0.0334401 -0.0278266 -0.0227389 -0.0193963 -0.0185777 -0.0201722 -0.0227456 -0.0243324 -0.0235338 -0.0201911 -0.0150521 -0.00890382 -0.0019078 0.00632498 0.0160827 0.0272721 0.0397999 0.0534868 0.0680226 0.0828232 0.0971293 0.110143 0.121108 0.129302 0.134178 0.13565 0.133977 0.129876 0.124226 0.118009 0.111807 0.105723 0.0993116 0.0916222 0.0815748 0.0686052 0.0528831 0.0356509 0.0188335 0.00450227 -0.00614909 -0.0134264 -0.0191729 -0.0260371 -0.0359459 -0.0488754 -0.0621219 -0.0712923 -0.0726291 -0.0651524 -0.0520324 -0.0393207 -0.0326686 -0.034063 -0.0402291 -0.0452486 -0.0449033 -0.0406029 -0.039876 -0.0511645 -0.0772404 -0.111642 -0.142016 -0.161408 -0.177724 -0.212733 -0.286348 -0.391832 -0.481355 -0.479995 -0.32638 -0.0194136 0.36325 0.695581 0.865352 0.830063 0.632354 0.367203 0.12885 -0.0280155 -0.0970284 -0.10356 -0.080709 -0.0534106 -0.0333034 -0.0134749 0 0 
0 0 -0.00640962 -0.0170956 -0.0300327 -0.0530835 -0.0844815 -0.113179 -0.115884 -0.0601489 0.0820616 0.312567 0.588917 0.826321 0.927683 0.831685 0.551049 0.173725 -0.177445 -0.403785 -0.472913 -0.42062 -0.317398 -0.225546 -0.172518 -0.151337 -0.139584 -0.119959 -0.0902518 -0.0600489 -0.0404766 -0.0358366 -0.0417982 -0.0497688 -0.0531405 -0.050878 -0.046723 -0.0456058 -0.0500115 -0.0585621 -0.0670508 -0.0711425 -0.0686887 -0.0603462 -0.0490127 -0.0378927 -0.0289698 -0.0223265 -0.016385 -0.00892817 0.00174338 0.0161249 0.0333215 0.0515417 0.0687428 0.08337 0.0946541 0.102679 0.108254 0.112352 0.115841 0.119168 0.122325 0.124846 0.126089 0.12532 0.122055 0.115992 0.10715 0.0958914 0.0828185 0.0686674 0.0541886 0.0400462 0.026745 0.0146698 0.00412057 -0.00469255 -0.0116344 -0.0166917 -0.0200696 -0.0221395 -0.0234023 -0.0243452 -0.0253535 -0.0267042 -0.0284297 -0.0305509 -0.0329366 -0.0355096 -0.0381883 -0.0408584 -0.043464 -0.0459203 -0.0481614 -0.0501711 -0.0519197 -0.0533318 -0.0543829 -0.0550199 -0.0552512 -0.0550438 -0.0544179 -0.0533881 -0.0519895 -0.0502432 -0.0482222 -0.0459386 -0.0433765 -0.0405278 -0.0373098 -0.0336705 -0.0297309 -0.0258325 -0.0225591 -0.0205835 -0.0202285 -0.0212779 -0.022695 -0.0232233 -0.0218946 -0.0183882 -0.0128904 -0.00571487 0.00298278 0.0133142 0.0252972 0.0386097 0.052801 0.067306 0.0813965 0.0942973 0.105331 0.113967 0.119943 0.123191 0.123939 0.122728 0.12025 0.117154 0.11394 0.110607 0.10668 0.101293 0.0934701 0.0823969 0.0680243 0.0511751 0.0334632 0.0170218 0.00365915 -0.00581868 -0.0121381 -0.0173501 -0.0241364 -0.0344002 -0.0481097 -0.0628718 -0.0746257 -0.0795346 -0.0761637 -0.0665414 -0.0554648 -0.0480983 -0.0466931 -0.0492611 -0.0508717 -0.047498 -0.0398253 -0.0342098 -0.0391081 -0.0587942 -0.0890085 -0.118667 -0.138214 -0.149919 -0.170993 -0.223735 -0.315059 -0.417634 -0.469475 -0.400587 -0.175506 0.173482 0.548281 0.82689 0.922031 0.821133 0.585171 0.31059 0.081571 -0.0597938 -0.115415 -0.11329 -0.085827 -0.0562642 -0.034839 -0.0141948 0 0 
0 0 -0.00635192 -0.0168908 -0.029803 -0.0531888 -0.0863985 -0.120461 -0.134596 -0.0975737 0.0215443 0.233894 0.511516 0.782659 0.952137 0.942761 0.736874 0.391931 0.0173598 -0.27591 -0.424096 -0.430587 -0.349707 -0.249075 -0.1753 -0.140173 -0.129041 -0.120209 -0.101147 -0.0736128 -0.0482159 -0.0348265 -0.0359437 -0.0462986 -0.0573651 -0.0630136 -0.0623161 -0.0588637 -0.0573569 -0.0604438 -0.0672239 -0.0741928 -0.0773591 -0.0743345 -0.0653777 -0.0528651 -0.0398996 -0.0288119 -0.0203093 -0.0133961 -0.00615807 0.00327816 0.0159538 0.0316556 0.0491826 0.0666807 0.082366 0.0949425 0.103983 0.109668 0.112778 0.114256 0.114931 0.115258 0.115392 0.11509 0.113954 0.111382 0.10694 0.10036 0.09166 0.0811061 0.0691566 0.0563551 0.0432333 0.0303283 0.0181154 0.00708017 -0.00244399 -0.0102708 -0.016382 -0.021019 -0.0245163 -0.0273335 -0.029769 -0.0320771 -0.0343677 -0.0366365 -0.0388948 -0.0411479 -0.0433351 -0.0454889 -0.0475626 -0.049508 -0.0513142 -0.0529819 -0.0544114 -0.0556037 -0.0565003 -0.0570451 -0.0572291 -0.0570525 -0.0565157 -0.0556225 -0.0544177 -0.0529355 -0.0511883 -0.0492277 -0.0470414 -0.0446199 -0.0419102 -0.0389263 -0.0357308 -0.0325615 -0.0297435 -0.0275732 -0.0261443 -0.0251752 -0.023924 -0.0215889 -0.0175329 -0.0114983 -0.00359023 0.00589981 0.016735 0.0287159 0.0415382 0.0547295 0.0676603 0.0796913 0.0901902 0.098703 0.105035 0.109293 0.111784 0.112932 0.11328 0.113195 0.112945 0.112363 0.111033 0.108101 0.102617 0.0937948 0.0814258 0.0659384 0.0486567 0.0314017 0.0160992 0.00403817 -0.00451739 -0.0106708 -0.0164679 -0.0241281 -0.0350406 -0.0488418 -0.0633338 -0.0751983 -0.081427 -0.0809435 -0.0754086 -0.068431 -0.0637389 -0.062773 -0.0637085 -0.0624099 -0.0555982 -0.0441077 -0.0338717 -0.0330695 -0.0467733 -0.0723492 -0.0999376 -0.118971 -0.127762 -0.138827 -0.17376 -0.247146 -0.34722 -0.427634 -0.421102 -0.273698 0.0178816 0.390161 0.732864 0.937274 0.946406 0.777852 0.508353 0.232479 0.0214673 -0.0969706 -0.134001 -0.120498 -0.0876543 -0.0562077 -0.0343881 -0.0139519 0 0 
0 0 -0.00597165 -0.0158872 -0.0281815 -0.0510609 -0.0851558 -0.123999 -0.150065 -0.134317 -0.0438842 0.141187 0.408204 0.701418 0.932614 1.01419 0.900698 0.615546 0.245129 -0.0987279 -0.327692 -0.410532 -0.375164 -0.282843 -0.192669 -0.13685 -0.116165 -0.112349 -0.105883 -0.0882438 -0.0637588 -0.0432916 -0.0354092 -0.0413118 -0.0551027 -0.0684564 -0.075436 -0.0751984 -0.0711315 -0.0679948 -0.0688148 -0.0733998 -0.0788529 -0.081404 -0.0784331 -0.0695354 -0.0564651 -0.042066 -0.0288984 -0.0182717 -0.00996202 -0.00251 0.00590114 0.0167244 0.0304125 0.0464366 0.0634195 0.079613 0.0934692 0.104013 0.110836 0.114282 0.115028 0.113952 0.111875 0.109396 0.106783 0.103926 0.100583 0.0963729 0.0910571 0.0844405 0.0765771 0.0675197 0.0575069 0.0467903 0.0358004 0.0249499 0.0146303 0.00520759 -0.00318743 -0.0105121 -0.0169936 -0.0227667 -0.0280817 -0.0329985 -0.03756 -0.0417533 -0.0455733 -0.0490117 -0.052104 -0.0548876 -0.0574323 -0.059709 -0.0617471 -0.0635644 -0.0651003 -0.0663685 -0.0672875 -0.0678626 -0.0680587 -0.0678519 -0.0672705 -0.066336 -0.0650241 -0.0633935 -0.0614272 -0.0591697 -0.0565823 -0.0536379 -0.0503307 -0.04661 -0.0425448 -0.0382409 -0.0338968 -0.0296689 -0.0255597 -0.0213416 -0.0166379 -0.0109172 -0.0039903 0.00426645 0.0135947 0.0236934 0.0342292 0.0449686 0.0556104 0.0657401 0.0749996 0.0830031 0.0895755 0.0946793 0.0986103 0.10176 0.104555 0.107225 0.109812 0.111973 0.11314 0.11252 0.10924 0.102618 0.0923031 0.0786659 0.0626859 0.045906 0.0300641 0.0165948 0.00607391 -0.00184423 -0.00856648 -0.0159028 -0.0254579 -0.0377016 -0.0516648 -0.0651117 -0.0754174 -0.0807448 -0.0810926 -0.0784216 -0.0758015 -0.0756336 -0.078042 -0.0802974 -0.0782506 -0.0691104 -0.0541671 -0.0395117 -0.0333895 -0.0414374 -0.0622128 -0.0869392 -0.104686 -0.111146 -0.114952 -0.135517 -0.191064 -0.280799 -0.372687 -0.407899 -0.325519 -0.0978289 0.244061 0.612268 0.895637 1.00831 0.9271 0.697231 0.405783 0.140417 -0.043514 -0.13346 -0.149339 -0.123935 -0.0862546 -0.0538221 -0.0324723 -0.0130647 0 0 
0 0 -0.00541253 -0.0144056 -0.0256531 -0.047255 -0.0810557 -0.123214 -0.159964 -0.165551 -0.106833 0.0432415 0.286653 0.58569 0.86448 1.03235 1.02173 0.821792 0.488096 0.12071 -0.178474 -0.346773 -0.379246 -0.318507 -0.225393 -0.148726 -0.108988 -0.0997879 -0.101664 -0.0976335 -0.0821641 -0.0611708 -0.0451491 -0.0416195 -0.0508356 -0.0667224 -0.0811294 -0.08842 -0.0876963 -0.0822347 -0.0768397 -0.0750151 -0.077262 -0.0812834 -0.0835633 -0.081156 -0.0729741 -0.0599908 -0.0446386 -0.029572 -0.0166579 -0.00642726 0.00192159 0.00990265 0.0191181 0.0305644 0.0443798 0.0598285 0.075571 0.0900907 0.102064 0.110596 0.11544 0.116851 0.115485 0.112172 0.107708 0.102635 0.0973377 0.0919252 0.0864289 0.0808029 0.074947 0.0687204 0.0619882 0.0546897 0.0468366 0.03866 0.0302938 0.0220209 0.0139597 0.00617476 -0.00140724 -0.00886555 -0.0162137 -0.0233857 -0.030289 -0.0367973 -0.0428062 -0.0482414 -0.0531352 -0.0575053 -0.0614289 -0.0649119 -0.0679661 -0.0706052 -0.0728327 -0.0746186 -0.0759269 -0.0767213 -0.0769779 -0.076692 -0.0758629 -0.0745141 -0.0726718 -0.0703116 -0.0674678 -0.0641478 -0.0603331 -0.056 -0.0511634 -0.0457907 -0.0399526 -0.0337548 -0.0273821 -0.0209573 -0.0145536 -0.0080683 -0.00134873 0.00575263 0.0133097 0.0212604 0.0293381 0.0373508 0.0451271 0.0526873 0.0599117 0.0668228 0.073321 0.0793626 0.0849603 0.0902226 0.095326 0.100412 0.105435 0.109997 0.113448 0.11494 0.113649 0.108942 0.100609 0.0888816 0.074609 0.0590871 0.0438652 0.0302207 0.0189292 0.00988799 0.00212047 -0.0058457 -0.0154828 -0.0275418 -0.0416037 -0.0559889 -0.0683229 -0.0764966 -0.0797807 -0.0793073 -0.0777891 -0.0782538 -0.0823885 -0.0891291 -0.0947075 -0.0943699 -0.0852469 -0.0687333 -0.0510123 -0.0405254 -0.0434476 -0.0593729 -0.0805693 -0.0962869 -0.100482 -0.0986307 -0.107834 -0.147391 -0.223733 -0.316471 -0.377019 -0.344814 -0.177478 0.120051 0.4854 0.817189 1.01595 1.02646 0.859511 0.582336 0.285079 0.0431388 -0.106039 -0.164477 -0.159132 -0.123052 -0.0819753 -0.0497065 -0.0295785 -0.0117868 0 0 
0 0 -0.00478801 -0.0127155 -0.0226502 -0.0423533 -0.0746603 -0.1182 -0.163162 -0.188003 -0.161206 -0.0511679 0.156822 0.443603 0.75011 0.99053 1.08337 0.987289 0.72283 0.366732 0.0207663 -0.229612 -0.345692 -0.3418 -0.267637 -0.179677 -0.116922 -0.090902 -0.0909191 -0.0976105 -0.0961856 -0.0832892 -0.0654586 -0.0527553 -0.0518261 -0.0625205 -0.0789348 -0.0933498 -0.100275 -0.0987076 -0.0917213 -0.0840648 -0.0795516 -0.079371 -0.0819501 -0.0840249 -0.0824251 -0.0754332 -0.06317 -0.0474909 -0.0309388 -0.0157579 -0.00318321 0.0068137 0.0151867 0.0233964 0.0327496 0.0439824 0.057047 0.0712355 0.0853178 0.097972 0.108021 0.114749 0.117947 0.117775 0.11482 0.109659 0.103005 0.0955098 0.0877065 0.0800483 0.0728255 0.0661102 0.0597974 0.0537359 0.0477995 0.0418701 0.0359471 0.0300516 0.0240958 0.0179966 0.0115973 0.00484231 -0.00232958 -0.00973765 -0.0172129 -0.0245734 -0.0315762 -0.0381399 -0.0441787 -0.0497165 -0.0547526 -0.0592727 -0.0632876 -0.0667805 -0.0697229 -0.0721036 -0.0738375 -0.0749024 -0.0752077 -0.0748471 -0.0737248 -0.0719256 -0.0694618 -0.0663678 -0.0626474 -0.0583396 -0.0534721 -0.0480495 -0.0421175 -0.0357277 -0.028935 -0.0219501 -0.0149155 -0.00803795 -0.00137386 0.00507965 0.0113244 0.0174713 0.0234913 0.0293904 0.0350537 0.0405507 0.0459949 0.0515815 0.057578 0.0641129 0.0711679 0.0786231 0.086269 0.0938239 0.100975 0.107389 0.11252 0.115598 0.115931 0.112902 0.106322 0.0964349 0.0840021 0.0701707 0.0562527 0.0434293 0.0323988 0.0232203 0.0151395 0.00689523 -0.00294249 -0.0152386 -0.0299365 -0.0457731 -0.0605283 -0.0718215 -0.0780225 -0.0792995 -0.0776273 -0.0763187 -0.0785248 -0.0855341 -0.0956162 -0.104461 -0.106884 -0.0996963 -0.0840543 -0.0658497 -0.0532766 -0.0526615 -0.0643834 -0.0817967 -0.0946898 -0.0963126 -0.0898168 -0.0898958 -0.115879 -0.178408 -0.26606 -0.340028 -0.34408 -0.228721 0.0202915 0.364435 0.718659 0.981733 1.07731 0.98503 0.745978 0.441239 0.156131 -0.0506413 -0.160054 -0.186774 -0.162271 -0.117966 -0.0754037 -0.0444719 -0.0261521 -0.0103301 0 0 
0 0 -0.00418013 -0.0110244 -0.0195316 -0.0369126 -0.0666829 -0.109581 -0.159621 -0.200053 -0.202736 -0.134409 0.0293319 0.286691 0.598096 0.889782 1.07592 1.09199 0.923806 0.616513 0.257872 -0.05681 -0.2605 -0.334566 -0.305989 -0.226448 -0.146494 -0.0965826 -0.0819452 -0.0894071 -0.100187 -0.101307 -0.0906574 -0.0750457 -0.0639919 -0.0636893 -0.0740892 -0.089808 -0.103592 -0.110088 -0.107985 -0.0998469 -0.0902089 -0.083121 -0.0804098 -0.0812372 -0.0828434 -0.0820057 -0.0764301 -0.0654843 -0.0502741 -0.0329255 -0.0158447 -0.000796656 0.011447 0.0211282 0.0293012 0.0372355 0.0460424 0.0563138 0.0679515 0.0802859 0.0923302 0.102961 0.111258 0.116554 0.118558 0.117264 0.112991 0.106295 0.0979337 0.0886548 0.0792237 0.0701021 0.061553 0.053706 0.0465361 0.0400401 0.0341926 0.0288632 0.0239135 0.0190647 0.0140489 0.00864221 0.00273284 -0.00359546 -0.0101502 -0.0167818 -0.0232415 -0.0293968 -0.0351945 -0.0405881 -0.0456075 -0.0501799 -0.0542955 -0.0579459 -0.0610744 -0.063604 -0.065493 -0.0665995 -0.0669496 -0.0665165 -0.0653317 -0.0633517 -0.0607175 -0.0574266 -0.0535416 -0.049129 -0.0442139 -0.0388346 -0.0331152 -0.0270799 -0.0208332 -0.0145485 -0.00838722 -0.00250841 0.00308414 0.00838644 0.0134486 0.0183892 0.0233106 0.0282535 0.0333497 0.0387382 0.0446656 0.0514279 0.0592191 0.0680214 0.0775487 0.0872847 0.0965611 0.104642 0.110961 0.11497 0.116223 0.114371 0.109286 0.101191 0.0907172 0.0788537 0.0667467 0.0553766 0.0453993 0.0368434 0.0291169 0.0211008 0.0115249 -0.000619622 -0.0155737 -0.0324452 -0.0494193 -0.0640386 -0.0741666 -0.0788019 -0.0787679 -0.0766092 -0.0757885 -0.079255 -0.0878703 -0.0996399 -0.110136 -0.114378 -0.10933 -0.0960355 -0.0798104 -0.0681292 -0.0667498 -0.0761749 -0.0905187 -0.100422 -0.0990446 -0.0883353 -0.0810822 -0.0958814 -0.145728 -0.225423 -0.304763 -0.333393 -0.259867 -0.0572808 0.255808 0.612699 0.918524 1.08597 1.07011 0.885073 0.595034 0.285386 0.0294788 -0.133345 -0.201322 -0.198744 -0.158721 -0.109305 -0.0672675 -0.0386985 -0.022574 -0.0088614 0 0 
0 0 -0.00364035 -0.00947326 -0.0165632 -0.0314137 -0.0578829 -0.0983278 -0.150172 -0.201615 -0.229224 -0.200856 -0.0860699 0.127943 0.421631 0.738645 0.998207 1.12242 1.06736 0.843082 0.511751 0.163848 -0.116202 -0.278921 -0.320973 -0.276726 -0.196809 -0.125522 -0.0866464 -0.0810781 -0.0942975 -0.10832 -0.111479 -0.102365 -0.0876663 -0.0765632 -0.0751917 -0.083988 -0.0982418 -0.111249 -0.117679 -0.115652 -0.107025 -0.0958749 -0.0863571 -0.0808828 -0.079465 -0.0800428 -0.0796024 -0.0755125 -0.066375 -0.0524611 -0.0353052 -0.0170716 0.000129405 0.0149011 0.0267374 0.0360312 0.0437087 0.0509121 0.0585883 0.0672089 0.0767652 0.0868025 0.0965677 0.105218 0.111884 0.11586 0.116748 0.114472 0.109355 0.102007 0.0931289 0.0833996 0.07332 0.063263 0.0535806 0.0444651 0.0361835 0.0287903 0.0221571 0.0161213 0.0103145 0.00450234 -0.00150542 -0.00768349 -0.0139181 -0.020018 -0.0258598 -0.0313635 -0.036462 -0.0411965 -0.0455578 -0.0495535 -0.0532085 -0.0564354 -0.0592497 -0.0615434 -0.0632726 -0.0642883 -0.0645921 -0.0641766 -0.063058 -0.0612215 -0.0588055 -0.0558246 -0.0523663 -0.0484289 -0.0441085 -0.0394201 -0.0344216 -0.0291783 -0.0237089 -0.0181502 -0.0126162 -0.00713963 -0.00169547 0.0037821 0.00938471 0.0152888 0.0215369 0.0282456 0.0354174 0.0431869 0.0516691 0.0608863 0.0708719 0.0812583 0.0914555 0.100699 0.108062 0.112878 0.114735 0.113564 0.109547 0.10303 0.0946281 0.085077 0.0752355 0.0658736 0.0574849 0.0501039 0.0431915 0.0357771 0.0266951 0.0150041 0.00033386 -0.0168197 -0.0349832 -0.0520012 -0.0656313 -0.0742851 -0.0776741 -0.0772452 -0.0757767 -0.0764687 -0.0816424 -0.0914629 -0.103637 -0.113955 -0.118112 -0.113875 -0.102702 -0.089567 -0.0809862 -0.081711 -0.0915426 -0.104725 -0.112453 -0.108282 -0.0937406 -0.0804086 -0.0861476 -0.125235 -0.196417 -0.276111 -0.320317 -0.27861 -0.11678 0.161926 0.508229 0.838121 1.0615 1.1165 0.993112 0.735025 0.419759 0.127671 -0.0851901 -0.199383 -0.227659 -0.200303 -0.149309 -0.0980403 -0.0583334 -0.0328853 -0.0191365 -0.00749821 0 0 
0 0 -0.00319269 -0.00813967 -0.0139165 -0.0262291 -0.0489644 -0.0855604 -0.136234 -0.193857 -0.240447 -0.247313 -0.181713 -0.0200984 0.236332 0.551492 0.85759 1.07393 1.13555 1.01934 0.754788 0.413939 0.0842738 -0.162258 -0.291125 -0.309889 -0.256431 -0.178671 -0.115389 -0.0853281 -0.0864696 -0.103751 -0.120026 -0.124526 -0.116082 -0.101195 -0.0887327 -0.085115 -0.0914164 -0.103853 -0.11621 -0.123081 -0.121862 -0.11354 -0.10148 -0.0897573 -0.0813218 -0.0771108 -0.0759072 -0.0752272 -0.0723374 -0.0652498 -0.0534071 -0.0374937 -0.0192 -0.000612997 0.0164897 0.0309495 0.0423725 0.0511401 0.0580534 0.0640524 0.070003 0.0764081 0.0834751 0.090956 0.098279 0.104644 0.10931 0.111681 0.111519 0.108891 0.104055 0.0973594 0.089147 0.0797905 0.0696862 0.0592816 0.0489777 0.0391069 0.0297906 0.0209736 0.0124929 0.00418302 -0.00406885 -0.0122323 -0.0201216 -0.0275301 -0.0343407 -0.0405059 -0.046054 -0.0509767 -0.0554188 -0.0593777 -0.0629168 -0.066061 -0.0687273 -0.0709029 -0.0725289 -0.0734775 -0.0737452 -0.0733394 -0.0722646 -0.0705182 -0.0682154 -0.0653856 -0.0620237 -0.0582197 -0.0539638 -0.0492347 -0.0440954 -0.0384799 -0.0324389 -0.0260171 -0.019263 -0.0121797 -0.00475679 0.00303677 0.0112755 0.0199946 0.0291479 0.0386252 0.0483063 0.0580669 0.0677692 0.0773546 0.0866002 0.0951442 0.102376 0.107642 0.110333 0.110176 0.10734 0.102349 0.0959196 0.0887846 0.0815869 0.0747525 0.0685486 0.0628002 0.0570462 0.0504362 0.0419646 0.0308166 0.0165631 -0.000399401 -0.0188945 -0.0371486 -0.0530305 -0.0647971 -0.0716753 -0.0741947 -0.0742826 -0.0747207 -0.0780641 -0.0856819 -0.0968764 -0.108861 -0.11774 -0.120157 -0.115051 -0.104736 -0.0943079 -0.089563 -0.0940424 -0.106509 -0.120691 -0.127927 -0.122108 -0.104674 -0.0866445 -0.0851788 -0.115301 -0.178802 -0.25643 -0.309762 -0.291184 -0.162969 0.0824391 0.410687 0.750158 1.01373 1.12969 1.06864 0.853577 0.549145 0.235649 -0.0194544 -0.180261 -0.245579 -0.238838 -0.192606 -0.135444 -0.0852863 -0.0493079 -0.027418 -0.0160369 -0.00631006 0 0 
0 0 -0.00283989 -0.00704897 -0.0116768 -0.0216102 -0.0405104 -0.0723764 -0.11949 -0.17878 -0.237847 -0.273053 -0.252735 -0.146994 0.0579031 0.346276 0.668608 0.951285 1.11915 1.12252 0.956932 0.666022 0.325781 0.0174533 -0.199142 -0.301399 -0.303887 -0.245464 -0.17076 -0.114037 -0.0902743 -0.0957335 -0.115439 -0.132989 -0.138172 -0.129847 -0.114082 -0.0995839 -0.0930309 -0.0963702 -0.106769 -0.118622 -0.126342 -0.126636 -0.119399 -0.107145 -0.0936608 -0.0822823 -0.0747907 -0.0710164 -0.0691881 -0.0668326 -0.0616496 -0.052294 -0.038606 -0.021529 -0.00275194 0.0158797 0.0327638 0.0468831 0.0578395 0.0659154 0.0717686 0.076255 0.0802164 0.0842892 0.0886224 0.0930813 0.0972394 0.100701 0.10301 0.103967 0.1034 0.101204 0.0972856 0.09166 0.0844854 0.0760416 0.0667367 0.0569321 0.0468716 0.0366574 0.0262209 0.0155605 0.00471576 -0.00616058 -0.0167231 -0.0267329 -0.0358917 -0.0441593 -0.0515252 -0.0580292 -0.0637532 -0.0687678 -0.0731832 -0.0769627 -0.0801805 -0.0827253 -0.084606 -0.0857323 -0.0860468 -0.0855712 -0.084306 -0.0822956 -0.0796275 -0.0762572 -0.0722719 -0.0676159 -0.0623325 -0.0563591 -0.0496913 -0.042319 -0.0342539 -0.0255663 -0.0162872 -0.0065707 0.00356451 0.0140136 0.0247254 0.0355498 0.0462444 0.0565524 0.0661852 0.0749129 0.0825799 0.0891734 0.0946599 0.0989286 0.101734 0.102788 0.101928 0.0993045 0.0953432 0.0908032 0.0862619 0.0821131 0.0783555 0.0746688 0.0703814 0.0647466 0.0569075 0.0462523 0.0324502 0.0158422 -0.00257873 -0.0212093 -0.0382055 -0.051865 -0.0612112 -0.0663518 -0.0685785 -0.070126 -0.073423 -0.08026 -0.0908318 -0.103489 -0.115053 -0.12193 -0.121776 -0.114778 -0.104257 -0.0956103 -0.0942323 -0.102575 -0.118408 -0.134796 -0.143004 -0.137067 -0.118416 -0.0975598 -0.0911871 -0.114413 -0.171023 -0.245839 -0.304168 -0.301733 -0.199947 0.0157381 0.322824 0.661774 0.951681 1.11687 1.11385 0.947049 0.665911 0.345238 0.0583041 -0.145613 -0.250896 -0.271207 -0.236286 -0.177639 -0.118797 -0.0721331 -0.0407732 -0.0225562 -0.0133819 -0.00532529 0 0 
0 0 -0.00257062 -0.00618963 -0.00986314 -0.0176929 -0.0329384 -0.0597112 -0.101614 -0.158791 -0.224012 -0.279509 -0.297341 -0.245539 -0.0999552 0.141783 0.450749 0.768022 1.0192 1.13818 1.09073 0.887707 0.581692 0.248479 -0.0384199 -0.229898 -0.312166 -0.303758 -0.242938 -0.171179 -0.119 -0.0988888 -0.106375 -0.126969 -0.145017 -0.150635 -0.142348 -0.12564 -0.108957 -0.0992434 -0.0993455 -0.107489 -0.11873 -0.127475 -0.129745 -0.12433 -0.112721 -0.0981856 -0.0841553 -0.0731941 -0.0661203 -0.0621458 -0.0593278 -0.0553861 -0.0484563 -0.0376327 -0.0229211 -0.00542317 0.0133801 0.0317781 0.0482979 0.0619563 0.0723786 0.0797276 0.0846061 0.0877024 0.0897002 0.0910857 0.092087 0.0929159 0.0936177 0.0941859 0.0945135 0.0943417 0.0933468 0.091215 0.0877307 0.0829347 0.0769107 0.0698706 0.0619722 0.0532205 0.0435165 0.0328982 0.0214989 0.00953249 -0.00252859 -0.0142584 -0.0252872 -0.0354673 -0.0446955 -0.052943 -0.0602431 -0.0667132 -0.0723683 -0.0772163 -0.0812999 -0.0845345 -0.0868888 -0.0882862 -0.0886957 -0.0881148 -0.0865626 -0.0840846 -0.0807376 -0.0765168 -0.0714762 -0.065606 -0.0589059 -0.0513838 -0.0430016 -0.0338175 -0.0239188 -0.0134324 -0.00250574 0.00866681 0.0199122 0.0309899 0.0417721 0.0520137 0.0613848 0.0696158 0.0765131 0.0819309 0.0858875 0.0887088 0.0906557 0.0920098 0.0928374 0.0930702 0.0926534 0.0916451 0.0902962 0.0888505 0.0873493 0.0855428 0.0827676 0.0781909 0.0710606 0.0608368 0.0474273 0.0311968 0.0131227 -0.00540405 -0.0226759 -0.0372178 -0.0479626 -0.0548649 -0.0588086 -0.0616211 -0.0655234 -0.072395 -0.0829988 -0.0964773 -0.11032 -0.121126 -0.125785 -0.122957 -0.114012 -0.103072 -0.0957956 -0.0970689 -0.10851 -0.12701 -0.145317 -0.154706 -0.149533 -0.131249 -0.109906 -0.101402 -0.12053 -0.171977 -0.243371 -0.304146 -0.312532 -0.230602 -0.039868 0.245941 0.577955 0.882945 1.08544 1.13304 1.01492 0.76511 0.44944 0.141956 -0.0986732 -0.243641 -0.295302 -0.277676 -0.22257 -0.157791 -0.101029 -0.0595085 -0.0331433 -0.0184382 -0.0112042 -0.00454195 0 0 
0 0 -0.00236655 -0.00552793 -0.00844711 -0.0145158 -0.0264917 -0.0482524 -0.0840467 -0.136302 -0.20215 -0.269751 -0.316589 -0.31229 -0.227169 -0.0448666 0.225534 0.544281 0.847193 1.06304 1.13645 1.04724 0.817716 0.50515 0.182395 -0.0849466 -0.256603 -0.324568 -0.309186 -0.247394 -0.177639 -0.127723 -0.108699 -0.116146 -0.136411 -0.154588 -0.160847 -0.153091 -0.13597 -0.117387 -0.104544 -0.101161 -0.106571 -0.116737 -0.126296 -0.130721 -0.12773 -0.117741 -0.103125 -0.0872304 -0.0730071 -0.0622538 -0.0551753 -0.0506949 -0.0468511 -0.0416877 -0.0336748 -0.0221117 -0.00719707 0.0101149 0.0284476 0.0462538 0.0621767 0.0753964 0.0854794 0.0924172 0.0965082 0.0981754 0.0979128 0.0963692 0.0941465 0.0917784 0.0896162 0.0877165 0.0858984 0.083884 0.0813966 0.0782991 0.0745302 0.0700643 0.064867 0.0587568 0.0515062 0.0429464 0.0331316 0.0223042 0.0109364 -0.000506366 -0.0115515 -0.021989 -0.031652 -0.0404531 -0.0483888 -0.0554527 -0.0616897 -0.0670878 -0.0716671 -0.0753068 -0.0779439 -0.0795179 -0.0799835 -0.0793483 -0.0776185 -0.0748631 -0.071132 -0.0664337 -0.0608594 -0.0544282 -0.0471459 -0.0390234 -0.0301267 -0.0205468 -0.0104512 -2.05608e-05 0.0105683 0.0210088 0.0311245 0.0406905 0.0495508 0.0574894 0.0643537 0.0699878 0.0743257 0.0774386 0.0796287 0.0813624 0.0831399 0.085335 0.0879423 0.0907356 0.0933206 0.0952453 0.0962236 0.0959971 0.0941718 0.0902711 0.0836583 0.0739108 0.0609266 0.0451812 0.0276292 0.00957434 -0.0074297 -0.022065 -0.0333836 -0.0412175 -0.0462771 -0.0500834 -0.0545854 -0.0616683 -0.0723978 -0.0864785 -0.102108 -0.116296 -0.125683 -0.127952 -0.122768 -0.112543 -0.101951 -0.0964869 -0.100317 -0.114103 -0.134081 -0.152859 -0.162294 -0.157439 -0.140161 -0.120167 -0.112391 -0.130651 -0.179608 -0.248482 -0.309653 -0.32473 -0.256902 -0.0858979 0.180455 0.502067 0.81359 1.04246 1.13163 1.05885 0.8442 0.542775 0.225509 -0.0436991 -0.225257 -0.310105 -0.314516 -0.26803 -0.20087 -0.135452 -0.0835682 -0.0480932 -0.0266565 -0.015101 -0.00948244 -0.00393826 0 0 
0 0 -0.0022081 -0.00502139 -0.00737233 -0.012039 -0.0212488 -0.0384147 -0.0678732 -0.113435 -0.175576 -0.247821 -0.31383 -0.347503 -0.318095 -0.200299 0.0134892 0.303824 0.623157 0.905705 1.08601 1.11969 0.998185 0.751532 0.438392 0.127246 -0.123677 -0.280483 -0.338665 -0.31911 -0.256831 -0.187825 -0.137949 -0.117798 -0.12356 -0.142723 -0.161053 -0.16852 -0.162167 -0.145469 -0.125557 -0.10975 -0.102573 -0.10458 -0.112871 -0.122596 -0.128968 -0.12886 -0.121409 -0.108024 -0.0914643 -0.0747888 -0.060447 -0.049647 -0.0422382 -0.0370415 -0.0323361 -0.0264093 -0.0179581 -0.00643196 0.00797834 0.024431 0.0417248 0.0586136 0.0739487 0.0868442 0.0966557 0.1031 0.106224 0.106389 0.104353 0.100876 0.0966301 0.0921284 0.0874691 0.0827929 0.0780379 0.0732554 0.0684363 0.0636319 0.0587026 0.0533851 0.0472889 0.0401034 0.031764 0.0223602 0.0123175 0.00207033 -0.00795671 -0.0175035 -0.026383 -0.0345218 -0.0419214 -0.0485689 -0.0544684 -0.0596155 -0.0639709 -0.0674565 -0.0700186 -0.0715393 -0.0719945 -0.0713801 -0.0697191 -0.0670654 -0.0635061 -0.0590386 -0.0537385 -0.0476622 -0.0408129 -0.0332397 -0.0250312 -0.0162668 -0.0071185 0.00221635 0.0115534 0.0206456 0.0293647 0.0375382 0.0451403 0.0520764 0.0582938 0.0637683 0.0684649 0.0725898 0.0763884 0.0802888 0.0846618 0.089662 0.0949193 0.0998992 0.103655 0.105425 0.104668 0.101001 0.0943578 0.0846968 0.0721615 0.0571732 0.0405227 0.0234171 0.00717096 -0.00695411 -0.0181746 -0.0263418 -0.0320265 -0.0365489 -0.0416081 -0.048956 -0.0597638 -0.074132 -0.0908023 -0.107293 -0.120492 -0.127612 -0.127231 -0.120235 -0.109795 -0.100809 -0.0982256 -0.105111 -0.120999 -0.141452 -0.159154 -0.166884 -0.160994 -0.144181 -0.126229 -0.121168 -0.141441 -0.190875 -0.25908 -0.320403 -0.339127 -0.280365 -0.123893 0.126093 0.4361 0.748155 0.994044 1.11533 1.08206 0.902738 0.621538 0.303638 0.0145389 -0.198402 -0.315805 -0.345229 -0.311851 -0.246276 -0.17448 -0.112733 -0.0674911 -0.0382953 -0.0213863 -0.0125005 -0.00816069 -0.0034828 0 0 
0 0 -0.00207785 -0.00462655 -0.0065685 -0.0101722 -0.017156 -0.0303509 -0.0537792 -0.0918513 -0.147323 -0.218105 -0.293907 -0.354478 -0.371622 -0.316102 -0.16836 0.0704975 0.372532 0.685461 0.94477 1.09215 1.09324 0.948381 0.692177 0.382355 0.08233 -0.155532 -0.301684 -0.353686 -0.331855 -0.269326 -0.199886 -0.148304 -0.12527 -0.128166 -0.145743 -0.164393 -0.173796 -0.169805 -0.154492 -0.134015 -0.115527 -0.104299 -0.102174 -0.107557 -0.11645 -0.124218 -0.127029 -0.12293 -0.112113 -0.0964129 -0.0786054 -0.0614265 -0.04677 -0.0355505 -0.0275195 -0.0215697 -0.0162187 -0.00997858 -0.00175124 0.00895602 0.0220622 0.0370389 0.0529507 0.0686883 0.0831301 0.0952061 0.104235 0.109908 0.112423 0.112257 0.109963 0.106001 0.100682 0.0943416 0.0872132 0.0796703 0.0719906 0.0644556 0.0570728 0.0496934 0.0419875 0.033592 0.024372 0.0143983 0.00401376 -0.00637464 -0.016367 -0.0257176 -0.0342907 -0.0420583 -0.0490276 -0.0552122 -0.0606512 -0.0653724 -0.0693648 -0.0725565 -0.0749025 -0.0762848 -0.076736 -0.0761615 -0.0746692 -0.072255 -0.0690097 -0.0649253 -0.060063 -0.0544498 -0.0480687 -0.0409448 -0.0331221 -0.0246932 -0.0157913 -0.00655167 0.00286219 0.0122734 0.0216035 0.0307387 0.0396845 0.0483954 0.05681 0.0648279 0.0722927 0.079232 0.0856954 0.0918699 0.0978341 0.103473 0.108222 0.111324 0.111851 0.109117 0.102829 0.0932002 0.0808666 0.066557 0.0511698 0.0356249 0.0209103 0.00797767 -0.00253517 -0.0104983 -0.0164388 -0.0215151 -0.027217 -0.0350398 -0.0461029 -0.0606664 -0.0778345 -0.0956708 -0.111381 -0.12218 -0.126147 -0.123104 -0.11494 -0.105517 -0.0995034 -0.100953 -0.111565 -0.129589 -0.149885 -0.165383 -0.169998 -0.16163 -0.14433 -0.128224 -0.1267 -0.150764 -0.202866 -0.272257 -0.334249 -0.355216 -0.302256 -0.155315 0.0820197 0.380912 0.689601 0.944931 1.08939 1.08852 0.941913 0.683797 0.37222 0.0714221 -0.166515 -0.313756 -0.369193 -0.352276 -0.29211 -0.216768 -0.146408 -0.0912829 -0.0534784 -0.0302647 -0.0172746 -0.0105407 -0.00716492 -0.00314023 0 0 
0 0 -0.00196244 -0.00430486 -0.00596217 -0.00879497 -0.0140702 -0.0240088 -0.0420789 -0.072683 -0.119852 -0.184738 -0.262328 -0.338684 -0.39058 -0.389239 -0.308422 -0.134952 0.12223 0.428913 0.730737 0.966574 1.08546 1.06152 0.901355 0.641496 0.337179 0.0472221 -0.180505 -0.319545 -0.368253 -0.345853 -0.283395 -0.21287 -0.158355 -0.131201 -0.130294 -0.145753 -0.164804 -0.176661 -0.175912 -0.163053 -0.142968 -0.122385 -0.107083 -0.100168 -0.101522 -0.108357 -0.116487 -0.121789 -0.121405 -0.114253 -0.101056 -0.0838355 -0.0651427 -0.0473468 -0.0321264 -0.0201939 -0.0113397 -0.00465772 0.00109168 0.00715342 0.0145551 0.023887 0.0352779 0.0483149 0.0621958 0.0758624 0.088314 0.0987672 0.106848 0.112466 0.115538 0.116201 0.114412 0.110352 0.10428 0.0966336 0.0879431 0.0786402 0.0690052 0.0590657 0.0486158 0.0374759 0.0255766 0.0130142 0.000186692 -0.0124384 -0.0243848 -0.0354089 -0.0453626 -0.0542196 -0.0620616 -0.0688914 -0.074806 -0.0798365 -0.0840387 -0.0873544 -0.0898002 -0.0912742 -0.0917344 -0.0911963 -0.0896711 -0.0871939 -0.0838354 -0.0795561 -0.0743913 -0.0682898 -0.0612708 -0.0532764 -0.0443748 -0.0345973 -0.0240598 -0.0129278 -0.00134394 0.0104891 0.022448 0.0343774 0.046212 0.0577958 0.0689092 0.0792748 0.0885421 0.0964663 0.102936 0.107938 0.11152 0.113591 0.113753 0.111567 0.106412 0.0981589 0.0870646 0.0739617 0.0599725 0.0461928 0.033512 0.0225048 0.0134346 0.00620691 0.000304935 -0.00521024 -0.0115956 -0.0201636 -0.0318432 -0.04684 -0.0644514 -0.0830277 -0.1002 -0.113426 -0.120604 -0.121005 -0.115638 -0.107343 -0.100209 -0.0984235 -0.104798 -0.119476 -0.139442 -0.15899 -0.171478 -0.172151 -0.16057 -0.142205 -0.127796 -0.130019 -0.158545 -0.214292 -0.285669 -0.348488 -0.370698 -0.321362 -0.181396 0.0472079 0.336502 0.639669 0.898554 1.05817 1.08214 0.963849 0.729055 0.428483 0.123026 -0.133188 -0.306065 -0.386698 -0.388191 -0.336665 -0.260763 -0.183616 -0.119105 -0.0722266 -0.041843 -0.023948 -0.0141748 -0.00909458 -0.00641482 -0.00287708 0 0 
0 0 -0.00185209 -0.00402489 -0.00548683 -0.00778059 -0.0118008 -0.0191988 -0.0327793 -0.0565325 -0.0949394 -0.151205 -0.224458 -0.306667 -0.380752 -0.421622 -0.401297 -0.29753 -0.103434 0.16563 0.47134 0.759591 0.97368 1.06958 1.02808 0.859602 0.600559 0.303165 0.0222634 -0.197918 -0.33293 -0.381074 -0.359932 -0.298329 -0.226631 -0.168499 -0.136321 -0.130642 -0.143345 -0.162475 -0.176974 -0.180187 -0.170822 -0.15231 -0.13057 -0.111614 -0.0996157 -0.0960023 -0.09934 -0.106392 -0.113139 -0.116134 -0.113221 -0.103909 -0.0891215 -0.0708356 -0.0513936 -0.032878 -0.0168374 -0.00395534 0.00581262 0.0131725 0.0191355 0.0248793 0.0313006 0.0389991 0.0480341 0.0580871 0.0686262 0.0790923 0.0890129 0.0980207 0.105667 0.111504 0.115065 0.116064 0.114445 0.110431 0.104464 0.0969265 0.0881398 0.0782248 0.0671239 0.054704 0.040958 0.0261908 0.010893 -0.00435634 -0.0189623 -0.0325417 -0.0448855 -0.0559134 -0.0656716 -0.074161 -0.0814543 -0.0876307 -0.092744 -0.0967518 -0.0996864 -0.101455 -0.102057 -0.101456 -0.0996913 -0.096768 -0.0927454 -0.0875571 -0.0812374 -0.0737431 -0.0650581 -0.0551476 -0.0440779 -0.0319313 -0.0188856 -0.00516159 0.00899549 0.0232922 0.0374979 0.0513695 0.0646355 0.0770338 0.0882502 0.0978374 0.105376 0.110555 0.113296 0.113726 0.112142 0.108802 0.103827 0.0971512 0.0886989 0.0786743 0.0675735 0.0563108 0.0458579 0.0368758 0.029528 0.0234869 0.0180346 0.0122471 0.00502876 -0.00452547 -0.0171479 -0.0329057 -0.0511491 -0.070355 -0.0884172 -0.103069 -0.112297 -0.115221 -0.112258 -0.105556 -0.0984892 -0.0950466 -0.0984442 -0.110107 -0.128606 -0.149802 -0.167734 -0.176539 -0.172869 -0.158094 -0.138977 -0.126633 -0.133046 -0.16629 -0.225685 -0.298675 -0.361378 -0.383245 -0.335333 -0.200039 0.0208413 0.302554 0.599256 0.857312 1.02514 1.06653 0.971068 0.757889 0.470798 0.16629 -0.10178 -0.295206 -0.398699 -0.419098 -0.37854 -0.304894 -0.223137 -0.150284 -0.0943349 -0.0561665 -0.0325921 -0.0191557 -0.0118946 -0.00802975 -0.00583503 -0.00266411 0 0 
0 0 -0.00174037 -0.00376302 -0.00508731 -0.0070135 -0.0101486 -0.0156556 -0.0256741 -0.0435544 -0.0736185 -0.120089 -0.184959 -0.265091 -0.349623 -0.419079 -0.447643 -0.409217 -0.285977 -0.0766545 0.198549 0.499333 0.773387 0.968856 1.0478 0.995739 0.824867 0.57026 0.281005 0.00819209 -0.206826 -0.340757 -0.391143 -0.373399 -0.313942 -0.241521 -0.179566 -0.14159 -0.130171 -0.139108 -0.157561 -0.174498 -0.182058 -0.177216 -0.161632 -0.140108 -0.118467 -0.101673 -0.0924658 -0.090974 -0.0951756 -0.101708 -0.106955 -0.108043 -0.103323 -0.0925661 -0.0768171 -0.0578112 -0.0377255 -0.0184445 -0.00144804 0.0125092 0.0233682 0.0316311 0.0381118 0.0435985 0.0487738 0.0540354 0.059683 0.0658825 0.0727338 0.0801286 0.0877364 0.0949973 0.101225 0.105816 0.108378 0.108781 0.107208 0.103813 0.0987301 0.091959 0.0833317 0.0726807 0.0600209 0.045614 0.0300367 0.0140427 -0.00170633 -0.0166537 -0.0305189 -0.043099 -0.0543858 -0.0642865 -0.0728813 -0.0801669 -0.086197 -0.0909218 -0.0943826 -0.0964972 -0.0972442 -0.0965982 -0.0945671 -0.0911537 -0.0864349 -0.0803321 -0.0728818 -0.0640636 -0.0539507 -0.0425042 -0.0298902 -0.0162389 -0.00187693 0.0129337 0.027792 0.0423572 0.0562501 0.069154 0.080797 0.090879 0.0990732 0.10503 0.10845 0.109196 0.107447 0.103591 0.0982849 0.0922038 0.0857983 0.079251 0.0725363 0.0656557 0.0588416 0.0524055 0.0466644 0.0414823 0.0363115 0.0302436 0.0222682 0.0115734 -0.00224125 -0.0190589 -0.0380914 -0.0578982 -0.0766059 -0.0921035 -0.102623 -0.107167 -0.105976 -0.10071 -0.0942094 -0.0900558 -0.0915644 -0.100731 -0.117391 -0.138779 -0.159938 -0.175074 -0.179391 -0.171303 -0.153866 -0.135034 -0.125912 -0.137426 -0.175832 -0.238565 -0.312052 -0.372747 -0.391713 -0.342342 -0.209033 0.00583768 0.278988 0.568813 0.822811 0.993044 1.0449 0.966298 0.771614 0.498657 0.199037 -0.0751361 -0.283733 -0.40661 -0.445023 -0.416715 -0.347664 -0.263587 -0.183868 -0.11934 -0.0731305 -0.0432581 -0.0255231 -0.0156243 -0.0102327 -0.00722501 -0.00536137 -0.00247817 0 0 
0 0 -0.00162333 -0.00350314 -0.00472352 -0.00640029 -0.00893119 -0.0130931 -0.0204269 -0.0335592 -0.0562786 -0.0930102 -0.147393 -0.219918 -0.305184 -0.389913 -0.453076 -0.469166 -0.414662 -0.276058 -0.0567584 0.219878 0.513301 0.773965 0.954853 1.0229 0.966676 0.798541 0.551562 0.271414 0.00575808 -0.206401 -0.342192 -0.397726 -0.385857 -0.330343 -0.258171 -0.192543 -0.148236 -0.129957 -0.133742 -0.150308 -0.168888 -0.180787 -0.181293 -0.170129 -0.150605 -0.127903 -0.107253 -0.0924363 -0.0851223 -0.0847196 -0.0889019 -0.0945117 -0.0983625 -0.0979888 -0.0920885 -0.0805535 -0.0643148 -0.0450059 -0.0244975 -0.0045941 0.0134154 0.0287422 0.0410961 0.0505893 0.0575149 0.0623274 0.0656797 0.0683022 0.0708916 0.074012 0.0777879 0.0820122 0.0862531 0.0899868 0.0927929 0.0944604 0.0949783 0.0943154 0.0924185 0.0890625 0.0838588 0.0764626 0.0667106 0.0547913 0.0412172 0.0266829 0.0119396 -0.00237151 -0.0158789 -0.0283535 -0.0396793 -0.0497387 -0.0585378 -0.0660365 -0.0722904 -0.0772137 -0.0808324 -0.0830797 -0.0838925 -0.08329 -0.0812183 -0.0777103 -0.0728036 -0.066464 -0.0587797 -0.0497309 -0.0394196 -0.0279127 -0.0154111 -0.00214718 0.0115333 0.025264 0.0386198 0.0512047 0.0626686 0.0727781 0.0813108 0.0881122 0.0930226 0.0958697 0.0965716 0.0951849 0.0920853 0.0878597 0.0833021 0.0791296 0.0757488 0.0731046 0.0707897 0.0682539 0.0650535 0.0608853 0.0554992 0.0484778 0.0392825 0.0273276 0.0123029 -0.00553623 -0.0253321 -0.0456683 -0.0647503 -0.0807025 -0.0919489 -0.0975578 -0.0976636 -0.0936221 -0.0878876 -0.0836653 -0.0840717 -0.0914295 -0.106275 -0.126936 -0.149555 -0.168914 -0.179805 -0.178941 -0.166604 -0.147546 -0.130497 -0.12629 -0.144259 -0.188459 -0.25425 -0.326908 -0.383237 -0.396179 -0.341863 -0.207248 0.00395741 0.269041 0.549077 0.796251 0.963977 1.02002 0.952247 0.772092 0.512464 0.220187 -0.0554089 -0.273919 -0.412092 -0.466496 -0.450598 -0.3878 -0.303508 -0.218669 -0.146506 -0.0924066 -0.0558819 -0.0333161 -0.0203013 -0.0130686 -0.00900633 -0.00658279 -0.00494511 -0.00230245 0 0 
0 0 -0.00149993 -0.00323689 -0.00436889 -0.00587092 -0.00799964 -0.0112418 -0.0166428 -0.0261419 -0.042804 -0.0707055 -0.114137 -0.175876 -0.254777 -0.343384 -0.426566 -0.48256 -0.486981 -0.419183 -0.269548 -0.0450112 0.229476 0.51437 0.763496 0.934255 0.997279 0.942606 0.781744 0.545083 0.274816 0.0153482 -0.196109 -0.336566 -0.400192 -0.39691 -0.347512 -0.277036 -0.208349 -0.157408 -0.131164 -0.128222 -0.141187 -0.160111 -0.175808 -0.182079 -0.176713 -0.161206 -0.139557 -0.116713 -0.097107 -0.0836601 -0.0772369 -0.0769117 -0.0803909 -0.0848129 -0.0873954 -0.0860042 -0.0795386 -0.0678697 -0.0518068 -0.0327222 -0.0121503 0.00836534 0.0275327 0.044287 0.0579392 0.0681455 0.0750857 0.0793945 0.0818489 0.0832818 0.0842207 0.0848867 0.0852588 0.0852067 0.0846329 0.083544 0.0820737 0.0802723 0.0780438 0.0751036 0.0709324 0.0650192 0.0570232 0.0469576 0.0351664 0.0223174 0.00907169 -0.00391192 -0.016245 -0.0276822 -0.038116 -0.0474337 -0.0556033 -0.0625722 -0.0683915 -0.072987 -0.0763941 -0.078534 -0.0793694 -0.0788688 -0.077011 -0.0737691 -0.0691991 -0.0632747 -0.0560811 -0.0476307 -0.0380314 -0.0273919 -0.0159261 -0.00386842 0.00842748 0.0205952 0.0322268 0.0430417 0.0527359 0.0612175 0.068419 0.0743209 0.0789098 0.0821632 0.0840226 0.0845891 0.0841688 0.0832083 0.0823083 0.0819054 0.0820593 0.0823219 0.0818045 0.0795321 0.0746979 0.066893 0.0560242 0.042196 0.0256856 0.00691915 -0.0132704 -0.0336825 -0.0526675 -0.0685845 -0.0800408 -0.0862293 -0.0873234 -0.0844386 -0.07973 -0.0760304 -0.0762025 -0.0825603 -0.0959999 -0.115639 -0.138525 -0.160193 -0.175669 -0.18093 -0.174461 -0.158493 -0.139223 -0.125854 -0.128363 -0.154176 -0.20475 -0.273192 -0.343623 -0.393247 -0.397073 -0.33429 -0.194932 0.0153248 0.273637 0.542975 0.779084 0.939707 0.994241 0.931512 0.761464 0.513346 0.229578 -0.0438436 -0.267556 -0.416673 -0.484303 -0.480001 -0.424325 -0.341562 -0.253382 -0.174859 -0.113422 -0.0702176 -0.04248 -0.025939 -0.0165354 -0.01122 -0.00806502 -0.00602988 -0.00455311 -0.00212723 0 0 
0 0 -0.0013709 -0.00296207 -0.00401081 -0.00537983 -0.00723599 -0.00986834 -0.0139407 -0.020791 -0.0327418 -0.0532137 -0.0864034 -0.136235 -0.204434 -0.28827 -0.378537 -0.458877 -0.507582 -0.501867 -0.424003 -0.267624 -0.0418954 0.227887 0.504131 0.744235 0.90945 0.972818 0.924631 0.774846 0.550768 0.291015 0.0369503 -0.175627 -0.323259 -0.397802 -0.405907 -0.365115 -0.298269 -0.227623 -0.170143 -0.135113 -0.123802 -0.131144 -0.148539 -0.166821 -0.178668 -0.180061 -0.170478 -0.152298 -0.12964 -0.106958 -0.0879728 -0.0749361 -0.0683285 -0.0671663 -0.0693818 -0.0724374 -0.0739209 -0.0719931 -0.0656016 -0.0545467 -0.0392786 -0.0207703 -0.000423425 0.020266 0.0398033 0.0569642 0.071017 0.0818585 0.0897493 0.0951257 0.0983837 0.099709 0.0992864 0.0972078 0.093757 0.0892796 0.0842149 0.0788881 0.0734806 0.0677626 0.0613395 0.0536807 0.044377 0.0333774 0.0209384 0.00760797 -0.00592317 -0.0190329 -0.031394 -0.0427066 -0.0529713 -0.0620463 -0.0699205 -0.0765941 -0.082111 -0.086497 -0.089754 -0.0918494 -0.0926996 -0.0923244 -0.0906177 -0.0875809 -0.0832382 -0.0775873 -0.0706431 -0.0624385 -0.0530506 -0.0425631 -0.0312255 -0.0191789 -0.00680583 0.00559745 0.0176585 0.0291525 0.0398853 0.0497971 0.0588917 0.0671814 0.0746358 0.0811257 0.0865247 0.0906485 0.0935388 0.0953436 0.0963396 0.096622 0.096072 0.0940803 0.089734 0.0821521 0.0708522 0.0559236 0.0380126 0.018193 -0.00230441 -0.022261 -0.0404393 -0.0555345 -0.0665046 -0.0727569 -0.0744796 -0.0727219 -0.0693747 -0.0668472 -0.067707 -0.0740625 -0.0869241 -0.105824 -0.128479 -0.151162 -0.169382 -0.179007 -0.17762 -0.165714 -0.147312 -0.12971 -0.122098 -0.133078 -0.167729 -0.224811 -0.295071 -0.361604 -0.402202 -0.394117 -0.319853 -0.172809 0.0389037 0.291862 0.550412 0.773342 0.922213 0.969741 0.906528 0.742025 0.50293 0.227805 -0.0408973 -0.265759 -0.421568 -0.499191 -0.504966 -0.456532 -0.376589 -0.286744 -0.2033 -0.135421 -0.0858337 -0.052818 -0.032472 -0.0206163 -0.0138449 -0.00984741 -0.00729236 -0.00551872 -0.00416703 -0.00194817 0 0 
0 0 -0.00123873 -0.00268118 -0.00364509 -0.00490012 -0.00656113 -0.00878817 -0.0119754 -0.0169911 -0.0254708 -0.040075 -0.0644758 -0.102806 -0.158406 -0.231925 -0.31919 -0.409645 -0.486382 -0.528306 -0.514518 -0.42999 -0.270747 -0.0471514 0.216282 0.484502 0.718444 0.882327 0.950451 0.912812 0.777238 0.567729 0.319242 0.0702858 -0.144665 -0.301403 -0.38934 -0.411587 -0.382226 -0.321496 -0.250654 -0.187465 -0.143285 -0.122169 -0.121718 -0.135206 -0.154083 -0.17047 -0.178801 -0.176542 -0.164192 -0.144492 -0.121277 -0.0985396 -0.0794297 -0.065787 -0.0580245 -0.0552425 -0.0557004 -0.0572501 -0.0578519 -0.0558016 -0.0499269 -0.0398273 -0.0257841 -0.00868026 0.0101858 0.0294108 0.0478261 0.0646263 0.0794216 0.0918852 0.101783 0.10882 0.112826 0.11378 0.111919 0.107732 0.101861 0.094875 0.0871513 0.0787366 0.0693848 0.0587373 0.0464718 0.032577 0.017285 0.00129941 -0.0147365 -0.0301461 -0.0445148 -0.0575993 -0.0693196 -0.079633 -0.0885027 -0.0959511 -0.102075 -0.106895 -0.110472 -0.112776 -0.113784 -0.113388 -0.111586 -0.108293 -0.103507 -0.0972155 -0.0894598 -0.0802134 -0.0695531 -0.0575866 -0.0444762 -0.0304676 -0.0158768 -0.00102657 0.0136866 0.028059 0.0417934 0.0548264 0.0670496 0.0783821 0.0886013 0.0974492 0.104525 0.109439 0.111969 0.112068 0.109879 0.105617 0.099311 0.0907105 0.0794029 0.065068 0.0479012 0.0285964 0.00853993 -0.0107192 -0.0276959 -0.0413725 -0.0511241 -0.0568086 -0.0587919 -0.0580644 -0.056324 -0.0555909 -0.0580798 -0.0655302 -0.0788723 -0.0977143 -0.120246 -0.143339 -0.162991 -0.175341 -0.177642 -0.169365 -0.153004 -0.134121 -0.120562 -0.120878 -0.14179 -0.185719 -0.248593 -0.319092 -0.379456 -0.408476 -0.385953 -0.297866 -0.141188 0.0734539 0.321799 0.569395 0.777784 0.912163 0.948662 0.879576 0.716092 0.483148 0.216045 -0.0462941 -0.269001 -0.42762 -0.511865 -0.525649 -0.483964 -0.407594 -0.317555 -0.230687 -0.1575 -0.102158 -0.0640162 -0.0397498 -0.0252424 -0.016838 -0.0118889 -0.00876705 -0.00660893 -0.005021 -0.00377893 -0.00176513 0 0 
0 0 -0.00110636 -0.00239944 -0.0032751 -0.00441958 -0.00592251 -0.00787147 -0.0104786 -0.0142689 -0.0203279 -0.0305658 -0.0479145 -0.0761607 -0.119195 -0.179695 -0.257238 -0.346452 -0.435959 -0.50879 -0.544939 -0.525472 -0.437544 -0.27885 -0.0599214 0.196228 0.457502 0.687877 0.853621 0.929962 0.906084 0.787422 0.594445 0.358384 0.114883 -0.10285 -0.26992 -0.373214 -0.412249 -0.397359 -0.345796 -0.277404 -0.210164 -0.157225 -0.125362 -0.115053 -0.121901 -0.138667 -0.157514 -0.171862 -0.177424 -0.172714 -0.158696 -0.138043 -0.114362 -0.091123 -0.071131 -0.0559997 -0.0462244 -0.0411558 -0.0394565 -0.0393337 -0.0389116 -0.0365959 -0.0313713 -0.0228856 -0.0113363 0.00262829 0.0183022 0.0349782 0.0520101 0.0686962 0.0842012 0.0976597 0.10829 0.115611 0.119523 0.120219 0.118228 0.11405 0.108132 0.100586 0.0912941 0.0800116 0.0664971 0.0508199 0.0333517 0.0148192 -0.00393728 -0.0221316 -0.0392286 -0.054905 -0.0690196 -0.0814545 -0.0921937 -0.101236 -0.108623 -0.114459 -0.11876 -0.121526 -0.122717 -0.122275 -0.120112 -0.11615 -0.110351 -0.102761 -0.0933603 -0.0822077 -0.0693884 -0.055013 -0.0393272 -0.0226302 -0.00532531 0.0121792 0.0294213 0.0460367 0.0616773 0.0761077 0.0891166 0.100484 0.1099 0.116953 0.121213 0.122242 0.11985 0.114085 0.105388 0.094345 0.0815421 0.0673572 0.0519451 0.0355315 0.0186046 0.00205535 -0.0128168 -0.0248695 -0.0333305 -0.038208 -0.0401656 -0.0403816 -0.0404125 -0.0420066 -0.0468827 -0.0563985 -0.071237 -0.0909249 -0.113877 -0.137277 -0.1577 -0.17157 -0.176196 -0.170617 -0.156289 -0.137496 -0.120783 -0.113959 -0.124244 -0.15603 -0.208838 -0.275881 -0.344027 -0.395308 -0.409875 -0.370509 -0.266901 -0.0995938 0.118258 0.361682 0.597406 0.789748 0.907513 0.930284 0.852757 0.68589 0.456077 0.195907 -0.0591587 -0.277181 -0.435236 -0.522834 -0.542267 -0.506313 -0.433824 -0.344719 -0.255905 -0.178705 -0.118479 -0.0756457 -0.0475417 -0.0302939 -0.0201308 -0.014134 -0.0104007 -0.00785045 -0.0059621 -0.00452346 -0.00338934 -0.00158073 0 0 
0 0 -0.000976769 -0.00212217 -0.00290604 -0.0039385 -0.00529573 -0.00703139 -0.0092544 -0.0122501 -0.0166869 -0.0238544 -0.0359048 -0.0559455 -0.0877222 -0.134798 -0.199131 -0.279346 -0.369218 -0.45693 -0.525984 -0.557678 -0.53491 -0.446642 -0.29135 -0.0790427 0.169399 0.424625 0.653102 0.823 0.910104 0.902585 0.803286 0.62898 0.407086 0.17024 -0.0497856 -0.227539 -0.347518 -0.4057 -0.4084 -0.369604 -0.30708 -0.238482 -0.178235 -0.135524 -0.113729 -0.111184 -0.122535 -0.140759 -0.158927 -0.171483 -0.175137 -0.168937 -0.153993 -0.132826 -0.108634 -0.0844992 -0.0629639 -0.0456478 -0.0332173 -0.0252745 -0.0208038 -0.0183468 -0.0164697 -0.0140432 -0.0102477 -0.00458528 0.00327807 0.0134674 0.0258969 0.0400707 0.0552009 0.0702044 0.0840162 0.0957696 0.104915 0.111311 0.115098 0.116493 0.115716 0.112762 0.10739 0.0993085 0.0882393 0.0741878 0.0575904 0.0392202 0.0200242 0.000926719 -0.0173756 -0.0344558 -0.0500263 -0.0639285 -0.0760359 -0.0863218 -0.0948035 -0.101499 -0.106446 -0.109636 -0.111008 -0.110506 -0.108003 -0.103441 -0.0967988 -0.0880871 -0.0773969 -0.0648268 -0.0505042 -0.0346696 -0.017607 0.000237 0.0183697 0.0362575 0.0533455 0.069165 0.083306 0.095454 0.105409 0.112939 0.117802 0.119726 0.118405 0.113644 0.10552 0.0944152 0.0811657 0.0668042 0.0523466 0.0385246 0.0257356 0.0140936 0.00377875 -0.00490929 -0.0115372 -0.0159607 -0.0184528 -0.0200223 -0.0221108 -0.026352 -0.0341848 -0.04652 -0.0636519 -0.0849173 -0.10877 -0.132674 -0.153569 -0.168246 -0.174225 -0.170392 -0.15772 -0.139491 -0.12126 -0.109953 -0.112552 -0.134397 -0.177136 -0.23736 -0.305884 -0.368269 -0.406889 -0.403951 -0.345508 -0.225218 -0.0471578 0.173162 0.410227 0.632227 0.806429 0.905367 0.912259 0.824262 0.65328 0.423692 0.169085 -0.0783079 -0.289717 -0.44436 -0.532281 -0.554986 -0.523457 -0.454724 -0.367404 -0.277931 -0.198069 -0.134018 -0.0871562 -0.0555315 -0.0356 -0.0236258 -0.016518 -0.0121316 -0.00918334 -0.00701016 -0.00532786 -0.00402699 -0.00300271 -0.00139763 0 0 
0 0 -0.000853068 -0.00185542 -0.00254424 -0.00346011 -0.00467507 -0.00622696 -0.00816997 -0.0106508 -0.0140426 -0.0191466 -0.0274349 -0.0412452 -0.0637548 -0.0985832 -0.148856 -0.215843 -0.29743 -0.386809 -0.472214 -0.537915 -0.566592 -0.542866 -0.456891 -0.307407 -0.103191 0.137034 0.386383 0.613823 0.789268 0.888987 0.899978 0.822322 0.669066 0.463683 0.235566 0.0147734 -0.173001 -0.310204 -0.389332 -0.412701 -0.390585 -0.338128 -0.271959 -0.207057 -0.154522 -0.120499 -0.106139 -0.108589 -0.122329 -0.14085 -0.158072 -0.169289 -0.171823 -0.164956 -0.149749 -0.128404 -0.103742 -0.0785536 -0.0552103 -0.0352982 -0.0195171 -0.00790466 5.31937e-05 0.00506362 0.008074 0.0100534 0.0121356 0.0153393 0.0204314 0.0276416 0.0367419 0.0470764 0.0577415 0.0679861 0.0772333 0.0851482 0.0916085 0.0965684 0.100034 0.101681 0.101112 0.0977577 0.0911834 0.0812098 0.0680931 0.0525878 0.035596 0.0181293 0.00101079 -0.0152899 -0.0303689 -0.0440207 -0.0560706 -0.0664066 -0.074969 -0.0818024 -0.0868713 -0.0901715 -0.0916334 -0.0911355 -0.0885948 -0.0839486 -0.0771783 -0.0683646 -0.0575892 -0.0450466 -0.0309396 -0.0155952 0.000639847 0.0172289 0.033654 0.0492923 0.0635316 0.0759625 0.0861842 0.0940121 0.0993558 0.102146 0.102426 0.100111 0.0952138 0.0877763 0.0781124 0.066846 0.0549585 0.0435848 0.0336818 0.0258593 0.0201245 0.0159896 0.012813 0.00997113 0.00697198 0.00323463 -0.00195713 -0.00966287 -0.0208862 -0.0364015 -0.0561807 -0.0794174 -0.104437 -0.128843 -0.149915 -0.164846 -0.171458 -0.168679 -0.157239 -0.139832 -0.121167 -0.107341 -0.104856 -0.119228 -0.153304 -0.205894 -0.27086 -0.337043 -0.389481 -0.411532 -0.388039 -0.308734 -0.171314 0.0167218 0.237801 0.466219 0.671886 0.825361 0.903096 0.892 0.791938 0.615878 0.387576 0.137268 -0.102381 -0.30575 -0.454601 -0.540227 -0.563881 -0.535353 -0.469948 -0.384931 -0.29594 -0.214714 -0.148019 -0.0979739 -0.0633106 -0.0409137 -0.0271831 -0.0189521 -0.0138965 -0.0105466 -0.00810693 -0.00620621 -0.00470071 -0.00353489 -0.00262491 -0.00121955 0 0 
0 0 -0.000737796 -0.00160467 -0.00219788 -0.0029938 -0.00406136 -0.00543851 -0.0071564 -0.00928037 -0.0120006 -0.0157758 -0.0215353 -0.0308968 -0.0463085 -0.0709302 -0.108152 -0.160657 -0.229105 -0.310821 -0.398803 -0.481645 -0.544582 -0.571766 -0.5492 -0.467836 -0.326111 -0.131388 0.0996435 0.342736 0.569264 0.750959 0.864512 0.895703 0.841853 0.712221 0.526197 0.309701 0.0907139 -0.105347 -0.259278 -0.360425 -0.407109 -0.405631 -0.367999 -0.309003 -0.243356 -0.183467 -0.137725 -0.110124 -0.100567 -0.105656 -0.120166 -0.138208 -0.154445 -0.164794 -0.166901 -0.160136 -0.145337 -0.124374 -0.0996579 -0.0735712 -0.0482567 -0.0252914 -0.00585624 0.00940578 0.0204265 0.0276409 0.0320343 0.0347909 0.0370823 0.0396773 0.0429596 0.0468723 0.0511237 0.0554201 0.059552 0.0634159 0.0670532 0.0704155 0.0734137 0.0756426 0.0765647 0.0754429 0.0715719 0.0645565 0.0544557 0.0417894 0.0274263 0.012273 -0.00284252 -0.0173791 -0.0309521 -0.0433375 -0.054341 -0.0638635 -0.0718204 -0.0781886 -0.0829457 -0.0860824 -0.0874993 -0.0871118 -0.0847797 -0.080462 -0.0741743 -0.0659673 -0.0559799 -0.0444624 -0.031608 -0.0177733 -0.00336023 0.0111321 0.0251674 0.0381494 0.0495898 0.0591206 0.0665448 0.0718287 0.0750768 0.0764274 0.0761037 0.0742384 0.0709357 0.0663257 0.0607041 0.0544929 0.0484457 0.0433229 0.0396892 0.037636 0.0365779 0.035413 0.0328557 0.0277861 0.019528 0.00766542 -0.00788997 -0.0271156 -0.0496886 -0.0746913 -0.100614 -0.125219 -0.146023 -0.160586 -0.16709 -0.164721 -0.154126 -0.137666 -0.119411 -0.104715 -0.0994754 -0.108925 -0.136454 -0.182189 -0.242098 -0.307808 -0.366882 -0.404566 -0.406083 -0.359369 -0.258162 -0.104114 0.0921088 0.311317 0.528065 0.714375 0.844305 0.898426 0.867449 0.753982 0.572197 0.345338 0.101665 -0.130081 -0.324353 -0.465505 -0.546528 -0.569019 -0.541974 -0.47933 -0.396862 -0.309273 -0.227921 -0.159775 -0.107508 -0.0704592 -0.045956 -0.0306285 -0.0213256 -0.0156116 -0.0118754 -0.00918991 -0.00710104 -0.00541977 -0.00408252 -0.0030564 -0.00226379 -0.00105009 0 0 
0 0 -0.000633411 -0.00137502 -0.00187359 -0.0025489 -0.00346678 -0.00466562 -0.00617353 -0.00802374 -0.0103001 -0.0132325 -0.0173614 -0.0237253 -0.0340447 -0.0508054 -0.0770513 -0.115904 -0.169609 -0.238344 -0.319117 -0.404998 -0.48522 -0.546105 -0.573219 -0.553698 -0.478944 -0.346767 -0.16319 0.0573973 0.293337 0.518559 0.706589 0.834552 0.887132 0.859002 0.75561 0.592174 0.390891 0.177212 -0.0242519 -0.19323 -0.316332 -0.38815 -0.410898 -0.392963 -0.346556 -0.285329 -0.222057 -0.166835 -0.126102 -0.102513 -0.0952785 -0.101042 -0.115032 -0.131984 -0.147218 -0.157103 -0.159497 -0.153679 -0.140141 -0.120236 -0.0958528 -0.0691558 -0.0422666 -0.0171581 0.00477627 0.022784 0.0368583 0.0474634 0.0553138 0.0610282 0.0650065 0.0674553 0.0685025 0.0683359 0.0672371 0.065537 0.0636411 0.0618385 0.0602428 0.0586329 0.0565237 0.0532102 0.047933 0.0401558 0.0297342 0.0170775 0.00288124 -0.0119862 -0.0267186 -0.0408243 -0.0538979 -0.0658008 -0.0763622 -0.0854963 -0.0931209 -0.0992278 -0.103789 -0.106795 -0.108208 -0.107848 -0.105663 -0.101555 -0.0955353 -0.0876715 -0.0780821 -0.0669909 -0.0546107 -0.0413047 -0.0273995 -0.0133928 0.000274094 0.013068 0.0245701 0.0345641 0.0429421 0.0498003 0.0553202 0.0597227 0.0632188 0.0659083 0.0677737 0.0687154 0.0686637 0.0676543 0.0659578 0.0638663 0.0615253 0.0586875 0.0545647 0.0479918 0.0377834 0.0231549 0.00408732 -0.0187918 -0.0443185 -0.0710689 -0.0973606 -0.121368 -0.141056 -0.154478 -0.160154 -0.157548 -0.147422 -0.131952 -0.11477 -0.100567 -0.0945891 -0.101643 -0.125083 -0.165696 -0.220841 -0.284074 -0.345306 -0.391757 -0.409765 -0.387088 -0.315337 -0.192259 -0.0232775 0.178258 0.392044 0.593491 0.757129 0.860771 0.88917 0.836887 0.709201 0.521391 0.296271 0.0602624 -0.160618 -0.344623 -0.476511 -0.550978 -0.570435 -0.543464 -0.482864 -0.403018 -0.317522 -0.237118 -0.168688 -0.115232 -0.0765572 -0.0504396 -0.0337674 -0.0235054 -0.017187 -0.0130933 -0.0101936 -0.00794802 -0.00612783 -0.00465039 -0.00348449 -0.00260094 -0.00192641 -0.000892939 0 0 
0 0 -0.000541686 -0.00117097 -0.00157888 -0.00213441 -0.00290016 -0.00391784 -0.00521835 -0.00682327 -0.00876997 -0.0111642 -0.0142761 -0.0187101 -0.0255901 -0.0366783 -0.0544248 -0.081729 -0.121392 -0.175278 -0.243235 -0.322157 -0.405439 -0.483101 -0.542711 -0.571052 -0.556241 -0.489821 -0.36898 -0.198174 0.0104925 0.238043 0.461058 0.654846 0.797146 0.871707 0.870709 0.795968 0.658491 0.476521 0.272539 0.0697314 -0.111196 -0.25479 -0.35228 -0.401898 -0.408127 -0.380057 -0.329347 -0.268253 -0.207661 -0.155871 -0.118045 -0.0960582 -0.0889423 -0.093692 -0.105984 -0.121319 -0.135533 -0.145384 -0.148687 -0.144458 -0.132753 -0.11457 -0.0916339 -0.0659704 -0.0395791 -0.0140978 0.00950421 0.0306301 0.0489773 0.0643076 0.0764192 0.0851056 0.0903526 0.0924121 0.0916855 0.0888104 0.0844764 0.0792877 0.0736837 0.0677495 0.0612737 0.0537665 0.0445798 0.0332198 0.0195372 0.00384364 -0.0130996 -0.0305037 -0.0475449 -0.0636428 -0.0784526 -0.09181 -0.10358 -0.113728 -0.12217 -0.128874 -0.133874 -0.137135 -0.138594 -0.138161 -0.135714 -0.131166 -0.124559 -0.115906 -0.105323 -0.0930305 -0.079223 -0.0642291 -0.0484062 -0.0322077 -0.0160934 -0.000551651 0.0140823 0.0275114 0.0396745 0.0506127 0.0603992 0.0691557 0.0769173 0.0835665 0.0888039 0.092233 0.0933911 0.0919905 0.0879854 0.0815174 0.0727438 0.0616486 0.0479159 0.0310005 0.0104803 -0.0135235 -0.0400474 -0.0674695 -0.0936881 -0.116571 -0.134343 -0.145625 -0.14957 -0.146113 -0.136129 -0.121737 -0.106192 -0.0936835 -0.0887397 -0.0956484 -0.117442 -0.155087 -0.206708 -0.267188 -0.328179 -0.378841 -0.406894 -0.400701 -0.351141 -0.253724 -0.110219 0.0706588 0.273425 0.477426 0.659452 0.797038 0.871929 0.873123 0.798803 0.656781 0.463291 0.24056 0.0132401 -0.195308 -0.366158 -0.487153 -0.553454 -0.568244 -0.540053 -0.480729 -0.403433 -0.320536 -0.241982 -0.174336 -0.120701 -0.0812219 -0.0540467 -0.0363917 -0.025363 -0.0185302 -0.0141307 -0.0110485 -0.00868366 -0.00676247 -0.00518293 -0.00390754 -0.00291603 -0.00217747 -0.00162006 -0.000751678 0 0 
0 0 -0.000464053 -0.000995736 -0.00131847 -0.00175884 -0.00237466 -0.0032073 -0.00429533 -0.0056656 -0.00733453 -0.00934139 -0.0118112 -0.015055 -0.0197264 -0.0269844 -0.0385908 -0.0569186 -0.0846566 -0.124329 -0.177449 -0.243673 -0.320023 -0.400345 -0.47565 -0.534699 -0.56548 -0.556799 -0.500251 -0.392314 -0.235826 -0.0406355 0.177073 0.39645 0.594752 0.750569 0.846909 0.873815 0.82967 0.721387 0.563092 0.373895 0.174982 -0.0133377 -0.174268 -0.296304 -0.373973 -0.407866 -0.403477 -0.369838 -0.317645 -0.257633 -0.199166 -0.149296 -0.11232 -0.0897859 -0.0808776 -0.0829911 -0.0926033 -0.10577 -0.118779 -0.128515 -0.132807 -0.130552 -0.121738 -0.107156 -0.0879746 -0.0655571 -0.0410751 -0.0156488 0.00969156 0.0337738 0.0555292 0.074011 0.0885802 0.0989945 0.105363 0.108131 0.107919 0.105349 0.100988 0.0951369 0.0878169 0.078763 0.0675192 0.0536977 0.0372298 0.0185019 -0.00172047 -0.0224705 -0.0428101 -0.062091 -0.0798518 -0.0958981 -0.110071 -0.122266 -0.132419 -0.14046 -0.146398 -0.150207 -0.151837 -0.151156 -0.148108 -0.142618 -0.134694 -0.124364 -0.111768 -0.0971085 -0.0806626 -0.0627975 -0.0438984 -0.0245098 -0.00513061 0.0136953 0.0314946 0.0479198 0.0627592 0.0759029 0.0872952 0.09687 0.104463 0.109785 0.112392 0.111747 0.107332 0.0988625 0.0864316 0.0704808 0.0516945 0.0307801 0.0082755 -0.0155138 -0.0401289 -0.0648185 -0.0882046 -0.108495 -0.123756 -0.132623 -0.134488 -0.129718 -0.119629 -0.106433 -0.0931377 -0.0833629 -0.0810713 -0.0897906 -0.112157 -0.148975 -0.198654 -0.256945 -0.316783 -0.368838 -0.402375 -0.406688 -0.372764 -0.295111 -0.173122 -0.012266 0.175971 0.374807 0.563934 0.722201 0.83049 0.874688 0.847884 0.751692 0.596067 0.398011 0.178914 -0.0384916 -0.233393 -0.389637 -0.497433 -0.553913 -0.562631 -0.532037 -0.47328 -0.398342 -0.318394 -0.242409 -0.176487 -0.123621 -0.0841313 -0.0565319 -0.0382959 -0.0267548 -0.0195452 -0.0149071 -0.0116947 -0.00924925 -0.00726687 -0.00562014 -0.00427023 -0.00320241 -0.00239018 -0.00179519 -0.00135023 -0.000628761 0 0 
0 0 -0.000401239 -0.000851855 -0.001097 -0.00142771 -0.00189851 -0.00255056 -0.00342412 -0.00455313 -0.00595863 -0.00765641 -0.00968313 -0.0121813 -0.0155019 -0.0203142 -0.0277798 -0.039628 -0.0580815 -0.0856457 -0.12455 -0.176054 -0.239791 -0.31298 -0.390193 -0.46339 -0.522571 -0.556749 -0.555269 -0.509788 -0.416014 -0.275265 -0.0950999 0.111001 0.324805 0.525714 0.693334 0.810382 0.865117 0.852844 0.776578 0.646294 0.477445 0.288578 0.0988632 -0.0744683 -0.217886 -0.322886 -0.386267 -0.409875 -0.399479 -0.363467 -0.311448 -0.252825 -0.195754 -0.146338 -0.108423 -0.0834887 -0.071106 -0.0692946 -0.0750575 -0.0850507 -0.0959914 -0.105209 -0.110832 -0.111797 -0.107604 -0.0981874 -0.0837733 -0.0649848 -0.0428023 -0.0185474 0.00624641 0.0300796 0.0516973 0.0703001 0.0853825 0.0969202 0.10507 0.110161 0.112526 0.112387 0.109764 0.104442 0.0960334 0.0841816 0.0688714 0.050485 0.0299063 0.00817655 -0.0136186 -0.0346163 -0.0542215 -0.0721271 -0.0880893 -0.101937 -0.11352 -0.122741 -0.12954 -0.133832 -0.135555 -0.134654 -0.131034 -0.124657 -0.115574 -0.103866 -0.0896849 -0.0733032 -0.0550696 -0.0354483 -0.0149648 0.0057404 0.0260388 0.0452673 0.0628782 0.0783832 0.0914818 0.101932 0.109615 0.114428 0.116216 0.114727 0.109645 0.100681 0.0875884 0.070465 0.0497976 0.0266479 0.00229437 -0.0218456 -0.04461 -0.0651512 -0.0829218 -0.0973349 -0.107615 -0.112952 -0.112783 -0.107321 -0.0977454 -0.0862878 -0.0758801 -0.0698818 -0.071564 -0.0838198 -0.108592 -0.14636 -0.195629 -0.252556 -0.311018 -0.362863 -0.398707 -0.408967 -0.385236 -0.321768 -0.216721 -0.073302 0.1 0.289653 0.478428 0.647184 0.777381 0.853587 0.865834 0.81111 0.694112 0.526592 0.325834 0.112224 -0.0936387 -0.273534 -0.413978 -0.507459 -0.552689 -0.553947 -0.519924 -0.461053 -0.388217 -0.311372 -0.238535 -0.175095 -0.123838 -0.0851202 -0.0576899 -0.0393329 -0.0275458 -0.0201298 -0.0153524 -0.0120633 -0.00959039 -0.00758584 -0.00590921 -0.00452135 -0.00340966 -0.00255214 -0.00191557 -0.00145993 -0.00112146 -0.000526209 0 0 
0 0 -0.000353889 -0.000740432 -0.000916411 -0.00114712 -0.00148114 -0.00195772 -0.00262037 -0.00350925 -0.00464851 -0.00605343 -0.00773815 -0.00974182 -0.0122242 -0.0155447 -0.0203824 -0.0278872 -0.0396665 -0.0578236 -0.0846348 -0.122054 -0.171268 -0.231895 -0.301576 -0.375612 -0.447017 -0.506868 -0.545029 -0.551443 -0.517815 -0.439162 -0.315367 -0.151761 0.0407407 0.246657 0.447584 0.624479 0.760196 0.841664 0.861597 0.819424 0.721105 0.578211 0.406174 0.222227 0.0432156 -0.116315 -0.245517 -0.338019 -0.392025 -0.409828 -0.396961 -0.360979 -0.310377 -0.253332 -0.197061 -0.146999 -0.106782 -0.078048 -0.0607302 -0.0533809 -0.0538023 -0.059425 -0.0678209 -0.0767656 -0.0842504 -0.0886262 -0.0886301 -0.0835796 -0.073519 -0.0591164 -0.0415392 -0.0220981 -0.0021225 0.0173539 0.035517 0.0518547 0.066091 0.0780642 0.0877075 0.0949758 0.0996255 0.101278 0.099421 0.0935352 0.0835064 0.0695308 0.0524882 0.0334547 0.0135875 -0.006109 -0.0248708 -0.0423272 -0.0581043 -0.0719928 -0.0837085 -0.0931029 -0.0999982 -0.104341 -0.106012 -0.104996 -0.101193 -0.0946671 -0.0854377 -0.073663 -0.0595337 -0.043429 -0.0257535 -0.00710556 0.0119357 0.0305845 0.048134 0.0638938 0.0772821 0.0877707 0.0951273 0.099155 0.0998787 0.0973258 0.0915807 0.0827034 0.0707139 0.0557251 0.0379235 0.0178153 -0.00371798 -0.0253726 -0.0455599 -0.0627123 -0.075743 -0.084121 -0.0879668 -0.0877204 -0.0840615 -0.0777153 -0.0696681 -0.0615479 -0.055617 -0.0546471 -0.0615208 -0.0785668 -0.107157 -0.147264 -0.197205 -0.253349 -0.310274 -0.360763 -0.39661 -0.409318 -0.39136 -0.337196 -0.244576 -0.115271 0.0443224 0.223364 0.407295 0.579281 0.722099 0.820326 0.862401 0.842382 0.760854 0.625103 0.448217 0.247342 0.0415303 -0.150837 -0.314249 -0.437815 -0.516184 -0.549522 -0.5428 -0.504343 -0.444704 -0.37367 -0.299991 -0.230655 -0.170314 -0.121341 -0.0841005 -0.0574232 -0.0393613 -0.0276495 -0.0201961 -0.0153964 -0.0121083 -0.00964934 -0.00766858 -0.00600261 -0.00461393 -0.00349084 -0.00261574 -0.00196619 -0.00150213 -0.00117851 -0.000936465 -0.000444483 0 0 
0 0 -0.000322623 -0.000662907 -0.000778417 -0.000918772 -0.00112845 -0.00144223 -0.00190084 -0.00254866 -0.00342153 -0.00453898 -0.00591032 -0.0075432 -0.0094856 -0.0119051 -0.0151376 -0.0198776 -0.0272075 -0.0386278 -0.0561001 -0.0816345 -0.117038 -0.163387 -0.220509 -0.286463 -0.35736 -0.42719 -0.487917 -0.530299 -0.544895 -0.523508 -0.46064 -0.354764 -0.209234 -0.0323855 0.162951 0.360756 0.543661 0.695018 0.801037 0.852387 0.845352 0.782138 0.670399 0.522094 0.351889 0.175305 0.00697248 -0.140871 -0.2594 -0.343615 -0.392454 -0.408229 -0.395881 -0.362011 -0.313965 -0.258945 -0.203323 -0.152097 -0.108667 -0.0748496 -0.0511609 -0.0370957 -0.0314289 -0.0324226 -0.0378814 -0.0454057 -0.0527338 -0.058049 -0.0602208 -0.0588522 -0.0540874 -0.0464882 -0.0366987 -0.0253902 -0.0131637 -0.000527358 0.012059 0.0242287 0.035666 0.04601 0.0547813 0.061323 0.0649061 0.064772 0.0605034 0.0520512 0.0400332 0.0254557 0.00942068 -0.00699701 -0.0230725 -0.0382398 -0.0521909 -0.0646229 -0.0752405 -0.0838121 -0.0901339 -0.0940546 -0.0955142 -0.0944991 -0.0909617 -0.08494 -0.0765441 -0.0659404 -0.0533815 -0.0392289 -0.0239796 -0.00819562 0.00739757 0.0221022 0.0351701 0.0460136 0.0540905 0.0590795 0.0609318 0.0596266 0.0554332 0.0486538 0.0396839 0.0289151 0.016696 0.00339202 -0.0105754 -0.0246373 -0.0379839 -0.0495464 -0.0581129 -0.0627028 -0.0628619 -0.0590072 -0.052321 -0.0445244 -0.0375345 -0.0331649 -0.0331557 -0.0392095 -0.0530233 -0.0761482 -0.109431 -0.15254 -0.203611 -0.259153 -0.314069 -0.362007 -0.395781 -0.408029 -0.39215 -0.343179 -0.25883 -0.140171 0.00778919 0.176232 0.352901 0.523165 0.671483 0.783191 0.846345 0.8533 0.801847 0.695734 0.544292 0.361332 0.163499 -0.0318241 -0.208623 -0.354058 -0.459798 -0.522479 -0.543642 -0.528773 -0.4861 -0.425041 -0.355455 -0.284911 -0.219289 -0.162449 -0.116329 -0.0811098 -0.0557019 -0.0383319 -0.0269742 -0.0196969 -0.0149937 -0.0117884 -0.00939648 -0.00747141 -0.00585866 -0.00450293 -0.00339981 -0.00254158 -0.00190631 -0.00145945 -0.00115511 -0.000952043 -0.000797048 -0.000384923 0 0 
0 0 -0.000307361 -0.000619517 -0.000685172 -0.000746801 -0.000843942 -0.00100819 -0.00127803 -0.00169665 -0.00230246 -0.0031282 -0.00419445 -0.00550117 -0.00704555 -0.00888619 -0.0111769 -0.0142571 -0.0187735 -0.0257321 -0.0365519 -0.0529611 -0.0768296 -0.109789 -0.152926 -0.206281 -0.268423 -0.336213 -0.404417 -0.465954 -0.512466 -0.535156 -0.526052 -0.479218 -0.391993 -0.265836 -0.106701 0.0751981 0.266366 0.451314 0.614414 0.741676 0.822361 0.850189 0.824002 0.747674 0.629542 0.481171 0.316021 0.147822 -0.0107711 -0.149375 -0.260576 -0.340274 -0.387644 -0.404637 -0.395485 -0.365757 -0.321768 -0.269691 -0.215092 -0.162498 -0.115426 -0.0762525 -0.0462642 -0.025661 -0.0135793 -0.00840349 -0.00810795 -0.0107422 -0.0146786 -0.0188073 -0.0224207 -0.02508 -0.0265577 -0.0267003 -0.0254358 -0.0228467 -0.0190341 -0.0141763 -0.00855313 -0.00246359 0.0035276 0.00874393 0.0122585 0.0131434 0.0106753 0.00453165 -0.00494967 -0.017007 -0.0306302 -0.0448386 -0.0588633 -0.0722009 -0.084557 -0.0956187 -0.105113 -0.112832 -0.118472 -0.121936 -0.123159 -0.122132 -0.118873 -0.113451 -0.10592 -0.0965095 -0.0854331 -0.0730395 -0.0597993 -0.0462623 -0.0330781 -0.0208999 -0.0103402 -0.00189742 0.00412838 0.00759945 0.00864156 0.00750155 0.00459203 0.000446819 -0.00444064 -0.00951231 -0.0144372 -0.0189012 -0.0227104 -0.0256709 -0.0275071 -0.0278824 -0.0263899 -0.0228679 -0.0177341 -0.0121528 -0.0080122 -0.00759172 -0.01309 -0.0261756 -0.047826 -0.0783197 -0.117342 -0.163851 -0.215842 -0.270062 -0.321975 -0.365899 -0.395549 -0.404618 -0.387535 -0.340084 -0.260307 -0.148992 -0.0102789 0.148424 0.316729 0.481971 0.630428 0.748642 0.824998 0.851196 0.82333 0.742595 0.615247 0.452049 0.267013 0.075762 -0.106189 -0.265346 -0.391494 -0.478672 -0.525421 -0.534393 -0.511529 -0.464795 -0.402992 -0.334488 -0.266925 -0.205099 -0.152016 -0.109102 -0.0763138 -0.0525775 -0.0362575 -0.0255084 -0.018595 -0.0141183 -0.0110629 -0.00879535 -0.00697386 -0.00544517 -0.00415607 -0.00310298 -0.00229242 -0.00170048 -0.00129377 -0.00103442 -0.00087797 -0.0007849 -0.000705078 -0.00034783 0 0 
0 0 -0.000307884 -0.000609686 -0.000636547 -0.000632997 -0.000633679 -0.000664306 -0.000759399 -0.000963726 -0.00131768 -0.00185516 -0.00261046 -0.00359715 -0.00480327 -0.00623627 -0.00792447 -0.0100277 -0.0128851 -0.0170463 -0.0235027 -0.0334882 -0.0485754 -0.070464 -0.100726 -0.140454 -0.189934 -0.248242 -0.312782 -0.379145 -0.441177 -0.49142 -0.521812 -0.524656 -0.49378 -0.425554 -0.319794 -0.180257 -0.0145868 0.166217 0.348841 0.519042 0.663189 0.769751 0.830619 0.841729 0.803593 0.720872 0.601864 0.457285 0.299177 0.139609 -0.0105463 -0.142247 -0.249164 -0.32762 -0.376744 -0.397993 -0.394684 -0.371287 -0.332942 -0.284927 -0.232304 -0.179574 -0.130413 -0.0873622 -0.0517675 -0.0238692 -0.00316614 0.0111968 0.0201658 0.0246198 0.0253986 0.023305 0.019178 0.0138292 0.00796125 0.00219209 -0.00308532 -0.00751861 -0.0110034 -0.0135432 -0.015351 -0.0169871 -0.0191855 -0.0229189 -0.0289999 -0.0379083 -0.0495711 -0.063342 -0.078378 -0.0937384 -0.10868 -0.122716 -0.135554 -0.146976 -0.156697 -0.164527 -0.170218 -0.173658 -0.174779 -0.173598 -0.170172 -0.164591 -0.156928 -0.147362 -0.13606 -0.123364 -0.109657 -0.0954316 -0.0812931 -0.0678135 -0.0555088 -0.044697 -0.0356189 -0.0282489 -0.0223867 -0.0177557 -0.0138834 -0.0103858 -0.00683205 -0.00293192 0.00141321 0.00611573 0.010815 0.0151266 0.0185697 0.0208124 0.0215459 0.0204001 0.0167047 0.00928083 -0.00346211 -0.0232108 -0.051178 -0.08764 -0.131744 -0.181554 -0.234242 -0.28634 -0.333721 -0.371613 -0.394809 -0.398061 -0.376763 -0.327568 -0.24904 -0.142056 -0.01029 0.139944 0.299601 0.457802 0.602457 0.721567 0.804361 0.842579 0.831506 0.770665 0.664099 0.519921 0.349657 0.16696 -0.0139329 -0.17968 -0.319294 -0.425094 -0.493352 -0.524209 -0.521332 -0.490847 -0.440492 -0.378285 -0.311719 -0.246919 -0.188811 -0.139582 -0.100065 -0.0699684 -0.0482002 -0.0332109 -0.0232815 -0.0168794 -0.012743 -0.00991451 -0.00782901 -0.00615846 -0.00474466 -0.00355311 -0.00258249 -0.00184192 -0.00131828 -0.000977365 -0.000784634 -0.000698946 -0.000675423 -0.000677618 -0.000660653 -0.000333556 0 0 
0 0 -0.000322612 -0.000631056 -0.000632767 -0.000579206 -0.000499977 -0.000416967 -0.000358179 -0.00036526 -0.000483234 -0.000746097 -0.00119502 -0.00185801 -0.00272812 -0.00380703 -0.00509229 -0.00659706 -0.00849006 -0.0110305 -0.0147671 -0.0205849 -0.0295708 -0.0431685 -0.062919 -0.0903512 -0.126592 -0.17219 -0.226524 -0.287613 -0.351791 -0.41383 -0.467183 -0.504549 -0.518667 -0.503256 -0.453954 -0.369189 -0.250724 -0.103852 0.062951 0.238653 0.41075 0.566473 0.694184 0.784552 0.83137 0.832207 0.788389 0.70481 0.5892 0.451197 0.301398 0.150281 0.00737694 -0.119515 -0.224694 -0.304745 -0.358435 -0.386487 -0.391185 -0.37601 -0.345316 -0.303821 -0.256093 -0.20608 -0.156884 -0.110674 -0.0689079 -0.0325424 -0.00215056 0.0218795 0.0395925 0.0512974 0.0576437 0.0594932 0.0577566 0.0533026 0.0469496 0.0394398 0.0313288 0.0230515 0.0148263 0.00652581 -0.00229565 -0.0123319 -0.0243206 -0.0386947 -0.0554235 -0.0739768 -0.0934855 -0.112985 -0.131644 -0.148977 -0.164629 -0.178373 -0.19 -0.199235 -0.2059 -0.209857 -0.211057 -0.209548 -0.205399 -0.198702 -0.189597 -0.178201 -0.164709 -0.149408 -0.132666 -0.114987 -0.0969185 -0.0790623 -0.0619057 -0.045791 -0.0309328 -0.0173753 -0.0050468 0.00624198 0.0166794 0.0264101 0.0355164 0.043914 0.0513054 0.0571593 0.060694 0.0610455 0.0573955 0.0491388 0.0359218 0.017571 -0.00596619 -0.0349592 -0.0696576 -0.110249 -0.156249 -0.206126 -0.257168 -0.305641 -0.347251 -0.377486 -0.392015 -0.386806 -0.358512 -0.304747 -0.224666 -0.119443 0.00752624 0.15048 0.301649 0.451515 0.589582 0.705272 0.788912 0.832794 0.832023 0.785268 0.69495 0.567277 0.411575 0.239473 0.0637401 -0.103118 -0.250058 -0.368604 -0.453446 -0.502813 -0.518269 -0.504166 -0.466796 -0.413399 -0.351293 -0.286993 -0.225757 -0.171221 -0.125783 -0.0897249 -0.0624502 -0.0428081 -0.0292971 -0.0203682 -0.0145923 -0.0108879 -0.00837127 -0.00650248 -0.0050119 -0.00374693 -0.00268173 -0.00182718 -0.00117838 -0.000742208 -0.000492031 -0.000385886 -0.000389882 -0.000458382 -0.000549151 -0.000631656 -0.000663283 -0.000341509 0 0 
0 0 -0.000348438 -0.00067819 -0.000670579 -0.0005866 -0.000448618 -0.000272399 -8.26381e-05 8.49543e-05 0.00018367 0.000176055 2.33507e-05 -0.000321229 -0.000863742 -0.0015984 -0.00252577 -0.00361668 -0.00492349 -0.00655262 -0.00874197 -0.0120206 -0.0170903 -0.0250032 -0.0370358 -0.0546187 -0.0791902 -0.111986 -0.153624 -0.203875 -0.26124 -0.322826 -0.384276 -0.439918 -0.483287 -0.507618 -0.506727 -0.475762 -0.412028 -0.315596 -0.189593 -0.0401017 0.124138 0.292627 0.453908 0.596834 0.711558 0.790442 0.828759 0.824968 0.780781 0.700811 0.591907 0.46257 0.32197 0.179206 0.0425436 -0.0810824 -0.186392 -0.269837 -0.329788 -0.366323 -0.381098 -0.376922 -0.357244 -0.325658 -0.285583 -0.240035 -0.191767 -0.143285 -0.0967955 -0.0541506 -0.0167196 0.014717 0.0398823 0.0589504 0.0723728 0.0807133 0.0846549 0.0849194 0.0822127 0.0771773 0.0703718 0.0620192 0.0520373 0.0400463 0.0255563 0.00822796 -0.0118305 -0.0340523 -0.0574149 -0.0808791 -0.10344 -0.124422 -0.143374 -0.159966 -0.173947 -0.185027 -0.192966 -0.197682 -0.199039 -0.19713 -0.19202 -0.183901 -0.172892 -0.159188 -0.142985 -0.124602 -0.104499 -0.083225 -0.0614069 -0.0397612 -0.0188321 0.000872851 0.0190298 0.0353677 0.0497937 0.0622272 0.0725753 0.080689 0.0863647 0.0892321 0.0888196 0.0844639 0.0753665 0.0607343 0.0400021 0.0129395 -0.0201524 -0.0584948 -0.100933 -0.146209 -0.193005 -0.23989 -0.284952 -0.325479 -0.358034 -0.37855 -0.382992 -0.367867 -0.330691 -0.270182 -0.186434 -0.0810264 0.0426243 0.179321 0.322137 0.462783 0.592156 0.701109 0.781135 0.825378 0.829225 0.790954 0.712113 0.597436 0.454557 0.293313 0.124855 -0.0393739 -0.188873 -0.314901 -0.411379 -0.475175 -0.506203 -0.507158 -0.482881 -0.439552 -0.38393 -0.322474 -0.260862 -0.203426 -0.153082 -0.111301 -0.0786263 -0.0541796 -0.0367049 -0.0247393 -0.0168852 -0.0118519 -0.00860409 -0.00643875 -0.00482778 -0.00353728 -0.00246138 -0.00154972 -0.000828973 -0.000299979 3.35286e-05 0.000173063 0.000170203 6.02578e-05 -0.000118737 -0.000318447 -0.000503847 -0.000646924 -0.000708945 -0.000369339 0 0 
0 0 -0.000380181 -0.000742031 -0.000743307 -0.00065177 -0.000481407 -0.000239802 5.50934e-05 0.000372739 0.00066624 0.000891741 0.00101389 0.000983689 0.000764125 0.000364994 -0.000223335 -0.000977167 -0.00186621 -0.00294419 -0.00426466 -0.00612881 -0.00889701 -0.013221 -0.0200569 -0.0305359 -0.045984 -0.0677947 -0.097146 -0.134828 -0.18087 -0.234247 -0.292785 -0.352911 -0.409872 -0.458012 -0.49117 -0.503407 -0.489639 -0.446376 -0.37228 -0.268592 -0.139208 0.00939622 0.168832 0.329295 0.480647 0.61317 0.718537 0.79045 0.825102 0.82148 0.781222 0.708342 0.608847 0.489922 0.35944 0.22524 0.0946308 -0.0260813 -0.131845 -0.219282 -0.286638 -0.333611 -0.361045 -0.37046 -0.363909 -0.34372 -0.312561 -0.273381 -0.229167 -0.182784 -0.136696 -0.0927878 -0.052465 -0.0165627 0.0144371 0.040286 0.0610277 0.076828 0.0881281 0.0953745 0.0990694 0.0995432 0.0968494 0.0907866 0.081013 0.0673208 0.0497998 0.0291173 0.00629015 -0.0173553 -0.0406554 -0.0627036 -0.0828218 -0.100575 -0.115576 -0.127519 -0.136095 -0.141128 -0.142546 -0.140353 -0.134731 -0.125832 -0.113884 -0.0991793 -0.0819353 -0.0626247 -0.0417627 -0.0200562 0.00170653 0.0227674 0.0423316 0.0597983 0.0746483 0.0865372 0.095143 0.100238 0.101596 0.0989943 0.0921892 0.0809262 0.064943 0.0438719 0.0174512 -0.0145698 -0.0519766 -0.0941506 -0.139826 -0.18708 -0.233577 -0.276804 -0.314352 -0.343947 -0.363341 -0.370087 -0.361517 -0.334982 -0.288435 -0.220874 -0.132849 -0.0264858 0.0945945 0.225333 0.359567 0.490072 0.60905 0.708586 0.781497 0.821777 0.825432 0.790818 0.718942 0.613604 0.481112 0.329803 0.169375 0.009986 -0.138595 -0.267948 -0.371629 -0.445732 -0.489021 -0.502834 -0.490647 -0.457546 -0.409463 -0.352551 -0.292465 -0.233945 -0.18057 -0.134497 -0.0967641 -0.0673232 -0.0455965 -0.0302306 -0.0198208 -0.0130247 -0.00873952 -0.00598956 -0.00415271 -0.00284266 -0.00178727 -0.000909659 -0.000173314 0.000401443 0.000789574 0.000996811 0.00101805 0.000885126 0.000650883 0.000346838 1.82938e-05 -0.000287915 -0.000540981 -0.000718955 -0.000789383 -0.000412056 0 0 
0 0 -0.000411591 -0.00081002 -0.00083785 -0.00076579 -0.000595001 -0.000321047 4.46095e-05 0.000479672 0.000943585 0.00138038 0.00174953 0.00201284 0.00211498 0.00204316 0.00179862 0.0013718 0.00080779 0.000103089 -0.000718476 -0.00177773 -0.00328725 -0.00556132 -0.00919775 -0.0150089 -0.0240134 -0.0374599 -0.0565906 -0.0825985 -0.116344 -0.158079 -0.207247 -0.262251 -0.320267 -0.377429 -0.428893 -0.469199 -0.492778 -0.494558 -0.470538 -0.418329 -0.337623 -0.23041 -0.100987 0.0443109 0.197625 0.35013 0.49289 0.617505 0.716893 0.785684 0.820717 0.821118 0.788252 0.725468 0.637685 0.530975 0.41203 0.287702 0.164337 0.0475034 -0.0584373 -0.150275 -0.225909 -0.284077 -0.324351 -0.347153 -0.353738 -0.346153 -0.326932 -0.298869 -0.264616 -0.226556 -0.186689 -0.146715 -0.107917 -0.0714391 -0.0381104 -0.0085185 0.0170999 0.0386706 0.0563477 0.0701643 0.080047 0.0857085 0.0867088 0.0827547 0.0738112 0.0604318 0.0436358 0.0247991 0.00527527 -0.0138388 -0.0316733 -0.0476476 -0.0612881 -0.0721993 -0.0800665 -0.0846517 -0.0858519 -0.0836801 -0.0783363 -0.0700109 -0.0589975 -0.0456332 -0.0302911 -0.0134975 0.00410157 0.0217086 0.0384598 0.0534747 0.0659254 0.0751432 0.0806021 0.0819531 0.078906 0.0713405 0.059154 0.0423522 0.0210258 -0.00467751 -0.0344613 -0.0680583 -0.104952 -0.144542 -0.185837 -0.227472 -0.267384 -0.30303 -0.33153 -0.350038 -0.356087 -0.347823 -0.323925 -0.283532 -0.226062 -0.151356 -0.0600965 0.0458896 0.163228 0.287203 0.411956 0.53108 0.637842 0.725654 0.788482 0.821394 0.821013 0.785987 0.717216 0.617853 0.493253 0.350514 0.198014 0.044728 -0.100548 -0.229937 -0.337114 -0.417789 -0.469965 -0.493976 -0.492196 -0.468634 -0.42836 -0.376938 -0.319832 -0.261866 -0.206915 -0.157776 -0.116072 -0.0823205 -0.0563023 -0.0371194 -0.0237391 -0.0147842 -0.00902233 -0.00540645 -0.00316391 -0.00166671 -0.000630269 0.000180607 0.000865878 0.00142123 0.00183159 0.00206982 0.00213184 0.00202298 0.00175354 0.00137454 0.000929892 0.000455434 8.71157e-06 -0.000369087 -0.000656067 -0.000837419 -0.000890554 -0.000461833 0 0 
0 0 -0.000436176 -0.000868543 -0.000936514 -0.000909171 -0.00077428 -0.00051111 -0.000116822 0.000393518 0.000987289 0.00161197 0.00220866 0.00273503 0.00314293 0.00339226 0.00347789 0.00337603 0.00312968 0.00274103 0.00224 0.00161267 0.000785416 -0.000388325 -0.00225226 -0.00526511 -0.010151 -0.0178393 -0.0293972 -0.0459973 -0.0687899 -0.0986382 -0.136018 -0.18075 -0.231718 -0.286839 -0.34301 -0.396215 -0.44175 -0.474571 -0.489807 -0.48323 -0.451732 -0.393847 -0.309908 -0.202373 -0.0754998 0.0647528 0.211242 0.356161 0.491701 0.610629 0.706798 0.775624 0.814268 0.821827 0.799237 0.749113 0.675534 0.583484 0.478523 0.366169 0.251619 0.139659 0.0344558 -0.0604055 -0.142121 -0.208801 -0.259678 -0.295037 -0.315928 -0.324016 -0.321121 -0.309118 -0.289876 -0.265109 -0.236505 -0.205661 -0.173965 -0.142666 -0.112656 -0.0845644 -0.0588084 -0.0357619 -0.0158593 0.000321271 0.0120313 0.018657 0.0198642 0.0159116 0.00758451 -0.00384676 -0.0169863 -0.0306577 -0.0438811 -0.0559865 -0.0664807 -0.0749367 -0.0810369 -0.0845306 -0.0853267 -0.0834147 -0.0790028 -0.0723082 -0.0636501 -0.0533953 -0.042026 -0.0300784 -0.0182344 -0.00732658 0.00182507 0.00839973 0.0116548 0.0110684 0.00627113 -0.00288627 -0.0164276 -0.0341324 -0.0557719 -0.0808816 -0.108902 -0.139108 -0.170621 -0.202509 -0.233632 -0.262823 -0.288696 -0.309581 -0.323462 -0.327954 -0.320616 -0.299325 -0.26259 -0.209946 -0.141905 -0.0597452 0.034632 0.13892 0.250149 0.364552 0.477299 0.582863 0.675402 0.749226 0.79942 0.822037 0.814524 0.775919 0.707122 0.610949 0.492028 0.356498 0.211588 0.0650991 -0.0751549 -0.202028 -0.309548 -0.393475 -0.451327 -0.482799 -0.489339 -0.474081 -0.441233 -0.395696 -0.342495 -0.286354 -0.231262 -0.180344 -0.135648 -0.0983185 -0.0684975 -0.0457351 -0.0291349 -0.0175757 -0.00992798 -0.00509466 -0.0021078 -0.000274552 0.000882792 0.00169415 0.00230518 0.0027982 0.00317176 0.00341467 0.00350628 0.00341822 0.00316135 0.00274781 0.00221356 0.00160839 0.000976081 0.000372428 -0.000148956 -0.000556168 -0.000833836 -0.000982276 -0.000994035 -0.000509493 0 0 
0 0 -0.000448441 -0.000905358 -0.00102045 -0.0010567 -0.000989768 -0.000782622 -0.000416511 0.000112052 0.000783985 0.00154786 0.00234539 0.00311617 0.00380358 0.00436531 0.00477022 0.00498888 0.00503283 0.00493644 0.00472012 0.00439293 0.00391884 0.00329241 0.00234986 0.000821028 -0.00166675 -0.00577247 -0.0122709 -0.0220943 -0.0363356 -0.0560347 -0.0820747 -0.11511 -0.155178 -0.201654 -0.253105 -0.307105 -0.360463 -0.40921 -0.448968 -0.475221 -0.483781 -0.471163 -0.435052 -0.374537 -0.290459 -0.185248 -0.0630017 0.070912 0.210125 0.34786 0.477348 0.592357 0.687539 0.758808 0.803545 0.820761 0.811074 0.776434 0.719799 0.64491 0.555861 0.457152 0.353406 0.249222 0.148826 0.0556017 -0.0278159 -0.0999615 -0.160138 -0.208287 -0.244784 -0.270251 -0.285581 -0.291886 -0.290377 -0.282496 -0.269698 -0.25332 -0.2346 -0.214466 -0.193787 -0.173202 -0.153507 -0.135622 -0.120586 -0.109488 -0.103015 -0.101384 -0.104153 -0.110356 -0.118712 -0.128056 -0.137431 -0.146159 -0.153767 -0.159899 -0.164273 -0.166692 -0.167074 -0.165474 -0.162019 -0.156926 -0.150484 -0.143078 -0.135156 -0.127272 -0.120063 -0.114223 -0.110436 -0.109361 -0.111435 -0.116946 -0.125914 -0.138234 -0.153496 -0.171163 -0.190573 -0.210844 -0.231075 -0.250065 -0.266673 -0.279606 -0.287631 -0.289536 -0.284137 -0.270286 -0.246663 -0.211918 -0.164813 -0.104567 -0.0312523 0.0539373 0.148747 0.249927 0.353886 0.456774 0.554637 0.643332 0.718462 0.775668 0.810851 0.820863 0.803755 0.759045 0.687813 0.592665 0.477681 0.348191 0.210456 0.071238 -0.0626743 -0.184928 -0.290151 -0.374238 -0.434759 -0.470863 -0.483466 -0.474884 -0.448598 -0.408807 -0.360028 -0.306651 -0.25264 -0.201194 -0.154735 -0.114694 -0.0816931 -0.0556883 -0.0360289 -0.0218162 -0.0120197 -0.00553293 -0.00147209 0.000979329 0.0024771 0.00339791 0.00400558 0.00446687 0.00478176 0.00498991 0.00507703 0.00502786 0.00480135 0.00439172 0.00382288 0.00313018 0.00235361 0.00154958 0.00077885 9.73174e-05 -0.000443475 -0.000823354 -0.00104575 -0.00112822 -0.00108028 -0.000545762 0 0 
0 0 -0.000444923 -0.000909994 -0.0010726 -0.00118075 -0.00120583 -0.00109482 -0.000809942 -0.000334174 0.000338937 0.00117779 0.00211871 0.00309858 0.00404001 0.00488946 0.00561015 0.00614546 0.00649291 0.00665967 0.00668618 0.00659183 0.00638083 0.00604174 0.00552746 0.00473684 0.00346292 0.00136958 -0.00206455 -0.00749996 -0.0157612 -0.0277957 -0.0445295 -0.066904 -0.0956014 -0.130861 -0.17249 -0.219531 -0.270292 -0.322252 -0.372259 -0.416569 -0.451219 -0.472219 -0.476025 -0.45981 -0.421789 -0.361482 -0.279838 -0.179194 -0.0632468 0.0632714 0.194869 0.325738 0.450008 0.562296 0.65793 0.733379 0.786231 0.815409 0.820841 0.803462 0.765132 0.708611 0.637441 0.555609 0.467288 0.376289 0.285866 0.198617 0.116555 0.0411409 -0.0264699 -0.0854899 -0.135507 -0.176461 -0.208714 -0.232929 -0.250012 -0.26091 -0.266673 -0.26815 -0.266142 -0.2614 -0.254773 -0.247333 -0.240312 -0.235045 -0.232615 -0.233653 -0.23813 -0.245404 -0.254393 -0.264044 -0.273416 -0.281908 -0.289118 -0.294834 -0.298811 -0.30098 -0.301246 -0.299706 -0.29642 -0.291615 -0.285493 -0.278447 -0.270826 -0.263131 -0.255879 -0.249654 -0.244876 -0.241967 -0.241094 -0.242236 -0.245122 -0.249342 -0.254222 -0.259013 -0.262807 -0.264628 -0.2634 -0.258001 -0.24733 -0.230311 -0.206123 -0.174092 -0.133827 -0.0851251 -0.0278821 0.0378982 0.112008 0.193813 0.281965 0.374093 0.466853 0.556258 0.638173 0.708615 0.764193 0.801961 0.819399 0.81448 0.785897 0.733448 0.658175 0.562575 0.450303 0.326057 0.195217 0.0636157 -0.0629139 -0.178871 -0.279527 -0.361184 -0.421514 -0.459548 -0.475779 -0.471974 -0.450969 -0.416305 -0.371969 -0.321933 -0.269943 -0.219153 -0.172095 -0.130452 -0.0951945 -0.0665055 -0.0441536 -0.0274441 -0.015441 -0.00720967 -0.00180175 0.00160717 0.00366601 0.00490032 0.00566584 0.00615236 0.00647616 0.00667114 0.00675226 0.00671628 0.00653746 0.0061878 0.00564381 0.00492065 0.00406556 0.00311943 0.00213424 0.00118691 0.000340177 -0.000343045 -0.000830957 -0.00112976 -0.00125653 -0.0012479 -0.00112973 -0.000562998 0 0 
0 0 -0.000427096 -0.000886758 -0.00108451 -0.0012582 -0.00138155 -0.00139534 -0.0012401 -0.000879051 -0.000289773 0.000528391 0.00152901 0.00264704 0.00379946 0.00490432 0.00590961 0.00675419 0.00741081 0.00785895 0.00812136 0.0082278 0.00818147 0.00804588 0.0077672 0.00730277 0.00661058 0.00549414 0.00370554 0.000843127 -0.00367755 -0.0105483 -0.0205493 -0.0345657 -0.0534598 -0.0779309 -0.10844 -0.145 -0.18717 -0.233764 -0.28298 -0.332356 -0.378859 -0.41909 -0.449474 -0.466589 -0.467457 -0.449718 -0.412019 -0.354091 -0.276859 -0.182464 -0.0740883 0.0442233 0.167806 0.291659 0.410894 0.520944 0.617908 0.6985 0.760285 0.801642 0.82196 0.821707 0.802456 0.766566 0.716878 0.656357 0.587775 0.513678 0.436419 0.358179 0.280998 0.206689 0.136749 0.0723238 0.0140526 -0.0377647 -0.0832144 -0.122527 -0.156118 -0.184368 -0.207694 -0.226529 -0.241488 -0.253464 -0.263572 -0.273192 -0.28357 -0.295569 -0.309495 -0.324908 -0.340966 -0.356607 -0.37095 -0.383452 -0.393735 -0.401708 -0.407221 -0.410296 -0.410874 -0.409007 -0.404765 -0.398344 -0.389888 -0.379733 -0.368161 -0.355664 -0.342644 -0.329496 -0.316585 -0.304058 -0.291941 -0.279988 -0.267794 -0.254848 -0.24045 -0.223871 -0.204314 -0.180984 -0.153119 -0.119957 -0.0808922 -0.0354539 0.0164514 0.0746671 0.138604 0.207421 0.280061 0.355374 0.432095 0.508778 0.583499 0.653653 0.716037 0.767099 0.803367 0.822072 0.821362 0.800293 0.758778 0.697389 0.617409 0.520942 0.411142 0.291975 0.168135 0.0445621 -0.0737385 -0.182117 -0.276527 -0.353779 -0.411722 -0.449437 -0.467196 -0.466352 -0.449253 -0.418881 -0.378652 -0.332144 -0.28275 -0.233513 -0.186891 -0.144695 -0.10811 -0.0775829 -0.0531018 -0.0342035 -0.0201965 -0.0102073 -0.00336149 0.00113925 0.00397117 0.00573787 0.00681754 0.00748043 0.00791397 0.00817083 0.00828482 0.00831593 0.00819488 0.00792164 0.00746626 0.00680364 0.00595174 0.00494363 0.00383233 0.00267623 0.00155247 0.000545087 -0.000280777 -0.000880719 -0.00125457 -0.00142442 -0.00142693 -0.00132064 -0.00114089 -0.000559802 0 0 
0 0 -0.000395615 -0.000832585 -0.00105205 -0.00127642 -0.00148692 -0.00162966 -0.00163553 -0.00144488 -0.00101737 -0.000324663 0.000623329 0.00177188 0.00304478 0.00434896 0.00560901 0.00672974 0.00768168 0.00842854 0.00894692 0.00927537 0.00939182 0.00936694 0.00922875 0.00893945 0.00849263 0.00783481 0.00682222 0.00528983 0.00291176 -0.000800996 -0.00637893 -0.0145378 -0.0260301 -0.0416229 -0.0620544 -0.0878465 -0.11926 -0.156177 -0.197873 -0.24316 -0.290207 -0.336661 -0.379759 -0.416415 -0.443545 -0.458219 -0.457877 -0.440614 -0.405316 -0.35182 -0.280941 -0.194466 -0.0950793 0.013869 0.128545 0.244961 0.359035 0.466867 0.564767 0.64958 0.718889 0.771241 0.806217 0.824212 0.826261 0.813628 0.787808 0.75034 0.703022 0.647754 0.586662 0.521825 0.455201 0.388519 0.323119 0.260003 0.199875 0.143227 0.0903727 0.0415628 -0.00300619 -0.0432807 -0.0793267 -0.111596 -0.140867 -0.16821 -0.194845 -0.221589 -0.248886 -0.276385 -0.303298 -0.32857 -0.351265 -0.370699 -0.386613 -0.398833 -0.407374 -0.412251 -0.413419 -0.41098 -0.404932 -0.395439 -0.382663 -0.366866 -0.348447 -0.32774 -0.305235 -0.281286 -0.256193 -0.230059 -0.202907 -0.174448 -0.144429 -0.112366 -0.077843 -0.0404273 0.000335064 0.0447477 0.0930816 0.145466 0.201859 0.262002 0.325285 0.390773 0.457159 0.522876 0.586191 0.645429 0.699032 0.745487 0.783253 0.810459 0.824973 0.824531 0.807234 0.771927 0.718637 0.648434 0.563257 0.4656 0.358356 0.244842 0.128767 0.0142011 -0.0947273 -0.194111 -0.280572 -0.351466 -0.404985 -0.440313 -0.457596 -0.457958 -0.443308 -0.4162 -0.379562 -0.336479 -0.290029 -0.242985 -0.19769 -0.15598 -0.119045 -0.087607 -0.0617949 -0.0413399 -0.0257321 -0.0142284 -0.00606766 -0.00049455 0.00320869 0.00556804 0.00708249 0.00806797 0.00870419 0.00911664 0.00938591 0.00949672 0.00950733 0.00937238 0.00903188 0.00850347 0.00774769 0.00679054 0.00566344 0.00440022 0.00308982 0.00181242 0.000656404 -0.000298714 -0.00100205 -0.00144073 -0.0016442 -0.00165342 -0.00152689 -0.00133333 -0.00110489 -0.000534521 0 0 
0 0 -0.000354267 -0.00075419 -0.000979016 -0.00123323 -0.00150798 -0.00176176 -0.00192957 -0.0019385 -0.00172914 -0.00125538 -0.000487374 0.00055947 0.00182486 0.00321834 0.00464975 0.00601463 0.00723139 0.00826222 0.00905204 0.00962642 0.00995366 0.010067 0.0100301 0.00983586 0.00951331 0.00904887 0.00839519 0.00748404 0.00617654 0.00422108 0.00127487 -0.00314858 -0.00960445 -0.0187485 -0.0312794 -0.0478688 -0.0691011 -0.0953947 -0.126833 -0.163135 -0.203558 -0.246864 -0.291308 -0.334772 -0.37472 -0.408513 -0.433474 -0.447113 -0.447247 -0.432306 -0.401324 -0.354144 -0.291396 -0.214508 -0.125496 -0.0269516 0.0781381 0.186324 0.294055 0.397792 0.494421 0.581464 0.65722 0.720534 0.770745 0.807467 0.830543 0.840184 0.836975 0.821963 0.796551 0.762421 0.721247 0.674703 0.624232 0.571128 0.516417 0.461081 0.405918 0.351726 0.299222 0.249036 0.201595 0.157069 0.115133 0.0751722 0.0362977 -0.00218712 -0.0405886 -0.0786078 -0.115371 -0.149702 -0.180484 -0.206898 -0.228511 -0.245179 -0.256895 -0.26369 -0.265519 -0.262466 -0.254525 -0.241852 -0.224615 -0.203143 -0.17783 -0.149145 -0.117635 -0.0837877 -0.0479699 -0.0104303 0.0287617 0.0696576 0.112321 0.156906 0.203445 0.251999 0.302463 0.354664 0.408305 0.462973 0.518072 0.57283 0.626156 0.676823 0.723242 0.763712 0.796515 0.820157 0.833424 0.835518 0.825842 0.803889 0.768989 0.720544 0.658229 0.582413 0.494536 0.396902 0.292598 0.184933 0.0772677 -0.0272125 -0.125346 -0.21418 -0.291037 -0.353789 -0.40097 -0.431951 -0.446916 -0.446814 -0.433202 -0.408261 -0.374485 -0.334564 -0.291125 -0.246699 -0.203407 -0.162987 -0.126689 -0.0952379 -0.0689351 -0.0476797 -0.0310748 -0.0185186 -0.00936107 -0.00288547 0.00154162 0.00449554 0.00644435 0.00774668 0.00864197 0.00928061 0.00972347 0.0100257 0.0102001 0.0102169 0.0100876 0.00974335 0.00915784 0.00835509 0.00731663 0.00609099 0.00471968 0.00328204 0.00188142 0.000609724 -0.000445927 -0.00122357 -0.00170844 -0.00192928 -0.001934 -0.00178065 -0.00154248 -0.00128384 -0.00102656 -0.000490258 0 0 
0 0 -0.000307989 -0.000661407 -0.000876315 -0.00113761 -0.00144615 -0.00177619 -0.00207872 -0.00228248 -0.00231474 -0.00211235 -0.00162161 -0.000819525 0.000278528 0.00161042 0.00308712 0.00458096 0.00601019 0.00730224 0.00836876 0.00920494 0.00977793 0.0100816 0.0101746 0.0100955 0.00984953 0.00949798 0.00901061 0.00838575 0.00759164 0.00649534 0.00497785 0.00271736 -0.00064045 -0.00552751 -0.0125363 -0.022248 -0.0352722 -0.0522249 -0.0735503 -0.0995355 -0.130166 -0.165122 -0.2036 -0.244463 -0.286106 -0.326639 -0.363873 -0.395584 -0.419439 -0.433334 -0.435454 -0.42444 -0.399417 -0.360169 -0.306959 -0.24071 -0.162931 -0.0757921 0.0180972 0.115866 0.214747 0.312255 0.406271 0.494959 0.57658 0.649576 0.712536 0.764401 0.804583 0.833023 0.850115 0.856644 0.853529 0.841886 0.822729 0.797101 0.765952 0.730211 0.690874 0.648919 0.605317 0.561077 0.516977 0.473659 0.431291 0.389694 0.348323 0.306764 0.264833 0.222961 0.182054 0.143493 0.108559 0.0783633 0.0534903 0.0342535 0.0206539 0.0127305 0.0104994 0.0138874 0.0229091 0.0374288 0.0571863 0.0818483 0.110847 0.143613 0.179381 0.217551 0.257526 0.298968 0.34153 0.385052 0.429287 0.474086 0.519122 0.564059 0.608379 0.651565 0.692929 0.731772 0.767276 0.798499 0.824399 0.843834 0.855507 0.858122 0.850471 0.831753 0.801554 0.760061 0.707842 0.645686 0.574357 0.494573 0.407142 0.313359 0.215187 0.11529 0.0167781 -0.0772359 -0.163968 -0.241132 -0.306898 -0.359868 -0.399069 -0.424097 -0.435113 -0.433005 -0.419124 -0.395302 -0.36361 -0.326399 -0.285878 -0.244252 -0.203415 -0.164952 -0.130016 -0.0993956 -0.0734237 -0.0520987 -0.0351465 -0.0221065 -0.0123862 -0.00535467 -0.000452742 0.00292646 0.00519758 0.0067278 0.00782654 0.00862188 0.00924033 0.00971423 0.0100557 0.0102848 0.0103504 0.0102384 0.0099222 0.00933222 0.00848503 0.00740596 0.00610551 0.00466869 0.00316777 0.00168485 0.000344327 -0.000761785 -0.00157493 -0.00207577 -0.00229086 -0.00227089 -0.00207963 -0.00179058 -0.00147526 -0.00118151 -0.000917736 -0.000433321 0 0 
0 0 -0.000261503 -0.000564269 -0.000757811 -0.00100622 -0.00131836 -0.00168274 -0.00207094 -0.00242907 -0.00268452 -0.00276654 -0.00260214 -0.00213679 -0.00134856 -0.000259533 0.00108581 0.00257291 0.00406683 0.0055282 0.00682254 0.00792928 0.00878411 0.0093543 0.00964693 0.00972246 0.00961805 0.00935295 0.00900259 0.00853688 0.00798949 0.00731906 0.00648482 0.00537272 0.00374576 0.00136934 -0.00213054 -0.00721952 -0.0144001 -0.0242174 -0.0372311 -0.0539316 -0.0746633 -0.0996469 -0.128817 -0.1618 -0.197882 -0.236008 -0.274813 -0.312645 -0.347704 -0.378025 -0.401712 -0.416992 -0.422311 -0.4164 -0.39836 -0.367707 -0.324603 -0.269854 -0.204778 -0.131035 -0.0504079 0.035369 0.124571 0.21543 0.305992 0.394226 0.478079 0.555778 0.625898 0.687555 0.740197 0.783722 0.818151 0.843772 0.860919 0.870039 0.871617 0.866285 0.854726 0.837795 0.816413 0.791565 0.764255 0.73523 0.705025 0.673711 0.641096 0.606915 0.571131 0.534162 0.497064 0.461227 0.428173 0.399188 0.375114 0.356376 0.343134 0.335389 0.333167 0.336466 0.345241 0.359333 0.378476 0.40221 0.429891 0.460734 0.493902 0.528577 0.564071 0.599774 0.635231 0.670059 0.703866 0.736211 0.766632 0.794495 0.819231 0.840109 0.856429 0.867517 0.872642 0.871141 0.862326 0.845513 0.820038 0.785309 0.74089 0.686806 0.623445 0.551884 0.473551 0.390161 0.303343 0.214593 0.125178 0.0365091 -0.0496997 -0.131296 -0.205909 -0.271302 -0.325777 -0.368292 -0.398404 -0.416141 -0.421962 -0.416662 -0.401395 -0.377716 -0.347405 -0.312375 -0.274571 -0.23578 -0.197665 -0.161594 -0.128628 -0.0994735 -0.0745054 -0.0537861 -0.0371001 -0.0240944 -0.0142835 -0.00710132 -0.00200975 0.00149996 0.00388447 0.00552481 0.00664656 0.00749149 0.00816783 0.00871791 0.00918218 0.00952503 0.00978819 0.00988337 0.0098036 0.00949697 0.00892141 0.00805199 0.00694234 0.005635 0.00417132 0.00266609 0.00117491 -0.000179958 -0.00127806 -0.00207563 -0.00255269 -0.00272775 -0.00265918 -0.00241537 -0.00206971 -0.00169386 -0.00134222 -0.00104323 -0.00079285 -0.000370925 0 0 
0 0 -0.000218107 -0.000470817 -0.000636884 -0.000858546 -0.00114941 -0.00150952 -0.00192922 -0.00237791 -0.00279903 -0.00312355 -0.00327611 -0.00318751 -0.00279636 -0.00207972 -0.00105852 0.000231472 0.00164787 0.00311478 0.00453047 0.00580457 0.00691016 0.0077581 0.00834645 0.00865008 0.00876274 0.00868345 0.00846246 0.00816968 0.00779817 0.00736288 0.0068783 0.00632103 0.00559226 0.00457939 0.00305531 0.0007798 -0.00264162 -0.00762971 -0.0146236 -0.0241502 -0.0366702 -0.052569 -0.0721844 -0.0956311 -0.122838 -0.153447 -0.186868 -0.222185 -0.258241 -0.293676 -0.326981 -0.356555 -0.380786 -0.398073 -0.406993 -0.406338 -0.395356 -0.373796 -0.341869 -0.299988 -0.24876 -0.188879 -0.121239 -0.0470126 0.0322248 0.11463 0.198196 0.281031 0.361468 0.438194 0.510141 0.576547 0.636756 0.690366 0.73698 0.776439 0.808635 0.833663 0.851745 0.863299 0.869026 0.869584 0.865877 0.858597 0.848322 0.835249 0.819328 0.800355 0.778277 0.753489 0.726944 0.700023 0.674282 0.651192 0.631739 0.616508 0.605725 0.599457 0.597694 0.600454 0.607664 0.619177 0.63466 0.653586 0.675249 0.698785 0.723254 0.747798 0.771614 0.794041 0.814544 0.832669 0.848015 0.860081 0.868401 0.872394 0.871558 0.865268 0.853116 0.834585 0.809379 0.777272 0.738119 0.691887 0.638515 0.57817 0.511093 0.437919 0.359617 0.277688 0.19397 0.110531 0.0292438 -0.0483132 -0.120984 -0.187824 -0.247864 -0.299932 -0.342749 -0.375188 -0.396649 -0.407111 -0.407183 -0.39788 -0.380452 -0.35622 -0.32668 -0.293395 -0.257971 -0.221932 -0.186639 -0.15324 -0.12264 -0.0954399 -0.072004 -0.0523971 -0.0365121 -0.0240015 -0.0144885 -0.00750707 -0.00252912 0.000887805 0.00316102 0.0046865 0.00570125 0.00643637 0.00699806 0.00748889 0.00792621 0.00830129 0.00859256 0.00881223 0.00889179 0.00878176 0.00847515 0.00788465 0.00703313 0.0059227 0.00464559 0.00322212 0.00175259 0.000327116 -0.000965557 -0.00199796 -0.00272174 -0.00312527 -0.00322515 -0.00308479 -0.00277402 -0.00236429 -0.00192741 -0.00151804 -0.00116858 -0.00088878 -0.00066557 -0.00030957 0 0 
0 0 -0.000179263 -0.000386072 -0.000523772 -0.000711336 -0.000965729 -0.00129275 -0.00169642 -0.00216893 -0.00267662 -0.00316884 -0.00357322 -0.00381486 -0.00383393 -0.0035583 -0.00296981 -0.00207396 -0.000922678 0.000380353 0.00174698 0.00307768 0.0043232 0.0053899 0.00624996 0.00686201 0.0072295 0.0074259 0.00744321 0.00734683 0.00718797 0.00697578 0.00672412 0.0064814 0.00618961 0.00585896 0.00537668 0.00460442 0.00336215 0.00133036 -0.00181888 -0.00643227 -0.0129851 -0.0218752 -0.0335075 -0.0482636 -0.0663602 -0.0879255 -0.112877 -0.140944 -0.171621 -0.204158 -0.237632 -0.270927 -0.302765 -0.331725 -0.356372 -0.375368 -0.38763 -0.392373 -0.389025 -0.377202 -0.356503 -0.326672 -0.287767 -0.240174 -0.184848 -0.123034 -0.0562461 0.0139937 0.0862748 0.159296 0.231937 0.303206 0.372124 0.437807 0.499484 0.556422 0.608118 0.65415 0.694293 0.728495 0.75697 0.78012 0.798436 0.812478 0.822597 0.829014 0.831591 0.830139 0.824465 0.814798 0.801838 0.786848 0.771277 0.75658 0.74387 0.733828 0.726729 0.722664 0.721619 0.723576 0.72848 0.736157 0.746236 0.75821 0.771351 0.784797 0.797644 0.809095 0.818335 0.824793 0.827977 0.827528 0.823092 0.814395 0.80104 0.782757 0.759193 0.730115 0.695341 0.654803 0.608619 0.55701 0.500368 0.439079 0.373702 0.304802 0.23308 0.159441 0.0850025 0.0112541 -0.0600317 -0.127019 -0.188053 -0.241906 -0.287927 -0.32581 -0.35551 -0.37686 -0.389609 -0.393613 -0.388966 -0.376304 -0.356744 -0.33164 -0.302474 -0.270615 -0.237347 -0.203902 -0.171373 -0.140721 -0.112673 -0.0877412 -0.0661834 -0.0480937 -0.0333427 -0.0217232 -0.0128366 -0.00629593 -0.00168327 0.00145011 0.00347613 0.00470517 0.00547467 0.00594791 0.00627994 0.00656658 0.00681411 0.0070633 0.00728018 0.00743733 0.00753566 0.00751473 0.00732444 0.0069642 0.00635534 0.00550098 0.00443336 0.00319025 0.00185656 0.000489035 -0.000817671 -0.00197429 -0.00287632 -0.00347504 -0.00376045 -0.00375453 -0.00352474 -0.00313359 -0.00265353 -0.00215679 -0.0016949 -0.00129992 -0.000981071 -0.000734815 -0.000546016 -0.000253752 0 0 
0 0 -0.000145031 -0.000311696 -0.000424261 -0.000576688 -0.000787837 -0.00106735 -0.00142286 -0.00186349 -0.00238026 -0.00294227 -0.00350583 -0.00399554 -0.0043422 -0.00448518 -0.00435707 -0.00393493 -0.0032227 -0.00225045 -0.00110961 9.34412e-05 0.00131924 0.00249278 0.0035311 0.00441683 0.005095 0.00558464 0.00590592 0.00609504 0.00618465 0.00622115 0.00622447 0.00622742 0.0062436 0.00625426 0.00628026 0.00625496 0.00610788 0.00569855 0.00478423 0.00311703 0.000402439 -0.00373628 -0.00963473 -0.0176911 -0.0282615 -0.0416311 -0.0580444 -0.0775652 -0.100168 -0.125647 -0.153602 -0.183447 -0.214352 -0.245328 -0.275255 -0.303069 -0.327726 -0.348404 -0.364233 -0.374347 -0.377853 -0.373883 -0.361888 -0.341689 -0.313533 -0.278077 -0.236121 -0.188643 -0.136518 -0.0806619 -0.0219419 0.038723 0.100417 0.162145 0.223009 0.282081 0.338569 0.391772 0.441153 0.486327 0.527113 0.563547 0.595792 0.624113 0.64867 0.669531 0.686491 0.69922 0.707393 0.710938 0.710293 0.706354 0.700432 0.693831 0.687688 0.682704 0.679231 0.677331 0.67699 0.678163 0.680772 0.684634 0.689424 0.694614 0.699565 0.703503 0.705671 0.705332 0.701912 0.694919 0.684055 0.669103 0.649906 0.626377 0.598403 0.565966 0.529023 0.487627 0.441916 0.392182 0.338857 0.282453 0.223648 0.163159 0.101775 0.0402167 -0.0206999 -0.0801672 -0.137231 -0.190748 -0.239371 -0.281797 -0.316822 -0.343787 -0.362496 -0.373328 -0.376893 -0.373781 -0.364502 -0.349416 -0.329019 -0.304119 -0.275792 -0.245389 -0.214132 -0.183163 -0.153336 -0.125416 -0.0999481 -0.0773612 -0.0578621 -0.0414733 -0.028111 -0.0175462 -0.00948986 -0.00359922 0.000537872 0.00324636 0.00491043 0.0058197 0.00622298 0.00636377 0.00638397 0.00635147 0.00633675 0.00631479 0.00631104 0.00630353 0.00626792 0.00617227 0.00598403 0.00565502 0.00517662 0.00450419 0.00362873 0.00259419 0.00142647 0.000201467 -0.000999824 -0.00214301 -0.00311797 -0.00383737 -0.00426632 -0.00440553 -0.0042734 -0.00394048 -0.00346327 -0.00291198 -0.00236157 -0.00185441 -0.00142219 -0.00107338 -0.000799908 -0.000594335 -0.000440143 -0.00020506 0 0 
0 0 -0.000115017 -0.00024724 -0.000338948 -0.000460496 -0.000628918 -0.000856771 -0.00115259 -0.00152727 -0.00199369 -0.00254239 -0.003147 -0.00377015 -0.00434035 -0.00479107 -0.00506633 -0.00510268 -0.00487563 -0.00437449 -0.00360653 -0.00266373 -0.00162774 -0.000534161 0.000544121 0.00156038 0.00247528 0.00327033 0.00391394 0.00442255 0.00483557 0.00515657 0.0054288 0.00568743 0.00595254 0.00625586 0.00657259 0.00692625 0.00728518 0.00762272 0.00783491 0.00775776 0.00720322 0.00592251 0.00363929 5.74287e-05 -0.00518122 -0.012367 -0.0218197 -0.0337891 -0.0484555 -0.0659416 -0.0862299 -0.109144 -0.134282 -0.161079 -0.188866 -0.216959 -0.244675 -0.271316 -0.296078 -0.318021 -0.336074 -0.349223 -0.356609 -0.357786 -0.352571 -0.341107 -0.32365 -0.300572 -0.272219 -0.239036 -0.20149 -0.160187 -0.115821 -0.069178 -0.0210904 0.0276099 0.0761044 0.12363 0.169558 0.213307 0.254511 0.292919 0.328438 0.36113 0.390984 0.417924 0.441643 0.461732 0.47769 0.489222 0.496406 0.499836 0.500477 0.499487 0.497887 0.496449 0.495482 0.495082 0.495224 0.495827 0.496789 0.497928 0.498934 0.499389 0.498695 0.496272 0.491502 0.483858 0.472934 0.458468 0.440299 0.418416 0.39283 0.363657 0.331013 0.295105 0.256114 0.214315 0.170083 0.123853 0.0762159 0.0277995 -0.0206672 -0.0684163 -0.114708 -0.158853 -0.200244 -0.238308 -0.272451 -0.302041 -0.326283 -0.344426 -0.355797 -0.360143 -0.357651 -0.349046 -0.335265 -0.317334 -0.296062 -0.272051 -0.245833 -0.218053 -0.189548 -0.16129 -0.134169 -0.108912 -0.085996 -0.0657369 -0.0482672 -0.0336099 -0.0216527 -0.0122189 -0.00504777 0.00018521 0.00376459 0.00604613 0.00732067 0.00787582 0.00795127 0.0077371 0.00739732 0.00703437 0.00667778 0.00635762 0.00605123 0.00578116 0.00552086 0.00524303 0.00491862 0.00449995 0.00398644 0.00333723 0.0025492 0.00164434 0.000635659 -0.000433976 -0.00152431 -0.00255574 -0.00349938 -0.00426893 -0.00477475 -0.00500957 -0.0049822 -0.00471995 -0.00428119 -0.00372502 -0.00311304 -0.00251999 -0.00198013 -0.00152077 -0.0011527 -0.00086214 -0.000638427 -0.000473084 -0.000349141 -0.000163322 0 0 
0 0 -8.86226e-05 -0.000191561 -0.000266436 -0.00036285 -0.000494332 -0.00067309 -0.000909688 -0.001212 -0.00159392 -0.00207167 -0.00263537 -0.0032652 -0.00392764 -0.00455547 -0.005093 -0.00548926 -0.00568689 -0.00565265 -0.00536497 -0.00482556 -0.00409118 -0.00321817 -0.00226743 -0.00127373 -0.000284088 0.000672298 0.00158492 0.00239078 0.00311848 0.00377018 0.00434773 0.00488864 0.00540883 0.00594376 0.00651695 0.00711591 0.007758 0.00842328 0.00911373 0.00974194 0.0102278 0.0104084 0.0101307 0.00915499 0.00723752 0.00409358 -0.000535858 -0.00691543 -0.0153047 -0.0259235 -0.0389543 -0.0544377 -0.0722755 -0.0922447 -0.114046 -0.13741 -0.161975 -0.187346 -0.212885 -0.237802 -0.261142 -0.281991 -0.29955 -0.313293 -0.322899 -0.328241 -0.329225 -0.325796 -0.317919 -0.305621 -0.289043 -0.268435 -0.244176 -0.216788 -0.186829 -0.154973 -0.121813 -0.0880093 -0.054151 -0.0207613 0.0116897 0.0428966 0.0726348 0.100838 0.1274 0.15218 0.174878 0.195005 0.212006 0.22543 0.235056 0.241158 0.244389 0.245683 0.245941 0.245891 0.245901 0.246082 0.246392 0.246719 0.246941 0.246887 0.246273 0.244735 0.241809 0.237056 0.230047 0.220457 0.208028 0.192702 0.174466 0.153399 0.129671 0.103499 0.0751325 0.0448804 0.0130323 -0.0199981 -0.0538176 -0.0879332 -0.121822 -0.154923 -0.186591 -0.216252 -0.243308 -0.267306 -0.28787 -0.304756 -0.317773 -0.326689 -0.331219 -0.331046 -0.325905 -0.315772 -0.300964 -0.282231 -0.260588 -0.237107 -0.212643 -0.187793 -0.162933 -0.138466 -0.114822 -0.0925951 -0.0722727 -0.0542704 -0.038761 -0.0257581 -0.0151582 -0.00677266 -0.000399268 0.00421863 0.00735204 0.00926764 0.0102439 0.0105219 0.0103383 0.00985102 0.00922233 0.00853277 0.00786486 0.00722349 0.00662144 0.00604802 0.00550858 0.00498594 0.00443938 0.00385932 0.0032015 0.00247005 0.00165581 0.000738741 -0.000212518 -0.00119147 -0.00217759 -0.00312099 -0.00399103 -0.00472239 -0.00526519 -0.00555526 -0.00559762 -0.00540864 -0.00502454 -0.00449893 -0.00388259 -0.00323132 -0.00261082 -0.00205583 -0.0015846 -0.00120826 -0.000910613 -0.000677551 -0.000501459 -0.000371458 -0.000271994 -0.000127477 0 0 
0 0 -6.58374e-05 -0.000143597 -0.000204083 -0.000281051 -0.000383365 -0.000520622 -0.000702869 -0.000939552 -0.00123769 -0.00161422 -0.00208379 -0.00264172 -0.00327629 -0.00394879 -0.00460559 -0.00519844 -0.00568606 -0.00601406 -0.00613997 -0.00604138 -0.00571907 -0.00518304 -0.00447833 -0.00366251 -0.00274915 -0.00179023 -0.000792308 0.000205174 0.00116656 0.00208955 0.00295938 0.00378275 0.00457383 0.00535325 0.006141 0.00694871 0.00778772 0.00865028 0.009542 0.0104519 0.0113312 0.0121254 0.012735 0.0130468 0.0128764 0.0120354 0.0103043 0.00747399 0.0033155 -0.0023818 -0.00982848 -0.0191449 -0.0303715 -0.0435004 -0.0584862 -0.075316 -0.0939381 -0.114147 -0.135578 -0.157611 -0.179563 -0.200745 -0.220586 -0.238683 -0.254759 -0.268563 -0.279892 -0.288481 -0.294102 -0.29653 -0.295704 -0.291613 -0.284399 -0.274307 -0.261657 -0.246817 -0.230211 -0.212252 -0.193401 -0.174044 -0.154572 -0.135262 -0.116306 -0.0978465 -0.0799377 -0.0627271 -0.0464476 -0.0315537 -0.0185653 -0.00803604 -0.00030713 0.00460689 0.00710409 0.00787208 0.00769344 0.0072167 0.00687547 0.00680775 0.00700228 0.00731562 0.00761489 0.00769757 0.00733289 0.00617544 0.00390898 0.000211431 -0.00519908 -0.0124993 -0.0217627 -0.0330115 -0.0461399 -0.0610219 -0.0774398 -0.0951797 -0.113943 -0.133467 -0.153412 -0.173442 -0.193194 -0.212274 -0.230311 -0.246865 -0.261556 -0.273965 -0.283761 -0.290708 -0.29467 -0.295636 -0.293691 -0.288883 -0.281269 -0.27079 -0.257401 -0.241119 -0.222253 -0.201383 -0.179341 -0.15703 -0.135209 -0.114332 -0.0946617 -0.0762726 -0.0593035 -0.0439673 -0.0304862 -0.0190473 -0.00967097 -0.00224037 0.00343091 0.00758159 0.0104085 0.0121322 0.0129624 0.0131289 0.0128196 0.012214 0.0114214 0.0105439 0.00963407 0.00874452 0.007884 0.00704371 0.0062372 0.00544747 0.00466839 0.00387381 0.00304885 0.00217448 0.00124738 0.000280302 -0.000723447 -0.00172605 -0.00268015 -0.00358472 -0.00439501 -0.00509489 -0.00562944 -0.00595199 -0.00605415 -0.00593365 -0.00561421 -0.00513647 -0.00455343 -0.00390667 -0.00324321 -0.00261742 -0.0020663 -0.00160349 -0.00123207 -0.000937814 -0.000704135 -0.000524116 -0.000388604 -0.000286853 -0.000206434 -9.62735e-05 0 0 
0 0 -4.6937e-05 -0.000103221 -0.000150397 -0.000211544 -0.000291412 -0.000396425 -0.00053407 -0.000713041 -0.000940718 -0.00122568 -0.00158254 -0.00202311 -0.00255573 -0.00316422 -0.00381485 -0.00446712 -0.00507651 -0.00561352 -0.00602672 -0.00627045 -0.00631701 -0.00616567 -0.00579864 -0.00525101 -0.00455652 -0.00373839 -0.00281785 -0.00181882 -0.000767882 0.000308503 0.00138186 0.00243578 0.00345591 0.00445193 0.00544485 0.00643017 0.00742739 0.00844432 0.0094567 0.0104796 0.0114922 0.0124626 0.0133631 0.0141321 0.0146874 0.0149045 0.0146535 0.0137644 0.0120686 0.00940036 0.00561624 0.000600515 -0.00572078 -0.0134112 -0.0225913 -0.0333528 -0.0458019 -0.0598573 -0.075325 -0.091811 -0.10888 -0.126119 -0.14322 -0.159942 -0.176139 -0.191607 -0.206128 -0.219404 -0.231158 -0.241121 -0.249107 -0.25502 -0.258839 -0.260633 -0.260536 -0.258692 -0.255334 -0.250687 -0.245013 -0.238569 -0.231576 -0.224232 -0.216653 -0.208915 -0.201038 -0.193081 -0.185184 -0.177672 -0.170983 -0.165634 -0.162009 -0.160288 -0.160287 -0.161538 -0.163393 -0.165254 -0.166669 -0.167437 -0.167532 -0.167092 -0.166268 -0.16529 -0.164384 -0.163823 -0.163854 -0.164716 -0.166556 -0.169473 -0.173444 -0.178453 -0.184396 -0.191148 -0.198528 -0.206372 -0.214472 -0.222615 -0.230548 -0.238045 -0.244855 -0.250747 -0.255483 -0.258816 -0.260542 -0.260447 -0.258402 -0.254332 -0.248245 -0.240275 -0.230607 -0.219442 -0.206969 -0.193255 -0.178327 -0.162181 -0.144987 -0.127067 -0.109001 -0.0914338 -0.0749358 -0.0598501 -0.0462851 -0.034157 -0.0233966 -0.0139677 -0.00595354 0.000607816 0.00572707 0.00951889 0.0121662 0.0138482 0.0147348 0.0149831 0.014758 0.0141969 0.0134262 0.0125291 0.01156 0.0105486 0.00952804 0.00851809 0.00750505 0.00650857 0.00552485 0.00453231 0.00353716 0.00251717 0.00146235 0.000387169 -0.000691197 -0.00174465 -0.00274706 -0.00367079 -0.00448584 -0.00517499 -0.00572065 -0.00608508 -0.00623908 -0.00619315 -0.00595683 -0.00554867 -0.00502197 -0.004419 -0.00377578 -0.0031325 -0.00253155 -0.00200539 -0.00157009 -0.00121892 -0.000937701 -0.000713114 -0.000536027 -0.000399402 -0.000295077 -0.000215188 -0.000150874 -6.96112e-05 0 0 
0 0 -3.19298e-05 -7.05107e-05 -0.000105487 -0.000152539 -0.000214266 -0.000294013 -0.000397347 -0.000530685 -0.000699423 -0.000910758 -0.00117405 -0.00149562 -0.00189388 -0.00237833 -0.00292865 -0.00352766 -0.00413733 -0.00472162 -0.00525531 -0.00570122 -0.0060113 -0.00615338 -0.00611943 -0.00588645 -0.00546554 -0.00488985 -0.00416787 -0.00331375 -0.00235807 -0.00130395 -0.000184701 0.000973985 0.00214814 0.00329947 0.00444401 0.00557147 0.00668464 0.00779886 0.00890636 0.00998551 0.0110442 0.0120499 0.0129831 0.0138294 0.0145573 0.0151114 0.015418 0.0153793 0.0148935 0.0138328 0.0121307 0.0097094 0.00651203 0.00244837 -0.00260925 -0.00881406 -0.0162681 -0.0249734 -0.0347921 -0.0455099 -0.0568805 -0.0687239 -0.080947 -0.0934883 -0.106297 -0.119286 -0.132272 -0.145039 -0.157344 -0.168966 -0.179714 -0.189492 -0.198227 -0.205896 -0.212523 -0.218153 -0.222848 -0.226712 -0.229854 -0.232389 -0.234428 -0.236042 -0.237281 -0.238116 -0.238512 -0.23845 -0.237959 -0.237201 -0.236481 -0.236212 -0.236756 -0.23837 -0.241018 -0.24441 -0.248032 -0.251329 -0.253861 -0.255358 -0.255784 -0.255206 -0.253828 -0.251853 -0.249529 -0.247076 -0.244698 -0.242571 -0.240774 -0.239355 -0.238269 -0.237484 -0.236929 -0.236527 -0.236186 -0.235821 -0.235329 -0.234587 -0.233489 -0.231891 -0.229684 -0.226755 -0.222994 -0.218308 -0.212605 -0.205833 -0.19796 -0.189001 -0.179038 -0.168221 -0.156741 -0.144832 -0.132683 -0.120404 -0.107997 -0.0954277 -0.0826753 -0.0698699 -0.0573025 -0.0453756 -0.0344692 -0.0248472 -0.0165388 -0.00943097 -0.00334333 0.00184741 0.00617246 0.00961501 0.0121749 0.0139175 0.0149686 0.0154433 0.0154779 0.0151725 0.0146127 0.0138818 0.0130324 0.0121018 0.0110976 0.0100414 0.00896321 0.00786019 0.00674885 0.0056393 0.00451366 0.00337163 0.00222199 0.00105062 -0.000107373 -0.0012256 -0.00227913 -0.00323559 -0.00409084 -0.00481573 -0.00539016 -0.00581163 -0.00604405 -0.00608155 -0.00594161 -0.00563745 -0.00519728 -0.00467031 -0.00409312 -0.00348923 -0.00289817 -0.00235338 -0.00187612 -0.0014828 -0.00116679 -0.000907644 -0.000699134 -0.000532546 -0.000399963 -0.000296756 -0.000216834 -0.000154578 -0.000104895 -4.77611e-05 0 0 
0 0 -2.05516e-05 -4.53011e-05 -6.95399e-05 -0.00010349 -0.000149584 -0.000209302 -0.000285402 -0.000383496 -0.000507554 -0.000659961 -0.000850397 -0.00108106 -0.00135731 -0.0017022 -0.00211528 -0.00258681 -0.00310654 -0.00364105 -0.00415997 -0.00464147 -0.00506496 -0.00538341 -0.00556694 -0.0056026 -0.00546069 -0.0051435 -0.00467614 -0.00404782 -0.00328755 -0.00240493 -0.0014065 -0.000317899 0.000843386 0.00204209 0.00324716 0.00445079 0.00562363 0.00677894 0.00791213 0.00901248 0.0100665 0.0110709 0.0119801 0.0127899 0.0134793 0.0140444 0.0144527 0.0146486 0.01459 0.0142253 0.0135222 0.0124616 0.0109977 0.00905226 0.00650304 0.00323477 -0.000817878 -0.00565297 -0.0111581 -0.0172237 -0.023732 -0.0306562 -0.0380229 -0.045891 -0.0542919 -0.0632018 -0.0725307 -0.0821461 -0.0918851 -0.101627 -0.111236 -0.120646 -0.12979 -0.138644 -0.147179 -0.155398 -0.163294 -0.170887 -0.178186 -0.185226 -0.192025 -0.198574 -0.204844 -0.210767 -0.216252 -0.221188 -0.225539 -0.229308 -0.232687 -0.235941 -0.239389 -0.243266 -0.247649 -0.252374 -0.257058 -0.261228 -0.264461 -0.266448 -0.267119 -0.266494 -0.264788 -0.26218 -0.258915 -0.255194 -0.251188 -0.247022 -0.242748 -0.238374 -0.233894 -0.229265 -0.224463 -0.219452 -0.214254 -0.208825 -0.203175 -0.19729 -0.191144 -0.18471 -0.177959 -0.170864 -0.163395 -0.155543 -0.147295 -0.138666 -0.12966 -0.120327 -0.110738 -0.101017 -0.0913054 -0.0817995 -0.0726229 -0.0638674 -0.0555092 -0.0474592 -0.0395953 -0.0318805 -0.0243922 -0.0173392 -0.0109705 -0.00548515 -0.000919662 0.00281461 0.0058923 0.00846378 0.0105875 0.0122704 0.0134899 0.0142635 0.0146398 0.0146919 0.0144943 0.0140878 0.0135221 0.01283 0.0120174 0.0111106 0.0101092 0.00905773 0.0079602 0.00682927 0.00567793 0.004508 0.00330716 0.00210474 0.000908682 -0.000249825 -0.00133676 -0.00233294 -0.00321436 -0.00397327 -0.00460126 -0.00506868 -0.0053872 -0.00553148 -0.00549847 -0.00531886 -0.00500459 -0.00458752 -0.00411109 -0.0035991 -0.00307026 -0.00255797 -0.00209245 -0.0016858 -0.00134652 -0.00107492 -0.000848292 -0.00066004 -0.000509378 -0.000386289 -0.000288491 -0.000212102 -0.000151574 -0.000104476 -6.83994e-05 -3.08759e-05 0 0 
0 0 -1.22127e-05 -2.69578e-05 -4.26118e-05 -6.46619e-05 -9.61705e-05 -0.000139265 -0.00019451 -0.000264217 -0.000353589 -0.00046271 -0.000595767 -0.000759648 -0.000949719 -0.0011773 -0.0014562 -0.00178527 -0.00216364 -0.0025819 -0.00301657 -0.00343799 -0.00383456 -0.00419084 -0.00446807 -0.00464664 -0.00470705 -0.00461836 -0.00438433 -0.00400675 -0.00348158 -0.00282977 -0.00205191 -0.00115679 -0.000160077 0.000920771 0.0020525 0.00321732 0.00437345 0.0055015 0.00660086 0.00765902 0.00865929 0.00960067 0.0104605 0.0112085 0.0118384 0.0123264 0.0126817 0.0128759 0.0128955 0.0127389 0.0124208 0.0119489 0.0113021 0.0104244 0.00922294 0.00762481 0.00561518 0.0032273 0.000548014 -0.00235114 -0.00544506 -0.0087719 -0.0124153 -0.0164697 -0.0210005 -0.0260283 -0.0315254 -0.0374335 -0.0436841 -0.0502173 -0.0569913 -0.0639744 -0.0711391 -0.078478 -0.0859792 -0.0936189 -0.101387 -0.109254 -0.117202 -0.125202 -0.133224 -0.141229 -0.14914 -0.156871 -0.164302 -0.171284 -0.177706 -0.18352 -0.188778 -0.193629 -0.198309 -0.20303 -0.207907 -0.21287 -0.217678 -0.221953 -0.225303 -0.227437 -0.228216 -0.22767 -0.225939 -0.223225 -0.219728 -0.215633 -0.211091 -0.206183 -0.200948 -0.195393 -0.189517 -0.183297 -0.176737 -0.169856 -0.162705 -0.15533 -0.147793 -0.140145 -0.132418 -0.124661 -0.116896 -0.109136 -0.101404 -0.093713 -0.0860884 -0.0785442 -0.0711079 -0.0637992 -0.0566567 -0.0497547 -0.0431803 -0.0370387 -0.0314125 -0.0263443 -0.0217915 -0.0176408 -0.0137372 -0.00994876 -0.00624244 -0.0026855 0.000562677 0.00335416 0.00561385 0.00737438 0.00876393 0.00990146 0.0108716 0.0116858 0.0123142 0.0127233 0.012911 0.0128945 0.0127004 0.0123494 0.0118638 0.0112339 0.0104837 0.00962433 0.00868708 0.00768944 0.00663502 0.00553758 0.00441235 0.0032599 0.00209774 0.000969307 -0.000109616 -0.00110329 -0.00199641 -0.00277126 -0.00342116 -0.00394403 -0.00431947 -0.00455214 -0.00464283 -0.00458685 -0.00441155 -0.00413938 -0.00378831 -0.00339765 -0.00298188 -0.00255309 -0.00214081 -0.00176778 -0.00144391 -0.00116947 -0.000945434 -0.000758266 -0.000596367 -0.000464658 -0.000356504 -0.00026765 -0.000198038 -0.00014231 -9.81716e-05 -6.52038e-05 -4.11812e-05 -1.86024e-05 0 0 
0 0 -6.42752e-06 -1.43105e-05 -2.35099e-05 -3.62538e-05 -5.49239e-05 -8.25814e-05 -0.000120839 -0.000169164 -0.000230237 -0.000306448 -0.000397007 -0.000508366 -0.00063985 -0.000789121 -0.000965194 -0.0011719 -0.00141447 -0.00169102 -0.00199935 -0.00231876 -0.00262596 -0.00291855 -0.00317803 -0.00338421 -0.00352446 -0.00357652 -0.00351655 -0.00333942 -0.00303867 -0.00261624 -0.00208098 -0.00143481 -0.000681206 0.000170139 0.00109859 0.00208889 0.00311589 0.00413281 0.00512608 0.0060826 0.00698295 0.00781449 0.00856907 0.00922656 0.0097757 0.0101982 0.0104822 0.0106312 0.0106436 0.0105402 0.0103471 0.0100903 0.00976459 0.00933257 0.00876082 0.00801296 0.00710791 0.00610987 0.0050741 0.00405087 0.00302142 0.00192257 0.000659587 -0.000859019 -0.00269404 -0.00487608 -0.00740304 -0.0102685 -0.0134694 -0.0169898 -0.0208463 -0.0250424 -0.0296047 -0.0345303 -0.0398355 -0.0455078 -0.0515368 -0.0578882 -0.0645361 -0.0714343 -0.0785341 -0.0857829 -0.0931067 -0.100399 -0.107541 -0.114399 -0.120831 -0.126752 -0.132125 -0.137023 -0.141587 -0.14599 -0.150355 -0.154686 -0.158852 -0.162584 -0.16556 -0.167523 -0.168299 -0.167908 -0.166425 -0.164041 -0.160919 -0.157215 -0.153046 -0.14847 -0.143521 -0.138204 -0.132513 -0.126454 -0.120045 -0.113335 -0.106376 -0.0992666 -0.0920864 -0.0849154 -0.0778327 -0.0708999 -0.0641671 -0.0576724 -0.0514511 -0.0455194 -0.0399001 -0.034597 -0.029624 -0.0249683 -0.0206477 -0.0166703 -0.0130732 -0.00989307 -0.00718321 -0.00494636 -0.00313971 -0.00166134 -0.000368277 0.000887241 0.00219799 0.00357071 0.00492487 0.00614616 0.00713582 0.00788382 0.00844676 0.00891085 0.00935934 0.0097944 0.0101827 0.0104746 0.0106248 0.0106263 0.0104798 0.0102006 0.00978342 0.00923616 0.00857994 0.00782425 0.00699559 0.00609782 0.00514394 0.00415303 0.00313855 0.00211528 0.001128 0.000202284 -0.000646256 -0.00139769 -0.00204039 -0.00257412 -0.00299355 -0.00329271 -0.00346696 -0.00352535 -0.00347595 -0.00334082 -0.00313835 -0.00288441 -0.00259553 -0.00229368 -0.00197766 -0.00167435 -0.00140077 -0.00116241 -0.000958809 -0.000785727 -0.000638728 -0.000509223 -0.000399483 -0.000309957 -0.000234401 -0.000173446 -0.000124787 -8.5829e-05 -5.7051e-05 -3.68264e-05 -2.2199e-05 -9.98267e-06 0 0 
0 0 -2.88082e-06 -6.32284e-06 -1.05864e-05 -1.67822e-05 -2.60437e-05 -4.05044e-05 -6.30931e-05 -9.43882e-05 -0.000133908 -0.000183625 -0.000243079 -0.00031385 -0.000399981 -0.000497375 -0.000607294 -0.000729453 -0.000867723 -0.00102665 -0.00120542 -0.00140801 -0.00161122 -0.00180627 -0.00198804 -0.00214353 -0.00226743 -0.00235071 -0.00237757 -0.00232707 -0.00218657 -0.00195136 -0.00162118 -0.00120363 -0.000701619 -0.000114288 0.000549938 0.00127724 0.00206424 0.00287798 0.00368904 0.00447579 0.0052224 0.00590753 0.00652206 0.00705585 0.00749529 0.00783889 0.00806642 0.00818339 0.00819552 0.00812966 0.00800465 0.0078416 0.00764482 0.00739533 0.0070869 0.00673886 0.00638964 0.00610539 0.00593255 0.00588636 0.00593486 0.00601001 0.00603355 0.00593467 0.00566639 0.00520496 0.00453781 0.00365524 0.00253889 0.00115828 -0.000517901 -0.00252191 -0.00489387 -0.00766034 -0.0108297 -0.0144201 -0.018413 -0.0228021 -0.0275461 -0.0326187 -0.0379614 -0.0435245 -0.0492386 -0.0550182 -0.0607588 -0.066347 -0.0716597 -0.0765915 -0.081079 -0.0851301 -0.0888202 -0.0922657 -0.0955853 -0.098832 -0.101948 -0.104781 -0.107098 -0.108679 -0.109379 -0.109159 -0.108083 -0.106274 -0.103871 -0.100996 -0.0977169 -0.0940864 -0.0901281 -0.0858416 -0.0812281 -0.0762976 -0.0710803 -0.0656255 -0.0599937 -0.0542686 -0.0485341 -0.04288 -0.0373892 -0.0321299 -0.0271536 -0.0225159 -0.018235 -0.0143395 -0.0108232 -0.00769282 -0.00492171 -0.00250278 -0.000416177 0.00135882 0.00282252 0.00396813 0.00478631 0.00528016 0.0054754 0.00544565 0.00530218 0.00517395 0.00517257 0.00534143 0.00565761 0.00603751 0.00639372 0.00667773 0.00688898 0.00708171 0.00729621 0.00754584 0.00780606 0.00802264 0.0081458 0.00815736 0.00804788 0.00782484 0.00748793 0.00705301 0.00652192 0.00590877 0.00522488 0.00448117 0.00369584 0.00288696 0.00207463 0.00128993 0.000564795 -9.73053e-05 -0.000682164 -0.00118181 -0.00159671 -0.00192427 -0.00215699 -0.00229443 -0.00234281 -0.0023123 -0.00223213 -0.00211087 -0.00195996 -0.00178068 -0.00158986 -0.00138931 -0.00119078 -0.00101492 -0.000859454 -0.000724522 -0.000604988 -0.000497718 -0.000402081 -0.00031773 -0.000247776 -0.000188903 -0.000139132 -9.91242e-05 -6.71379e-05 -4.36552e-05 -2.80965e-05 -1.75413e-05 -9.82258e-06 -4.35805e-06 0 0 
0 0 -1.05699e-06 -2.04036e-06 -2.87161e-06 -4.42459e-06 -7.45198e-06 -1.2718e-05 -2.22775e-05 -3.84e-05 -6.11969e-05 -9.06021e-05 -0.000126654 -0.000168086 -0.000217687 -0.000275906 -0.00034057 -0.000411443 -0.000483357 -0.000561926 -0.000645132 -0.0007395 -0.000845573 -0.000947306 -0.00104398 -0.00112683 -0.00119241 -0.00123876 -0.00126353 -0.00125905 -0.00120555 -0.00109353 -0.000916233 -0.00067287 -0.000371042 -1.31512e-05 0.000401424 0.000863312 0.00137104 0.00191838 0.00248514 0.00305104 0.00359565 0.00410071 0.00455308 0.00494252 0.00525982 0.00549997 0.00566052 0.00574232 0.00575955 0.00573045 0.00567372 0.00559014 0.00548098 0.00534678 0.00519215 0.00505991 0.00499983 0.00506604 0.00529501 0.00568006 0.00618976 0.00676719 0.00735447 0.00790567 0.00838858 0.00878518 0.00907718 0.00925048 0.00927703 0.0091179 0.0087316 0.00807698 0.00712031 0.00582454 0.00417351 0.00215646 -0.000224035 -0.00295825 -0.00602247 -0.00938528 -0.0130101 -0.0168449 -0.0208363 -0.0249235 -0.0290271 -0.0330563 -0.0369196 -0.0405233 -0.0437962 -0.0467132 -0.0493032 -0.0516438 -0.0538261 -0.0559263 -0.0579448 -0.0598108 -0.0613885 -0.0625198 -0.0630882 -0.0630288 -0.0623776 -0.0612032 -0.0596018 -0.0576519 -0.0554004 -0.0528828 -0.0501074 -0.0470792 -0.0437982 -0.0402759 -0.0365359 -0.0326209 -0.0285862 -0.0244913 -0.0204092 -0.0164169 -0.0125858 -0.00897857 -0.00565273 -0.00264571 1.55442e-05 0.00231543 0.00425763 0.00585099 0.00711767 0.00808141 0.00877738 0.00923053 0.0094616 0.00948413 0.00930403 0.00892535 0.00836046 0.00765569 0.00688747 0.00615409 0.00555366 0.0051486 0.00494946 0.00490732 0.00495212 0.0050176 0.00507223 0.00512849 0.0052038 0.00532061 0.00546395 0.00559557 0.00568256 0.0056967 0.00562665 0.00547172 0.00523699 0.00492623 0.00454068 0.00409182 0.00358882 0.00304753 0.0024844 0.00191985 0.00137429 0.000867686 0.000407701 -5.2436e-06 -0.000361227 -0.000661102 -0.000902457 -0.00107705 -0.00118673 -0.00123757 -0.00123961 -0.00121187 -0.00116726 -0.00110429 -0.00102467 -0.000930733 -0.000832494 -0.000729185 -0.00063855 -0.000557813 -0.000482763 -0.000412654 -0.000344143 -0.000280597 -0.000223632 -0.000174328 -0.00013288 -9.65726e-05 -6.64927e-05 -4.29757e-05 -2.59857e-05 -1.55577e-05 -9.37553e-06 -5.34529e-06 -2.68832e-06 -1.24267e-06 0 0 
0 0 -3.86961e-07 -3.50221e-07 7.44549e-07 2.17387e-06 3.18853e-06 3.48786e-06 2.53363e-06 -1.47205e-06 -1.02675e-05 -2.4132e-05 -4.25991e-05 -6.40139e-05 -8.72056e-05 -0.000114539 -0.000145566 -0.000180316 -0.000214731 -0.000244857 -0.000272836 -0.000295128 -0.000321721 -0.000348857 -0.000373386 -0.000392526 -0.00040152 -0.000399412 -0.000385716 -0.000365201 -0.00033369 -0.000278475 -0.000194193 -7.2234e-05 8.76781e-05 0.000280999 0.000505039 0.000756866 0.00102964 0.00132604 0.00163838 0.00196057 0.00228053 0.00258378 0.00285862 0.00309534 0.00328442 0.0034194 0.00350258 0.00354038 0.00354799 0.00354053 0.00353005 0.00351659 0.00349158 0.00346333 0.00344821 0.00348018 0.00360619 0.00386186 0.00426642 0.00480693 0.00545473 0.00617052 0.0069169 0.00766824 0.0084063 0.0091168 0.00978423 0.0103848 0.0108905 0.0112665 0.0114744 0.0114756 0.0112382 0.010742 0.00996292 0.00889833 0.00754282 0.00591327 0.00402073 0.00189924 -0.000427252 -0.00291725 -0.00553162 -0.00822511 -0.0109447 -0.0136271 -0.0162043 -0.0186054 -0.0207698 -0.0226605 -0.024282 -0.0256753 -0.0269092 -0.0280539 -0.0291531 -0.0301905 -0.0311116 -0.0318228 -0.032236 -0.0322981 -0.0320006 -0.0313751 -0.0304712 -0.0293281 -0.0279831 -0.0264448 -0.0247173 -0.0228012 -0.0206997 -0.0184197 -0.0159792 -0.0134067 -0.0107411 -0.00802764 -0.005321 -0.00267698 -0.000152863 0.00219924 0.00432873 0.00620634 0.00780038 0.00910361 0.0101081 0.0108307 0.0112827 0.0114984 0.0115038 0.0113286 0.0110011 0.0105418 0.00996212 0.00926585 0.00846406 0.00757956 0.0066588 0.00576711 0.00497669 0.00434982 0.00391188 0.00364624 0.00350474 0.00342536 0.00336807 0.0033171 0.00328548 0.00329084 0.00333024 0.00339308 0.00345208 0.00347892 0.0034577 0.00338111 0.00325079 0.00306689 0.00283529 0.00256407 0.00226425 0.0019472 0.00162882 0.00131914 0.00102534 0.000754123 0.000504283 0.000281766 8.99804e-05 -6.89687e-05 -0.00018959 -0.000272849 -0.000326592 -0.000357199 -0.000375942 -0.000388686 -0.000391748 -0.000385598 -0.000368164 -0.000346479 -0.000320876 -0.000296928 -0.000275974 -0.000250037 -0.000220827 -0.000187349 -0.000152972 -0.000122014 -9.4585e-05 -7.07179e-05 -4.88121e-05 -2.9531e-05 -1.4982e-05 -5.42929e-06 -6.42429e-07 1.01104e-06 1.39521e-06 1.10985e-06 4.98113e-07 6.23088e-08 0 0 
0 0 -3.67393e-07 -1.98486e-07 1.58527e-06 4.39267e-06 7.75181e-06 1.12595e-05 1.48759e-05 1.81297e-05 1.96326e-05 1.80407e-05 1.32472e-05 6.04725e-06 -1.25455e-06 -7.56058e-06 -1.4529e-05 -2.21144e-05 -3.04939e-05 -3.40357e-05 -3.11745e-05 -1.98182e-05 -4.98362e-07 2.07523e-05 4.56481e-05 7.25711e-05 0.000104597 0.000141869 0.000185964 0.000234123 0.000278929 0.000323489 0.000371453 0.000427819 0.000498013 0.000582785 0.000679264 0.00078554 0.000896619 0.00101029 0.0011264 0.0012414 0.00135615 0.00146671 0.0015666 0.00165146 0.00171479 0.00175226 0.00176494 0.00176181 0.00175363 0.00175187 0.00176224 0.0017874 0.00182631 0.00188423 0.00198377 0.00214774 0.00240772 0.00277852 0.00326152 0.00384394 0.00449824 0.00519978 0.00592861 0.00666911 0.00741352 0.00815036 0.0088661 0.0095367 0.0101376 0.0106394 0.0110113 0.0112255 0.011258 0.0110929 0.0107197 0.0101329 0.00933462 0.00833548 0.00715125 0.00580351 0.00431864 0.00272378 0.00104947 -0.000671667 -0.00240426 -0.00411045 -0.00574012 -0.00724521 -0.00858258 -0.009716 -0.0106352 -0.0113579 -0.0119305 -0.0124115 -0.0128576 -0.0132969 -0.0137225 -0.0140958 -0.0143657 -0.0144894 -0.0144373 -0.0142083 -0.0138153 -0.0132734 -0.0125953 -0.0117805 -0.0108263 -0.00972983 -0.00849322 -0.0071219 -0.00562985 -0.00403225 -0.00235349 -0.000628322 0.00110935 0.00281989 0.00446136 0.00599142 0.00737375 0.00857435 0.00956944 0.0103457 0.0108957 0.0112255 0.0113489 0.0112836 0.0110535 0.0106863 0.0102074 0.00963759 0.00899192 0.0082768 0.00750081 0.00667283 0.00581647 0.00496792 0.00417707 0.00349313 0.002947 0.00254694 0.00226755 0.00206805 0.00191437 0.00178297 0.00167944 0.00161107 0.00158806 0.00160675 0.00164791 0.00168869 0.00171199 0.00170874 0.00167659 0.00161762 0.00153744 0.00144109 0.00133342 0.00122117 0.0011089 0.000995501 0.000884063 0.000775083 0.00067036 0.000575533 0.000491785 0.000422574 0.000366726 0.000319331 0.000275055 0.000230823 0.000183065 0.000139655 0.000101234 6.7963e-05 3.97325e-05 1.38339e-05 -8.31705e-06 -2.83155e-05 -3.98757e-05 -4.29835e-05 -3.90626e-05 -3.0534e-05 -2.22242e-05 -1.48349e-05 -7.68615e-06 2.11011e-07 8.08917e-06 1.35637e-05 1.57551e-05 1.48854e-05 1.21691e-05 9.08927e-06 6.09906e-06 3.28064e-06 1.08874e-06 2.27259e-07 0 0 
0 0 -5.99255e-07 -7.34783e-07 9.05236e-07 3.78799e-06 7.88735e-06 1.28826e-05 1.85406e-05 2.48967e-05 3.1814e-05 3.84233e-05 4.37059e-05 4.73629e-05 4.99895e-05 5.4345e-05 6.16505e-05 7.14215e-05 8.29331e-05 9.62392e-05 0.000115181 0.00014079 0.000176078 0.000218778 0.000267419 0.000319255 0.000372785 0.000428011 0.000484554 0.000543634 0.000600576 0.000650158 0.000692015 0.000725157 0.000751898 0.0007739 0.000792554 0.000807002 0.000817008 0.000819183 0.000813701 0.000799139 0.00077446 0.000743645 0.000706988 0.000665453 0.000621357 0.000574869 0.000529632 0.000491786 0.000469037 0.000466287 0.000486219 0.000529782 0.000603564 0.000715693 0.000885161 0.00113065 0.00146393 0.00188965 0.0023958 0.0029676 0.00358374 0.00422678 0.00488455 0.00554723 0.00620764 0.00685702 0.00748118 0.00806367 0.00858224 0.00901568 0.00934239 0.00954457 0.00960911 0.00952319 0.00928467 0.0088939 0.00835674 0.00768174 0.0068858 0.00598436 0.00499967 0.00395275 0.0028658 0.00176233 0.000665921 -0.00039877 -0.00140275 -0.002314 -0.00310183 -0.0037395 -0.00421081 -0.00452192 -0.00469868 -0.00478717 -0.00483938 -0.00490353 -0.00500305 -0.00513912 -0.00529058 -0.00542499 -0.00551079 -0.00552668 -0.00546027 -0.00530671 -0.00505854 -0.00471159 -0.00425849 -0.00369602 -0.00302284 -0.00224432 -0.00136773 -0.000403398 0.000632361 0.00171967 0.00283571 0.00395322 0.00504292 0.0060744 0.00701891 0.00784819 0.00854134 0.00908085 0.00945911 0.00967301 0.0097288 0.00963449 0.00940879 0.00907032 0.0086393 0.00813467 0.00756959 0.0069547 0.0062941 0.00559318 0.00486086 0.00411753 0.00339445 0.0027274 0.00214861 0.00167689 0.00130867 0.00102865 0.000810402 0.000636112 0.000498449 0.000398681 0.000345148 0.0003356 0.000362558 0.00041158 0.000469527 0.000527272 0.000581117 0.000630855 0.00067706 0.000717607 0.000750911 0.000777516 0.000793682 0.000801048 0.000800459 0.000792037 0.000778731 0.000761324 0.000740331 0.000714651 0.000682179 0.000640971 0.000591832 0.000535493 0.000476752 0.000420665 0.000364979 0.000311238 0.000258891 0.000210259 0.000167292 0.000132431 0.00010698 8.86218e-05 7.56921e-05 6.47626e-05 5.54709e-05 4.86894e-05 4.48713e-05 4.26363e-05 3.94966e-05 3.46871e-05 2.86015e-05 2.21534e-05 1.62375e-05 1.10262e-05 6.44752e-06 2.75364e-06 3.22712e-07 -1.56637e-07 0 0 
0 0 -8.56487e-07 -1.40743e-06 -3.03253e-07 1.88385e-06 5.38974e-06 1.02227e-05 1.61761e-05 2.32253e-05 3.17256e-05 4.17728e-05 5.24712e-05 6.30166e-05 7.29461e-05 8.30472e-05 9.64188e-05 0.000114226 0.000136326 0.000160875 0.00018749 0.000218289 0.000255551 0.000301304 0.00035365 0.000410787 0.000468746 0.0005264 0.000582008 0.000636245 0.000689552 0.000737332 0.000775995 0.000801406 0.000811673 0.000806551 0.000787064 0.000754479 0.000709906 0.000654545 0.000586887 0.000507666 0.000415782 0.000312476 0.000202301 8.87924e-05 -2.16639e-05 -0.0001224 -0.000206965 -0.000270191 -0.000306761 -0.000314832 -0.00029323 -0.00023955 -0.000148003 -6.95773e-06 0.000194961 0.000471034 0.000822869 0.00124652 0.00172971 0.00225488 0.00280762 0.00337509 0.00394697 0.00451673 0.00507466 0.00561177 0.00611507 0.00657032 0.0069611 0.0072724 0.00749162 0.00760762 0.00761313 0.00750511 0.0072838 0.00695424 0.00652488 0.00600558 0.00541056 0.00475492 0.00405536 0.00332781 0.00258965 0.00185707 0.00114566 0.000472984 -0.000146623 -0.000693121 -0.00114536 -0.00148483 -0.00169908 -0.00178578 -0.0017601 -0.00165289 -0.00150807 -0.00137311 -0.00128859 -0.0012771 -0.00133831 -0.00145395 -0.00159713 -0.00173806 -0.0018504 -0.00191376 -0.00191262 -0.00183556 -0.00167532 -0.00142653 -0.00108886 -0.000663675 -0.000155284 0.000428062 0.00107546 0.00177732 0.002517 0.00327636 0.0040358 0.00477381 0.00546895 0.00610023 0.00664825 0.00709513 0.00743052 0.00764591 0.00773879 0.00771356 0.00757737 0.00734212 0.0070225 0.00663234 0.0061844 0.00568887 0.00515138 0.00457697 0.00397009 0.00334328 0.00271427 0.00210858 0.00155416 0.00107172 0.000673907 0.000358346 0.000111686 -7.87389e-05 -0.000226829 -0.000334499 -0.000400973 -0.000424011 -0.000405621 -0.00035194 -0.000271717 -0.000173728 -6.36136e-05 5.37354e-05 0.000172783 0.000287366 0.000393899 0.000487907 0.000568641 0.000637608 0.000694158 0.000739637 0.000773061 0.000793266 0.000799311 0.000789822 0.000765239 0.000727214 0.000680213 0.000627415 0.000573682 0.000518014 0.000460941 0.000403286 0.000346529 0.000294394 0.000249008 0.000212026 0.00018146 0.000155091 0.000130736 0.00010893 9.13602e-05 7.83622e-05 6.85409e-05 5.89777e-05 4.88472e-05 3.85891e-05 2.90058e-05 2.09476e-05 1.43318e-05 8.7596e-06 4.24681e-06 1.01297e-06 -8.58202e-07 -6.63546e-07 0 0 
0 0 -9.97564e-07 -1.87676e-06 -1.40982e-06 -2.02016e-07 2.00338e-06 5.46665e-06 1.02786e-05 1.64502e-05 2.41258e-05 3.35988e-05 4.48384e-05 5.74191e-05 7.09139e-05 8.50282e-05 0.000100722 0.000119483 0.000142072 0.000168383 0.0001974 0.000229141 0.000264078 0.000303485 0.000347306 0.000394666 0.000443693 0.000492486 0.000539263 0.000582491 0.000622053 0.000656385 0.000682871 0.000698756 0.000701118 0.000688307 0.000659412 0.000614719 0.00055469 0.000480764 0.00039385 0.000295123 0.000186129 6.78765e-05 -5.64921e-05 -0.000183001 -0.000306317 -0.000419053 -0.000514251 -0.00058613 -0.000630693 -0.000645268 -0.000627665 -0.000573515 -0.000476505 -0.00032785 -0.000121041 0.000147559 0.000475653 0.000854472 0.00127323 0.001719 0.00218122 0.00265125 0.00312152 0.00358502 0.00403302 0.00445517 0.00484008 0.00517524 0.00544893 0.00565035 0.00577146 0.00580656 0.00575251 0.00561022 0.00538311 0.00507741 0.0047025 0.00426928 0.00378974 0.00327728 0.00274521 0.00220665 0.0016745 0.00116037 0.000675092 0.000229339 -0.000167056 -0.000503269 -0.000766685 -0.000945318 -0.00102975 -0.00101627 -0.000912322 -0.000738062 -0.000526979 -0.000320003 -0.000158228 -7.20064e-05 -7.46046e-05 -0.000160087 -0.000307914 -0.000488196 -0.000670269 -0.000827562 -0.000940272 -0.000994074 -0.000980406 -0.000893994 -0.000733482 -0.000499716 -0.000195857 0.00017251 0.000599037 0.00107586 0.00159257 0.00213736 0.00269671 0.00325565 0.00379833 0.0043084 0.00476967 0.0051671 0.00548788 0.00572174 0.00586243 0.00590842 0.00586148 0.00572788 0.00551656 0.00523776 0.00490273 0.00452109 0.00410067 0.00364693 0.0031651 0.00266202 0.0021485 0.00164073 0.00115858 0.000721856 0.000346206 3.73814e-05 -0.000206772 -0.000395187 -0.000537908 -0.000640445 -0.000704825 -0.000729483 -0.000714328 -0.000661724 -0.000577908 -0.000470809 -0.000348327 -0.000217691 -8.54806e-05 4.34823e-05 0.000165384 0.0002771 0.000377798 0.000466191 0.000541338 0.000602307 0.000647791 0.0006773 0.000690708 0.000688874 0.000673516 0.000647509 0.000613614 0.000574377 0.000531355 0.00048349 0.000436022 0.00038766 0.000340662 0.000297096 0.000257975 0.00022321 0.000191688 0.000162875 0.000136837 0.000114539 9.61114e-05 8.07858e-05 6.70541e-05 5.40087e-05 4.18773e-05 3.10864e-05 2.20419e-05 1.47664e-05 8.9479e-06 4.42051e-06 1.17751e-06 -8.58202e-07 -1.85005e-06 -1.03275e-06 0 0 
0 0 -5.19521e-07 -9.60223e-07 -7.76602e-07 -2.36455e-07 8.11757e-07 2.56588e-06 5.10839e-06 8.37746e-06 1.23404e-05 1.72579e-05 2.3447e-05 3.07251e-05 3.86468e-05 4.67406e-05 5.49367e-05 6.42607e-05 7.57291e-05 8.9869e-05 0.000106138 0.000123482 0.000141429 0.000160393 0.000181574 0.000205157 0.0002305 0.000255964 0.000280182 0.000301676 0.000320066 0.000335692 0.000348056 0.000356327 0.000358465 0.000352445 0.000336934 0.000311562 0.000276749 0.000233399 0.000183443 0.000128145 6.86995e-05 5.50978e-06 -6.11698e-05 -0.000129753 -0.000197886 -0.000261641 -0.000316663 -0.00035905 -0.000386384 -0.000396684 -0.000388616 -0.00036021 -0.000308296 -0.000229554 -0.000121572 1.55114e-05 0.000180028 0.000367192 0.000571641 0.00078845 0.00101287 0.00124111 0.00147007 0.00169563 0.00191351 0.00211777 0.00230248 0.00246148 0.00258909 0.00268018 0.002731 0.00273954 0.00270501 0.00262808 0.00251125 0.00235819 0.00217381 0.00196434 0.00173571 0.00149451 0.00124702 0.000999737 0.000758374 0.000528188 0.000313899 0.00011975 -4.92306e-05 -0.000188938 -0.000294416 -0.000360622 -0.000382906 -0.000359667 -0.000293348 -0.000193036 -7.44079e-05 4.2244e-05 0.00013634 0.000191257 0.000198198 0.000158222 8.12775e-05 -1.73302e-05 -0.000121146 -0.00021594 -0.000290897 -0.000338653 -0.00035439 -0.000335512 -0.000280637 -0.000190529 -6.65817e-05 8.90258e-05 0.000273877 0.000483683 0.000714338 0.000960927 0.00121746 0.00147728 0.00173298 0.00197689 0.00220108 0.00239824 0.00256084 0.00268325 0.00276139 0.00279315 0.00277917 0.00272173 0.0026246 0.00249294 0.00233245 0.00214833 0.00194508 0.00172582 0.00149372 0.00125145 0.00100383 0.000757569 0.000521477 0.000305365 0.000116723 -4.02706e-05 -0.000165487 -0.000263109 -0.000337059 -0.000390433 -0.000423884 -0.000436513 -0.000427355 -0.000397177 -0.000349348 -0.00028836 -0.000219489 -0.00014743 -7.58111e-05 -6.62374e-06 5.86179e-05 0.000119633 0.000176083 0.000226849 0.000270825 0.00030611 0.00033181 0.00034754 0.000353696 0.000351707 0.000343573 0.000331371 0.000315829 0.000297516 0.000275956 0.000251486 0.000226422 0.000201457 0.000178072 0.000157044 0.000138163 0.000120298 0.000103051 8.69213e-05 7.29539e-05 6.16604e-05 5.25287e-05 4.45163e-05 3.66531e-05 2.89859e-05 2.19617e-05 1.6021e-05 1.13365e-05 7.58686e-06 4.49287e-06 2.08327e-06 4.25945e-07 -5.47415e-07 -9.73156e-07 -5.50119e-07 0 0 
0 0 0 0 0 0 0 0 0 0 0 0 0 0 0 0 0 0 0 0 0 0 0 0 0 0 0 0 0 0 0 0 0 0 0 0 0 0 0 0 0 0 0 0 0 0 0 0 0 0 0 0 0 0 0 0 0 0 0 0 0 0 0 0 0 0 0 0 0 0 0 0 0 0 0 0 0 0 0 0 0 0 0 0 0 0 0 0 0 0 0 0 0 0 0 0 0 0 0 0 0 0 0 0 0 0 0 0 0 0 0 0 0 0 0 0 0 0 0 0 0 0 0 0 0 0 0 0 0 0 0 0 0 0 0 0 0 0 0 0 0 0 0 0 0 0 0 0 0 0 0 0 0 0 0 0 0 0 0 0 0 0 0 0 0 0 0 0 0 0 0 0 0 0 0 0 0 0 0 0 0 0 0 0 0 0 0 0 0 0 0 0 0 0 0 0 0 0 0 0 
0 0 0 0 0 0 0 0 0 0 0 0 0 0 0 0 0 0 0 0 0 0 0 0 0 0 0 0 0 0 0 0 0 0 0 0 0 0 0 0 0 0 0 0 0 0 0 0 0 0 0 0 0 0 0 0 0 0 0 0 0 0 0 0 0 0 0 0 0 0 0 0 0 0 0 0 0 0 0 0 0 0 0 0 0 0 0 0 0 0 0 0 0 0 0 0 0 0 0 0 0 0 0 0 0 0 0 0 0 0 0 0 0 0 0 0 0 0 0 0 0 0 0 0 0 0 0 0 0 0 0 0 0 0 0 0 0 0 0 0 0 0 0 0 0 0 0 0 0 0 0 0 0 0 0 0 0 0 0 0 0 0 0 0 0 0 0 0 0 0 0 0 0 0 0 0 0 0 0 0 0 0 0 0 0 0 0 0 0 0 0 0 0 0 0 0 0 0 0 0 
</DataArray>
</PointData>
</Piece>
</ImageData>
</VTKFile>
