<?xml version="1.0"?>
<VTKFile type="ImageData" version="0.1" byte_order="LittleEndian">
<ImageData WholeExtent="0 199 0 199 0 0" Origin="0 0 0" Spacing="15 15 0">
<Piece Extent="0 199 0 199 0 0">
<PointData Scalars="Amplitude">
<DataArray type="Float32" Name="Amplitude" format="ascii">
0 0 0 0 0 0 0 0 0 0 0 0 0 0 0 0 0 0 0 0 0 0 0 0 0 0 0 0 0 0 0 0 0 0 0 0 0 0 0 0 0 0 0 0 0 0 0 0 0 0 0 0 0 0 0 0 0 0 0 0 0 0 0 0 0 0 0 0 0 0 0 0 0 0 0 0 0 0 0 0 0 0 0 0 0 0 0 0 0 0 0 0 0 0 0 0 0 0 0 0 0 0 0 0 0 0 0 0 0 0 0 0 0 0 0 0 0 0 0 0 0 0 0 0 0 0 0 0 0 0 0 0 0 0 0 0 0 0 0 0 0 0 0 0 0 0 0 0 0 0 0 0 0 0 0 0 0 0 0 0 0 0 0 0 0 0 0 0 0 0 0 0 0 0 0 0 0 0 0 0 0 0 0 0 0 0 0 0 0 0 0 0 0 0 0 0 0 0 0 0 
0 0 0 0 0 0 0 0 0 0 0 0 0 0 0 0 0 0 0 0 0 0 0 0 0 0 0 0 0 0 0 0 0 0 0 0 0 0 0 0 0 0 0 0 0 0 0 0 0 0 0 0 0 0 0 0 0 0 0 0 0 0 0 0 0 0 0 0 0 0 0 0 0 0 0 0 0 0 0 0 0 0 0 0 0 0 0 0 0 0 0 0 0 0 0 0 0 0 0 0 0 0 0 0 0 0 0 0 0 0 0 0 0 0 0 0 0 0 0 0 0 0 0 0 0 0 0 0 0 0 0 0 0 0 0 0 0 0 0 0 0 0 0 0 0 0 0 0 0 0 0 0 0 0 0 0 0 0 0 0 0 0 0 0 0 0 0 0 0 0 0 0 0 0 0 0 0 0 0 0 0 0 0 0 0 0 0 0 0 0 0 0 0 0 0 0 0 0 0 0 
0 0 0 0 0 0 0 0 0 0 0 0 0 0 0 0 0 0 0 0 0 0 0 0 0 0 0 0 0 0 0 0 0 0 0 0 0 0 0 0 0 0 0 0 0 0 0 0 0 0 0 0 0 0 0 0 0 0 0 0 0 0 0 -0 0 8.14296e-45 2.98575e-43 1.26759e-42 2.08053e-42 -6.40851e-42 -5.2362e-41 -1.62182e-40 -1.79391e-40 7.76782e-40 5.04303e-39 1.54688e-38 2.74078e-38 5.35793e-39 -1.57652e-37 -6.70784e-37 -1.78248e-36 -3.48258e-36 -4.83943e-36 -3.00397e-36 7.76266e-36 3.6332e-35 9.34145e-35 1.88322e-34 3.24281e-34 4.93846e-34 6.76557e-34 8.40654e-34 9.49353e-34 9.70363e-34 8.85882e-34 6.99716e-34 4.39122e-34 1.50322e-34 -1.11184e-34 -2.93075e-34 -3.58183e-34 -2.93075e-34 -1.11184e-34 1.50322e-34 4.39122e-34 6.99716e-34 8.85882e-34 9.70363e-34 9.49353e-34 8.40654e-34 6.76557e-34 4.93846e-34 3.24281e-34 1.88322e-34 9.34145e-35 3.6332e-35 7.76266e-36 -3.00397e-36 -4.83943e-36 -3.48258e-36 -1.78248e-36 -6.70784e-37 -1.57652e-37 5.35793e-39 2.74078e-38 1.54688e-38 5.04303e-39 7.76782e-40 -1.79391e-40 -1.62182e-40 -5.2362e-41 -6.40851e-42 2.08053e-42 1.26759e-42 2.98575e-43 8.14296e-45 0 -0 0 0 0 0 0 0 0 0 0 0 0 0 0 0 0 0 0 0 0 0 0 0 0 0 0 0 0 0 0 0 0 0 0 0 0 0 0 0 0 0 0 0 0 0 0 0 0 0 0 0 0 0 0 0 0 0 0 0 0 0 0 0 
0 0 0 0 0 0 0 0 0 0 0 0 0 0 0 0 0 0 0 0 0 0 0 0 0 0 0 0 0 0 0 0 0 0 0 0 0 0 0 0 0 0 0 0 0 0 0 0 0 0 0 0 0 0 0 0 0 0 0 0 0 0 0 1.16359e-45 1.67408e-43 1.56323e-42 5.97559e-42 6.94592e-42 -4.38677e-41 -2.76661e-40 -7.25264e-40 -2.44711e-40 6.21671e-39 2.96056e-38 7.45047e-38 8.02319e-38 -2.19755e-37 -1.47574e-36 -4.64858e-36 -1.0007e-35 -1.42749e-35 -5.52244e-36 4.27788e-35 1.74221e-34 4.4181e-34 8.84435e-34 1.48759e-33 2.13833e-33 2.5936e-33 2.48354e-33 1.36301e-33 -1.19245e-33 -5.46923e-33 -1.1511e-32 -1.90606e-32 -2.75665e-32 -3.62543e-32 -4.42426e-32 -5.06754e-32 -5.48452e-32 -5.62888e-32 -5.48452e-32 -5.06754e-32 -4.42426e-32 -3.62543e-32 -2.75665e-32 -1.90606e-32 -1.1511e-32 -5.46923e-33 -1.19245e-33 1.36301e-33 2.48354e-33 2.5936e-33 2.13833e-33 1.48759e-33 8.84435e-34 4.4181e-34 1.74221e-34 4.27788e-35 -5.52244e-36 -1.42749e-35 -1.0007e-35 -4.64858e-36 -1.47574e-36 -2.19755e-37 8.02319e-38 7.45047e-38 2.96056e-38 6.21671e-39 -2.44711e-40 -7.25264e-40 -2.76661e-40 -4.38677e-41 6.94592e-42 5.97559e-42 1.56323e-42 1.67408e-43 1.16359e-45 0 0 0 0 0 0 0 0 0 0 0 0 0 0 0 0 0 0 0 0 0 0 0 0 0 0 0 0 0 0 0 0 0 0 0 0 0 0 0 0 0 0 0 0 0 0 0 0 0 0 0 0 0 0 0 0 0 0 0 0 0 0 
0 0 0 0 0 0 0 0 0 0 0 0 0 0 0 0 0 0 0 0 0 0 0 0 0 0 0 0 0 0 0 0 0 0 0 0 0 0 0 0 0 0 0 0 0 0 0 0 0 0 0 0 0 0 0 0 0 0 0 0 0 -0 -0 3.27457e-44 1.43945e-42 9.06375e-42 2.32372e-41 -1.49662e-41 -3.54429e-40 -1.381e-39 -2.11413e-39 5.25341e-39 4.39536e-38 1.43178e-37 2.40951e-37 -1.13613e-37 -2.26232e-36 -8.61829e-36 -2.09043e-35 -3.37037e-35 -2.11034e-35 8.13281e-35 3.87919e-34 1.04635e-33 2.16969e-33 3.70809e-33 5.28366e-33 6.05066e-33 4.66344e-33 -5.81177e-34 -1.14183e-32 -2.91735e-32 -5.43325e-32 -8.62605e-32 -1.23163e-31 -1.62308e-31 -2.00425e-31 -2.34181e-31 -2.6061e-31 -2.77421e-31 -2.83186e-31 -2.77421e-31 -2.6061e-31 -2.34181e-31 -2.00425e-31 -1.62308e-31 -1.23163e-31 -8.62605e-32 -5.43325e-32 -2.91735e-32 -1.14183e-32 -5.81177e-34 4.66344e-33 6.05066e-33 5.28366e-33 3.70809e-33 2.16969e-33 1.04635e-33 3.87919e-34 8.13281e-35 -2.11034e-35 -3.37037e-35 -2.09043e-35 -8.61829e-36 -2.26232e-36 -1.13613e-37 2.40951e-37 1.43178e-37 4.39536e-38 5.25341e-39 -2.11413e-39 -1.381e-39 -3.54429e-40 -1.49662e-41 2.32372e-41 9.06375e-42 1.43945e-42 3.27457e-44 -0 -0 0 0 0 0 0 0 0 0 0 0 0 0 0 0 0 0 0 0 0 0 0 0 0 0 0 0 0 0 0 0 0 0 0 0 0 0 0 0 0 0 0 0 0 0 0 0 0 0 0 0 0 0 0 0 0 0 0 0 0 0 
0 0 0 0 0 0 0 0 0 0 0 0 0 0 0 0 0 0 0 0 0 0 0 0 0 0 0 0 0 0 0 0 0 0 0 0 0 0 0 0 0 0 0 0 0 0 0 0 0 0 0 0 0 0 0 0 0 0 0 -0 -2.05169e-44 -1.08056e-43 4.74625e-43 5.85279e-42 2.30788e-41 2.02981e-41 -2.23398e-40 -1.23864e-39 -2.67623e-39 2.70702e-39 4.13811e-38 1.53386e-37 2.67554e-37 -2.33594e-37 -3.27786e-36 -1.21467e-35 -2.72468e-35 -3.12624e-35 4.08386e-35 3.36747e-34 1.08412e-33 2.46913e-33 4.3057e-33 5.47077e-33 3.23799e-33 -7.16325e-33 -3.2331e-32 -7.9497e-32 -1.54408e-31 -2.58833e-31 -3.88625e-31 -5.33284e-31 -6.77538e-31 -8.0471e-31 -9.0093e-31 -9.58846e-31 -9.79557e-31 -9.72118e-31 -9.50704e-31 -9.30271e-31 -9.22073e-31 -9.30271e-31 -9.50704e-31 -9.72118e-31 -9.79557e-31 -9.58846e-31 -9.0093e-31 -8.0471e-31 -6.77538e-31 -5.33284e-31 -3.88625e-31 -2.58833e-31 -1.54408e-31 -7.9497e-32 -3.2331e-32 -7.16325e-33 3.23799e-33 5.47077e-33 4.3057e-33 2.46913e-33 1.08412e-33 3.36747e-34 4.08386e-35 -3.12624e-35 -2.72468e-35 -1.21467e-35 -3.27786e-36 -2.33594e-37 2.67554e-37 1.53386e-37 4.13811e-38 2.70702e-39 -2.67623e-39 -1.23864e-39 -2.23398e-40 2.02981e-41 2.30788e-41 5.85279e-42 4.74625e-43 -1.08056e-43 -2.05169e-44 -0 0 0 0 0 0 0 0 0 0 0 0 0 0 0 0 0 0 0 0 0 0 0 0 0 0 0 0 0 0 0 0 0 0 0 0 0 0 0 0 0 0 0 0 0 0 0 0 0 0 0 0 0 0 0 0 0 0 0 
0 0 0 0 0 0 0 0 0 0 0 0 0 0 0 0 0 0 0 0 0 0 0 0 0 0 0 0 0 0 0 0 0 0 0 0 0 0 0 0 0 0 0 0 0 0 0 0 0 0 0 0 0 0 0 0 0 0 -1.37103e-45 -2.59124e-43 -4.2776e-43 2.46099e-42 1.7534e-41 4.06797e-41 -8.07808e-41 -9.24153e-40 -2.93379e-39 -9.70328e-40 3.14231e-38 1.48885e-37 3.11163e-37 -1.60575e-37 -3.68452e-36 -1.45357e-35 -3.17412e-35 -2.24148e-35 1.32935e-34 6.93544e-34 1.98704e-33 3.96821e-33 5.13205e-33 7.61111e-34 -1.88503e-32 -6.86687e-32 -1.65649e-31 -3.20486e-31 -5.25024e-31 -7.38948e-31 -8.81718e-31 -8.35789e-31 -4.64255e-31 3.59245e-31 1.71559e-30 3.61038e-30 5.95845e-30 8.5876e-30 1.12608e-29 1.37106e-29 1.56791e-29 1.69534e-29 1.73943e-29 1.69534e-29 1.56791e-29 1.37106e-29 1.12608e-29 8.5876e-30 5.95845e-30 3.61038e-30 1.71559e-30 3.59245e-31 -4.64255e-31 -8.35789e-31 -8.81718e-31 -7.38948e-31 -5.25024e-31 -3.20486e-31 -1.65649e-31 -6.86687e-32 -1.88503e-32 7.61111e-34 5.13205e-33 3.96821e-33 1.98704e-33 6.93544e-34 1.32935e-34 -2.24148e-35 -3.17412e-35 -1.45357e-35 -3.68452e-36 -1.60575e-37 3.11163e-37 1.48885e-37 3.14231e-38 -9.70328e-40 -2.93379e-39 -9.24153e-40 -8.07808e-41 4.06797e-41 1.7534e-41 2.46099e-42 -4.2776e-43 -2.59124e-43 -1.37103e-45 0 0 0 0 0 0 0 0 0 0 0 0 0 0 0 0 0 0 0 0 0 0 0 0 0 0 0 0 0 0 0 0 0 0 0 0 0 0 0 0 0 0 0 0 0 0 0 0 0 0 0 0 0 0 0 0 0 
0 0 0 0 0 0 0 0 0 0 0 0 0 0 0 0 0 0 0 0 0 0 0 0 0 0 0 0 0 0 0 0 0 0 0 0 0 0 0 0 0 0 0 0 0 0 0 0 0 0 0 0 0 0 0 0 -0 -7.55754e-44 -5.68876e-43 -1.01683e-43 9.41807e-42 4.06225e-41 2.45496e-41 -5.13994e-40 -2.57754e-39 -3.99257e-39 1.69249e-38 1.24321e-37 3.40534e-37 8.00115e-38 -3.29361e-36 -1.51817e-35 -3.49285e-35 -1.70822e-35 2.13402e-34 1.03277e-33 2.80445e-33 4.79585e-33 2.56635e-33 -1.59971e-32 -7.34782e-32 -1.98626e-31 -4.06798e-31 -6.59566e-31 -8.07656e-31 -5.36294e-31 6.55695e-31 3.41175e-30 8.39566e-30 1.61119e-29 2.67205e-29 3.99154e-29 5.49193e-29 7.06124e-29 8.57596e-29 9.92665e-29 1.10378e-28 1.18761e-28 1.24451e-28 1.27691e-28 1.28736e-28 1.27691e-28 1.24451e-28 1.18761e-28 1.10378e-28 9.92665e-29 8.57596e-29 7.06124e-29 5.49193e-29 3.99154e-29 2.67205e-29 1.61119e-29 8.39566e-30 3.41175e-30 6.55695e-31 -5.36294e-31 -8.07656e-31 -6.59566e-31 -4.06798e-31 -1.98626e-31 -7.34782e-32 -1.59971e-32 2.56635e-33 4.79585e-33 2.80445e-33 1.03277e-33 2.13402e-34 -1.70822e-35 -3.49285e-35 -1.51817e-35 -3.29361e-36 8.00115e-38 3.40534e-37 1.24321e-37 1.69249e-38 -3.99257e-39 -2.57754e-39 -5.13994e-40 2.45496e-41 4.06225e-41 9.41807e-42 -1.01683e-43 -5.68876e-43 -7.55754e-44 -0 0 0 0 0 0 0 0 0 0 0 0 0 0 0 0 0 0 0 0 0 0 0 0 0 0 0 0 0 0 0 0 0 0 0 0 0 0 0 0 0 0 0 0 0 0 0 0 0 0 0 0 0 0 0 0 
0 0 0 0 0 0 0 0 0 0 0 0 0 0 0 0 0 0 0 0 0 0 0 0 0 0 0 0 0 0 0 0 0 0 0 0 0 0 0 0 0 0 0 0 0 0 0 0 0 0 0 0 0 0 0 -0 -2.61632e-43 -8.23452e-43 2.64661e-42 2.68572e-41 6.79761e-41 -1.55471e-40 -1.73968e-39 -5.11911e-39 3.07161e-39 8.38963e-38 3.2429e-37 3.67135e-37 -2.22883e-36 -1.38329e-35 -3.6878e-35 -2.35148e-35 2.40472e-34 1.23963e-33 3.34996e-33 4.85424e-33 -2.96326e-33 -4.28194e-32 -1.53036e-31 -3.65527e-31 -6.34333e-31 -6.98521e-31 9.72147e-32 2.93606e-30 9.47163e-30 2.14375e-29 3.98841e-29 6.41903e-29 9.1193e-29 1.14869e-28 1.26907e-28 1.18237e-28 8.12154e-29 1.19089e-29 -8.8221e-29 -2.11737e-28 -3.45968e-28 -4.74942e-28 -5.82039e-28 -6.52844e-28 -6.77593e-28 -6.52844e-28 -5.82039e-28 -4.74942e-28 -3.45968e-28 -2.11737e-28 -8.8221e-29 1.19089e-29 8.12154e-29 1.18237e-28 1.26907e-28 1.14869e-28 9.1193e-29 6.41903e-29 3.98841e-29 2.14375e-29 9.47163e-30 2.93606e-30 9.72147e-32 -6.98521e-31 -6.34333e-31 -3.65527e-31 -1.53036e-31 -4.28194e-32 -2.96326e-33 4.85424e-33 3.34996e-33 1.23963e-33 2.40472e-34 -2.35148e-35 -3.6878e-35 -1.38329e-35 -2.22883e-36 3.67135e-37 3.2429e-37 8.38963e-38 3.07161e-39 -5.11911e-39 -1.73968e-39 -1.55471e-40 6.79761e-41 2.68572e-41 2.64661e-42 -8.23452e-43 -2.61632e-43 -0 0 0 0 0 0 0 0 0 0 0 0 0 0 0 0 0 0 0 0 0 0 0 0 0 0 0 0 0 0 0 0 0 0 0 0 0 0 0 0 0 0 0 0 0 0 0 0 0 0 0 0 0 0 0 
0 0 0 0 0 0 0 0 0 0 0 0 0 0 0 0 0 0 0 0 0 0 0 0 0 0 0 0 0 0 0 0 0 0 0 0 0 0 0 0 0 0 0 0 0 0 0 0 0 0 0 0 0 -0 -9.10643e-44 -6.00197e-43 -4.77398e-43 1.16549e-41 6.06971e-41 5.11547e-41 -8.16572e-40 -4.30637e-39 -5.63769e-39 4.01667e-38 2.53611e-37 5.51121e-37 -8.89015e-37 -1.06362e-35 -3.5985e-35 -3.98104e-35 1.99855e-34 1.25594e-33 3.60449e-33 4.77061e-33 -8.27214e-33 -6.96635e-32 -2.31368e-31 -5.02251e-31 -6.64987e-31 6.23251e-32 3.41615e-30 1.21821e-29 2.94139e-29 5.62057e-29 8.79097e-29 1.09607e-28 9.26328e-29 -5.57073e-30 -2.36581e-28 -6.51055e-28 -1.28583e-27 -2.15183e-27 -3.22679e-27 -4.45544e-27 -5.75733e-27 -7.03982e-27 -8.21227e-27 -9.19742e-27 -9.93754e-27 -1.0395e-26 -1.05496e-26 -1.0395e-26 -9.93754e-27 -9.19742e-27 -8.21227e-27 -7.03982e-27 -5.75733e-27 -4.45544e-27 -3.22679e-27 -2.15183e-27 -1.28583e-27 -6.51055e-28 -2.36581e-28 -5.57073e-30 9.26328e-29 1.09607e-28 8.79097e-29 5.62057e-29 2.94139e-29 1.21821e-29 3.41615e-30 6.23251e-32 -6.64987e-31 -5.02251e-31 -2.31368e-31 -6.96635e-32 -8.27214e-33 4.77061e-33 3.60449e-33 1.25594e-33 1.99855e-34 -3.98104e-35 -3.5985e-35 -1.06362e-35 -8.89015e-37 5.51121e-37 2.53611e-37 4.01667e-38 -5.63769e-39 -4.30637e-39 -8.16572e-40 5.11547e-41 6.06971e-41 1.16549e-41 -4.77398e-43 -6.00197e-43 -9.10643e-44 -0 0 0 0 0 0 0 0 0 0 0 0 0 0 0 0 0 0 0 0 0 0 0 0 0 0 0 0 0 0 0 0 0 0 0 0 0 0 0 0 0 0 0 0 0 0 0 0 0 0 0 0 0 
0 0 0 0 0 0 0 0 0 0 0 0 0 0 0 0 0 0 0 0 0 0 0 0 0 0 0 0 0 0 0 0 0 0 0 0 0 0 0 0 0 0 0 0 0 0 0 0 0 0 0 0 -0 -3.19323e-43 -1.28973e-42 1.87171e-42 3.33133e-41 1.05518e-40 -1.63501e-40 -2.53351e-39 -7.96093e-39 7.0022e-39 1.52716e-37 5.51797e-37 2.27461e-37 -6.4137e-36 -3.06935e-35 -5.56904e-35 1.0959e-34 1.07957e-33 3.57098e-33 5.11827e-33 -9.98649e-33 -8.55387e-32 -2.84315e-31 -5.71141e-31 -4.56689e-31 1.64926e-30 9.04048e-30 2.61845e-29 5.5181e-29 8.7348e-29 8.9888e-29 -8.5862e-30 -3.25472e-28 -1.0143e-27 -2.23057e-27 -4.07549e-27 -6.53217e-27 -9.41798e-27 -1.23778e-26 -1.4932e-26 -1.65758e-26 -1.69061e-26 -1.57394e-26 -1.31856e-26 -9.65243e-27 -5.77564e-27 -2.29137e-27 1.20297e-28 9.81312e-28 1.20297e-28 -2.29137e-27 -5.77564e-27 -9.65243e-27 -1.31856e-26 -1.57394e-26 -1.69061e-26 -1.65758e-26 -1.4932e-26 -1.23778e-26 -9.41798e-27 -6.53217e-27 -4.07549e-27 -2.23057e-27 -1.0143e-27 -3.25472e-28 -8.5862e-30 8.9888e-29 8.7348e-29 5.5181e-29 2.61845e-29 9.04048e-30 1.64926e-30 -4.56689e-31 -5.71141e-31 -2.84315e-31 -8.55387e-32 -9.98649e-33 5.11827e-33 3.57098e-33 1.07957e-33 1.0959e-34 -5.56904e-35 -3.06935e-35 -6.4137e-36 2.27461e-37 5.51797e-37 1.52716e-37 7.0022e-39 -7.96093e-39 -2.53351e-39 -1.63501e-40 1.05518e-40 3.33133e-41 1.87171e-42 -1.28973e-42 -3.19323e-43 -0 0 0 0 0 0 0 0 0 0 0 0 0 0 0 0 0 0 0 0 0 0 0 0 0 0 0 0 0 0 0 0 0 0 0 0 0 0 0 0 0 0 0 0 0 0 0 0 0 0 0 0 
0 0 0 0 0 0 0 0 0 0 0 0 0 0 0 0 0 0 0 0 0 0 0 0 0 0 0 0 0 0 0 0 0 0 0 0 0 0 0 0 0 0 0 0 0 0 0 0 0 0 -0 -6.23151e-44 -7.28394e-43 -1.58834e-42 1.01574e-41 7.56727e-41 1.16503e-40 -9.29025e-40 -5.97893e-39 -9.05731e-39 6.09596e-38 4.02897e-37 7.9138e-37 -2.46642e-36 -2.15837e-35 -6.05639e-35 8.9704e-36 7.6048e-34 3.19927e-33 5.78183e-33 -7.04732e-33 -8.49025e-32 -3.02546e-31 -5.91401e-31 -1.83676e-31 3.41087e-30 1.51159e-29 4.00276e-29 7.33581e-29 7.78783e-29 -4.96987e-29 -5.08016e-28 -1.58335e-27 -3.56359e-27 -6.54725e-27 -1.01648e-26 -1.32905e-26 -1.38716e-26 -9.00301e-27 4.68052e-27 3.0336e-26 7.01154e-26 1.2446e-25 1.91697e-25 2.68053e-25 3.48093e-25 4.25448e-25 4.93655e-25 5.46938e-25 5.80799e-25 5.92406e-25 5.80799e-25 5.46938e-25 4.93655e-25 4.25448e-25 3.48093e-25 2.68053e-25 1.91697e-25 1.2446e-25 7.01154e-26 3.0336e-26 4.68052e-27 -9.00301e-27 -1.38716e-26 -1.32905e-26 -1.01648e-26 -6.54725e-27 -3.56359e-27 -1.58335e-27 -5.08016e-28 -4.96987e-29 7.78783e-29 7.33581e-29 4.00276e-29 1.51159e-29 3.41087e-30 -1.83676e-31 -5.91401e-31 -3.02546e-31 -8.49025e-32 -7.04732e-33 5.78183e-33 3.19927e-33 7.6048e-34 8.9704e-36 -6.05639e-35 -2.15837e-35 -2.46642e-36 7.9138e-37 4.02897e-37 6.09596e-38 -9.05731e-39 -5.97893e-39 -9.29025e-40 1.16503e-40 7.56727e-41 1.01574e-41 -1.58834e-42 -7.28394e-43 -6.23151e-44 -0 0 0 0 0 0 0 0 0 0 0 0 0 0 0 0 0 0 0 0 0 0 0 0 0 0 0 0 0 0 0 0 0 0 0 0 0 0 0 0 0 0 0 0 0 0 0 0 0 0 
0 0 0 0 0 0 0 0 0 0 0 0 0 0 0 0 0 0 0 0 0 0 0 0 0 0 0 0 0 0 0 0 0 0 0 0 0 0 0 0 0 0 0 0 0 0 0 0 0 -0 -2.41346e-43 -1.52991e-42 -4.74369e-43 3.12376e-41 1.39771e-40 -4.64244e-41 -2.87357e-39 -1.10761e-38 4.80814e-39 2.09269e-37 8.04847e-37 1.32972e-37 -1.15067e-35 -5.11514e-35 -6.24888e-35 3.96227e-34 2.48457e-33 6.10685e-33 -1.12094e-33 -6.88303e-32 -2.86424e-31 -5.96377e-31 -7.41595e-32 4.49295e-30 1.93991e-29 4.90778e-29 7.54549e-29 1.20283e-29 -3.59684e-28 -1.42104e-27 -3.60652e-27 -7.01368e-27 -1.06482e-26 -1.13964e-26 -3.08112e-27 2.38354e-26 8.13373e-26 1.81497e-25 3.3302e-25 5.37657e-25 7.8778e-25 1.06624e-24 1.34902e-24 1.61008e-24 1.82724e-24 1.98715e-24 2.08793e-24 2.1386e-24 2.15541e-24 2.15626e-24 2.15484e-24 2.15626e-24 2.15541e-24 2.1386e-24 2.08793e-24 1.98715e-24 1.82724e-24 1.61008e-24 1.34902e-24 1.06624e-24 7.8778e-25 5.37657e-25 3.3302e-25 1.81497e-25 8.13373e-26 2.38354e-26 -3.08112e-27 -1.13964e-26 -1.06482e-26 -7.01368e-27 -3.60652e-27 -1.42104e-27 -3.59684e-28 1.20283e-29 7.54549e-29 4.90778e-29 1.93991e-29 4.49295e-30 -7.41595e-32 -5.96377e-31 -2.86424e-31 -6.88303e-32 -1.12094e-33 6.10685e-33 2.48457e-33 3.96227e-34 -6.24888e-35 -5.11514e-35 -1.15067e-35 1.32972e-37 8.04847e-37 2.09269e-37 4.80814e-39 -1.10761e-38 -2.87357e-39 -4.64244e-41 1.39771e-40 3.12376e-41 -4.74369e-43 -1.52991e-42 -2.41346e-43 -0 0 0 0 0 0 0 0 0 0 0 0 0 0 0 0 0 0 0 0 0 0 0 0 0 0 0 0 0 0 0 0 0 0 0 0 0 0 0 0 0 0 0 0 0 0 0 0 0 
0 0 0 0 0 0 0 0 0 0 0 0 0 0 0 0 0 0 0 0 0 0 0 0 0 0 0 0 0 0 0 0 0 0 0 0 0 0 0 0 0 0 0 0 0 0 0 0 -2.08371e-44 -6.01499e-43 -2.3421e-42 4.96897e-42 7.43789e-41 1.98902e-40 -7.03644e-40 -6.80096e-39 -1.47289e-38 6.29534e-38 5.2117e-37 1.12753e-36 -3.65736e-36 -3.29336e-35 -8.61435e-35 9.66953e-35 1.57433e-33 5.53633e-33 4.72276e-33 -4.34717e-32 -2.39465e-31 -5.86837e-31 -2.09521e-31 4.43268e-30 2.06853e-29 5.23729e-29 6.69368e-29 -7.99163e-29 -7.40923e-28 -2.4685e-27 -5.61621e-27 -9.17321e-27 -8.63622e-27 6.64682e-27 5.52408e-26 1.62229e-25 3.52461e-25 6.37779e-25 1.00042e-24 1.37789e-24 1.65623e-24 1.67778e-24 1.26536e-24 2.59527e-25 -1.43965e-24 -3.83742e-24 -6.82571e-24 -1.01866e-23 -1.36178e-23 -1.67746e-23 -1.93196e-23 -2.09712e-23 -2.15434e-23 -2.09712e-23 -1.93196e-23 -1.67746e-23 -1.36178e-23 -1.01866e-23 -6.82571e-24 -3.83742e-24 -1.43965e-24 2.59527e-25 1.26536e-24 1.67778e-24 1.65623e-24 1.37789e-24 1.00042e-24 6.37779e-25 3.52461e-25 1.62229e-25 5.52408e-26 6.64682e-27 -8.63622e-27 -9.17321e-27 -5.61621e-27 -2.4685e-27 -7.40923e-28 -7.99163e-29 6.69368e-29 5.23729e-29 2.06853e-29 4.43268e-30 -2.09521e-31 -5.86837e-31 -2.39465e-31 -4.34717e-32 4.72276e-33 5.53633e-33 1.57433e-33 9.66953e-35 -8.61435e-35 -3.29336e-35 -3.65736e-36 1.12753e-36 5.2117e-37 6.29534e-38 -1.47289e-38 -6.80096e-39 -7.03644e-40 1.98902e-40 7.43789e-41 4.96897e-42 -2.3421e-42 -6.01499e-43 -2.08371e-44 0 0 0 0 0 0 0 0 0 0 0 0 0 0 0 0 0 0 0 0 0 0 0 0 0 0 0 0 0 0 0 0 0 0 0 0 0 0 0 0 0 0 0 0 0 0 0 
0 0 0 0 0 0 0 0 0 0 0 0 0 0 0 0 0 0 0 0 0 0 0 0 0 0 0 0 0 0 0 0 0 0 0 0 0 0 0 0 0 0 0 0 0 0 -0 -1.16851e-43 -1.35213e-42 -2.90457e-42 2.03668e-41 1.47233e-40 1.5669e-40 -2.43788e-39 -1.30986e-38 -6.35149e-39 2.1894e-37 1.02285e-36 4.80219e-37 -1.49669e-35 -7.07229e-35 -7.14478e-35 7.26241e-34 4.09436e-33 7.91941e-33 -1.759e-32 -1.70572e-31 -5.3602e-31 -4.82526e-31 3.34319e-30 1.89616e-29 5.13299e-29 6.02142e-29 -1.44381e-28 -1.03251e-27 -3.26334e-27 -6.77586e-27 -8.24021e-27 3.4387e-27 5.19713e-26 1.74066e-25 4.0754e-25 7.59556e-25 1.15347e-24 1.36469e-24 9.69338e-25 -6.63392e-25 -4.30977e-24 -1.07562e-23 -2.0614e-23 -3.41328e-23 -5.10732e-23 -7.06826e-23 -9.17916e-23 -1.13005e-22 -1.32932e-22 -1.5039e-22 -1.64521e-22 -1.74817e-22 -1.81042e-22 -1.83121e-22 -1.81042e-22 -1.74817e-22 -1.64521e-22 -1.5039e-22 -1.32932e-22 -1.13005e-22 -9.17916e-23 -7.06826e-23 -5.10732e-23 -3.41328e-23 -2.0614e-23 -1.07562e-23 -4.30977e-24 -6.63392e-25 9.69338e-25 1.36469e-24 1.15347e-24 7.59556e-25 4.0754e-25 1.74066e-25 5.19713e-26 3.4387e-27 -8.24021e-27 -6.77586e-27 -3.26334e-27 -1.03251e-27 -1.44381e-28 6.02142e-29 5.13299e-29 1.89616e-29 3.34319e-30 -4.82526e-31 -5.3602e-31 -1.70572e-31 -1.759e-32 7.91941e-33 4.09436e-33 7.26241e-34 -7.14478e-35 -7.07229e-35 -1.49669e-35 4.80219e-37 1.02285e-36 2.1894e-37 -6.35149e-39 -1.30986e-38 -2.43788e-39 1.5669e-40 1.47233e-40 2.03668e-41 -2.90457e-42 -1.35213e-42 -1.16851e-43 -0 0 0 0 0 0 0 0 0 0 0 0 0 0 0 0 0 0 0 0 0 0 0 0 0 0 0 0 0 0 0 0 0 0 0 0 0 0 0 0 0 0 0 0 0 0 
0 0 0 0 0 0 0 0 0 0 0 0 0 0 0 0 0 0 0 0 0 0 0 0 0 0 0 0 0 0 0 0 0 0 0 0 0 0 0 0 0 0 0 0 0 -0 -3.6214e-43 -2.50434e-42 -1.13378e-42 5.40633e-41 2.43833e-40 -2.1739e-40 -6.08176e-39 -2.01544e-38 3.88741e-38 5.45898e-37 1.53352e-36 -3.33256e-36 -4.00455e-35 -1.13269e-34 1.51023e-34 2.33885e-33 7.76996e-33 1.1219e-33 -9.65296e-32 -4.28106e-31 -7.04164e-31 1.74332e-30 1.49256e-29 4.68482e-29 6.1467e-29 -1.47535e-28 -1.12625e-27 -3.59844e-27 -6.95166e-27 -4.8775e-27 2.21959e-26 1.13533e-25 3.20266e-25 6.61388e-25 1.02231e-24 9.95685e-25 -2.92113e-25 -4.27447e-24 -1.28362e-23 -2.79116e-23 -5.07946e-23 -8.13079e-23 -1.17104e-22 -1.53413e-22 -1.83465e-22 -1.99645e-22 -1.95161e-22 -1.65835e-22 -1.11535e-22 -3.68002e-23 4.95281e-23 1.3566e-22 2.08922e-22 2.58059e-22 2.75352e-22 2.58059e-22 2.08922e-22 1.3566e-22 4.95281e-23 -3.68002e-23 -1.11535e-22 -1.65835e-22 -1.95161e-22 -1.99645e-22 -1.83465e-22 -1.53413e-22 -1.17104e-22 -8.13079e-23 -5.07946e-23 -2.79116e-23 -1.28362e-23 -4.27447e-24 -2.92113e-25 9.95685e-25 1.02231e-24 6.61388e-25 3.20266e-25 1.13533e-25 2.21959e-26 -4.8775e-27 -6.95166e-27 -3.59844e-27 -1.12625e-27 -1.47535e-28 6.1467e-29 4.68482e-29 1.49256e-29 1.74332e-30 -7.04164e-31 -4.28106e-31 -9.65296e-32 1.1219e-33 7.76996e-33 2.33885e-33 1.51023e-34 -1.13269e-34 -4.00455e-35 -3.33256e-36 1.53352e-36 5.45898e-37 3.88741e-38 -2.01544e-38 -6.08176e-39 -2.1739e-40 2.43833e-40 5.40633e-41 -1.13378e-42 -2.50434e-42 -3.6214e-43 -0 0 0 0 0 0 0 0 0 0 0 0 0 0 0 0 0 0 0 0 0 0 0 0 0 0 0 0 0 0 0 0 0 0 0 0 0 0 0 0 0 0 0 0 0 
0 0 0 0 0 0 0 0 0 0 0 0 0 0 0 0 0 0 0 0 0 0 0 0 0 0 0 0 0 0 0 0 0 0 0 0 0 0 0 0 0 0 0 0 -2.92834e-44 -8.39458e-43 -3.73712e-42 6.17741e-42 1.16754e-40 3.19311e-40 -1.3642e-39 -1.24258e-38 -2.1248e-38 1.66916e-37 1.09723e-36 1.33932e-36 -1.4454e-35 -8.33312e-35 -1.04174e-34 9.07403e-34 5.42651e-33 9.52189e-33 -3.62155e-32 -2.82517e-31 -7.42649e-31 2.63851e-31 9.72626e-30 3.88927e-29 6.63885e-29 -9.44937e-29 -1.01174e-27 -3.49009e-27 -6.62449e-27 -1.68562e-27 3.86851e-26 1.67174e-25 4.36147e-25 7.90008e-25 8.2851e-25 -5.43146e-25 -5.42153e-24 -1.68385e-23 -3.78922e-23 -6.97654e-23 -1.08724e-22 -1.42796e-22 -1.49358e-22 -9.50674e-23 6.08746e-23 3.60062e-22 8.35987e-22 1.50503e-21 2.35974e-21 3.36641e-21 4.46759e-21 5.58899e-21 6.6488e-21 7.56763e-21 8.27672e-21 8.72376e-21 8.87642e-21 8.72376e-21 8.27672e-21 7.56763e-21 6.6488e-21 5.58899e-21 4.46759e-21 3.36641e-21 2.35974e-21 1.50503e-21 8.35987e-22 3.60062e-22 6.08746e-23 -9.50674e-23 -1.49358e-22 -1.42796e-22 -1.08724e-22 -6.97654e-23 -3.78922e-23 -1.68385e-23 -5.42153e-24 -5.43146e-25 8.2851e-25 7.90008e-25 4.36147e-25 1.67174e-25 3.86851e-26 -1.68562e-27 -6.62449e-27 -3.49009e-27 -1.01174e-27 -9.44937e-29 6.63885e-29 3.88927e-29 9.72626e-30 2.63851e-31 -7.42649e-31 -2.82517e-31 -3.62155e-32 9.52189e-33 5.42651e-33 9.07403e-34 -1.04174e-34 -8.33312e-35 -1.4454e-35 1.33932e-36 1.09723e-36 1.66916e-37 -2.1248e-38 -1.24258e-38 -1.3642e-39 3.19311e-40 1.16754e-40 6.17741e-42 -3.73712e-42 -8.39458e-43 -2.92834e-44 0 0 0 0 0 0 0 0 0 0 0 0 0 0 0 0 0 0 0 0 0 0 0 0 0 0 0 0 0 0 0 0 0 0 0 0 0 0 0 0 0 0 0 
0 0 0 0 0 0 0 0 0 0 0 0 0 0 0 0 0 0 0 0 0 0 0 0 0 0 0 0 0 0 0 0 0 0 0 0 0 0 0 0 0 0 -0 -1.22838e-43 -1.73927e-42 -4.72786e-42 2.52194e-41 2.15477e-40 2.4882e-40 -3.97794e-39 -2.13576e-38 2.9192e-40 4.45661e-37 1.79831e-36 -1.30589e-36 -3.88834e-35 -1.36695e-34 1.04643e-34 2.69913e-33 9.62892e-33 -5.81346e-34 -1.42526e-31 -5.96053e-31 -6.473e-31 4.75619e-30 2.81034e-29 6.63382e-29 -1.79319e-29 -7.50604e-28 -3.0386e-27 -6.20846e-27 -7.76207e-28 4.53447e-26 1.9386e-25 4.87692e-25 7.54905e-25 1.78755e-25 -3.29581e-24 -1.32691e-23 -3.39418e-23 -6.66451e-23 -1.0297e-22 -1.15066e-22 -4.59127e-23 1.95562e-22 7.29104e-22 1.68413e-21 3.16829e-21 5.23037e-21 7.82895e-21 1.08188e-20 1.39634e-20 1.69753e-20 1.95739e-20 2.15485e-20 2.28056e-20 2.33881e-20 2.3459e-20 2.32531e-20 2.30103e-20 2.29076e-20 2.30103e-20 2.32531e-20 2.3459e-20 2.33881e-20 2.28056e-20 2.15485e-20 1.95739e-20 1.69753e-20 1.39634e-20 1.08188e-20 7.82895e-21 5.23037e-21 3.16829e-21 1.68413e-21 7.29104e-22 1.95562e-22 -4.59127e-23 -1.15066e-22 -1.0297e-22 -6.66451e-23 -3.39418e-23 -1.32691e-23 -3.29581e-24 1.78755e-25 7.54905e-25 4.87692e-25 1.9386e-25 4.53447e-26 -7.76207e-28 -6.20846e-27 -3.0386e-27 -7.50604e-28 -1.79319e-29 6.63382e-29 2.81034e-29 4.75619e-30 -6.473e-31 -5.96053e-31 -1.42526e-31 -5.81346e-34 9.62892e-33 2.69913e-33 1.04643e-34 -1.36695e-34 -3.88834e-35 -1.30589e-36 1.79831e-36 4.45661e-37 2.9192e-40 -2.13576e-38 -3.97794e-39 2.4882e-40 2.15477e-40 2.52194e-41 -4.72786e-42 -1.73927e-42 -1.22838e-43 -0 0 0 0 0 0 0 0 0 0 0 0 0 0 0 0 0 0 0 0 0 0 0 0 0 0 0 0 0 0 0 0 0 0 0 0 0 0 0 0 0 0 
0 0 0 0 0 0 0 0 0 0 0 0 0 0 0 0 0 0 0 0 0 0 0 0 0 0 0 0 0 0 0 0 0 0 0 0 0 0 0 0 0 -0 -3.49288e-43 -3.00387e-42 -3.64237e-42 6.44701e-41 3.42221e-40 -2.27474e-40 -8.93067e-39 -3.00948e-38 7.68546e-38 9.47042e-37 2.23172e-36 -9.72462e-36 -8.21725e-35 -1.57561e-34 8.04489e-34 6.00553e-33 1.18564e-32 -4.43391e-32 -3.63654e-31 -8.98971e-31 1.16326e-30 1.66524e-29 5.65357e-29 4.53582e-29 -4.37091e-28 -2.34893e-27 -5.68693e-27 -2.23498e-27 4.05164e-26 1.89318e-25 4.81107e-25 6.40565e-25 -5.61869e-25 -6.14244e-24 -2.09128e-23 -4.83942e-23 -8.15627e-23 -8.55637e-23 2.4913e-23 4.03434e-22 1.26746e-21 2.85289e-21 5.31735e-21 8.6011e-21 1.22794e-20 1.54593e-20 1.67777e-20 1.45384e-20 6.98982e-21 -7.30301e-21 -2.90747e-20 -5.80586e-20 -9.28544e-20 -1.31003e-19 -1.69262e-19 -2.04027e-19 -2.31819e-19 -2.49762e-19 -2.55963e-19 -2.49762e-19 -2.31819e-19 -2.04027e-19 -1.69262e-19 -1.31003e-19 -9.28544e-20 -5.80586e-20 -2.90747e-20 -7.30301e-21 6.98982e-21 1.45384e-20 1.67777e-20 1.54593e-20 1.22794e-20 8.6011e-21 5.31735e-21 2.85289e-21 1.26746e-21 4.03434e-22 2.4913e-23 -8.55637e-23 -8.15627e-23 -4.83942e-23 -2.09128e-23 -6.14244e-24 -5.61869e-25 6.40565e-25 4.81107e-25 1.89318e-25 4.05164e-26 -2.23498e-27 -5.68693e-27 -2.34893e-27 -4.37091e-28 4.53582e-29 5.65357e-29 1.66524e-29 1.16326e-30 -8.98971e-31 -3.63654e-31 -4.43391e-32 1.18564e-32 6.00553e-33 8.04489e-34 -1.57561e-34 -8.21725e-35 -9.72462e-36 2.23172e-36 9.47042e-37 7.68546e-38 -3.00948e-38 -8.93067e-39 -2.27474e-40 3.42221e-40 6.44701e-41 -3.64237e-42 -3.00387e-42 -3.49288e-43 -0 0 0 0 0 0 0 0 0 0 0 0 0 0 0 0 0 0 0 0 0 0 0 0 0 0 0 0 0 0 0 0 0 0 0 0 0 0 0 0 0 
0 0 0 0 0 0 0 0 0 0 0 0 0 0 0 0 0 0 0 0 0 0 0 0 0 0 0 0 0 0 0 0 0 0 0 0 0 0 0 0 -8.3895e-45 -8.22171e-43 -4.75405e-42 2.60774e-42 1.34389e-40 4.53455e-40 -1.55975e-39 -1.69325e-38 -3.02678e-38 2.60459e-37 1.69138e-36 1.29888e-36 -2.90099e-35 -1.42664e-34 -3.45146e-35 2.44243e-33 1.06455e-32 3.14757e-33 -1.57825e-31 -7.07451e-31 -6.43403e-31 7.24755e-30 3.92918e-29 7.39382e-29 -1.63859e-28 -1.55342e-27 -4.83586e-27 -4.5576e-27 2.77926e-26 1.60049e-25 4.38157e-25 5.54043e-25 -9.76125e-25 -7.86411e-24 -2.55437e-23 -5.47741e-23 -7.32657e-23 -2.34182e-24 3.31931e-22 1.21187e-21 2.96201e-21 5.74511e-21 9.1925e-21 1.19118e-20 1.10072e-20 1.82099e-21 -2.18873e-20 -6.71944e-20 -1.40739e-19 -2.47161e-19 -3.87652e-19 -5.59065e-19 -7.53883e-19 -9.61136e-19 -1.16805e-18 -1.36195e-18 -1.53197e-18 -1.67003e-18 -1.77103e-18 -1.83232e-18 -1.85284e-18 -1.83232e-18 -1.77103e-18 -1.67003e-18 -1.53197e-18 -1.36195e-18 -1.16805e-18 -9.61136e-19 -7.53883e-19 -5.59065e-19 -3.87652e-19 -2.47161e-19 -1.40739e-19 -6.71944e-20 -2.18873e-20 1.82099e-21 1.10072e-20 1.19118e-20 9.1925e-21 5.74511e-21 2.96201e-21 1.21187e-21 3.31931e-22 -2.34182e-24 -7.32657e-23 -5.47741e-23 -2.55437e-23 -7.86411e-24 -9.76125e-25 5.54043e-25 4.38157e-25 1.60049e-25 2.77926e-26 -4.5576e-27 -4.83586e-27 -1.55342e-27 -1.63859e-28 7.39382e-29 3.92918e-29 7.24755e-30 -6.43403e-31 -7.07451e-31 -1.57825e-31 3.14757e-33 1.06455e-32 2.44243e-33 -3.45146e-35 -1.42664e-34 -2.90099e-35 1.29888e-36 1.69138e-36 2.60459e-37 -3.02678e-38 -1.69325e-38 -1.55975e-39 4.53455e-40 1.34389e-40 2.60774e-42 -4.75405e-42 -8.22171e-43 -8.3895e-45 0 0 0 0 0 0 0 0 0 0 0 0 0 0 0 0 0 0 0 0 0 0 0 0 0 0 0 0 0 0 0 0 0 0 0 0 0 0 0 
0 0 0 0 0 0 0 0 0 0 0 0 0 0 0 0 0 0 0 0 0 0 0 0 0 0 0 0 0 0 0 0 0 0 0 0 0 0 0 -6.71607e-44 -1.59926e-42 -6.37607e-42 1.89491e-41 2.42488e-40 4.37725e-40 -4.40947e-39 -2.77466e-38 -3.97367e-39 6.19132e-37 2.53132e-36 -3.19678e-36 -6.50886e-35 -1.97758e-34 4.52843e-34 5.50556e-33 1.44261e-32 -3.51266e-32 -3.82695e-31 -1.03402e-30 1.47842e-30 2.117e-29 6.86271e-29 1.03999e-29 -8.18812e-28 -3.60288e-27 -6.04478e-27 1.29592e-26 1.16572e-25 3.7184e-25 5.28429e-25 -9.03432e-25 -7.93843e-24 -2.6276e-23 -5.352e-23 -5.02119e-23 1.12357e-22 7.03613e-22 2.10673e-21 4.57643e-21 7.63216e-21 9.03356e-21 3.51708e-21 -1.82152e-20 -6.95186e-20 -1.66109e-19 -3.22289e-19 -5.45475e-19 -8.30278e-19 -1.15406e-18 -1.47601e-18 -1.74123e-18 -1.88985e-18 -1.8697e-18 -1.64972e-18 -1.23049e-18 -6.48825e-19 2.52239e-20 6.98782e-19 1.27218e-18 1.65698e-18 1.79246e-18 1.65698e-18 1.27218e-18 6.98782e-19 2.52239e-20 -6.48825e-19 -1.23049e-18 -1.64972e-18 -1.8697e-18 -1.88985e-18 -1.74123e-18 -1.47601e-18 -1.15406e-18 -8.30278e-19 -5.45475e-19 -3.22289e-19 -1.66109e-19 -6.95186e-20 -1.82152e-20 3.51708e-21 9.03356e-21 7.63216e-21 4.57643e-21 2.10673e-21 7.03613e-22 1.12357e-22 -5.02119e-23 -5.352e-23 -2.6276e-23 -7.93843e-24 -9.03432e-25 5.28429e-25 3.7184e-25 1.16572e-25 1.29592e-26 -6.04478e-27 -3.60288e-27 -8.18812e-28 1.03999e-29 6.86271e-29 2.117e-29 1.47842e-30 -1.03402e-30 -3.82695e-31 -3.51266e-32 1.44261e-32 5.50556e-33 4.52843e-34 -1.97758e-34 -6.50886e-35 -3.19678e-36 2.53132e-36 6.19132e-37 -3.97367e-39 -2.77466e-38 -4.40947e-39 4.37725e-40 2.42488e-40 1.89491e-41 -6.37607e-42 -1.59926e-42 -6.71607e-44 0 0 0 0 0 0 0 0 0 0 0 0 0 0 0 0 0 0 0 0 0 0 0 0 0 0 0 0 0 0 0 0 0 0 0 0 0 0 
0 0 0 0 0 0 0 0 0 0 0 0 0 0 0 0 0 0 0 0 0 0 0 0 0 0 0 0 0 0 0 0 0 0 0 0 0 -0 -2.3239e-43 -2.89228e-42 -6.92552e-42 5.28702e-41 3.86178e-40 7.70682e-41 -9.58055e-39 -3.87745e-38 8.03336e-38 1.21667e-36 2.95794e-36 -1.48825e-35 -1.21455e-34 -1.81734e-34 1.65748e-33 1.01388e-32 1.09348e-32 -1.33376e-31 -7.32294e-31 -8.61624e-31 7.80476e-30 4.53543e-29 7.87765e-29 -2.85484e-28 -2.22567e-27 -5.89387e-27 1.10976e-27 7.03009e-26 2.87222e-25 5.21467e-25 -4.78638e-25 -6.61152e-24 -2.38463e-23 -4.85897e-23 -2.98589e-23 2.00808e-22 9.86818e-22 2.73683e-21 5.36223e-21 6.95124e-21 1.63757e-21 -2.27006e-20 -8.53199e-20 -2.09704e-19 -4.14567e-19 -6.97879e-19 -1.01576e-18 -1.26145e-18 -1.25218e-18 -7.32302e-19 6.01762e-19 3.05467e-18 6.87056e-18 1.21699e-17 1.89002e-17 2.68149e-17 3.54852e-17 4.4345e-17 5.27566e-17 6.00848e-17 6.57652e-17 6.93585e-17 7.05877e-17 6.93585e-17 6.57652e-17 6.00848e-17 5.27566e-17 4.4345e-17 3.54852e-17 2.68149e-17 1.89002e-17 1.21699e-17 6.87056e-18 3.05467e-18 6.01762e-19 -7.32302e-19 -1.25218e-18 -1.26145e-18 -1.01576e-18 -6.97879e-19 -4.14567e-19 -2.09704e-19 -8.53199e-20 -2.27006e-20 1.63757e-21 6.95124e-21 5.36223e-21 2.73683e-21 9.86818e-22 2.00808e-22 -2.98589e-23 -4.85897e-23 -2.38463e-23 -6.61152e-24 -4.78638e-25 5.21467e-25 2.87222e-25 7.03009e-26 1.10976e-27 -5.89387e-27 -2.22567e-27 -2.85484e-28 7.87765e-29 4.53543e-29 7.80476e-30 -8.61624e-31 -7.32294e-31 -1.33376e-31 1.09348e-32 1.01388e-32 1.65748e-33 -1.81734e-34 -1.21455e-34 -1.48825e-35 2.95794e-36 1.21667e-36 8.03336e-38 -3.87745e-38 -9.58055e-39 7.70682e-41 3.86178e-40 5.28702e-41 -6.92552e-42 -2.89228e-42 -2.3239e-43 -0 0 0 0 0 0 0 0 0 0 0 0 0 0 0 0 0 0 0 0 0 0 0 0 0 0 0 0 0 0 0 0 0 0 0 0 0 
0 0 0 0 0 0 0 0 0 0 0 0 0 0 0 0 0 0 0 0 0 0 0 0 0 0 0 0 0 0 0 0 0 0 0 0 -0 -5.29402e-43 -4.60636e-42 -4.21561e-42 1.12987e-40 5.38752e-40 -9.91913e-40 -1.77764e-38 -4.29127e-38 2.70119e-37 2.06393e-36 1.83171e-36 -3.87277e-35 -1.92109e-34 4.29313e-35 4.02689e-33 1.53324e-32 -1.32448e-32 -3.29249e-31 -1.11511e-30 8.9124e-31 2.14486e-29 7.52902e-29 -2.05077e-31 -1.05381e-27 -4.42189e-27 -5.21821e-27 3.15088e-26 1.93484e-25 4.7692e-25 2.70685e-26 -4.53012e-24 -1.94148e-23 -4.28353e-23 -2.30953e-23 2.25709e-22 1.08755e-21 2.93959e-21 5.18279e-21 3.964e-21 -1.13289e-20 -6.10188e-20 -1.73199e-19 -3.70387e-19 -6.38556e-19 -8.76922e-19 -8.35977e-19 -6.25637e-20 2.12062e-18 6.57307e-18 1.42155e-17 2.58368e-17 4.18662e-17 6.21704e-17 8.59477e-17 1.11771e-16 1.37795e-16 1.62086e-16 1.83003e-16 1.99506e-16 2.11317e-16 2.18879e-16 2.23124e-16 2.25113e-16 2.25672e-16 2.25113e-16 2.23124e-16 2.18879e-16 2.11317e-16 1.99506e-16 1.83003e-16 1.62086e-16 1.37795e-16 1.11771e-16 8.59477e-17 6.21704e-17 4.18662e-17 2.58368e-17 1.42155e-17 6.57307e-18 2.12062e-18 -6.25637e-20 -8.35977e-19 -8.76922e-19 -6.38556e-19 -3.70387e-19 -1.73199e-19 -6.10188e-20 -1.13289e-20 3.964e-21 5.18279e-21 2.93959e-21 1.08755e-21 2.25709e-22 -2.30953e-23 -4.28353e-23 -1.94148e-23 -4.53012e-24 2.70685e-26 4.7692e-25 1.93484e-25 3.15088e-26 -5.21821e-27 -4.42189e-27 -1.05381e-27 -2.05077e-31 7.52902e-29 2.14486e-29 8.9124e-31 -1.11511e-30 -3.29249e-31 -1.32448e-32 1.53324e-32 4.02689e-33 4.29313e-35 -1.92109e-34 -3.87277e-35 1.83171e-36 2.06393e-36 2.70119e-37 -4.29127e-38 -1.77764e-38 -9.91913e-40 5.38752e-40 1.12987e-40 -4.21561e-42 -4.60636e-42 -5.29402e-43 -0 0 0 0 0 0 0 0 0 0 0 0 0 0 0 0 0 0 0 0 0 0 0 0 0 0 0 0 0 0 0 0 0 0 0 0 
0 0 0 0 0 0 0 0 0 0 0 0 0 0 0 0 0 0 0 0 0 0 0 0 0 0 0 0 0 0 0 0 0 0 0 -2.10144e-44 -1.13198e-42 -6.62374e-42 5.16113e-42 2.08103e-40 6.29486e-40 -3.29925e-39 -2.90872e-38 -2.57958e-38 6.25702e-37 3.02925e-36 -2.91655e-36 -7.9987e-35 -2.49429e-34 7.12288e-34 7.93203e-33 1.75585e-32 -8.07687e-32 -6.48404e-31 -1.20276e-30 6.11745e-30 4.47296e-29 8.85117e-29 -3.05032e-28 -2.541e-27 -6.42725e-27 6.34741e-27 1.06974e-25 3.76001e-25 3.83432e-25 -2.39492e-24 -1.40159e-23 -3.64659e-23 -2.82066e-23 1.88141e-22 1.00669e-21 2.7825e-21 4.50832e-21 5.75858e-22 -2.40656e-20 -9.65019e-20 -2.46554e-19 -4.70768e-19 -6.56086e-19 -4.63298e-19 8.01909e-19 4.26754e-18 1.14344e-17 2.38885e-17 4.27446e-17 6.78689e-17 9.70462e-17 1.2536e-16 1.45086e-16 1.46347e-16 1.18574e-16 5.26041e-17 -5.70192e-17 -2.10092e-16 -3.9967e-16 -6.12198e-16 -8.28922e-16 -1.02833e-15 -1.18921e-15 -1.29371e-15 -1.32992e-15 -1.29371e-15 -1.18921e-15 -1.02833e-15 -8.28922e-16 -6.12198e-16 -3.9967e-16 -2.10092e-16 -5.70192e-17 5.26041e-17 1.18574e-16 1.46347e-16 1.45086e-16 1.2536e-16 9.70462e-17 6.78689e-17 4.27446e-17 2.38885e-17 1.14344e-17 4.26754e-18 8.01909e-19 -4.63298e-19 -6.56086e-19 -4.70768e-19 -2.46554e-19 -9.65019e-20 -2.40656e-20 5.75858e-22 4.50832e-21 2.7825e-21 1.00669e-21 1.88141e-22 -2.82066e-23 -3.64659e-23 -1.40159e-23 -2.39492e-24 3.83432e-25 3.76001e-25 1.06974e-25 6.34741e-27 -6.42725e-27 -2.541e-27 -3.05032e-28 8.85117e-29 4.47296e-29 6.11745e-30 -1.20276e-30 -6.48404e-31 -8.07687e-32 1.75585e-32 7.93203e-33 7.12288e-34 -2.49429e-34 -7.9987e-35 -2.91655e-36 3.02925e-36 6.25702e-37 -2.57958e-38 -2.90872e-38 -3.29925e-39 6.29486e-40 2.08103e-40 5.16113e-42 -6.62374e-42 -1.13198e-42 -2.10144e-44 0 0 0 0 0 0 0 0 0 0 0 0 0 0 0 0 0 0 0 0 0 0 0 0 0 0 0 0 0 0 0 0 0 0 
0 0 0 0 0 0 0 0 0 0 0 0 0 0 0 0 0 0 0 0 0 0 0 0 0 0 0 0 0 0 0 0 0 0 -8.5474e-44 -2.01214e-42 -8.45492e-42 2.63568e-41 3.42042e-40 5.18847e-40 -7.51607e-39 -4.21037e-38 3.71321e-38 1.20675e-36 3.69903e-36 -1.45058e-35 -1.4143e-34 -2.26631e-34 2.16733e-33 1.32711e-32 8.89249e-33 -2.22818e-31 -1.06033e-30 -2.48754e-31 1.74331e-29 7.52319e-29 2.84377e-29 -1.04127e-27 -4.7285e-27 -4.96234e-27 4.30293e-26 2.44075e-25 4.98844e-25 -7.39799e-25 -8.635e-24 -2.87507e-23 -3.61147e-23 1.15557e-22 8.02622e-22 2.41131e-21 3.86317e-21 -1.33837e-21 -3.10982e-20 -1.16266e-19 -2.80196e-19 -4.68277e-19 -4.03229e-19 6.2223e-19 3.92807e-18 1.1419e-17 2.50845e-17 4.57783e-17 7.11795e-17 9.31444e-17 9.50543e-17 5.01244e-17 -7.82236e-17 -3.33068e-16 -7.57646e-16 -1.3868e-15 -2.23805e-15 -3.30459e-15 -4.55228e-15 -5.92184e-15 -7.33562e-15 -8.7075e-15 -9.95314e-15 -1.09986e-14 -1.17858e-14 -1.22737e-14 -1.24389e-14 -1.22737e-14 -1.17858e-14 -1.09986e-14 -9.95314e-15 -8.7075e-15 -7.33562e-15 -5.92184e-15 -4.55228e-15 -3.30459e-15 -2.23805e-15 -1.3868e-15 -7.57646e-16 -3.33068e-16 -7.82236e-17 5.01244e-17 9.50543e-17 9.31444e-17 7.11795e-17 4.57783e-17 2.50845e-17 1.1419e-17 3.92807e-18 6.2223e-19 -4.03229e-19 -4.68277e-19 -2.80196e-19 -1.16266e-19 -3.10982e-20 -1.33837e-21 3.86317e-21 2.41131e-21 8.02622e-22 1.15557e-22 -3.61147e-23 -2.87507e-23 -8.635e-24 -7.39799e-25 4.98844e-25 2.44075e-25 4.30293e-26 -4.96234e-27 -4.7285e-27 -1.04127e-27 2.84377e-29 7.52319e-29 1.74331e-29 -2.48754e-31 -1.06033e-30 -2.22818e-31 8.89249e-33 1.32711e-32 2.16733e-33 -2.26631e-34 -1.4143e-34 -1.45058e-35 3.69903e-36 1.20675e-36 3.71321e-38 -4.21037e-38 -7.51607e-39 5.18847e-40 3.42042e-40 2.63568e-41 -8.45492e-42 -2.01214e-42 -8.5474e-44 0 0 0 0 0 0 0 0 0 0 0 0 0 0 0 0 0 0 0 0 0 0 0 0 0 0 0 0 0 0 0 0 0 
0 0 0 0 0 0 0 0 0 0 0 0 0 0 0 0 0 0 0 0 0 0 0 0 0 0 0 0 0 0 0 0 0 -2.12997e-43 -3.3421e-42 -9.05379e-42 6.59115e-41 5.07641e-40 -3.07879e-41 -1.43453e-38 -5.25901e-38 1.82787e-37 2.04206e-36 3.18939e-36 -3.72528e-35 -2.18027e-34 3.45426e-36 4.80962e-33 1.87558e-32 -2.50198e-32 -4.71491e-31 -1.3997e-30 3.09455e-30 3.73567e-29 9.84745e-29 -2.12713e-28 -2.42462e-27 -6.76171e-27 7.15531e-27 1.23362e-25 4.19762e-25 2.01054e-25 -4.1946e-24 -1.99439e-23 -3.86865e-23 4.10215e-23 5.4708e-22 1.92945e-21 3.41357e-21 -1.22085e-21 -3.06049e-20 -1.16895e-19 -2.74664e-19 -3.92226e-19 -8.00739e-21 1.98728e-18 7.50478e-18 1.88064e-17 3.68e-17 5.74877e-17 6.64496e-17 3.21718e-17 -9.97442e-17 -4.0836e-16 -9.91687e-16 -1.95103e-15 -3.36566e-15 -5.26205e-15 -7.58594e-15 -1.01874e-14 -1.28283e-14 -1.52152e-14 -1.70542e-14 -1.81164e-14 -1.82948e-14 -1.76398e-14 -1.63585e-14 -1.47779e-14 -1.32782e-14 -1.22117e-14 -1.18264e-14 -1.22117e-14 -1.32782e-14 -1.47779e-14 -1.63585e-14 -1.76398e-14 -1.82948e-14 -1.81164e-14 -1.70542e-14 -1.52152e-14 -1.28283e-14 -1.01874e-14 -7.58594e-15 -5.26205e-15 -3.36566e-15 -1.95103e-15 -9.91687e-16 -4.0836e-16 -9.97442e-17 3.21718e-17 6.64496e-17 5.74877e-17 3.68e-17 1.88064e-17 7.50478e-18 1.98728e-18 -8.00739e-21 -3.92226e-19 -2.74664e-19 -1.16895e-19 -3.06049e-20 -1.22085e-21 3.41357e-21 1.92945e-21 5.4708e-22 4.10215e-23 -3.86865e-23 -1.99439e-23 -4.1946e-24 2.01054e-25 4.19762e-25 1.23362e-25 7.15531e-27 -6.76171e-27 -2.42462e-27 -2.12713e-28 9.84745e-29 3.73567e-29 3.09455e-30 -1.3997e-30 -4.71491e-31 -2.50198e-32 1.87558e-32 4.80962e-33 3.45426e-36 -2.18027e-34 -3.72528e-35 3.18939e-36 2.04206e-36 1.82787e-37 -5.25901e-38 -1.43453e-38 -3.07879e-41 5.07641e-40 6.59115e-41 -9.05379e-42 -3.3421e-42 -2.12997e-43 0 0 0 0 0 0 0 0 0 0 0 0 0 0 0 0 0 0 0 0 0 0 0 0 0 0 0 0 0 0 0 0 
0 0 0 0 0 0 0 0 0 0 0 0 0 0 0 0 0 0 0 0 0 0 0 0 0 0 0 0 0 0 0 -0 -5.04467e-43 -5.14977e-42 -6.5833e-42 1.31805e-40 6.75839e-40 -1.37832e-39 -2.4283e-38 -5.17356e-38 4.60171e-37 3.07589e-36 -6.84741e-38 -7.59453e-35 -2.88402e-34 6.47736e-34 8.96188e-33 2.08288e-32 -1.06229e-31 -8.39814e-31 -1.25047e-30 1.08446e-29 6.61518e-29 7.69402e-29 -8.00345e-28 -4.50149e-27 -6.02279e-27 4.20756e-26 2.59451e-25 5.04945e-25 -1.26107e-24 -1.15121e-23 -3.34369e-23 -1.19424e-23 3.03711e-22 1.39846e-21 3.01472e-21 2.18571e-22 -2.42655e-20 -1.02624e-19 -2.46183e-19 -3.07253e-19 3.16473e-19 3.05207e-18 1.01655e-17 2.34762e-17 4.04321e-17 4.64294e-17 3.62162e-18 -1.60879e-16 -5.60982e-16 -1.34225e-15 -2.64688e-15 -4.54622e-15 -6.94371e-15 -9.4652e-15 -1.13694e-14 -1.15197e-14 -8.45524e-15 -5.77752e-16 1.35624e-14 3.49337e-14 6.37195e-14 9.91218e-14 1.39327e-13 1.8165e-13 2.22829e-13 2.5942e-13 2.88213e-13 3.06613e-13 3.1294e-13 3.06613e-13 2.88213e-13 2.5942e-13 2.22829e-13 1.8165e-13 1.39327e-13 9.91218e-14 6.37195e-14 3.49337e-14 1.35624e-14 -5.77752e-16 -8.45524e-15 -1.15197e-14 -1.13694e-14 -9.4652e-15 -6.94371e-15 -4.54622e-15 -2.64688e-15 -1.34225e-15 -5.60982e-16 -1.60879e-16 3.62162e-18 4.64294e-17 4.04321e-17 2.34762e-17 1.01655e-17 3.05207e-18 3.16473e-19 -3.07253e-19 -2.46183e-19 -1.02624e-19 -2.42655e-20 2.18571e-22 3.01472e-21 1.39846e-21 3.03711e-22 -1.19424e-23 -3.34369e-23 -1.15121e-23 -1.26107e-24 5.04945e-25 2.59451e-25 4.20756e-26 -6.02279e-27 -4.50149e-27 -8.00345e-28 7.69402e-29 6.61518e-29 1.08446e-29 -1.25047e-30 -8.39814e-31 -1.06229e-31 2.08288e-32 8.96188e-33 6.47736e-34 -2.88402e-34 -7.59453e-35 -6.84741e-38 3.07589e-36 4.60171e-37 -5.17356e-38 -2.4283e-38 -1.37832e-39 6.75839e-40 1.31805e-40 -6.5833e-42 -5.14977e-42 -5.04467e-43 -0 0 0 0 0 0 0 0 0 0 0 0 0 0 0 0 0 0 0 0 0 0 0 0 0 0 0 0 0 0 0 
0 0 0 0 0 0 0 0 0 0 0 0 0 0 0 0 0 0 0 0 0 0 0 0 0 0 0 0 0 0 -8.40779e-45 -1.03276e-42 -7.38344e-42 1.59748e-42 2.31245e-40 7.80537e-40 -4.01463e-39 -3.71671e-38 -2.40212e-38 9.25025e-37 4.08138e-36 -8.52625e-36 -1.34175e-34 -3.02378e-34 1.99989e-33 1.45707e-32 1.22241e-32 -2.63289e-31 -1.28222e-30 1.97373e-31 2.54275e-29 9.75938e-29 -6.31219e-29 -1.93085e-27 -6.77479e-27 3.05012e-27 1.15535e-25 4.30408e-25 1.66148e-25 -5.04484e-24 -2.31081e-23 -3.54246e-23 1.17683e-22 8.80985e-22 2.48359e-21 1.817e-21 -1.52958e-20 -7.98613e-20 -2.08539e-19 -2.55707e-19 4.32276e-19 3.44844e-18 1.1161e-17 2.43466e-17 3.52774e-17 1.45618e-17 -1.0654e-16 -4.49751e-16 -1.18162e-15 -2.45781e-15 -4.29241e-15 -6.3363e-15 -7.57737e-15 -6.02064e-15 1.54318e-15 1.954e-14 5.32586e-14 1.08093e-13 1.88462e-13 2.96639e-13 4.31799e-13 5.89612e-13 7.62554e-13 9.40915e-13 1.11426e-12 1.27291e-12 1.4092e-12 1.51795e-12 1.59641e-12 1.64355e-12 1.65925e-12 1.64355e-12 1.59641e-12 1.51795e-12 1.4092e-12 1.27291e-12 1.11426e-12 9.40915e-13 7.62554e-13 5.89612e-13 4.31799e-13 2.96639e-13 1.88462e-13 1.08093e-13 5.32586e-14 1.954e-14 1.54318e-15 -6.02064e-15 -7.57737e-15 -6.3363e-15 -4.29241e-15 -2.45781e-15 -1.18162e-15 -4.49751e-16 -1.0654e-16 1.45618e-17 3.52774e-17 2.43466e-17 1.1161e-17 3.44844e-18 4.32276e-19 -2.55707e-19 -2.08539e-19 -7.98613e-20 -1.52958e-20 1.817e-21 2.48359e-21 8.80985e-22 1.17683e-22 -3.54246e-23 -2.31081e-23 -5.04484e-24 1.66148e-25 4.30408e-25 1.15535e-25 3.05012e-27 -6.77479e-27 -1.93085e-27 -6.31219e-29 9.75938e-29 2.54275e-29 1.97373e-31 -1.28222e-30 -2.63289e-31 1.22241e-32 1.45707e-32 1.99989e-33 -3.02378e-34 -1.34175e-34 -8.52625e-36 4.08138e-36 9.25025e-37 -2.40212e-38 -3.71671e-38 -4.01463e-39 7.80537e-40 2.31245e-40 1.59748e-42 -7.38344e-42 -1.03276e-42 -8.40779e-45 0 0 0 0 0 0 0 0 0 0 0 0 0 0 0 0 0 0 0 0 0 0 0 0 0 0 0 0 0 
0 0 0 0 0 0 0 0 0 0 0 0 0 0 0 0 0 0 0 0 0 0 0 0 0 0 0 0 0 -4.34403e-44 -1.81048e-42 -9.47138e-42 2.00554e-41 3.68543e-40 7.00173e-40 -8.53662e-39 -5.14476e-38 5.48731e-38 1.62521e-36 4.53704e-36 -2.55858e-35 -2.11028e-34 -1.65404e-34 4.41437e-33 2.0683e-32 -1.9566e-32 -5.24645e-31 -1.62914e-30 4.27307e-30 4.87337e-29 1.1211e-28 -4.41645e-28 -3.73494e-27 -7.57978e-27 2.99051e-26 2.39661e-25 5.33358e-25 -1.23505e-24 -1.23868e-23 -3.5194e-23 7.85236e-24 4.49881e-22 1.7934e-21 2.70874e-21 -6.78079e-21 -5.43488e-20 -1.66688e-19 -2.36286e-19 3.40962e-19 3.16354e-18 1.05885e-17 2.24489e-17 2.61408e-17 -2.22244e-17 -2.20729e-16 -7.28586e-16 -1.71625e-15 -3.20003e-15 -4.70208e-15 -4.71092e-15 5.13104e-19 1.50116e-14 4.85113e-14 1.10744e-13 2.12262e-13 3.60898e-13 5.57839e-13 7.93801e-13 1.04667e-12 1.28197e-12 1.45695e-12 1.528e-12 1.46005e-12 1.23583e-12 8.62364e-13 3.73047e-13 -1.75702e-13 -7.12715e-13 -1.16368e-12 -1.4638e-12 -1.56904e-12 -1.4638e-12 -1.16368e-12 -7.12715e-13 -1.75702e-13 3.73047e-13 8.62364e-13 1.23583e-12 1.46005e-12 1.528e-12 1.45695e-12 1.28197e-12 1.04667e-12 7.93801e-13 5.57839e-13 3.60898e-13 2.12262e-13 1.10744e-13 4.85113e-14 1.50116e-14 5.13104e-19 -4.71092e-15 -4.70208e-15 -3.20003e-15 -1.71625e-15 -7.28586e-16 -2.20729e-16 -2.22244e-17 2.61408e-17 2.24489e-17 1.05885e-17 3.16354e-18 3.40962e-19 -2.36286e-19 -1.66688e-19 -5.43488e-20 -6.78079e-21 2.70874e-21 1.7934e-21 4.49881e-22 7.85236e-24 -3.5194e-23 -1.23868e-23 -1.23505e-24 5.33358e-25 2.39661e-25 2.99051e-26 -7.57978e-27 -3.73494e-27 -4.41645e-28 1.1211e-28 4.87337e-29 4.27307e-30 -1.62914e-30 -5.24645e-31 -1.9566e-32 2.0683e-32 4.41437e-33 -1.65404e-34 -2.11028e-34 -2.55858e-35 4.53704e-36 1.62521e-36 5.48731e-38 -5.14476e-38 -8.53662e-39 7.00173e-40 3.68543e-40 2.00554e-41 -9.47138e-42 -1.81048e-42 -4.34403e-44 0 0 0 0 0 0 0 0 0 0 0 0 0 0 0 0 0 0 0 0 0 0 0 0 0 0 0 0 
0 0 0 0 0 0 0 0 0 0 0 0 0 0 0 0 0 0 0 0 0 0 0 0 0 0 0 0 -1.42932e-43 -3.00018e-42 -1.1045e-41 5.38785e-41 5.39832e-40 2.38818e-40 -1.55575e-38 -6.31821e-38 2.19139e-37 2.57283e-36 3.48042e-36 -5.53486e-35 -2.95733e-34 2.76325e-34 8.21876e-33 2.46771e-32 -9.32157e-32 -9.02922e-31 -1.49739e-30 1.28323e-29 8.00717e-29 6.77678e-29 -1.21971e-27 -6.06722e-27 -3.25815e-27 8.74493e-26 4.05625e-25 3.13328e-25 -4.6585e-24 -2.35153e-23 -3.45565e-23 1.57617e-22 1.07603e-21 2.6572e-21 -7.4945e-22 -3.08895e-20 -1.22021e-19 -2.22955e-19 1.39878e-19 2.42458e-18 8.97711e-18 1.94383e-17 1.87461e-17 -4.64809e-17 -2.94158e-16 -8.98212e-16 -1.9672e-15 -3.19863e-15 -3.20799e-15 1.47065e-15 1.74947e-14 5.5371e-14 1.28698e-13 2.50761e-13 4.274e-13 6.45969e-13 8.61852e-13 9.86113e-13 8.79438e-13 3.57578e-13 -7.88584e-13 -2.75927e-12 -5.70412e-12 -9.68175e-12 -1.46308e-11 -2.036e-11 -2.65607e-11 -3.28384e-11 -3.87572e-11 -4.38877e-11 -4.78506e-11 -5.03521e-11 -5.1207e-11 -5.03521e-11 -4.78506e-11 -4.38877e-11 -3.87572e-11 -3.28384e-11 -2.65607e-11 -2.036e-11 -1.46308e-11 -9.68175e-12 -5.70412e-12 -2.75927e-12 -7.88584e-13 3.57578e-13 8.79438e-13 9.86113e-13 8.61852e-13 6.45969e-13 4.274e-13 2.50761e-13 1.28698e-13 5.5371e-14 1.74947e-14 1.47065e-15 -3.20799e-15 -3.19863e-15 -1.9672e-15 -8.98212e-16 -2.94158e-16 -4.64809e-17 1.87461e-17 1.94383e-17 8.97711e-18 2.42458e-18 1.39878e-19 -2.22955e-19 -1.22021e-19 -3.08895e-20 -7.4945e-22 2.6572e-21 1.07603e-21 1.57617e-22 -3.45565e-23 -2.35153e-23 -4.6585e-24 3.13328e-25 4.05625e-25 8.74493e-26 -3.25815e-27 -6.06722e-27 -1.21971e-27 6.77678e-29 8.00717e-29 1.28323e-29 -1.49739e-30 -9.02922e-31 -9.32157e-32 2.46771e-32 8.21876e-33 2.76325e-34 -2.95733e-34 -5.53486e-35 3.48042e-36 2.57283e-36 2.19139e-37 -6.31821e-38 -1.55575e-38 2.38818e-40 5.39832e-40 5.38785e-41 -1.1045e-41 -3.00018e-42 -1.42932e-43 0 0 0 0 0 0 0 0 0 0 0 0 0 0 0 0 0 0 0 0 0 0 0 0 0 0 0 
0 0 0 0 0 0 0 0 0 0 0 0 0 0 0 0 0 0 0 0 0 0 0 0 0 0 -0 -3.25101e-43 -4.63409e-42 -1.06611e-41 1.09625e-40 7.26259e-40 -8.90678e-40 -2.55261e-38 -6.47716e-38 5.11839e-37 3.6992e-36 -6.41333e-37 -1.01834e-34 -3.60006e-34 1.24446e-33 1.35324e-32 2.12747e-32 -2.32845e-31 -1.36631e-30 -1.87462e-31 2.7997e-29 1.12636e-28 -1.08991e-28 -2.56176e-27 -8.14455e-27 1.26493e-26 1.88441e-25 5.52242e-25 -7.10467e-25 -1.11616e-23 -3.53905e-23 8.04682e-24 4.97455e-22 1.95743e-21 2.1963e-21 -1.30482e-20 -7.81135e-20 -1.93537e-19 -5.63785e-20 1.52581e-18 6.85441e-18 1.62458e-17 1.55778e-17 -5.04259e-17 -3.07344e-16 -9.26207e-16 -1.91873e-15 -2.57132e-15 -3.77844e-16 1.04251e-14 4.0085e-14 1.02862e-13 2.12444e-13 3.70174e-13 5.43481e-13 6.34323e-13 4.42428e-13 -3.65441e-13 -2.26356e-12 -5.83563e-12 -1.16941e-11 -2.03562e-11 -3.21017e-11 -4.68512e-11 -6.41059e-11 -8.29778e-11 -1.02313e-10 -1.20884e-10 -1.37599e-10 -1.51676e-10 -1.62733e-10 -1.70774e-10 -1.76082e-10 -1.79048e-10 -1.79995e-10 -1.79048e-10 -1.76082e-10 -1.70774e-10 -1.62733e-10 -1.51676e-10 -1.37599e-10 -1.20884e-10 -1.02313e-10 -8.29778e-11 -6.41059e-11 -4.68512e-11 -3.21017e-11 -2.03562e-11 -1.16941e-11 -5.83563e-12 -2.26356e-12 -3.65441e-13 4.42428e-13 6.34323e-13 5.43481e-13 3.70174e-13 2.12444e-13 1.02862e-13 4.0085e-14 1.04251e-14 -3.77844e-16 -2.57132e-15 -1.91873e-15 -9.26207e-16 -3.07344e-16 -5.04259e-17 1.55778e-17 1.62458e-17 6.85441e-18 1.52581e-18 -5.63785e-20 -1.93537e-19 -7.81135e-20 -1.30482e-20 2.1963e-21 1.95743e-21 4.97455e-22 8.04682e-24 -3.53905e-23 -1.11616e-23 -7.10467e-25 5.52242e-25 1.88441e-25 1.26493e-26 -8.14455e-27 -2.56176e-27 -1.08991e-28 1.12636e-28 2.7997e-29 -1.87462e-31 -1.36631e-30 -2.32845e-31 2.12747e-32 1.35324e-32 1.24446e-33 -3.60006e-34 -1.01834e-34 -6.41333e-37 3.6992e-36 5.11839e-37 -6.47716e-38 -2.55261e-38 -8.90678e-40 7.26259e-40 1.09625e-40 -1.06611e-41 -4.6411e-42 -3.25023e-43 -0 0 0 0 0 0 0 0 0 0 0 0 0 0 0 0 0 0 0 0 0 0 0 0 0 0 
0 0 0 0 0 0 0 0 0 0 0 0 0 0 0 0 0 0 0 0 0 0 0 0 0 -0 -6.54406e-43 -6.59871e-42 -6.41935e-42 1.93512e-40 8.84607e-40 -3.0719e-39 -3.84219e-38 -4.35699e-38 9.80141e-37 4.79027e-36 -1.00773e-35 -1.67394e-34 -3.48412e-34 3.02084e-33 1.99586e-32 1.48445e-33 -4.64052e-31 -1.79425e-30 3.40141e-30 5.14182e-29 1.28341e-28 -5.28332e-28 -4.54118e-27 -8.02922e-27 4.96764e-26 3.36251e-25 5.19922e-25 -3.27549e-24 -2.12063e-23 -3.8063e-23 1.42788e-22 1.09747e-21 2.68705e-21 -2.32609e-21 -4.09747e-20 -1.44749e-19 -1.7302e-19 7.18265e-19 4.63021e-18 1.2969e-17 1.54125e-17 -3.76042e-17 -2.68347e-16 -8.41481e-16 -1.69605e-15 -1.77779e-15 2.40104e-15 1.85472e-14 5.9286e-14 1.38632e-13 2.59148e-13 3.83537e-13 3.85814e-13 -1.63362e-14 -1.33321e-12 -4.34558e-12 -1.00687e-11 -1.95866e-11 -3.37317e-11 -5.26374e-11 -7.52634e-11 -9.90516e-11 -1.19882e-10 -1.3245e-10 -1.31072e-10 -1.10794e-10 -6.85751e-11 -4.2535e-12 7.89499e-11 1.74536e-10 2.73453e-10 3.65302e-10 4.39822e-10 4.88382e-10 5.05238e-10 4.88382e-10 4.39822e-10 3.65302e-10 2.73453e-10 1.74536e-10 7.89499e-11 -4.2535e-12 -6.85751e-11 -1.10794e-10 -1.31072e-10 -1.3245e-10 -1.19882e-10 -9.90516e-11 -7.52634e-11 -5.26374e-11 -3.37317e-11 -1.95866e-11 -1.00687e-11 -4.34558e-12 -1.33321e-12 -1.63362e-14 3.85814e-13 3.83537e-13 2.59148e-13 1.38632e-13 5.9286e-14 1.85472e-14 2.40104e-15 -1.77779e-15 -1.69605e-15 -8.41481e-16 -2.68347e-16 -3.76042e-17 1.54125e-17 1.2969e-17 4.63021e-18 7.18265e-19 -1.7302e-19 -1.44749e-19 -4.09747e-20 -2.32609e-21 2.68705e-21 1.09747e-21 1.42788e-22 -3.8063e-23 -2.12063e-23 -3.27549e-24 5.19922e-25 3.36251e-25 4.96764e-26 -8.02922e-27 -4.54118e-27 -5.28332e-28 1.28341e-28 5.14182e-29 3.40141e-30 -1.79425e-30 -4.64052e-31 1.48445e-33 1.99586e-32 3.02084e-33 -3.48412e-34 -1.67394e-34 -1.00773e-35 4.79027e-36 9.80141e-37 -4.35699e-38 -3.84219e-38 -3.0719e-39 8.84607e-40 1.93512e-40 -6.44737e-42 -6.59712e-42 -6.54367e-43 -0 0 0 0 0 0 0 0 0 0 0 0 0 0 0 0 0 0 0 0 0 0 0 0 0 
0 0 0 0 0 0 0 0 0 0 0 0 0 0 0 0 0 0 0 0 0 0 0 0 -8.40728e-45 -1.1897e-42 -8.88703e-42 4.23893e-42 3.10777e-40 9.36056e-40 -6.77053e-39 -5.33058e-38 1.93631e-38 1.66485e-36 5.40366e-36 -2.7763e-35 -2.5005e-34 -1.67973e-34 5.91012e-33 2.61295e-32 -4.82026e-32 -8.04736e-31 -1.91785e-30 1.0782e-29 8.28245e-29 9.14278e-29 -1.33e-27 -6.96436e-27 -2.02724e-27 1.19287e-25 5.07497e-25 -2.69698e-27 -8.27922e-24 -3.32486e-23 -1.00919e-23 4.37334e-22 1.92405e-21 2.13402e-21 -1.53789e-20 -8.91103e-20 -1.9442e-19 1.55462e-19 2.64261e-18 9.52112e-18 1.55225e-17 -1.75343e-17 -1.99181e-16 -6.92157e-16 -1.43038e-15 -1.22793e-15 3.94358e-15 2.29021e-14 6.88631e-14 1.51071e-13 2.49488e-13 2.62202e-13 -8.03571e-14 -1.32427e-12 -4.38163e-12 -1.0511e-11 -2.10548e-11 -3.67914e-11 -5.68323e-11 -7.71615e-11 -8.91555e-11 -7.86292e-11 -2.60145e-11 9.1887e-11 2.98558e-10 6.1333e-10 1.04679e-09 1.5972e-09 2.24874e-09 2.97229e-09 3.7283e-09 4.47117e-09 5.15435e-09 5.73474e-09 6.17625e-09 6.4521e-09 6.54588e-09 6.4521e-09 6.17625e-09 5.73474e-09 5.15435e-09 4.47117e-09 3.7283e-09 2.97229e-09 2.24874e-09 1.5972e-09 1.04679e-09 6.1333e-10 2.98558e-10 9.1887e-11 -2.60145e-11 -7.86292e-11 -8.91555e-11 -7.71615e-11 -5.68323e-11 -3.67914e-11 -2.10548e-11 -1.0511e-11 -4.38163e-12 -1.32427e-12 -8.03571e-14 2.62202e-13 2.49488e-13 1.51071e-13 6.88631e-14 2.29021e-14 3.94358e-15 -1.22793e-15 -1.43038e-15 -6.92157e-16 -1.99181e-16 -1.75343e-17 1.55225e-17 9.52112e-18 2.64261e-18 1.55462e-19 -1.9442e-19 -8.91103e-20 -1.53789e-20 2.13402e-21 1.92405e-21 4.37334e-22 -1.00919e-23 -3.32486e-23 -8.27922e-24 -2.69698e-27 5.07497e-25 1.19287e-25 -2.02724e-27 -6.96436e-27 -1.33e-27 9.14278e-29 8.28245e-29 1.0782e-29 -1.91785e-30 -8.04736e-31 -4.82026e-32 2.61295e-32 5.91012e-33 -1.67973e-34 -2.5005e-34 -2.7763e-35 5.40366e-36 1.66485e-36 1.93631e-38 -5.33059e-38 -6.77055e-39 9.36062e-40 3.10865e-40 4.28974e-42 -8.86268e-42 -1.17149e-42 -8.40728e-45 0 0 0 0 0 0 0 0 0 0 0 0 0 0 0 0 0 0 0 0 0 0 0 
0 0 0 0 0 0 0 0 0 0 0 0 0 0 0 0 0 0 0 0 0 0 0 -4.06278e-44 -1.99112e-42 -1.11754e-41 2.49109e-41 4.62374e-40 7.55317e-40 -1.24867e-38 -6.77137e-38 1.49937e-37 2.58219e-36 4.77442e-36 -5.70957e-35 -3.3959e-34 3.20473e-34 1.01561e-32 2.91128e-32 -1.45833e-31 -1.24863e-30 -1.25145e-30 2.37305e-29 1.17658e-28 -5.78002e-29 -2.65318e-27 -9.09736e-27 1.5805e-26 2.31072e-25 6.25245e-25 -1.51864e-24 -1.64318e-23 -4.14581e-23 8.52949e-23 9.54401e-22 2.6752e-21 -1.94076e-21 -4.23867e-20 -1.50663e-19 -1.2692e-19 1.14919e-18 6.11778e-18 1.39912e-17 4.69829e-19 -1.23044e-16 -5.1695e-16 -1.17645e-15 -1.0352e-15 3.91588e-15 2.27115e-14 6.79633e-14 1.42277e-13 1.9892e-13 6.25134e-14 -6.92748e-13 -2.87439e-12 -7.7088e-12 -1.65751e-11 -3.01189e-11 -4.64061e-11 -5.79542e-11 -4.79459e-11 1.33713e-11 1.70421e-10 4.8027e-10 1.0055e-09 1.80216e-09 2.90481e-09 4.31263e-09 5.98102e-09 7.82216e-09 9.71601e-09 1.15299e-08 1.31421e-08 1.44638e-08 1.54532e-08 1.61197e-08 1.65148e-08 1.67142e-08 1.67953e-08 1.68154e-08 1.67953e-08 1.67142e-08 1.65148e-08 1.61197e-08 1.54532e-08 1.44638e-08 1.31421e-08 1.15299e-08 9.71601e-09 7.82216e-09 5.98102e-09 4.31263e-09 2.90481e-09 1.80216e-09 1.0055e-09 4.8027e-10 1.70421e-10 1.33713e-11 -4.79459e-11 -5.79542e-11 -4.64061e-11 -3.01189e-11 -1.65751e-11 -7.7088e-12 -2.87439e-12 -6.92748e-13 6.25134e-14 1.9892e-13 1.42277e-13 6.79633e-14 2.27115e-14 3.91588e-15 -1.0352e-15 -1.17645e-15 -5.1695e-16 -1.23044e-16 4.69829e-19 1.39912e-17 6.11778e-18 1.14919e-18 -1.2692e-19 -1.50663e-19 -4.23867e-20 -1.94076e-21 2.6752e-21 9.54401e-22 8.52949e-23 -4.14581e-23 -1.64318e-23 -1.51864e-24 6.25245e-25 2.31072e-25 1.5805e-26 -9.09736e-27 -2.65318e-27 -5.78002e-29 1.17658e-28 2.37305e-29 -1.25145e-30 -1.24863e-30 -1.45833e-31 2.91128e-32 1.01561e-32 3.20473e-34 -3.3959e-34 -5.70957e-35 4.77442e-36 2.58219e-36 1.49937e-37 -6.77137e-38 -1.24867e-38 7.55153e-40 4.59984e-40 2.46922e-41 -1.11235e-41 -1.97291e-42 -4.06278e-44 0 0 0 0 0 0 0 0 0 0 0 0 0 0 0 0 0 0 0 0 0 0 
0 0 0 0 0 0 0 0 0 0 0 0 0 0 0 0 0 0 0 0 0 0 -1.17645e-43 -3.09192e-42 -1.27524e-41 6.01647e-41 6.42221e-40 1.60119e-40 -2.0661e-38 -7.69226e-38 3.80523e-37 3.69618e-36 1.72432e-36 -1.01375e-34 -4.12427e-34 1.30512e-33 1.57952e-32 2.37368e-32 -3.12475e-31 -1.74008e-30 9.6923e-31 4.38691e-29 1.4374e-28 -4.06421e-28 -4.56986e-27 -9.30316e-27 5.36859e-26 3.84861e-25 5.2451e-25 -4.70982e-24 -2.75158e-23 -3.27172e-23 2.99813e-22 1.6969e-21 2.54234e-21 -1.30583e-20 -8.67874e-20 -1.9151e-19 2.52454e-19 3.22933e-18 1.06482e-17 1.102e-17 -5.79206e-17 -3.4316e-16 -9.27759e-16 -1.05533e-15 2.7562e-15 1.90294e-14 5.96051e-14 1.22534e-13 1.41111e-13 -1.18281e-13 -1.20247e-12 -4.08658e-12 -1.00489e-11 -1.98943e-11 -3.19041e-11 -3.7846e-11 -1.67995e-11 7.22808e-11 2.96472e-10 7.48512e-10 1.53464e-09 2.74682e-09 4.42039e-09 6.48502e-09 8.7232e-09 1.07536e-08 1.20532e-08 1.20232e-08 1.00906e-08 5.82758e-09 -9.39469e-10 -1.00557e-08 -2.10169e-08 -3.30078e-08 -4.49942e-08 -5.58517e-08 -6.45103e-08 -7.00912e-08 -7.20183e-08 -7.00912e-08 -6.45103e-08 -5.58517e-08 -4.49942e-08 -3.30078e-08 -2.10169e-08 -1.00557e-08 -9.39469e-10 5.82758e-09 1.00906e-08 1.20232e-08 1.20532e-08 1.07536e-08 8.7232e-09 6.48502e-09 4.42039e-09 2.74682e-09 1.53464e-09 7.48512e-10 2.96472e-10 7.22808e-11 -1.67995e-11 -3.7846e-11 -3.19041e-11 -1.98943e-11 -1.00489e-11 -4.08658e-12 -1.20247e-12 -1.18281e-13 1.41111e-13 1.22534e-13 5.96051e-14 1.90294e-14 2.7562e-15 -1.05533e-15 -9.27759e-16 -3.4316e-16 -5.79206e-17 1.102e-17 1.06482e-17 3.22933e-18 2.52454e-19 -1.9151e-19 -8.67874e-20 -1.30583e-20 2.54234e-21 1.6969e-21 2.99813e-22 -3.27172e-23 -2.75158e-23 -4.70982e-24 5.2451e-25 3.84861e-25 5.36859e-26 -9.30316e-27 -4.56986e-27 -4.06421e-28 1.4374e-28 4.38691e-29 9.6923e-31 -1.74008e-30 -3.12475e-31 2.37368e-32 1.57952e-32 1.30512e-33 -4.12427e-34 -1.01375e-34 1.72433e-36 3.69618e-36 3.80523e-37 -7.6923e-38 -2.06646e-38 1.5234e-40 6.37718e-40 5.9764e-41 -1.26824e-41 -3.0597e-42 -1.17645e-43 0 0 0 0 0 0 0 0 0 0 0 0 0 0 0 0 0 0 0 0 0 
0 0 0 0 0 0 0 0 0 0 0 0 0 0 0 0 0 0 0 0 0 -2.70189e-43 -4.54474e-42 -1.27207e-41 1.14736e-40 8.31893e-40 -1.09542e-39 -3.1522e-38 -7.31497e-38 7.47502e-37 4.88099e-36 -5.40015e-36 -1.62782e-34 -4.25544e-34 3.01459e-33 2.24348e-32 1.96166e-33 -5.68218e-31 -2.13981e-30 5.81544e-30 7.18588e-29 1.37196e-28 -1.06529e-27 -6.96928e-27 -4.64184e-27 1.21123e-25 5.57573e-25 -8.26994e-26 -1.03126e-23 -3.91416e-23 1.63852e-23 6.89962e-22 2.50887e-21 -5.33084e-23 -3.55475e-20 -1.43689e-19 -1.28821e-19 1.23709e-18 6.6009e-18 1.35013e-17 -1.3845e-17 -1.92991e-16 -6.72563e-16 -1.07367e-15 1.21354e-15 1.36155e-14 4.75074e-14 1.0087e-13 1.01506e-13 -2.09924e-13 -1.4376e-12 -4.59639e-12 -1.07337e-11 -1.94261e-11 -2.51319e-11 -1.03602e-11 6.44431e-11 2.71763e-10 7.21574e-10 1.54741e-09 2.85926e-09 4.65276e-09 6.67819e-09 8.2938e-09 8.35004e-09 5.16168e-09 -3.38475e-09 -1.95719e-08 -4.54703e-08 -8.2511e-08 -1.31108e-07 -1.90425e-07 -2.58353e-07 -3.31689e-07 -4.06495e-07 -4.78525e-07 -5.43657e-07 -5.98249e-07 -6.3936e-07 -6.64872e-07 -6.73514e-07 -6.64872e-07 -6.3936e-07 -5.98249e-07 -5.43657e-07 -4.78525e-07 -4.06495e-07 -3.31689e-07 -2.58353e-07 -1.90425e-07 -1.31108e-07 -8.2511e-08 -4.54703e-08 -1.95719e-08 -3.38475e-09 5.16168e-09 8.35004e-09 8.2938e-09 6.67819e-09 4.65276e-09 2.85926e-09 1.54741e-09 7.21574e-10 2.71763e-10 6.44431e-11 -1.03602e-11 -2.51319e-11 -1.94261e-11 -1.07337e-11 -4.59639e-12 -1.4376e-12 -2.09924e-13 1.01506e-13 1.0087e-13 4.75074e-14 1.36155e-14 1.21354e-15 -1.07367e-15 -6.72563e-16 -1.92991e-16 -1.3845e-17 1.35013e-17 6.6009e-18 1.23709e-18 -1.28821e-19 -1.43689e-19 -3.55475e-20 -5.33084e-23 2.50887e-21 6.89962e-22 1.63852e-23 -3.91416e-23 -1.03126e-23 -8.26994e-26 5.57573e-25 1.21123e-25 -4.64184e-27 -6.96928e-27 -1.06529e-27 1.37196e-28 7.18588e-29 5.81544e-30 -2.13981e-30 -5.68218e-31 1.96166e-33 2.24348e-32 3.01459e-33 -4.25544e-34 -1.62782e-34 -5.40014e-36 4.88098e-36 7.47498e-37 -7.31423e-38 -3.13642e-38 -1.08872e-39 8.27042e-40 1.14017e-40 -1.26647e-41 -4.50132e-42 -2.70189e-43 0 0 0 0 0 0 0 0 0 0 0 0 0 0 0 0 0 0 0 0 
0 0 0 0 0 0 0 0 0 0 0 0 0 0 0 0 0 0 0 -0 -4.99507e-43 -6.28154e-42 -9.63849e-42 1.92621e-40 9.93511e-40 -3.31715e-39 -4.48642e-38 -4.48103e-38 1.28602e-36 5.87428e-36 -1.87259e-35 -2.4079e-34 -3.10344e-34 5.69095e-33 2.89526e-32 -4.74913e-32 -9.24725e-31 -2.18417e-30 1.46209e-29 1.06102e-28 5.83127e-29 -2.15265e-27 -9.38619e-27 9.45012e-27 2.26229e-25 6.84559e-25 -1.6278e-24 -1.88087e-23 -4.49953e-23 1.41025e-22 1.29001e-21 2.92978e-21 -7.62598e-21 -7.28048e-20 -1.89403e-19 1.8879e-19 3.15203e-18 1.06643e-17 7.93504e-18 -8.29589e-17 -4.25896e-16 -9.61323e-16 -7.09879e-17 8.09787e-15 3.43974e-14 8.068e-14 8.48009e-14 -2.01638e-13 -1.37643e-12 -4.40329e-12 -9.97586e-12 -1.62564e-11 -1.35713e-11 2.52246e-11 1.58126e-10 4.85258e-10 1.14262e-09 2.25107e-09 3.78624e-09 5.34455e-09 5.8148e-09 3.02516e-09 -6.50144e-09 -2.75128e-08 -6.55723e-08 -1.26145e-07 -2.13349e-07 -3.28644e-07 -4.69845e-07 -6.30798e-07 -8.01916e-07 -9.71554e-07 -1.12793e-06 -1.2612e-06 -1.36509e-06 -1.43787e-06 -1.48225e-06 -1.50439e-06 -1.51217e-06 -1.51318e-06 -1.51286e-06 -1.51318e-06 -1.51217e-06 -1.50439e-06 -1.48225e-06 -1.43787e-06 -1.36509e-06 -1.2612e-06 -1.12793e-06 -9.71554e-07 -8.01916e-07 -6.30798e-07 -4.69845e-07 -3.28644e-07 -2.13349e-07 -1.26145e-07 -6.55723e-08 -2.75128e-08 -6.50144e-09 3.02516e-09 5.8148e-09 5.34455e-09 3.78624e-09 2.25107e-09 1.14262e-09 4.85258e-10 1.58126e-10 2.52246e-11 -1.35713e-11 -1.62564e-11 -9.97586e-12 -4.40329e-12 -1.37643e-12 -2.01638e-13 8.48009e-14 8.068e-14 3.43974e-14 8.09787e-15 -7.09879e-17 -9.61323e-16 -4.25896e-16 -8.29589e-17 7.93504e-18 1.06643e-17 3.15203e-18 1.8879e-19 -1.89403e-19 -7.28048e-20 -7.62598e-21 2.92978e-21 1.29001e-21 1.41025e-22 -4.49953e-23 -1.88087e-23 -1.6278e-24 6.84559e-25 2.26229e-25 9.45012e-27 -9.38619e-27 -2.15265e-27 5.83127e-29 1.06102e-28 1.46209e-29 -2.18417e-30 -9.24725e-31 -4.74912e-32 2.89526e-32 5.69095e-33 -3.10345e-34 -2.40791e-34 -1.8726e-35 5.87429e-36 1.28626e-36 -4.41264e-38 -4.45541e-38 -3.29321e-39 9.88015e-40 1.91371e-40 -9.6749e-42 -6.26194e-42 -4.92512e-43 -0 0 0 0 0 0 0 0 0 0 0 0 0 0 0 0 0 0 0 
0 0 0 0 0 0 0 0 0 0 0 0 0 0 0 0 0 0 -0 -8.51534e-43 -8.04949e-42 -1.76113e-42 2.95297e-40 1.06321e-39 -6.85106e-39 -5.97564e-38 2.39879e-38 2.0211e-36 6.22508e-36 -4.07425e-35 -3.29952e-34 3.22612e-35 9.53678e-33 3.31326e-32 -1.38947e-31 -1.37349e-30 -1.44375e-30 2.88143e-29 1.40913e-28 -1.51419e-28 -3.75854e-27 -1.07786e-26 3.92076e-26 3.7062e-25 6.37047e-25 -4.66723e-24 -2.98595e-23 -3.27986e-23 3.85561e-22 2.06116e-21 2.02109e-21 -2.34724e-20 -1.23615e-19 -1.67628e-19 9.84328e-19 6.15677e-18 1.30784e-17 -1.83073e-17 -2.20975e-16 -7.20726e-16 -7.75363e-16 3.62213e-15 2.20902e-14 6.15706e-14 8.04833e-14 -1.28536e-13 -1.10789e-12 -3.74e-12 -8.45773e-12 -1.24268e-11 -2.96176e-12 5.41109e-11 2.29153e-10 6.35384e-10 1.39899e-09 2.54082e-09 3.70231e-09 3.66596e-09 -2.98485e-10 -1.30833e-08 -4.2032e-08 -9.64005e-08 -1.85593e-07 -3.1608e-07 -4.87421e-07 -6.88369e-07 -8.94352e-07 -1.0676e-06 -1.16064e-06 -1.12306e-06 -9.10293e-07 -4.93009e-07 1.35303e-07 9.53959e-07 1.91503e-06 2.94759e-06 3.96568e-06 4.87843e-06 5.60096e-06 6.06443e-06 6.22409e-06 6.06443e-06 5.60096e-06 4.87843e-06 3.96568e-06 2.94759e-06 1.91503e-06 9.53959e-07 1.35303e-07 -4.93009e-07 -9.10293e-07 -1.12306e-06 -1.16064e-06 -1.0676e-06 -8.94352e-07 -6.88369e-07 -4.87421e-07 -3.1608e-07 -1.85593e-07 -9.64005e-08 -4.2032e-08 -1.30833e-08 -2.98485e-10 3.66596e-09 3.70231e-09 2.54082e-09 1.39899e-09 6.35384e-10 2.29153e-10 5.41109e-11 -2.96176e-12 -1.24268e-11 -8.45773e-12 -3.74e-12 -1.10789e-12 -1.28536e-13 8.04833e-14 6.15706e-14 2.20902e-14 3.62213e-15 -7.75363e-16 -7.20726e-16 -2.20975e-16 -1.83073e-17 1.30784e-17 6.15677e-18 9.84328e-19 -1.67628e-19 -1.23615e-19 -2.34724e-20 2.02109e-21 2.06116e-21 3.85561e-22 -3.27986e-23 -2.98595e-23 -4.66723e-24 6.37047e-25 3.7062e-25 3.92076e-26 -1.07786e-26 -3.75854e-27 -1.51419e-28 1.40913e-28 2.88143e-29 -1.44375e-30 -1.37349e-30 -1.38947e-31 3.31325e-32 9.53678e-33 3.22596e-35 -3.29952e-34 -4.07423e-35 6.22484e-36 2.01146e-36 2.38846e-38 -5.93999e-38 -6.8089e-39 1.05719e-39 2.93563e-40 -1.72333e-42 -8.01031e-42 -8.51534e-43 -0 0 0 0 0 0 0 0 0 0 0 0 0 0 0 0 0 0 
0 0 0 0 0 0 0 0 0 0 0 0 0 0 0 0 0 -8.3753e-45 -1.28398e-42 -9.71644e-42 1.27899e-41 4.20127e-40 9.4913e-40 -1.20112e-38 -7.40656e-38 1.53491e-37 2.95456e-36 5.24297e-36 -7.40319e-35 -4.17097e-34 7.33576e-34 1.46298e-32 3.12749e-32 -2.88641e-31 -1.86946e-30 7.08393e-31 4.95738e-29 1.64239e-28 -5.69157e-28 -5.88373e-27 -9.28063e-27 9.20375e-26 5.41376e-25 2.00142e-25 -9.79281e-24 -4.14445e-23 1.74665e-23 7.93516e-22 2.8133e-21 -1.78313e-21 -5.08909e-20 -1.76086e-19 2.41333e-20 2.51431e-18 9.86291e-18 8.60854e-18 -8.27587e-17 -4.38058e-16 -9.10751e-16 7.3535e-16 1.19481e-14 4.30399e-14 7.54917e-14 -3.93954e-14 -7.54001e-13 -2.86988e-12 -6.77035e-12 -9.41839e-12 2.85607e-12 6.68878e-11 2.56668e-10 6.81286e-10 1.42208e-09 2.32545e-09 2.53891e-09 -2.88769e-10 -1.10574e-08 -3.80949e-08 -9.30102e-08 -1.88344e-07 -3.3196e-07 -5.17931e-07 -7.15128e-07 -8.56413e-07 -8.32519e-07 -4.94597e-07 3.32241e-07 1.8249e-06 4.13176e-06 7.3416e-06 1.14594e-05 1.63944e-05 2.19626e-05 2.79043e-05 3.39113e-05 3.96577e-05 4.48307e-05 4.9154e-05 5.24041e-05 5.4419e-05 5.51013e-05 5.4419e-05 5.24041e-05 4.9154e-05 4.48307e-05 3.96577e-05 3.39113e-05 2.79043e-05 2.19626e-05 1.63944e-05 1.14594e-05 7.3416e-06 4.13176e-06 1.8249e-06 3.32241e-07 -4.94597e-07 -8.32519e-07 -8.56413e-07 -7.15128e-07 -5.17931e-07 -3.3196e-07 -1.88344e-07 -9.30102e-08 -3.80949e-08 -1.10574e-08 -2.88769e-10 2.53891e-09 2.32545e-09 1.42208e-09 6.81286e-10 2.56668e-10 6.68878e-11 2.85607e-12 -9.41839e-12 -6.77035e-12 -2.86988e-12 -7.54001e-13 -3.93954e-14 7.54917e-14 4.30399e-14 1.19481e-14 7.3535e-16 -9.10751e-16 -4.38058e-16 -8.27587e-17 8.60854e-18 9.86291e-18 2.51431e-18 2.41333e-20 -1.76086e-19 -5.08909e-20 -1.78313e-21 2.8133e-21 7.93516e-22 1.74665e-23 -4.14445e-23 -9.79281e-24 2.00142e-25 5.41376e-25 9.20375e-26 -9.28063e-27 -5.88373e-27 -5.69157e-28 1.64239e-28 4.95738e-29 7.08392e-31 -1.86946e-30 -2.88641e-31 3.12749e-32 1.46298e-32 7.33578e-34 -4.17099e-34 -7.40485e-35 5.1877e-36 2.93411e-36 1.5229e-37 -7.36443e-38 -1.19388e-38 9.44233e-40 4.17809e-40 1.272e-41 -9.65771e-42 -1.28398e-42 -8.3753e-45 0 0 0 0 0 0 0 0 0 0 0 0 0 0 0 0 
0 0 0 0 0 0 0 0 0 0 0 0 0 0 0 0 -2.92834e-44 -1.87328e-42 -1.08614e-41 3.51926e-41 5.57954e-40 5.37063e-40 -1.89699e-38 -8.39486e-38 3.67371e-37 4.04758e-36 1.9589e-36 -1.2079e-34 -4.78134e-34 1.95315e-33 2.08008e-32 1.78492e-32 -5.12227e-31 -2.31052e-30 5.10328e-30 7.72555e-29 1.55172e-28 -1.28497e-27 -8.34984e-27 -1.98465e-27 1.75146e-25 7.0001e-25 -9.40485e-25 -1.74343e-23 -4.87325e-23 1.34098e-22 1.38646e-21 3.1035e-21 -1.07064e-20 -9.14216e-20 -1.99418e-19 5.40479e-19 4.95859e-18 1.27499e-17 -1.18156e-17 -2.03968e-16 -6.9747e-16 -6.0716e-16 4.84526e-15 2.61903e-14 6.31435e-14 2.85695e-14 -4.17387e-13 -1.98442e-12 -5.17959e-12 -7.54435e-12 3.48088e-12 6.30881e-11 2.41539e-10 6.33052e-10 1.26087e-09 1.78275e-09 8.36968e-10 -5.07607e-09 -2.29824e-08 -6.42355e-08 -1.42917e-07 -2.69213e-07 -4.35272e-07 -5.92882e-07 -6.26045e-07 -3.26219e-07 6.18452e-07 2.60849e-06 6.08644e-06 1.14609e-05 1.90146e-05 2.88181e-05 4.06738e-05 5.4108e-05 6.84201e-05 8.27794e-05 9.63504e-05 0.000108421 0.000118501 0.000126378 0.000132105 0.00013595 0.000138292 0.00013951 0.000139883 0.00013951 0.000138292 0.00013595 0.000132105 0.000126378 0.000118501 0.000108421 9.63504e-05 8.27794e-05 6.84201e-05 5.4108e-05 4.06738e-05 2.88181e-05 1.90146e-05 1.14609e-05 6.08644e-06 2.60849e-06 6.18452e-07 -3.26219e-07 -6.26045e-07 -5.92882e-07 -4.35272e-07 -2.69213e-07 -1.42917e-07 -6.42355e-08 -2.29824e-08 -5.07607e-09 8.36968e-10 1.78275e-09 1.26087e-09 6.33052e-10 2.41539e-10 6.30881e-11 3.48088e-12 -7.54435e-12 -5.17959e-12 -1.98442e-12 -4.17387e-13 2.85695e-14 6.31435e-14 2.61903e-14 4.84526e-15 -6.0716e-16 -6.9747e-16 -2.03968e-16 -1.18156e-17 1.27499e-17 4.95859e-18 5.40479e-19 -1.99418e-19 -9.14216e-20 -1.07064e-20 3.1035e-21 1.38646e-21 1.34098e-22 -4.87325e-23 -1.74343e-23 -9.40485e-25 7.0001e-25 1.75146e-25 -1.98465e-27 -8.34984e-27 -1.28497e-27 1.55172e-28 7.72555e-29 5.10328e-30 -2.31052e-30 -5.12226e-31 1.78494e-32 2.08008e-32 1.95313e-33 -4.7814e-34 -1.20248e-34 1.94088e-36 4.02285e-36 3.65042e-37 -8.34695e-38 -1.8857e-38 5.34707e-40 5.54933e-40 3.51031e-41 -1.0793e-41 -1.83698e-42 -2.92834e-44 0 0 0 0 0 0 0 0 0 0 0 0 0 0 0 
0 0 0 0 0 0 0 0 0 0 0 0 0 0 0 -7.10352e-44 -2.49048e-42 -1.10414e-41 6.6489e-41 6.91669e-40 -2.97046e-40 -2.76333e-38 -8.37356e-38 6.88628e-37 5.19106e-36 -4.89004e-36 -1.82099e-34 -4.74778e-34 3.86628e-33 2.7476e-32 -1.47078e-32 -8.20527e-31 -2.51454e-30 1.27381e-29 1.10565e-28 8.17347e-29 -2.38764e-27 -1.06819e-26 1.51632e-26 2.92962e-25 7.69296e-25 -3.19131e-24 -2.7522e-23 -4.28332e-23 3.51592e-22 2.12884e-21 2.12825e-21 -2.74026e-20 -1.41827e-19 -1.34898e-19 1.5746e-18 8.20935e-18 1.14482e-17 -6.10263e-17 -3.90538e-16 -8.67123e-16 8.72411e-16 1.29537e-14 4.47163e-14 6.00173e-14 -1.61851e-13 -1.20421e-12 -3.73212e-12 -6.32461e-12 9.38738e-13 4.8457e-11 1.98616e-10 5.29728e-10 1.02122e-09 1.19978e-09 -6.51936e-10 -8.84329e-09 -3.18304e-08 -8.24872e-08 -1.73784e-07 -3.04796e-07 -4.31903e-07 -4.23778e-07 -7.34489e-09 1.27629e-06 4.07686e-06 9.1705e-06 1.73082e-05 2.89855e-05 4.41767e-05 6.21023e-05 8.11102e-05 9.87331e-05 0.000111947 0.000117603 0.000112962 9.62183e-05 6.6922e-05 2.61996e-05 -2.32664e-05 -7.74863e-05 -0.000131622 -0.000180552 -0.000219487 -0.000244542 -0.000253186 -0.000244542 -0.000219487 -0.000180552 -0.000131622 -7.74863e-05 -2.32664e-05 2.61996e-05 6.6922e-05 9.62183e-05 0.000112962 0.000117603 0.000111947 9.87331e-05 8.11102e-05 6.21023e-05 4.41767e-05 2.89855e-05 1.73082e-05 9.1705e-06 4.07686e-06 1.27629e-06 -7.34489e-09 -4.23778e-07 -4.31903e-07 -3.04796e-07 -1.73784e-07 -8.24872e-08 -3.18304e-08 -8.84329e-09 -6.51936e-10 1.19978e-09 1.02122e-09 5.29728e-10 1.98616e-10 4.8457e-11 9.38738e-13 -6.32461e-12 -3.73212e-12 -1.20421e-12 -1.61851e-13 6.00173e-14 4.47163e-14 1.29537e-14 8.72411e-16 -8.67123e-16 -3.90538e-16 -6.10263e-17 1.14482e-17 8.20935e-18 1.5746e-18 -1.34898e-19 -1.41827e-19 -2.74026e-20 2.12825e-21 2.12884e-21 3.51592e-22 -4.28332e-23 -2.7522e-23 -3.19131e-24 7.69296e-25 2.92962e-25 1.51632e-26 -1.06819e-26 -2.38764e-27 8.1735e-29 1.10565e-28 1.2738e-29 -2.51454e-30 -8.20527e-31 -1.47077e-32 2.7476e-32 3.86731e-33 -4.70691e-34 -1.80837e-34 -4.84342e-36 5.16101e-36 6.84412e-37 -8.32809e-38 -2.74738e-38 -2.94273e-40 6.88003e-40 6.6116e-41 -1.09409e-41 -2.46538e-42 -7.10352e-44 0 0 0 0 0 0 0 0 0 0 0 0 0 0 
0 0 0 0 0 0 0 0 0 0 0 0 0 0 -1.4189e-43 -3.14783e-42 -9.82807e-42 1.05823e-40 7.97541e-40 -1.66127e-39 -3.75062e-38 -6.6154e-38 1.13279e-36 6.17153e-36 -1.68309e-35 -2.56946e-34 -3.51787e-34 6.64019e-33 3.34918e-32 -7.592e-32 -1.21328e-30 -2.19725e-30 2.46715e-29 1.45487e-28 -1.0035e-28 -3.93939e-27 -1.1973e-26 4.72368e-26 4.43126e-25 6.19975e-25 -7.00793e-24 -3.89957e-23 -9.72809e-24 7.04269e-22 2.87828e-21 -1.35629e-21 -5.43068e-20 -1.89768e-19 1.10794e-19 3.31045e-18 1.15469e-17 9.59015e-20 -1.53363e-16 -6.21331e-16 -6.6322e-16 4.48545e-15 2.57581e-14 5.94214e-14 -9.81149e-15 -6.0324e-13 -2.44465e-12 -5.17833e-12 -2.20798e-12 3.02617e-11 1.45029e-10 4.09424e-10 7.89437e-10 7.80192e-10 -1.43771e-09 -1.04385e-08 -3.50802e-08 -8.79245e-08 -1.77366e-07 -2.83971e-07 -3.11851e-07 -1.2616e-08 1.10292e-06 3.82303e-06 9.19519e-06 1.83122e-05 3.18772e-05 4.95689e-05 6.93225e-05 8.67241e-05 9.47589e-05 8.40978e-05 4.40072e-05 -3.62078e-05 -0.000165463 -0.000349194 -0.000588036 -0.000877147 -0.00120628 -0.00156062 -0.0019221 -0.00227109 -0.00258805 -0.00285511 -0.00305725 -0.00318318 -0.00322594 -0.00318318 -0.00305725 -0.00285511 -0.00258805 -0.00227109 -0.0019221 -0.00156062 -0.00120628 -0.000877147 -0.000588036 -0.000349194 -0.000165463 -3.62078e-05 4.40072e-05 8.40978e-05 9.47589e-05 8.67241e-05 6.93225e-05 4.95689e-05 3.18772e-05 1.83122e-05 9.19519e-06 3.82303e-06 1.10292e-06 -1.2616e-08 -3.11851e-07 -2.83971e-07 -1.77366e-07 -8.79245e-08 -3.50802e-08 -1.04385e-08 -1.43771e-09 7.80192e-10 7.89437e-10 4.09424e-10 1.45029e-10 3.02617e-11 -2.20798e-12 -5.17833e-12 -2.44465e-12 -6.0324e-13 -9.81149e-15 5.94214e-14 2.57581e-14 4.48545e-15 -6.6322e-16 -6.21331e-16 -1.53363e-16 9.59015e-20 1.15469e-17 3.31045e-18 1.10794e-19 -1.89768e-19 -5.43068e-20 -1.35629e-21 2.87828e-21 7.04269e-22 -9.72809e-24 -3.89957e-23 -7.00793e-24 6.19975e-25 4.43126e-25 4.72368e-26 -1.1973e-26 -3.93938e-27 -1.0035e-28 1.45487e-28 2.46715e-29 -2.19725e-30 -1.21328e-30 -7.59191e-32 3.34934e-32 6.61287e-33 -3.49044e-34 -2.55341e-34 -1.67193e-35 6.13584e-36 1.12596e-36 -6.58322e-38 -3.72974e-38 -1.65113e-39 7.93513e-40 1.05357e-40 -9.73185e-42 -3.12833e-42 -1.33543e-43 0 0 0 0 0 0 0 0 0 0 0 0 0 
0 0 0 0 0 0 0 0 0 0 0 0 0 -2.09761e-43 -3.66966e-42 -6.87787e-42 1.51108e-40 8.46746e-40 -3.61532e-39 -4.75983e-38 -2.30968e-38 1.70009e-36 6.65971e-36 -3.54381e-35 -3.40495e-34 -3.53639e-35 1.03966e-32 3.68986e-32 -1.76775e-31 -1.67087e-30 -9.55797e-31 4.18321e-29 1.74035e-28 -4.46974e-28 -5.93753e-27 -1.07496e-26 9.98394e-26 6.10985e-25 6.08228e-26 -1.28005e-23 -4.91767e-23 7.01435e-23 1.21396e-21 3.32491e-21 -9.03316e-21 -9.2406e-20 -2.08565e-19 6.65073e-19 5.82587e-18 1.32261e-17 -2.98588e-17 -2.98917e-16 -8.1686e-16 3.93112e-16 1.12575e-14 4.17325e-14 5.14353e-14 -2.12069e-13 -1.3834e-12 -3.85728e-12 -4.20587e-12 1.41378e-11 9.35216e-11 2.9492e-10 5.99463e-10 5.66845e-10 -1.47547e-09 -9.83684e-09 -3.28549e-08 -8.1514e-08 -1.583e-07 -2.23926e-07 -1.27589e-07 5.0326e-07 2.38553e-06 6.6322e-06 1.45896e-05 2.72891e-05 4.43953e-05 6.26906e-05 7.43695e-05 6.56593e-05 1.63822e-05 -9.89995e-05 -0.000308652 -0.000639223 -0.00111101 -0.00173346 -0.00250215 -0.00339778 -0.00438786 -0.00543025 -0.00647825 -0.00748603 -0.00841316 -0.00922794 -0.00990847 -0.0104422 -0.0108237 -0.011052 -0.011128 -0.011052 -0.0108237 -0.0104422 -0.00990847 -0.00922794 -0.00841316 -0.00748603 -0.00647825 -0.00543025 -0.00438786 -0.00339778 -0.00250215 -0.00173346 -0.00111101 -0.000639223 -0.000308652 -9.89995e-05 1.63822e-05 6.56593e-05 7.43695e-05 6.26906e-05 4.43953e-05 2.72891e-05 1.45896e-05 6.6322e-06 2.38553e-06 5.0326e-07 -1.27589e-07 -2.23926e-07 -1.583e-07 -8.1514e-08 -3.28549e-08 -9.83684e-09 -1.47547e-09 5.66845e-10 5.99463e-10 2.9492e-10 9.35216e-11 1.41378e-11 -4.20587e-12 -3.85728e-12 -1.3834e-12 -2.12069e-13 5.14353e-14 4.17325e-14 1.12575e-14 3.93112e-16 -8.1686e-16 -2.98917e-16 -2.98588e-17 1.32261e-17 5.82587e-18 6.65073e-19 -2.08565e-19 -9.2406e-20 -9.03316e-21 3.32491e-21 1.21396e-21 7.01435e-23 -4.91767e-23 -1.28005e-23 6.08228e-26 6.10985e-25 9.98394e-26 -1.07496e-26 -5.93754e-27 -4.46975e-28 1.74035e-28 4.18321e-29 -9.55793e-31 -1.67087e-30 -1.76834e-31 3.66212e-32 1.03246e-32 -3.61068e-35 -3.3849e-34 -3.52166e-35 6.62274e-36 1.6902e-36 -2.30405e-38 -4.73441e-38 -3.59546e-39 8.42548e-40 1.50365e-40 -6.83052e-42 -3.64323e-42 -2.09761e-43 0 0 0 0 0 0 0 0 0 0 0 0 
0 0 0 0 0 0 0 0 0 0 0 -0 -3.13472e-43 -4.10909e-42 -2.25911e-42 1.9813e-40 8.10531e-40 -6.1368e-39 -5.64279e-38 5.28872e-38 2.36679e-36 6.21915e-36 -6.19358e-35 -4.21907e-34 5.66799e-34 1.51598e-32 3.47829e-32 -3.28646e-31 -2.14429e-30 1.73547e-30 6.4723e-29 1.82968e-28 -1.02196e-27 -8.26301e-27 -4.8703e-27 1.7811e-25 7.62899e-25 -1.163e-24 -2.07737e-23 -5.30725e-23 2.21017e-22 1.87066e-21 2.92944e-21 -2.28749e-20 -1.3934e-19 -1.5207e-19 1.67528e-18 8.93751e-18 1.00534e-17 -8.88754e-17 -4.93207e-16 -8.05812e-16 2.97062e-15 2.17802e-14 5.49316e-14 -1.23176e-14 -6.2319e-13 -2.47639e-12 -4.52689e-12 3.03486e-12 5.1461e-11 1.95893e-10 4.46684e-10 4.88474e-10 -1.03449e-09 -7.80258e-09 -2.70739e-08 -6.79254e-08 -1.28307e-07 -1.55172e-07 4.2258e-08 9.32706e-07 3.41242e-06 8.82137e-06 1.85591e-05 3.29571e-05 4.91426e-05 5.79481e-05 4.0462e-05 -3.4595e-05 -0.000211135 -0.000542248 -0.00108248 -0.00187661 -0.00294703 -0.00428273 -0.00583318 -0.00750914 -0.00919153 -0.0107466 -0.0120457 -0.0129852 -0.0135026 -0.0135873 -0.0132828 -0.0126804 -0.0119062 -0.0111029 -0.0104097 -0.00994241 -0.00977776 -0.00994241 -0.0104097 -0.0111029 -0.0119062 -0.0126804 -0.0132828 -0.0135873 -0.0135026 -0.0129852 -0.0120457 -0.0107466 -0.00919153 -0.00750914 -0.00583318 -0.00428273 -0.00294703 -0.00187661 -0.00108248 -0.000542248 -0.000211135 -3.4595e-05 4.0462e-05 5.79481e-05 4.91426e-05 3.29571e-05 1.85591e-05 8.82137e-06 3.41242e-06 9.32706e-07 4.2258e-08 -1.55172e-07 -1.28307e-07 -6.79254e-08 -2.70739e-08 -7.80258e-09 -1.03449e-09 4.88474e-10 4.46684e-10 1.95893e-10 5.1461e-11 3.03486e-12 -4.52689e-12 -2.47639e-12 -6.2319e-13 -1.23176e-14 5.49316e-14 2.17802e-14 2.97062e-15 -8.05812e-16 -4.93207e-16 -8.88754e-17 1.00534e-17 8.93751e-18 1.67528e-18 -1.5207e-19 -1.3934e-19 -2.28749e-20 2.92944e-21 1.87066e-21 2.21017e-22 -5.30725e-23 -2.07737e-23 -1.163e-24 7.62899e-25 1.7811e-25 -4.8703e-27 -8.26302e-27 -1.02196e-27 1.82968e-28 6.4723e-29 1.73539e-30 -2.14447e-30 -3.27463e-31 3.45219e-32 1.50629e-32 5.62633e-34 -4.1944e-34 -6.15575e-35 6.1871e-36 2.3536e-36 5.25251e-38 -5.614e-38 -6.10552e-39 8.06692e-40 1.97242e-40 -2.21599e-42 -4.10909e-42 -3.13472e-43 -0 0 0 0 0 0 0 0 0 0 0 
0 0 0 0 0 0 0 0 0 0 -0 -4.01586e-43 -4.25545e-42 4.09381e-42 2.41779e-40 6.66566e-40 -9.09669e-39 -6.21666e-38 1.66552e-37 3.07857e-36 4.34689e-36 -9.67322e-35 -4.83401e-34 1.55518e-33 2.07625e-32 2.31394e-32 -5.41516e-31 -2.54424e-30 6.50961e-30 9.30185e-29 1.52697e-28 -1.88934e-27 -1.06181e-26 8.50319e-27 2.85125e-25 8.39081e-25 -3.35738e-24 -3.06955e-23 -4.27388e-23 4.68949e-22 2.60613e-21 8.76856e-22 -4.4772e-20 -1.86876e-19 4.86019e-20 3.27392e-18 1.1991e-17 -2.89759e-18 -1.86951e-16 -7.02118e-16 -2.96255e-16 7.82701e-15 3.53421e-14 5.24833e-14 -1.78956e-13 -1.29784e-12 -3.59491e-12 -2.59171e-12 2.19753e-11 1.16313e-10 3.17092e-10 4.48764e-10 -4.57297e-10 -5.28417e-09 -2.00054e-08 -5.21236e-08 -9.80103e-08 -1.01519e-07 1.40995e-07 1.1403e-06 3.88107e-06 9.78486e-06 2.0036e-05 3.36606e-05 4.38305e-05 3.24357e-05 -3.59263e-05 -0.000218034 -0.000590717 -0.00124084 -0.00224511 -0.00364145 -0.00539737 -0.00738339 -0.00936034 -0.0109869 -0.0118501 -0.0115148 -0.00958598 -0.00577138 6.48944e-05 0.00786738 0.0173781 0.0281505 0.0395847 0.0509812 0.0616013 0.0707325 0.0777494 0.0821655 0.0836727 0.0821655 0.0777494 0.0707325 0.0616013 0.0509812 0.0395847 0.0281505 0.0173781 0.00786738 6.48944e-05 -0.00577138 -0.00958598 -0.0115148 -0.0118501 -0.0109869 -0.00936034 -0.00738339 -0.00539737 -0.00364145 -0.00224511 -0.00124084 -0.000590717 -0.000218034 -3.59263e-05 3.24357e-05 4.38305e-05 3.36606e-05 2.0036e-05 9.78486e-06 3.88107e-06 1.1403e-06 1.40995e-07 -1.01519e-07 -9.80103e-08 -5.21236e-08 -2.00054e-08 -5.28417e-09 -4.57297e-10 4.48764e-10 3.17092e-10 1.16313e-10 2.19753e-11 -2.59171e-12 -3.59491e-12 -1.29784e-12 -1.78956e-13 5.24833e-14 3.53421e-14 7.82701e-15 -2.96255e-16 -7.02118e-16 -1.86951e-16 -2.89759e-18 1.1991e-17 3.27392e-18 4.86019e-20 -1.86876e-19 -4.4772e-20 8.76856e-22 2.60613e-21 4.68949e-22 -4.27388e-23 -3.06955e-23 -3.35739e-24 8.39081e-25 2.85125e-25 8.50319e-27 -1.06181e-26 -1.88934e-27 1.52697e-28 9.30185e-29 6.51276e-30 -2.52696e-30 -5.37781e-31 2.3046e-32 2.06382e-32 1.54512e-33 -4.8068e-34 -9.61663e-35 4.3273e-36 3.06221e-36 1.65632e-37 -6.18637e-38 -9.05352e-39 6.63532e-40 2.40755e-40 4.02157e-42 -4.25545e-42 -4.01586e-43 -0 0 0 0 0 0 0 0 0 0 
0 0 0 0 0 0 0 0 0 -0 -4.74147e-43 -4.21942e-42 1.13405e-41 2.76262e-40 4.06274e-40 -1.22548e-38 -6.29309e-38 3.17806e-37 3.74959e-36 5.57716e-37 -1.38887e-34 -5.00431e-34 3.01652e-33 2.67151e-32 -3.22328e-33 -8.21457e-31 -2.73058e-30 1.40645e-29 1.25065e-28 5.66631e-29 -3.10068e-27 -1.24586e-26 3.28109e-26 4.1965e-25 7.47181e-25 -6.84614e-24 -4.16004e-23 -6.89226e-24 8.36311e-22 3.26228e-21 -3.93114e-21 -7.58788e-20 -2.18013e-19 4.84048e-19 5.51783e-18 1.36205e-17 -3.22173e-17 -3.29134e-16 -8.43522e-16 1.13289e-15 1.55636e-14 4.87121e-14 1.25968e-14 -5.02242e-13 -2.20961e-12 -4.00865e-12 4.90512e-12 5.83005e-11 2.05178e-10 3.87178e-10 8.8799e-12 -2.99752e-09 -1.33202e-08 -3.73515e-08 -7.26593e-08 -7.03401e-08 1.57579e-07 1.10316e-06 3.73915e-06 9.43987e-06 1.90338e-05 3.00318e-05 3.10933e-05 -6.33114e-06 -0.000137219 -0.000448259 -0.001052 -0.00206242 -0.00354793 -0.00546501 -0.00758459 -0.00943067 -0.010253 -0.00905104 -0.0046558 0.00413862 0.0184129 0.0389589 0.0661418 0.0998124 0.13928 0.183347 0.230399 0.278525 0.325662 0.369737 0.408794 0.441102 0.465239 0.480153 0.485197 0.480153 0.465239 0.441102 0.408794 0.369737 0.325662 0.278525 0.230399 0.183347 0.13928 0.0998124 0.0661418 0.0389589 0.0184129 0.00413862 -0.0046558 -0.00905104 -0.010253 -0.00943067 -0.00758459 -0.00546501 -0.00354793 -0.00206242 -0.001052 -0.000448259 -0.000137219 -6.33114e-06 3.10933e-05 3.00318e-05 1.90338e-05 9.43987e-06 3.73915e-06 1.10316e-06 1.57579e-07 -7.03401e-08 -7.26593e-08 -3.73515e-08 -1.33202e-08 -2.99752e-09 8.8799e-12 3.87178e-10 2.05178e-10 5.83005e-11 4.90512e-12 -4.00865e-12 -2.20961e-12 -5.02242e-13 1.25968e-14 4.87121e-14 1.55636e-14 1.13289e-15 -8.43522e-16 -3.29134e-16 -3.22173e-17 1.36205e-17 5.51783e-18 4.84048e-19 -2.18013e-19 -7.58788e-20 -3.93114e-21 3.26228e-21 8.36311e-22 -6.89226e-24 -4.16004e-23 -6.84614e-24 7.47181e-25 4.1965e-25 3.28109e-26 -1.24586e-26 -3.10067e-27 5.66682e-29 1.2508e-28 1.40258e-29 -2.71042e-30 -8.16077e-31 -3.15564e-33 2.65573e-32 2.99775e-33 -4.97781e-34 -1.38116e-34 5.59263e-37 3.73069e-36 3.16226e-37 -6.26367e-38 -1.22003e-38 4.04353e-40 2.75057e-40 1.12226e-41 -4.21942e-42 -4.74147e-43 -0 0 0 0 0 0 0 0 0 
0 0 0 0 0 0 0 0 -0 -5.32588e-43 -3.84432e-42 1.90573e-41 2.96488e-40 3.80695e-41 -1.52851e-38 -5.71807e-38 5.00098e-37 4.27002e-36 -5.49649e-36 -1.85675e-34 -4.43622e-34 4.99766e-33 3.21364e-32 -5.02543e-32 -1.16582e-30 -2.50378e-30 2.50857e-29 1.57317e-28 -1.38435e-28 -4.67714e-27 -1.29309e-26 7.18281e-26 5.73307e-25 3.58296e-25 -1.19122e-23 -5.14512e-23 6.89927e-23 1.33323e-21 3.55843e-21 -1.28169e-20 -1.15651e-19 -2.04228e-19 1.25844e-18 8.29941e-18 1.15267e-17 -8.54834e-17 -5.08699e-16 -7.69156e-16 3.99983e-15 2.62018e-14 5.4743e-14 -9.56151e-14 -1.02431e-12 -3.16582e-12 -2.38158e-12 2.17567e-11 1.14893e-10 2.9281e-10 2.62312e-10 -1.30756e-09 -7.89185e-09 -2.50009e-08 -5.27976e-08 -5.59027e-08 1.17598e-07 8.92357e-07 3.147e-06 8.13241e-06 1.63736e-05 2.4232e-05 1.66404e-05 -4.43582e-05 -0.000232395 -0.000662758 -0.0014781 -0.00279846 -0.00462574 -0.00670655 -0.00837756 -0.00843529 -0.00508022 0.00402304 0.021554 0.0502289 0.0924288 0.14983 0.22311 0.311778 0.414163 0.527538 0.648375 0.772641 0.896135 1.01477 1.1248 1.22298 1.30664 1.37371 1.42263 1.45238 1.46236 1.45238 1.42263 1.37371 1.30664 1.22298 1.1248 1.01477 0.896135 0.772641 0.648375 0.527538 0.414163 0.311778 0.22311 0.14983 0.0924288 0.0502289 0.021554 0.00402304 -0.00508022 -0.00843529 -0.00837756 -0.00670655 -0.00462574 -0.00279846 -0.0014781 -0.000662758 -0.000232395 -4.43582e-05 1.66404e-05 2.4232e-05 1.63736e-05 8.13241e-06 3.147e-06 8.92357e-07 1.17598e-07 -5.59027e-08 -5.27976e-08 -2.50009e-08 -7.89185e-09 -1.30756e-09 2.62312e-10 2.9281e-10 1.14893e-10 2.17567e-11 -2.38158e-12 -3.16582e-12 -1.02431e-12 -9.56151e-14 5.4743e-14 2.62018e-14 3.99983e-15 -7.69156e-16 -5.08699e-16 -8.54834e-17 1.15267e-17 8.29941e-18 1.25844e-18 -2.04228e-19 -1.15651e-19 -1.28169e-20 3.55843e-21 1.33323e-21 6.89927e-23 -5.14512e-23 -1.19122e-23 3.58293e-25 5.73307e-25 7.18281e-26 -1.29309e-26 -4.67714e-27 -1.38583e-28 1.56335e-28 2.4914e-29 -2.49044e-30 -1.15872e-30 -4.99023e-32 3.19538e-32 4.96826e-33 -4.41444e-34 -1.84701e-34 -5.46569e-36 4.24961e-36 4.97814e-37 -5.6921e-38 -1.52212e-38 3.75416e-41 2.95311e-40 1.9031e-41 -3.82635e-42 -5.32588e-43 -0 0 0 0 0 0 0 0 
0 0 0 0 0 0 0 -0 -5.96246e-43 -3.20519e-42 2.63393e-41 2.99211e-40 -4.10799e-40 -1.78247e-38 -4.41244e-38 7.00023e-37 4.52245e-36 -1.38977e-35 -2.32455e-34 -2.83222e-34 7.47467e-33 3.57436e-32 -1.23536e-31 -1.55598e-30 -1.59472e-30 4.01347e-29 1.83765e-28 -4.71237e-28 -6.58663e-27 -1.08246e-26 1.29184e-25 7.27374e-25 -4.92475e-25 -1.87097e-23 -5.68024e-23 2.01834e-22 1.94594e-21 3.06405e-21 -2.71724e-20 -1.60606e-19 -1.03631e-19 2.47158e-18 1.12347e-17 2.34842e-18 -1.69732e-16 -6.98301e-16 -2.52719e-16 8.82621e-15 3.85857e-14 4.11533e-14 -3.08899e-13 -1.74432e-12 -3.7085e-12 3.28455e-12 5.166e-11 1.86828e-10 3.18797e-10 -2.86934e-10 -3.99774e-09 -1.53878e-08 -3.70794e-08 -4.84287e-08 5.83002e-08 6.13685e-07 2.35064e-06 6.36616e-06 1.3062e-05 1.84551e-05 5.74389e-06 -6.88547e-05 -0.00029251 -0.000802397 -0.00176005 -0.00326482 -0.00518386 -0.00690063 -0.00702266 -0.00313098 0.00832475 0.0318932 0.0727091 0.13584 0.225499 0.344293 0.492657 0.668601 0.867823 1.08415 1.31021 1.53819 1.76059 1.97083 2.16367 2.33538 2.48369 2.60765 2.70728 2.78327 2.83655 2.86808 2.87851 2.86808 2.83655 2.78327 2.70728 2.60765 2.48369 2.33538 2.16367 1.97083 1.76059 1.53819 1.31021 1.08415 0.867823 0.668601 0.492657 0.344293 0.225499 0.13584 0.0727091 0.0318932 0.00832475 -0.00313098 -0.00702266 -0.00690063 -0.00518386 -0.00326482 -0.00176005 -0.000802397 -0.00029251 -6.88547e-05 5.74389e-06 1.84551e-05 1.3062e-05 6.36616e-06 2.35064e-06 6.13685e-07 5.83002e-08 -4.84287e-08 -3.70794e-08 -1.53878e-08 -3.99774e-09 -2.86934e-10 3.18797e-10 1.86828e-10 5.166e-11 3.28455e-12 -3.7085e-12 -1.74432e-12 -3.08899e-13 4.11533e-14 3.85857e-14 8.82621e-15 -2.52719e-16 -6.98301e-16 -1.69732e-16 2.34842e-18 1.12347e-17 2.47158e-18 -1.03631e-19 -1.60606e-19 -2.71724e-20 3.06405e-21 1.94594e-21 2.01834e-22 -5.68024e-23 -1.87097e-23 -4.92477e-25 7.27373e-25 1.29184e-25 -1.08249e-26 -6.58767e-27 -4.70817e-28 1.82421e-28 3.98645e-29 -1.58782e-30 -1.54672e-30 -1.22744e-31 3.55521e-32 7.43345e-33 -2.8198e-34 -2.31308e-34 -1.38314e-35 4.50186e-36 6.97059e-37 -4.39239e-38 -1.77547e-38 -4.09658e-40 2.98169e-40 2.62564e-41 -3.20519e-42 -5.96246e-43 -0 0 0 0 0 0 0 
0 0 0 0 0 0 -1.37103e-45 -6.11473e-43 -2.44419e-42 3.23665e-41 2.83482e-40 -8.98339e-40 -1.95413e-38 -2.40117e-38 8.98576e-37 4.40499e-36 -2.43608e-35 -2.73026e-34 4.33587e-36 1.03257e-32 3.59335e-32 -2.26902e-31 -1.95268e-30 3.21291e-31 5.9425e-29 1.95441e-28 -9.82779e-28 -8.71706e-27 -4.55791e-27 2.0764e-25 8.49532e-25 -1.99884e-24 -2.7149e-23 -5.25288e-23 4.09103e-22 2.62277e-21 1.18553e-21 -4.81891e-20 -2.0292e-19 1.38973e-19 4.18944e-18 1.35411e-17 -1.82784e-17 -2.88921e-16 -8.40246e-16 1.00803e-15 1.59659e-14 4.96695e-14 -9.97878e-15 -6.61679e-13 -2.57482e-12 -3.02731e-12 1.54898e-11 9.64159e-11 2.54843e-10 1.76727e-10 -1.5577e-09 -8.42146e-09 -2.44008e-08 -4.09952e-08 8.05465e-09 3.54961e-07 1.56579e-06 4.57186e-06 9.8275e-06 1.38782e-05 6.81957e-07 -7.42411e-05 -0.000303553 -0.000836356 -0.00184195 -0.00338124 -0.00514102 -0.00602147 -0.00363706 0.00612697 0.0293008 0.0735689 0.147465 0.259085 0.414551 0.616569 0.863439 1.14878 1.46203 1.78963 2.11669 2.42874 2.71325 2.96078 3.16566 3.32605 3.4436 3.52272 3.56977 3.59221 3.59776 3.59358 3.58588 3.57932 3.57679 3.57932 3.58588 3.59358 3.59776 3.59221 3.56977 3.52272 3.4436 3.32605 3.16566 2.96078 2.71325 2.42874 2.11669 1.78963 1.46203 1.14878 0.863439 0.616569 0.414551 0.259085 0.147465 0.0735689 0.0293008 0.00612697 -0.00363706 -0.00602147 -0.00514102 -0.00338124 -0.00184195 -0.000836356 -0.000303553 -7.42411e-05 6.81957e-07 1.38782e-05 9.8275e-06 4.57186e-06 1.56579e-06 3.54961e-07 8.05465e-09 -4.09952e-08 -2.44008e-08 -8.42146e-09 -1.5577e-09 1.76727e-10 2.54843e-10 9.64159e-11 1.54898e-11 -3.02731e-12 -2.57482e-12 -6.61679e-13 -9.97878e-15 4.96695e-14 1.59659e-14 1.00803e-15 -8.40246e-16 -2.88921e-16 -1.82784e-17 1.35411e-17 4.18944e-18 1.38973e-19 -2.0292e-19 -4.81891e-20 1.18554e-21 2.62277e-21 4.09103e-22 -5.25287e-23 -2.7149e-23 -1.99884e-24 8.49532e-25 2.07639e-25 -4.55207e-27 -8.66679e-27 -9.76161e-28 1.94301e-28 5.90561e-29 3.16212e-31 -1.94155e-30 -2.2556e-31 3.57527e-32 1.02725e-32 4.19375e-36 -2.71758e-34 -2.42555e-35 4.38573e-36 8.95021e-37 -2.38909e-38 -1.94685e-38 -8.95677e-40 2.82477e-40 3.22175e-41 -2.44419e-42 -6.11473e-43 -1.37103e-45 0 0 0 0 0 
0 0 0 0 0 -1.36779e-45 -5.70346e-43 -1.63243e-42 3.65624e-41 2.50809e-40 -1.37484e-39 -2.01973e-38 1.7884e-39 1.07401e-36 3.85529e-36 -3.61999e-35 -3.00486e-34 4.29141e-34 1.33196e-32 3.09989e-32 -3.60759e-31 -2.29439e-30 3.57124e-30 8.24471e-29 1.79651e-28 -1.71195e-27 -1.08483e-26 7.78956e-27 3.08138e-25 8.9112e-25 -4.36759e-24 -3.67597e-23 -3.16992e-23 7.05846e-22 3.25897e-21 -2.82287e-21 -7.64627e-20 -2.29064e-19 5.891e-19 6.40305e-18 1.39277e-17 -5.53751e-17 -4.404e-16 -8.37772e-16 3.36668e-15 2.5353e-14 5.38223e-14 -1.21366e-13 -1.17203e-12 -3.29142e-12 7.71294e-14 3.67534e-11 1.53259e-10 2.78584e-10 -2.87637e-10 -3.85024e-09 -1.44642e-08 -3.14836e-08 -2.09853e-08 1.62931e-07 9.23195e-07 3.01518e-06 7.0157e-06 1.05736e-05 5.08602e-07 -6.32344e-05 -0.000269838 -0.000769449 -0.00173215 -0.00318332 -0.00463648 -0.00448573 0.00077286 0.0172713 0.0541011 0.122878 0.23632 0.405927 0.639179 0.936965 1.29196 1.68846 2.10385 2.51136 2.88363 3.19621 3.43047 3.57538 3.62808 3.59339 3.48231 3.31039 3.09565 2.85678 2.61182 2.37703 2.16641 1.99125 1.86016 1.77915 1.75176 1.77915 1.86016 1.99125 2.16641 2.37703 2.61182 2.85678 3.09565 3.31039 3.48231 3.59339 3.62808 3.57538 3.43047 3.19621 2.88363 2.51136 2.10385 1.68846 1.29196 0.936965 0.639179 0.405927 0.23632 0.122878 0.0541011 0.0172713 0.00077286 -0.00448573 -0.00463648 -0.00318332 -0.00173215 -0.000769449 -0.000269838 -6.32344e-05 5.08602e-07 1.05736e-05 7.0157e-06 3.01518e-06 9.23195e-07 1.62931e-07 -2.09853e-08 -3.14836e-08 -1.44642e-08 -3.85024e-09 -2.87637e-10 2.78584e-10 1.53259e-10 3.67534e-11 7.71294e-14 -3.29142e-12 -1.17203e-12 -1.21366e-13 5.38223e-14 2.5353e-14 3.36668e-15 -8.37772e-16 -4.404e-16 -5.53751e-17 1.39277e-17 6.40305e-18 5.891e-19 -2.29064e-19 -7.64627e-20 -2.82287e-21 3.25897e-21 7.05846e-22 -3.16992e-23 -3.67597e-23 -4.36759e-24 8.91131e-25 3.082e-25 7.85633e-27 -1.07695e-26 -1.70001e-27 1.78702e-28 8.19534e-29 3.54636e-30 -2.28208e-30 -3.58796e-31 3.08519e-32 1.32558e-32 4.27245e-34 -2.99168e-34 -3.60554e-35 3.83889e-36 1.07001e-36 1.81508e-39 -2.01256e-38 -1.37071e-39 2.49977e-40 3.6444e-41 -1.62144e-42 -5.70346e-43 -1.36779e-45 0 0 0 0 
0 0 0 0 -1.36441e-45 -5.37543e-43 -7.58177e-43 3.8674e-41 2.05132e-40 -1.79184e-39 -1.96973e-38 3.0967e-38 1.20568e-36 2.86871e-36 -4.83885e-35 -3.08494e-34 9.81872e-34 1.61304e-32 1.94648e-32 -5.20516e-31 -2.50002e-30 8.4165e-30 1.07685e-28 1.20206e-28 -2.68623e-27 -1.26262e-26 2.83805e-26 4.28655e-25 7.85458e-25 -7.79298e-24 -4.65451e-23 1.43196e-23 1.10052e-21 3.68288e-21 -9.81463e-21 -1.11487e-19 -2.18754e-19 1.31574e-18 8.97813e-18 1.05267e-17 -1.1391e-16 -6.10632e-16 -5.50066e-16 7.17405e-15 3.6186e-14 4.23431e-14 -3.17699e-13 -1.82212e-12 -3.48631e-12 7.13492e-12 6.87452e-11 2.11604e-10 1.91783e-10 -1.26208e-09 -7.34592e-09 -2.10867e-08 -2.98255e-08 4.64351e-08 4.68875e-07 1.80999e-06 4.72229e-06 8.07065e-06 2.61029e-06 -4.36119e-05 -0.000208448 -0.000632733 -0.0014841 -0.00277555 -0.00391655 -0.00290706 0.00477528 0.0273034 0.077098 0.170241 0.324239 0.554189 0.868058 1.26234 1.7195 2.20827 2.68695 3.10922 3.43096 3.61668 3.64432 3.50727 3.21414 2.7861 2.2531 1.64942 1.00984 0.366486 -0.253263 -0.827919 -1.3417 -1.78417 -2.14918 -2.43367 -2.6367 -2.75827 -2.79876 -2.75827 -2.6367 -2.43367 -2.14918 -1.78417 -1.3417 -0.827919 -0.253263 0.366486 1.00984 1.64942 2.2531 2.7861 3.21414 3.50727 3.64432 3.61668 3.43096 3.10922 2.68695 2.20827 1.7195 1.26234 0.868058 0.554189 0.324239 0.170241 0.077098 0.0273034 0.00477528 -0.00290706 -0.00391655 -0.00277555 -0.0014841 -0.000632733 -0.000208448 -4.36119e-05 2.61029e-06 8.07065e-06 4.72229e-06 1.80999e-06 4.68875e-07 4.64351e-08 -2.98255e-08 -2.10867e-08 -7.34592e-09 -1.26208e-09 1.91783e-10 2.11604e-10 6.87452e-11 7.13492e-12 -3.48631e-12 -1.82212e-12 -3.17699e-13 4.23431e-14 3.6186e-14 7.17405e-15 -5.50066e-16 -6.10632e-16 -1.1391e-16 1.05267e-17 8.97813e-18 1.31574e-18 -2.18754e-19 -1.11487e-19 -9.81462e-21 3.68288e-21 1.10052e-21 1.43196e-23 -4.65451e-23 -7.79293e-24 7.85286e-25 4.26376e-25 2.81986e-26 -1.25488e-26 -2.66919e-27 1.19665e-28 1.07072e-28 8.36609e-30 -2.48745e-30 -5.17917e-31 1.93752e-32 1.60584e-32 9.77962e-34 -3.07209e-34 -4.8208e-35 2.8565e-36 1.20141e-36 3.08932e-38 -1.96302e-38 -1.78634e-39 2.0447e-40 3.86204e-41 -7.58177e-43 -5.51221e-43 -8.46961e-44 -0 0 0 
0 0 -0 -7.8741e-44 -4.78906e-43 2.59881e-44 3.87136e-41 1.51622e-40 -2.11011e-39 -1.8102e-38 6.06717e-38 1.27786e-36 1.50465e-36 -5.97099e-35 -2.92615e-34 1.63133e-33 1.83791e-32 4.74501e-34 -6.95784e-31 -2.47862e-30 1.49678e-29 1.32476e-28 -2.8205e-31 -3.90387e-27 -1.35162e-26 5.94575e-26 5.62951e-25 4.47919e-25 -1.24212e-23 -5.48461e-23 9.54507e-23 1.58986e-21 3.64577e-21 -2.06656e-20 -1.51074e-19 -1.44566e-19 2.38014e-18 1.16011e-17 9.0244e-19 -1.97685e-16 -7.70728e-16 2.05984e-16 1.26913e-14 4.65872e-14 3.42414e-15 -6.20475e-13 -2.5351e-12 -2.5405e-12 1.98139e-11 1.11053e-10 2.49822e-10 -9.79614e-11 -2.93193e-09 -1.19305e-08 -2.58368e-08 -8.64544e-09 1.90463e-07 9.6765e-07 2.94693e-06 5.94398e-06 4.57294e-06 -2.35728e-05 -0.000139878 -0.000466962 -0.00116675 -0.00227018 -0.00319335 -0.00177637 0.00717172 0.0335042 0.092791 0.20575 0.395158 0.680082 1.06846 1.55015 2.09305 2.64407 3.13576 3.49707 3.66561 3.59855 3.27937 2.71943 1.95464 1.03823 0.0320309 -1.00197 -2.00887 -2.9451 -3.78084 -4.49942 -5.09617 -5.5754 -5.94787 -6.22775 -6.43049 -6.57085 -6.6614 -6.71174 -6.72782 -6.71174 -6.6614 -6.57085 -6.43049 -6.22775 -5.94787 -5.5754 -5.09617 -4.49942 -3.78084 -2.9451 -2.00887 -1.00197 0.0320309 1.03823 1.95464 2.71943 3.27937 3.59855 3.66561 3.49707 3.13576 2.64407 2.09305 1.55015 1.06846 0.680082 0.395158 0.20575 0.092791 0.0335042 0.00717172 -0.00177637 -0.00319335 -0.00227018 -0.00116675 -0.000466962 -0.000139878 -2.35728e-05 4.57294e-06 5.94398e-06 2.94693e-06 9.6765e-07 1.90463e-07 -8.64544e-09 -2.58368e-08 -1.19305e-08 -2.93193e-09 -9.79614e-11 2.49822e-10 1.11053e-10 1.98139e-11 -2.5405e-12 -2.5351e-12 -6.20475e-13 3.42414e-15 4.65872e-14 1.26913e-14 2.05984e-16 -7.70728e-16 -1.97685e-16 9.0244e-19 1.16011e-17 2.38014e-18 -1.44566e-19 -1.51074e-19 -2.06656e-20 3.64577e-21 1.58986e-21 9.54506e-23 -5.48465e-23 -1.24245e-23 4.40577e-25 5.5888e-25 5.90187e-26 -1.34406e-26 -3.88041e-27 -6.03375e-32 1.31772e-28 1.48882e-29 -2.46686e-30 -6.92588e-31 4.63927e-34 1.83023e-32 1.62528e-33 -2.9145e-34 -5.9499e-35 1.49768e-36 1.27353e-36 6.04996e-38 -1.80425e-38 -2.10376e-39 1.51186e-40 3.86136e-41 -2.18847e-44 -3.63107e-43 -0 0 0 
0 0 -0 -2.08101e-43 6.59008e-43 3.68292e-41 9.61445e-41 -2.30677e-39 -1.56113e-38 8.80194e-38 1.28263e-36 -1.21421e-37 -6.89649e-35 -2.51391e-34 2.3269e-33 1.96982e-32 -2.58829e-32 -8.70828e-31 -2.14522e-30 2.31021e-29 1.5307e-28 -1.97321e-28 -5.31817e-27 -1.27904e-26 1.03009e-25 6.99364e-25 -2.21618e-25 -1.83064e-23 -5.92372e-23 2.22127e-22 2.15312e-21 2.8189e-21 -3.6145e-20 -1.9077e-19 2.74577e-20 3.82033e-18 1.3729e-17 -1.7831e-17 -3.07854e-16 -8.72563e-16 1.64444e-15 1.99733e-14 5.33032e-14 -7.7212e-14 -1.04052e-12 -3.15222e-12 3.68581e-13 3.9571e-11 1.59719e-10 2.32941e-10 -7.02264e-10 -5.42072e-09 -1.69828e-08 -2.4444e-08 4.66068e-08 4.40522e-07 1.66242e-06 4.05684e-06 5.21325e-06 -8.44189e-06 -8.0206e-05 -0.000308136 -0.000841992 -0.00175062 -0.00256634 -0.00126056 0.00748522 0.0344615 0.097676 0.222167 0.43632 0.764038 1.21389 1.7685 2.37836 2.9639 3.42668 3.66766 3.60792 3.20552 2.46439 1.43338 0.196035 -1.14467 -2.48358 -3.72789 -4.80724 -5.67829 -6.32444 -6.75182 -6.98346 -7.05308 -6.99881 -6.85929 -6.67022 -6.4624 -6.26105 -6.08578 -5.951 -5.86643 -5.83762 -5.86643 -5.951 -6.08578 -6.26105 -6.4624 -6.67022 -6.85929 -6.99881 -7.05308 -6.98346 -6.75182 -6.32444 -5.67829 -4.80724 -3.72789 -2.48358 -1.14467 0.196035 1.43338 2.46439 3.20552 3.60792 3.66766 3.42668 2.9639 2.37836 1.7685 1.21389 0.764038 0.43632 0.222167 0.097676 0.0344615 0.00748522 -0.00126056 -0.00256634 -0.00175062 -0.000841992 -0.000308136 -8.0206e-05 -8.44189e-06 5.21325e-06 4.05684e-06 1.66242e-06 4.40522e-07 4.66068e-08 -2.4444e-08 -1.69828e-08 -5.42072e-09 -7.02264e-10 2.32941e-10 1.59719e-10 3.9571e-11 3.68581e-13 -3.15222e-12 -1.04052e-12 -7.7212e-14 5.33032e-14 1.99733e-14 1.64444e-15 -8.72563e-16 -3.07854e-16 -1.7831e-17 1.3729e-17 3.82033e-18 2.74576e-20 -1.9077e-19 -3.6145e-20 2.8189e-21 2.15312e-21 2.22124e-22 -5.92353e-23 -1.82182e-23 -2.21037e-25 6.94925e-25 1.02336e-25 -1.27237e-26 -5.28817e-27 -1.96063e-28 1.52313e-28 2.29915e-29 -2.13544e-30 -8.67128e-31 -2.57967e-32 1.96206e-32 2.31873e-33 -2.50423e-34 -6.87318e-35 -1.2253e-37 1.27844e-36 8.77588e-38 -1.55616e-38 -2.2998e-39 9.57908e-41 3.71684e-41 5.61334e-42 1.22477e-43 0 0 
0 0 1.3843e-43 5.4913e-42 3.39041e-41 4.3448e-41 -2.37577e-39 -1.25182e-38 1.10582e-37 1.22094e-36 -1.85814e-36 -7.5184e-35 -1.86784e-34 3.00586e-33 1.9802e-32 -5.84144e-32 -1.02645e-30 -1.43979e-30 3.24122e-29 1.65009e-28 -4.8059e-28 -6.82821e-27 -9.61521e-27 1.60011e-25 8.18394e-25 -1.33376e-24 -2.53603e-23 -5.648e-23 4.04131e-22 2.74629e-21 8.00444e-22 -5.6747e-20 -2.2335e-19 3.35918e-19 5.63229e-18 1.45545e-17 -4.87615e-17 -4.41194e-16 -8.46472e-16 3.98761e-15 2.87317e-14 5.15217e-14 -2.14829e-13 -1.56878e-12 -3.4155e-12 6.20967e-12 6.71597e-11 2.05788e-10 1.12251e-10 -1.73635e-09 -8.71173e-09 -2.11684e-08 -1.06437e-08 1.52888e-07 8.16973e-07 2.48178e-06 4.55742e-06 1.98941e-07 -3.74848e-05 -0.000179438 -0.000554186 -0.00126757 -0.00203392 -0.00121002 0.00605455 0.0304805 0.0912727 0.216825 0.441123 0.794229 1.28765 1.8988 2.56109 3.16626 3.58129 3.67715 3.36101 2.60162 1.4401 -0.0168826 -1.61896 -3.20122 -4.61337 -5.74151 -6.5197 -6.93055 -6.99804 -6.77509 -6.33059 -5.73714 -5.06249 -4.36386 -3.68557 -3.0591 -2.50468 -2.03339 -1.64986 -1.35461 -1.14614 -1.02223 -0.981149 -1.02223 -1.14614 -1.35461 -1.64986 -2.03339 -2.50468 -3.0591 -3.68557 -4.36386 -5.06249 -5.73714 -6.33059 -6.77509 -6.99804 -6.93055 -6.5197 -5.74151 -4.61337 -3.20122 -1.61896 -0.0168826 1.4401 2.60162 3.36101 3.67715 3.58129 3.16626 2.56109 1.8988 1.28765 0.794229 0.441123 0.216825 0.0912727 0.0304805 0.00605455 -0.00121002 -0.00203392 -0.00126757 -0.000554186 -0.000179438 -3.74848e-05 1.98941e-07 4.55742e-06 2.48178e-06 8.16973e-07 1.52888e-07 -1.06437e-08 -2.11684e-08 -8.71173e-09 -1.73635e-09 1.12251e-10 2.05788e-10 6.71597e-11 6.20967e-12 -3.4155e-12 -1.56878e-12 -2.14829e-13 5.15217e-14 2.87317e-14 3.98761e-15 -8.46472e-16 -4.41194e-16 -4.87615e-17 1.45545e-17 5.63229e-18 3.35918e-19 -2.2335e-19 -5.6747e-20 8.0044e-22 2.74631e-21 4.0428e-22 -5.59843e-23 -2.5178e-23 -1.32232e-24 8.13699e-25 1.59049e-25 -9.57153e-27 -6.79271e-27 -4.7811e-28 1.64246e-28 3.22711e-29 -1.43316e-30 -1.02239e-30 -5.82184e-32 1.97279e-32 2.99574e-33 -1.86082e-34 -7.49386e-35 -1.85326e-36 1.21707e-36 1.1025e-37 -1.24794e-38 -2.36845e-39 4.64243e-41 3.13643e-41 4.02679e-42 0 0 
0 0 3.54897e-42 2.19217e-41 -1.52813e-43 -2.32732e-39 -9.14968e-39 1.26751e-37 1.10181e-36 -3.546e-36 -7.77921e-35 -1.03886e-34 3.60394e-33 1.85455e-32 -9.49074e-32 -1.14307e-30 -3.43929e-31 4.22172e-29 1.63823e-28 -8.49894e-28 -8.27823e-27 -3.17851e-27 2.29629e-25 8.91098e-25 -2.99997e-24 -3.33032e-23 -4.25599e-23 6.49078e-22 3.29724e-21 -2.86517e-21 -8.24921e-20 -2.38499e-19 8.20733e-19 7.74949e-18 1.29955e-17 -9.47907e-17 -5.88327e-16 -6.01523e-16 7.43161e-15 3.81977e-14 3.489e-14 -4.2332e-13 -2.16654e-12 -2.96159e-12 1.59831e-11 1.02044e-10 2.34208e-10 -1.72332e-10 -3.29498e-09 -1.25612e-08 -2.22853e-08 2.36379e-08 3.26872e-07 1.31852e-06 3.24049e-06 3.48594e-06 -1.2267e-05 -8.96174e-05 -0.000328103 -0.000851189 -0.0015573 -0.00132504 0.00374767 0.0232672 0.0760224 0.19206 0.410184 0.767875 1.28327 1.93366 2.63977 3.26603 3.64304 3.60882 3.05665 1.97239 0.447206 -1.33839 -3.15445 -4.77114 -6.00368 -6.74101 -6.95432 -6.6876 -6.03575 -5.11935 -4.06127 -2.9695 -1.92725 -0.990104 -0.188213 0.469402 0.988303 1.38345 1.67436 1.88128 2.02329 2.11667 2.17417 2.20509 2.21483 2.20509 2.17417 2.11667 2.02329 1.88128 1.67436 1.38345 0.988303 0.469402 -0.188213 -0.990104 -1.92725 -2.9695 -4.06127 -5.11935 -6.03575 -6.6876 -6.95432 -6.74101 -6.00368 -4.77114 -3.15445 -1.33839 0.447206 1.97239 3.05665 3.60882 3.64304 3.26603 2.63977 1.93366 1.28327 0.767875 0.410184 0.19206 0.0760224 0.0232672 0.00374767 -0.00132504 -0.0015573 -0.000851189 -0.000328103 -8.96174e-05 -1.2267e-05 3.48594e-06 3.24049e-06 1.31852e-06 3.26872e-07 2.36379e-08 -2.22853e-08 -1.25612e-08 -3.29498e-09 -1.72332e-10 2.34208e-10 1.02044e-10 1.59831e-11 -2.96159e-12 -2.16654e-12 -4.2332e-13 3.489e-14 3.81977e-14 7.43161e-15 -6.01523e-16 -5.88327e-16 -9.47906e-17 1.29955e-17 7.74949e-18 8.20732e-19 -2.38499e-19 -8.24922e-20 -2.865e-21 3.29747e-21 6.46396e-22 -4.22136e-23 -3.30863e-23 -2.97916e-24 8.86312e-25 2.28359e-25 -3.1701e-27 -8.23869e-27 -8.46068e-28 1.63108e-28 4.20481e-29 -3.41561e-31 -1.13881e-30 -9.45942e-32 1.84793e-32 3.59216e-33 -1.03495e-34 -7.75446e-35 -3.53548e-36 1.0984e-36 1.2637e-37 -9.12002e-39 -2.3462e-39 -3.26559e-40 4.78206e-42 0 0 
0 0 -4.96721e-43 -3.34567e-40 -2.21084e-39 -5.81218e-39 1.35897e-37 9.40208e-37 -5.04377e-36 -7.66873e-35 -1.00106e-35 4.06632e-33 1.59555e-32 -1.32444e-31 -1.20417e-30 1.10948e-30 5.16384e-29 1.45891e-28 -1.29243e-27 -9.47067e-27 7.14153e-27 3.08705e-25 8.819e-25 -5.30372e-24 -4.15545e-23 -1.28108e-23 9.60635e-22 3.70233e-21 -8.65462e-21 -1.12719e-19 -2.2278e-19 1.51842e-18 1.00235e-17 7.72057e-18 -1.58125e-16 -7.32172e-16 -2.91596e-17 1.21025e-14 4.70064e-14 -4.20389e-15 -7.1211e-13 -2.75687e-12 -1.33207e-12 3.05527e-11 1.41804e-10 2.23417e-10 -6.86754e-10 -5.42219e-09 -1.64187e-08 -1.72135e-08 8.76576e-08 5.81026e-07 1.90776e-06 3.604e-06 -5.28824e-07 -3.59232e-05 -0.000170603 -0.000520249 -0.00111715 -0.00135194 0.0014977 0.0151171 0.0562225 0.154201 0.350749 0.690992 1.20365 1.87356 2.61751 3.27883 3.65218 3.53792 2.80945 1.46753 -0.341938 -2.35622 -4.25981 -5.76179 -6.66034 -6.87691 -6.45485 -5.53019 -4.28807 -2.9194 -1.58732 -0.409115 0.548562 1.26399 1.74901 2.03626 2.16768 2.18663 2.13178 2.03487 1.9203 1.80522 1.7012 1.61546 1.55208 1.51346 1.5005 1.51346 1.55208 1.61546 1.7012 1.80522 1.9203 2.03487 2.13178 2.18663 2.16768 2.03626 1.74901 1.26399 0.548562 -0.409115 -1.58732 -2.9194 -4.28807 -5.53019 -6.45485 -6.87691 -6.66034 -5.76179 -4.25981 -2.35622 -0.341938 1.46753 2.80945 3.53792 3.65218 3.27883 2.61751 1.87356 1.20365 0.690992 0.350749 0.154201 0.0562225 0.0151171 0.0014977 -0.00135194 -0.00111715 -0.000520249 -0.000170603 -3.59232e-05 -5.28824e-07 3.604e-06 1.90776e-06 5.81026e-07 8.76576e-08 -1.72135e-08 -1.64187e-08 -5.42219e-09 -6.86754e-10 2.23417e-10 1.41804e-10 3.05527e-11 -1.33207e-12 -2.75687e-12 -7.1211e-13 -4.20389e-15 4.70064e-14 1.21025e-14 -2.91582e-17 -7.3217e-16 -1.58125e-16 7.72052e-18 1.00235e-17 1.51842e-18 -2.2278e-19 -1.12719e-19 -8.66029e-21 3.67642e-21 9.53784e-22 -1.28542e-23 -4.13138e-23 -5.27182e-24 8.77527e-25 3.07158e-25 7.10568e-27 -9.42884e-27 -1.28718e-27 1.45282e-28 5.14453e-29 1.10661e-30 -1.19991e-30 -1.32013e-31 1.59009e-32 4.05331e-33 -9.95175e-36 -7.6448e-35 -5.02837e-36 9.37351e-37 1.35465e-37 -6.03715e-39 -2.45547e-39 -2.60339e-40 0 0 
0 0 -2.38193e-40 -1.87849e-39 -2.95015e-39 1.38243e-37 7.53955e-37 -6.24645e-36 -7.22052e-35 8.66e-35 4.35564e-33 1.22224e-32 -1.67865e-31 -1.19922e-30 2.8378e-30 5.97282e-29 1.09214e-28 -1.78263e-27 -1.01928e-26 2.16017e-26 3.91579e-25 7.53245e-25 -8.26453e-24 -4.91244e-23 3.79192e-23 1.33673e-21 3.82563e-21 -1.7021e-20 -1.45892e-19 -1.59967e-19 2.4563e-18 1.22086e-17 -2.78463e-18 -2.39689e-16 -8.4694e-16 9.89321e-16 1.80067e-14 5.31297e-14 -7.40513e-14 -1.08265e-12 -3.21909e-12 1.99683e-12 5.04394e-11 1.81662e-10 1.45909e-10 -1.49435e-09 -8.0793e-09 -1.93725e-08 -2.00044e-09 1.90801e-07 9.18869e-07 2.49684e-06 3.06458e-06 -9.22573e-06 -7.45427e-05 -0.000282307 -0.000728355 -0.00119278 -8.01744e-05 0.00801551 0.036464 0.111519 0.2747 0.577087 1.06041 1.72531 2.49739 3.2108 3.62911 3.5095 2.69231 1.17966 -0.835647 -3.00849 -4.93539 -6.2675 -6.80003 -6.51004 -5.53757 -4.12637 -2.55079 -1.05207 0.200233 1.12039 1.69682 1.97031 2.00968 1.89112 1.68331 1.44066 1.20054 0.985277 0.805322 0.66283 0.554966 0.476555 0.421777 0.385196 0.362312 0.349874 0.345916 0.349874 0.362312 0.385196 0.421777 0.476555 0.554966 0.66283 0.805322 0.985277 1.20054 1.44066 1.68331 1.89112 2.00968 1.97031 1.69682 1.12039 0.200233 -1.05207 -2.55079 -4.12637 -5.53757 -6.51004 -6.80003 -6.2675 -4.93539 -3.00849 -0.835647 1.17966 2.69231 3.5095 3.62911 3.2108 2.49739 1.72531 1.06041 0.577087 0.2747 0.111519 0.036464 0.00801551 -8.01744e-05 -0.00119278 -0.000728355 -0.000282307 -7.45427e-05 -9.22573e-06 3.06458e-06 2.49684e-06 9.18869e-07 1.90801e-07 -2.00044e-09 -1.93725e-08 -8.0793e-09 -1.49435e-09 1.45909e-10 1.81662e-10 5.04394e-11 1.99683e-12 -3.21909e-12 -1.08265e-12 -7.40513e-14 5.31296e-14 1.80067e-14 9.89322e-16 -8.46941e-16 -2.39689e-16 -2.78464e-18 1.22086e-17 2.4563e-18 -1.59974e-19 -1.45913e-19 -1.69732e-20 3.79691e-21 1.32784e-21 3.75626e-23 -4.8862e-23 -8.22034e-24 7.49786e-25 3.89801e-25 2.15134e-26 -1.01509e-26 -1.77593e-27 1.08769e-28 5.95167e-29 2.82896e-30 -1.19515e-30 -1.67325e-31 1.21822e-32 4.34191e-33 8.6333e-35 -7.19829e-35 -6.22726e-36 7.51534e-37 1.39178e-37 1.73803e-38 -6.86102e-40 0 0 
0 0 -3.16244e-40 1.8838e-38 1.36215e-37 5.59699e-37 -7.09789e-36 -6.49825e-35 1.78394e-34 4.45638e-33 7.65033e-33 -1.98334e-31 -1.12511e-30 4.72343e-30 6.563e-29 5.38548e-29 -2.2853e-27 -1.02527e-26 3.99753e-26 4.70519e-25 4.71941e-25 -1.18149e-23 -5.46868e-23 1.14354e-22 1.76549e-21 3.50161e-21 -2.83386e-20 -1.79457e-19 -3.18329e-20 3.64599e-18 1.39543e-17 -2.01057e-17 -3.38515e-16 -8.97974e-16 2.57158e-15 2.49829e-14 5.38814e-14 -1.82767e-13 -1.52498e-12 -3.38806e-12 7.56562e-12 7.56067e-11 2.14211e-10 -3.01178e-11 -2.64542e-09 -1.11169e-08 -2.01341e-08 2.79064e-08 3.41208e-07 1.33004e-06 2.93593e-06 9.35972e-07 -2.45917e-05 -0.000131162 -0.000419679 -0.000894924 -0.000825589 0.00305221 0.0202087 0.0717877 0.195537 0.444624 0.872959 1.50308 2.28351 3.05701 3.5684 3.52963 2.73002 1.14666 -1.00277 -3.30037 -5.25306 -6.44906 -6.68098 -5.98885 -4.61768 -2.91864 -1.23926 0.159372 1.1399 1.68334 1.85561 1.76537 1.52704 1.23648 0.959873 0.734051 0.571503 0.469435 0.416522 0.398804 0.40323 0.419416 0.439897 0.460179 0.477619 0.491222 0.500714 0.506243 0.508089 0.506243 0.500714 0.491222 0.477619 0.460179 0.439897 0.419416 0.40323 0.398804 0.416522 0.469435 0.571503 0.734051 0.959873 1.23648 1.52704 1.76537 1.85561 1.68334 1.1399 0.159372 -1.23926 -2.91864 -4.61768 -5.98885 -6.68098 -6.44906 -5.25306 -3.30037 -1.00277 1.14666 2.73002 3.52963 3.5684 3.05701 2.28351 1.50308 0.872959 0.444624 0.195537 0.0717877 0.0202087 0.00305221 -0.000825589 -0.000894924 -0.000419679 -0.000131162 -2.45917e-05 9.35972e-07 2.93593e-06 1.33004e-06 3.41208e-07 2.79064e-08 -2.01341e-08 -1.11169e-08 -2.64542e-09 -3.01178e-11 2.14211e-10 7.56067e-11 7.56562e-12 -3.38806e-12 -1.52498e-12 -1.82767e-13 5.38814e-14 2.49829e-14 2.57158e-15 -8.97974e-16 -3.38515e-16 -2.01057e-17 1.39543e-17 3.64598e-18 -3.16621e-20 -1.78368e-19 -2.81389e-20 3.48408e-21 1.75531e-21 1.13651e-22 -5.44179e-23 -1.17589e-23 4.69811e-25 4.68561e-25 3.98258e-26 -1.0213e-26 -2.27718e-27 5.36299e-29 6.54068e-29 4.70823e-30 -1.12142e-30 -1.97701e-31 7.62632e-33 4.44247e-33 1.77828e-34 -6.47847e-35 -7.07486e-36 5.75593e-37 1.79373e-37 1.59352e-38 0 0 
0 0 1.52736e-38 1.47245e-37 3.8612e-37 -7.60098e-36 -5.58838e-35 2.59823e-34 4.37891e-33 2.60617e-33 -2.21895e-31 -9.87252e-31 6.63438e-30 6.87518e-29 -1.78869e-29 -2.76139e-27 -9.51881e-27 6.15141e-26 5.36791e-25 1.67714e-26 -1.57887e-23 -5.67487e-23 2.19254e-22 2.2198e-21 2.53433e-21 -4.28392e-20 -2.09759e-19 1.80601e-19 5.07662e-18 1.48062e-17 -4.57492e-17 -4.51184e-16 -8.42543e-16 4.82021e-15 3.26616e-14 4.60074e-14 -3.37239e-13 -2.01496e-12 -3.05942e-12 1.58686e-11 1.05274e-10 2.29494e-10 -3.38107e-10 -4.16646e-09 -1.42567e-08 -1.70721e-08 7.7303e-08 5.44264e-07 1.78601e-06 3.00656e-06 -3.62927e-06 -4.86682e-05 -0.000207165 -0.000567875 -0.000926536 0.00033397 0.00903262 0.0402938 0.125004 0.313229 0.666362 1.22977 1.98629 2.80847 3.44392 3.56716 2.90077 1.36133 -0.847153 -3.25754 -5.28702 -6.44461 -6.50096 -5.54627 -3.92347 -2.08222 -0.426501 0.787294 1.47808 1.70715 1.61474 1.35666 1.06089 0.808186 0.633186 0.536649 0.500565 0.501154 0.516909 0.532677 0.54023 0.536793 0.523251 0.502434 0.477731 0.452349 0.428772 0.408909 0.394018 0.38482 0.381782 0.38482 0.394018 0.408909 0.428772 0.452349 0.477731 0.502434 0.523251 0.536793 0.54023 0.532677 0.516909 0.501154 0.500565 0.536649 0.633186 0.808186 1.06089 1.35666 1.61474 1.70715 1.47808 0.787294 -0.426501 -2.08222 -3.92347 -5.54627 -6.50096 -6.44461 -5.28702 -3.25754 -0.847153 1.36133 2.90077 3.56716 3.44392 2.80847 1.98629 1.22977 0.666362 0.313229 0.125004 0.0402938 0.00903262 0.00033397 -0.000926536 -0.000567875 -0.000207165 -4.86682e-05 -3.62927e-06 3.00656e-06 1.78601e-06 5.44264e-07 7.7303e-08 -1.70721e-08 -1.42567e-08 -4.16646e-09 -3.38107e-10 2.29494e-10 1.05274e-10 1.58686e-11 -3.05942e-12 -2.01496e-12 -3.37239e-13 4.60074e-14 3.26616e-14 4.82021e-15 -8.42543e-16 -4.51183e-16 -4.57493e-17 1.48065e-17 5.07781e-18 1.81444e-19 -2.08239e-19 -4.25478e-20 2.52507e-21 2.2083e-21 2.18142e-22 -5.6492e-23 -1.57216e-23 1.64367e-26 5.34715e-25 6.12957e-26 -9.48393e-27 -2.75193e-27 -1.78449e-29 6.85247e-29 6.61285e-30 -9.84105e-31 -2.2119e-31 2.59905e-33 4.36533e-33 2.59002e-34 -5.57021e-35 -7.63698e-36 -8.03132e-37 6.92901e-38 0 0 
0 0 4.58053e-38 -9.55377e-37 -7.86727e-36 -4.59556e-35 3.26381e-34 4.15383e-33 -2.48137e-33 -2.37383e-31 -7.99091e-31 8.43e-30 6.8819e-29 -1.01477e-28 -3.17154e-27 -7.94402e-27 8.49604e-26 5.81709e-25 -6.1555e-25 -1.992e-23 -5.38379e-23 3.52326e-22 2.65701e-21 7.18551e-22 -6.04679e-20 -2.31973e-19 4.95675e-19 6.70855e-18 1.42142e-17 -8.0983e-17 -5.71406e-16 -6.31542e-16 7.80841e-15 4.04426e-14 2.58612e-14 -5.42046e-13 -2.51294e-12 -2.00153e-12 2.72848e-11 1.37801e-10 2.15453e-10 -8.09731e-10 -6.05084e-09 -1.70885e-08 -8.29488e-09 1.50792e-07 8.01195e-07 2.23706e-06 2.42172e-06 -1.15984e-05 -8.33032e-05 -0.000301385 -0.000700164 -0.000692358 0.00271993 0.0189674 0.0704717 0.199321 0.466947 0.936081 1.62793 2.46356 3.22241 3.56437 3.14233 1.77697 -0.395049 -2.90019 -5.07613 -6.32855 -6.36606 -5.29431 -3.53379 -1.62382 -0.0186873 1.03561 1.51647 1.55738 1.35176 1.07277 0.831697 0.673014 0.59247 0.562176 0.550837 0.535478 0.505079 0.458725 0.401148 0.339547 0.280455 0.228417 0.185864 0.153111 0.129341 0.113104 0.102568 0.0961982 0.0926018 0.0908696 0.0903522 0.0908696 0.0926018 0.0961982 0.102568 0.113104 0.129341 0.153111 0.185864 0.228417 0.280455 0.339547 0.401148 0.458725 0.505079 0.535478 0.550837 0.562176 0.59247 0.673014 0.831697 1.07277 1.35176 1.55738 1.51647 1.03561 -0.0186873 -1.62382 -3.53379 -5.29431 -6.36606 -6.32855 -5.07613 -2.90019 -0.395049 1.77697 3.14233 3.56437 3.22241 2.46356 1.62793 0.936081 0.466947 0.199321 0.0704717 0.0189674 0.00271993 -0.000692358 -0.000700164 -0.000301385 -8.33032e-05 -1.15984e-05 2.42172e-06 2.23706e-06 8.01195e-07 1.50792e-07 -8.29488e-09 -1.70885e-08 -6.05084e-09 -8.09731e-10 2.15453e-10 1.37801e-10 2.72847e-11 -2.00153e-12 -2.51294e-12 -5.42047e-13 2.58613e-14 4.04426e-14 7.8084e-15 -6.31543e-16 -5.71406e-16 -8.09819e-17 1.4211e-17 6.67277e-18 4.92249e-19 -2.30678e-19 -6.01272e-20 7.17377e-22 2.64455e-21 3.50781e-22 -5.36099e-23 -1.98424e-23 -6.13559e-25 5.79589e-25 8.46673e-26 -7.91637e-27 -3.16093e-27 -1.01139e-28 6.85961e-29 8.40262e-30 -7.9661e-31 -2.36633e-31 -2.47206e-33 4.14103e-33 3.25294e-34 -4.70234e-35 -1.22821e-35 -9.06514e-37 0 0 
0 0 -9.2004e-37 -1.07687e-35 -3.69208e-35 3.74323e-34 3.79942e-33 -7.27314e-33 -2.43755e-31 -5.72668e-31 9.98206e-30 6.56446e-29 -1.91985e-28 -3.47831e-27 -5.52417e-27 1.0882e-25 5.97007e-25 -1.41489e-24 -2.38772e-23 -4.46022e-23 5.10344e-22 3.02299e-21 -2.12323e-21 -8.07132e-20 -2.39675e-19 9.30663e-19 8.47299e-18 1.15518e-17 -1.26735e-16 -6.9013e-16 -2.12493e-16 1.15689e-14 4.75113e-14 -1.03041e-14 -7.98498e-13 -2.96471e-12 2.45171e-14 4.20071e-11 1.70676e-10 1.58821e-10 -1.47092e-09 -8.25187e-09 -1.90822e-08 8.22259e-09 2.52304e-07 1.10789e-06 2.61106e-06 8.33104e-07 -2.39967e-05 -0.000129886 -0.000409384 -0.000777234 -2.85416e-05 0.00682065 0.0339693 0.112624 0.29662 0.65559 1.24333 2.03879 2.88205 3.45559 3.36279 2.30819 0.302127 -2.24212 -4.61636 -6.10444 -6.29738 -5.25718 -3.44707 -1.48878 0.102819 1.07681 1.45185 1.414 1.18756 0.942432 0.761616 0.655285 0.595837 0.549639 0.494976 0.426345 0.349987 0.276503 0.21526 0.171288 0.145343 0.134939 0.135834 0.143591 0.154509 0.165875 0.175964 0.184169 0.1902 0.194414 0.197039 0.198508 0.198917 0.198508 0.197039 0.194414 0.1902 0.184169 0.175964 0.165875 0.154509 0.143591 0.135834 0.134939 0.145343 0.171288 0.21526 0.276503 0.349987 0.426345 0.494976 0.549639 0.595837 0.655285 0.761616 0.942432 1.18756 1.414 1.45185 1.07681 0.102819 -1.48878 -3.44707 -5.25718 -6.29738 -6.10444 -4.61636 -2.24212 0.302127 2.30819 3.36279 3.45559 2.88205 2.03879 1.24333 0.65559 0.29662 0.112624 0.0339693 0.00682065 -2.85416e-05 -0.000777234 -0.000409384 -0.000129886 -2.39967e-05 8.33104e-07 2.61106e-06 1.10789e-06 2.52304e-07 8.22259e-09 -1.90822e-08 -8.25187e-09 -1.47092e-09 1.58821e-10 1.70676e-10 4.2007e-11 2.45124e-14 -2.96471e-12 -7.98498e-13 -1.03041e-14 4.75113e-14 1.15689e-14 -2.12492e-16 -6.90134e-16 -1.26782e-16 1.14341e-17 8.4138e-18 9.24023e-19 -2.38535e-19 -8.03186e-20 -2.11326e-21 3.01011e-21 5.08334e-22 -4.44231e-23 -2.37896e-23 -1.41004e-24 5.94928e-25 1.0845e-25 -5.50605e-27 -3.46684e-27 -1.91338e-28 6.54348e-29 9.94975e-30 -5.70936e-31 -2.42987e-31 -7.24893e-33 3.78679e-33 3.74716e-34 2.73827e-35 -6.04875e-36 0 0 
0 0 -4.64276e-36 4.00665e-35 4.12369e-34 3.33675e-33 -1.18883e-32 -2.42377e-31 -3.11546e-31 1.13033e-29 5.93941e-29 -2.87901e-28 -3.67246e-27 -2.28105e-27 1.32298e-25 5.78432e-25 -2.36906e-24 -2.7411e-23 -2.81827e-23 6.89058e-22 3.26935e-21 -6.10071e-21 -1.02765e-19 -2.26074e-19 1.49866e-18 1.02868e-17 6.21547e-18 -1.83427e-16 -7.96649e-16 4.62427e-16 1.60784e-14 5.29077e-14 -6.57787e-14 -1.10332e-12 -3.30433e-12 3.23445e-12 5.99528e-11 2.0053e-10 4.62366e-11 -2.3374e-09 -1.06761e-08 -1.96029e-08 3.45146e-08 3.84658e-07 1.45393e-06 2.81304e-06 -2.15801e-06 -4.18403e-05 -0.000189114 -0.00052311 -0.000748348 0.00125114 0.0131337 0.0550235 0.168018 0.417006 0.874304 1.57195 2.42869 3.19194 3.46074 2.83529 1.15511 -1.31034 -3.87714 -5.71653 -6.24551 -5.40091 -3.63006 -1.62452 0.0176163 1.00566 1.3689 1.32404 1.11308 0.899003 0.743539 0.639634 0.557253 0.47445 0.387632 0.305429 0.239455 0.196432 0.176175 0.173122 0.179493 0.187891 0.193461 0.193701 0.188422 0.178675 0.166167 0.152561 0.139367 0.12745 0.117462 0.109679 0.10414 0.100846 0.0997731 0.100846 0.10414 0.109679 0.117462 0.12745 0.139367 0.152561 0.166167 0.178675 0.188422 0.193701 0.193461 0.187891 0.179493 0.173122 0.176175 0.196432 0.239455 0.305429 0.387632 0.47445 0.557253 0.639634 0.743539 0.899003 1.11308 1.32404 1.3689 1.00566 0.0176163 -1.62452 -3.63006 -5.40091 -6.24551 -5.71653 -3.87714 -1.31034 1.15511 2.83529 3.46074 3.19194 2.42869 1.57195 0.874304 0.417006 0.168018 0.0550235 0.0131337 0.00125114 -0.000748348 -0.00052311 -0.000189114 -4.18403e-05 -2.15801e-06 2.81304e-06 1.45393e-06 3.84658e-07 3.45146e-08 -1.96029e-08 -1.06761e-08 -2.3374e-09 4.62365e-11 2.0053e-10 5.99527e-11 3.23446e-12 -3.30433e-12 -1.10332e-12 -6.57787e-14 5.29077e-14 1.60784e-14 4.62386e-16 -7.96668e-16 -1.82604e-16 6.1742e-18 1.02292e-17 1.49061e-18 -2.25048e-19 -1.02318e-19 -6.07678e-21 3.25649e-21 6.86511e-22 -2.80762e-23 -2.73145e-23 -2.36084e-24 5.76486e-25 1.31852e-25 -2.27465e-27 -3.66046e-27 -2.86937e-28 5.92065e-29 1.12669e-29 -3.10656e-31 -2.41619e-31 -1.18476e-32 3.40383e-33 7.76855e-34 4.59939e-35 0 0 
0 0 5.30532e-35 7.39378e-34 2.99051e-33 -1.6143e-32 -2.39697e-31 -5.46604e-32 1.24892e-29 5.20921e-29 -3.83274e-28 -3.79715e-27 1.38223e-27 1.54772e-25 5.34711e-25 -3.41563e-24 -3.04277e-23 -5.76352e-24 8.79175e-22 3.37571e-21 -1.10755e-20 -1.25324e-19 -1.87686e-19 2.18729e-18 1.20181e-17 -2.15385e-18 -2.49841e-16 -8.77932e-16 1.42117e-15 2.11883e-14 5.54763e-14 -1.4265e-13 -1.44513e-12 -3.44939e-12 7.79963e-12 8.0633e-11 2.22825e-10 -1.35833e-10 -3.41274e-09 -1.31739e-08 -1.78812e-08 7.26913e-08 5.49608e-07 1.82211e-06 2.7235e-06 -7.00097e-06 -6.6115e-05 -0.000260953 -0.000631253 -0.000554749 0.00333901 0.0221118 0.0828543 0.237071 0.558593 1.11484 1.9021 2.76421 3.35526 3.22219 2.02919 -0.174594 -2.8358 -5.07425 -6.10459 -5.64443 -4.03397 -1.99892 -0.243971 0.85103 1.28326 1.27816 1.09229 0.891239 0.732166 0.608473 0.500151 0.400004 0.314409 0.252285 0.216461 0.201588 0.197773 0.19508 0.187358 0.172709 0.152682 0.130551 0.109576 0.0921318 0.0793622 0.0712968 0.0672417 0.0662395 0.0672995 0.0693967 0.0718146 0.0740937 0.0758958 0.0769858 0.0774012 0.0769858 0.0758958 0.0740937 0.0718146 0.0693967 0.0672995 0.0662395 0.0672417 0.0712968 0.0793622 0.0921318 0.109576 0.130551 0.152682 0.172709 0.187358 0.19508 0.197773 0.201588 0.216461 0.252285 0.314409 0.400004 0.500151 0.608473 0.732166 0.891239 1.09229 1.27816 1.28326 0.85103 -0.243971 -1.99892 -4.03397 -5.64443 -6.10459 -5.07425 -2.8358 -0.174594 2.02919 3.22219 3.35526 2.76421 1.9021 1.11484 0.558593 0.237071 0.0828543 0.0221118 0.00333901 -0.000554749 -0.000631253 -0.000260953 -6.6115e-05 -7.00097e-06 2.7235e-06 1.82211e-06 5.49608e-07 7.26913e-08 -1.78812e-08 -1.31739e-08 -3.41274e-09 -1.35833e-10 2.22826e-10 8.0633e-11 7.79964e-12 -3.44939e-12 -1.44513e-12 -1.4265e-13 5.54763e-14 2.11883e-14 1.4225e-15 -8.7224e-16 -2.48203e-16 -2.10997e-18 1.1962e-17 2.17754e-18 -1.86882e-19 -1.24827e-19 -1.10345e-20 3.36325e-21 8.7603e-22 -5.74751e-24 -3.0323e-23 -3.40375e-24 5.32957e-25 1.54253e-25 1.376e-27 -3.78482e-27 -3.82001e-28 5.19291e-29 1.24492e-29 -5.45822e-32 -2.38879e-31 -1.60403e-32 -2.35825e-34 4.77298e-34 0 0 
0 0 4.44905e-34 -7.85713e-34 -1.82132e-32 -2.30415e-31 1.28158e-31 1.29966e-29 4.46039e-29 -4.51242e-28 -3.77327e-27 4.77568e-27 1.70421e-25 4.64537e-25 -4.37063e-24 -3.20918e-23 2.08542e-23 1.04945e-21 3.25491e-21 -1.66266e-20 -1.44452e-19 -1.17367e-19 2.94018e-18 1.32731e-17 -1.41331e-17 -3.21348e-16 -9.04413e-16 2.69898e-15 2.65217e-14 5.30746e-14 -2.43627e-13 -1.80182e-12 -3.26727e-12 1.39651e-11 1.03297e-10 2.31142e-10 -4.06507e-10 -4.70706e-09 -1.55693e-08 -1.29355e-08 1.25685e-07 7.50688e-07 2.1948e-06 2.20227e-06 -1.423e-05 -9.79752e-05 -0.000345398 -0.000721848 -0.000138021 0.00640927 0.0341036 0.117815 0.319236 0.717638 1.36649 2.21299 3.01722 3.35184 2.75718 1.02997 -1.52266 -4.09271 -5.7299 -5.8573 -4.58437 -2.59043 -0.688251 0.597845 1.17652 1.25352 1.10036 0.900886 0.725719 0.580669 0.458278 0.359167 0.288007 0.244626 0.221018 0.205631 0.189242 0.168229 0.144221 0.121296 0.103302 0.0922494 0.0880299 0.0887718 0.0922481 0.0964279 0.0997894 0.101581 0.101636 0.100243 0.0978065 0.0949463 0.0919877 0.0893132 0.087302 0.0860361 0.0856127 0.0860361 0.087302 0.0893132 0.0919877 0.0949463 0.0978065 0.100243 0.101636 0.101581 0.0997894 0.0964279 0.0922481 0.0887718 0.0880299 0.0922494 0.103302 0.121296 0.144221 0.168229 0.189242 0.205631 0.221018 0.244626 0.288007 0.359167 0.458278 0.580669 0.725719 0.900886 1.10036 1.25352 1.17652 0.597845 -0.688251 -2.59043 -4.58437 -5.8573 -5.7299 -4.09271 -1.52266 1.02997 2.75718 3.35184 3.01722 2.21299 1.36649 0.717638 0.319236 0.117815 0.0341036 0.00640927 -0.000138021 -0.000721848 -0.000345398 -9.79752e-05 -1.423e-05 2.20227e-06 2.1948e-06 7.50688e-07 1.25685e-07 -1.29355e-08 -1.55693e-08 -4.70706e-09 -4.06507e-10 2.31142e-10 1.03297e-10 1.39652e-11 -3.26727e-12 -1.80182e-12 -2.43627e-13 5.30758e-14 2.65258e-14 2.69186e-15 -8.98882e-16 -3.19645e-16 -1.40591e-17 1.32163e-17 2.92841e-18 -1.1689e-19 -1.43914e-19 -1.6566e-20 3.24349e-21 1.04575e-21 2.07697e-23 -3.19829e-23 -4.3555e-24 4.6304e-25 1.69853e-25 4.75823e-27 -3.76108e-27 -4.49757e-28 4.44654e-29 1.29553e-29 1.27695e-31 -2.3448e-31 -4.64721e-32 -1.88025e-33 0 0 
0 0 -2.32696e-33 -4.22835e-32 -1.97615e-31 4.13904e-31 1.24924e-29 2.76809e-29 -5.12955e-28 -3.30843e-27 9.80412e-27 1.75778e-25 2.89693e-25 -5.40983e-24 -3.063e-23 6.33472e-23 1.19305e-21 2.5714e-21 -2.38097e-20 -1.55938e-19 2.45733e-20 3.81196e-18 1.34256e-17 -3.32114e-17 -3.99762e-16 -8.21169e-16 4.53993e-15 3.21137e-14 4.20661e-14 -3.83243e-13 -2.179e-12 -2.58556e-12 2.24991e-11 1.29018e-10 2.21022e-10 -7.9785e-10 -6.31794e-09 -1.79632e-08 -4.10813e-09 1.98106e-07 1.00351e-06 2.59568e-06 1.18767e-06 -2.43904e-05 -0.000139317 -0.000445944 -0.000794555 0.000527029 0.0105476 0.0492361 0.159757 0.413009 0.889024 1.61771 2.48599 3.1689 3.18123 2.10941 -0.0594789 -2.74948 -4.97504 -5.86104 -5.15877 -3.36127 -1.33694 0.204356 1.01083 1.22389 1.12347 0.926508 0.733606 0.571088 0.442069 0.347314 0.284304 0.244085 0.214958 0.188233 0.161632 0.137532 0.119452 0.108778 0.104477 0.103469 0.102793 0.100243 0.0949775 0.0875817 0.0790002 0.0705501 0.0630594 0.0570272 0.0526646 0.0497607 0.0481256 0.0473724 0.0471596 0.0472718 0.0474796 0.0476676 0.0477905 0.0476676 0.0474796 0.0472718 0.0471596 0.0473724 0.0481256 0.0497607 0.0526646 0.0570272 0.0630594 0.0705501 0.0790002 0.0875817 0.0949775 0.100243 0.102793 0.103469 0.104477 0.108778 0.119452 0.137532 0.161632 0.188233 0.214958 0.244085 0.284304 0.347314 0.442069 0.571088 0.733606 0.926508 1.12347 1.22389 1.01083 0.204356 -1.33694 -3.36127 -5.15877 -5.86104 -4.97504 -2.74948 -0.0594789 2.10941 3.18123 3.1689 2.48599 1.61771 0.889024 0.413009 0.159757 0.0492361 0.0105476 0.000527029 -0.000794555 -0.000445944 -0.000139317 -2.43904e-05 1.18767e-06 2.59568e-06 1.00351e-06 1.98106e-07 -4.10813e-09 -1.79632e-08 -6.31794e-09 -7.9785e-10 2.21021e-10 1.29018e-10 2.2499e-11 -2.58556e-12 -2.179e-12 -3.8324e-13 4.20445e-14 3.19504e-14 4.51408e-15 -8.17491e-16 -3.98044e-16 -3.30824e-17 1.3373e-17 3.79763e-18 2.44538e-20 -1.55379e-19 -2.37231e-20 2.5628e-21 1.18889e-21 6.31121e-23 -3.05272e-23 -5.39129e-24 2.88798e-25 1.75196e-25 9.77036e-27 -3.29784e-27 -5.11285e-28 2.75972e-29 1.24487e-29 3.986e-31 -7.67696e-32 -3.24012e-32 0 0 
0 0 -3.32575e-32 1.41946e-32 9.85685e-31 1.45607e-29 6.36309e-30 -7.08616e-28 -3.14872e-27 1.91838e-26 2.08822e-25 5.60809e-26 -7.62308e-24 -3.14746e-23 1.34162e-22 1.50695e-21 1.70571e-21 -3.61899e-20 -1.81581e-19 2.40283e-19 5.27623e-18 1.41386e-17 -6.25528e-17 -5.27538e-16 -7.28491e-16 7.30761e-15 4.10046e-14 2.84576e-14 -5.83678e-13 -2.75123e-12 -1.80468e-12 3.40655e-11 1.65772e-10 2.1902e-10 -1.2882e-09 -8.46767e-09 -2.16775e-08 4.84246e-09 2.87194e-07 1.33831e-06 3.20527e-06 2.39428e-07 -3.6599e-05 -0.000191226 -0.000575701 -0.00090328 0.0012817 0.0153688 0.0666759 0.206982 0.515075 1.06676 1.85924 2.711 3.21685 2.8644 1.33828 -1.14518 -3.76507 -5.46352 -5.57113 -4.21873 -2.19387 -0.381162 0.73373 1.15614 1.14859 0.968728 0.762179 0.583934 0.447504 0.351149 0.285615 0.238759 0.201495 0.170697 0.146824 0.130565 0.120427 0.113243 0.105985 0.0972221 0.0872758 0.0776515 0.0698274 0.0646796 0.0621564 0.0617095 0.0624185 0.0634046 0.0641264 0.0642746 0.0637009 0.0625414 0.061085 0.0594581 0.0579123 0.0565702 0.0554921 0.0548427 0.0546898 0.0548427 0.0554921 0.0565702 0.0579123 0.0594581 0.061085 0.0625414 0.0637009 0.0642746 0.0641264 0.0634046 0.0624185 0.0617095 0.0621564 0.0646796 0.0698274 0.0776515 0.0872758 0.0972221 0.105985 0.113243 0.120427 0.130565 0.146824 0.170697 0.201495 0.238759 0.285615 0.351149 0.447504 0.583934 0.762179 0.968728 1.14859 1.15614 0.73373 -0.381162 -2.19387 -4.21873 -5.57113 -5.46352 -3.76507 -1.14518 1.33828 2.8644 3.21685 2.711 1.85924 1.06676 0.515075 0.206982 0.0666759 0.0153688 0.0012817 -0.00090328 -0.000575701 -0.000191226 -3.6599e-05 2.39428e-07 3.20527e-06 1.33831e-06 2.87194e-07 4.84246e-09 -2.16775e-08 -8.46767e-09 -1.2882e-09 2.1902e-10 1.65772e-10 3.40655e-11 -1.80469e-12 -2.75126e-12 -5.83842e-13 2.81255e-14 4.07927e-14 7.27525e-15 -7.25637e-16 -5.25498e-16 -6.23102e-17 1.40874e-17 5.2567e-18 2.39307e-19 -1.80939e-19 -3.60589e-20 1.70043e-21 1.50173e-21 1.3368e-22 -3.13703e-23 -7.59715e-24 5.59911e-26 2.08136e-25 1.91192e-26 -3.13876e-27 -7.06332e-28 6.34351e-30 1.48403e-29 2.82259e-30 1.22526e-31 0 0 
0 0 8.57372e-32 4.12326e-30 1.89466e-29 3.51206e-29 -8.04663e-28 -4.83685e-27 1.74602e-26 2.73433e-25 3.52258e-25 -9.00029e-24 -4.68223e-23 1.26287e-22 1.96604e-21 3.56043e-21 -4.26885e-20 -2.54446e-19 1.47894e-19 6.70855e-18 2.1356e-17 -6.791e-17 -6.95925e-16 -1.23123e-15 8.62631e-15 5.47473e-14 5.68387e-14 -6.99968e-13 -3.63066e-12 -3.45091e-12 4.01652e-11 2.12554e-10 3.2942e-10 -1.42064e-09 -1.04042e-08 -2.87053e-08 -4.21848e-09 3.29038e-07 1.65299e-06 4.25812e-06 1.7029e-06 -4.17166e-05 -0.000233216 -0.000726065 -0.00120167 0.00130068 0.0181577 0.0797005 0.246385 0.605558 1.22953 2.08232 2.91191 3.23317 2.51623 0.564461 -2.16093 -4.61252 -5.72255 -5.09478 -3.24356 -1.16755 0.34029 1.0552 1.18438 1.03454 0.813692 0.615188 0.465577 0.360676 0.286454 0.231704 0.191707 0.164362 0.146143 0.132093 0.11807 0.103309 0.0899476 0.0804088 0.0757684 0.0747299 0.0748354 0.0738476 0.0705651 0.0649086 0.0578956 0.0508128 0.0447092 0.0402284 0.0376092 0.0366392 0.0369855 0.0380984 0.0396371 0.0412532 0.0426988 0.0439283 0.0447489 0.0452707 0.0454561 0.0452707 0.0447489 0.0439283 0.0426988 0.0412532 0.0396371 0.0380984 0.0369855 0.0366392 0.0376092 0.0402284 0.0447092 0.0508128 0.0578956 0.0649086 0.0705651 0.0738476 0.0748354 0.0747299 0.0757684 0.0804088 0.0899476 0.103309 0.11807 0.132093 0.146143 0.164362 0.191707 0.231704 0.286454 0.360676 0.465577 0.615188 0.813692 1.03454 1.18438 1.0552 0.34029 -1.16755 -3.24356 -5.09478 -5.72255 -4.61252 -2.16093 0.564461 2.51623 3.23317 2.91191 2.08232 1.22953 0.605558 0.246385 0.0797005 0.0181577 0.00130068 -0.00120167 -0.000726065 -0.000233216 -4.17166e-05 1.7029e-06 4.25812e-06 1.65299e-06 3.29038e-07 -4.21848e-09 -2.87053e-08 -1.04042e-08 -1.42064e-09 3.29421e-10 2.12555e-10 4.01651e-11 -3.45111e-12 -3.63088e-12 -6.98346e-13 5.65333e-14 5.45247e-14 8.59112e-15 -1.22677e-15 -6.93271e-16 -6.76404e-17 2.1279e-17 6.6837e-18 1.47227e-19 -2.53545e-19 -4.2534e-20 3.54875e-21 1.95923e-21 1.25829e-22 -4.6666e-23 -8.96969e-24 3.51189e-25 2.72534e-25 1.74011e-26 -4.82146e-27 -8.01737e-28 3.80367e-29 2.20914e-29 3.57508e-30 0 0 
0 0 1.07242e-30 1.30326e-29 4.31315e-29 -1.56368e-28 -2.71633e-27 -3.36354e-27 1.07854e-25 5.63527e-25 -2.08064e-24 -2.90991e-23 -3.85351e-23 8.20515e-22 4.3297e-21 -7.96537e-21 -1.51474e-19 -3.56995e-19 2.47345e-18 1.77518e-17 1.02437e-17 -3.43873e-16 -1.49617e-15 1.10514e-15 3.21068e-14 1.02281e-13 -1.58054e-13 -2.29994e-12 -6.55203e-12 8.84213e-12 1.31887e-10 4.21434e-10 -1.15156e-11 -5.59796e-09 -2.47199e-08 -4.26508e-08 1.0562e-07 1.03329e-06 3.80807e-06 6.56698e-06 -1.23601e-05 -0.000140096 -0.000573287 -0.00138126 -0.00101193 0.00855499 0.0524052 0.187659 0.510131 1.1247 2.05114 3.08104 3.69082 3.17897 1.10172 -2.20516 -5.49288 -7.19223 -6.45176 -3.78182 -0.678908 1.4652 2.19113 1.91853 1.3165 0.804543 0.485661 0.312818 0.223845 0.179269 0.155873 0.139135 0.122811 0.107685 0.096531 0.0902332 0.0863446 0.0820023 0.075439 0.0672235 0.0592594 0.0533887 0.0504472 0.0501727 0.051332 0.0528449 0.0533199 0.0525577 0.050426 0.0472864 0.0435772 0.039851 0.0363421 0.0334498 0.0311023 0.0293566 0.0280804 0.0271538 0.0266595 0.0263788 0.0263485 0.0263788 0.0266595 0.0271538 0.0280804 0.0293566 0.0311023 0.0334498 0.0363421 0.039851 0.0435772 0.0472864 0.050426 0.0525577 0.0533199 0.0528449 0.051332 0.0501727 0.0504472 0.0533887 0.0592594 0.0672235 0.075439 0.0820023 0.0863446 0.0902332 0.096531 0.107685 0.122811 0.139135 0.155873 0.179269 0.223845 0.312818 0.485661 0.804543 1.3165 1.91853 2.19113 1.4652 -0.678908 -3.78182 -6.45176 -7.19223 -5.49288 -2.20516 1.10172 3.17897 3.69082 3.08104 2.05114 1.1247 0.510131 0.187659 0.0524052 0.00855499 -0.00101193 -0.00138126 -0.000573287 -0.000140096 -1.23601e-05 6.56698e-06 3.80807e-06 1.03329e-06 1.0562e-07 -4.26508e-08 -2.47199e-08 -5.59796e-09 -1.15156e-11 4.21434e-10 1.31887e-10 8.8418e-12 -6.55153e-12 -2.29316e-12 -1.57509e-13 1.01878e-13 3.19791e-14 1.09993e-15 -1.49056e-15 -3.42553e-16 1.02145e-17 1.7687e-17 2.46418e-18 -3.55774e-19 -1.50935e-19 -7.93514e-21 4.31493e-21 8.17661e-22 -3.84159e-23 -2.90016e-23 -2.07344e-24 5.61702e-25 1.07499e-25 -3.35356e-27 -2.7064e-27 -1.52742e-28 4.35795e-30 8.92398e-30 0 0 
0 0 3.92045e-30 2.07029e-29 2.40755e-29 -9.65749e-28 -4.9294e-27 2.53014e-26 3.16963e-25 2.05597e-25 -1.15482e-23 -5.26201e-23 1.95987e-22 2.47585e-21 3.45376e-21 -5.8943e-20 -3.19206e-19 3.25823e-19 9.10281e-18 2.67208e-17 -1.01182e-16 -9.45037e-16 -1.54407e-15 1.22114e-14 7.48488e-14 7.47132e-14 -9.64919e-13 -5.01111e-12 -5.08989e-12 5.41101e-11 2.9755e-10 5.07712e-10 -1.80489e-09 -1.46629e-08 -4.37225e-08 -1.95535e-08 4.53503e-07 2.47161e-06 6.74995e-06 3.95949e-06 -6.05e-05 -0.000353204 -0.00111523 -0.00186758 0.00189111 0.0273241 0.119511 0.366014 0.886827 1.7639 2.8977 3.85991 3.91175 2.34807 -0.906813 -4.88034 -7.82954 -8.25975 -5.97457 -2.23597 1.14832 2.99812 3.23573 2.50706 1.53779 0.764567 0.308128 0.102973 0.0355524 0.0245327 0.0326871 0.0459958 0.0569765 0.0609481 0.0581261 0.0529174 0.0500839 0.0511032 0.0539845 0.0555069 0.0534583 0.0480134 0.0410735 0.0347717 0.0310203 0.0302325 0.0319584 0.0351267 0.0385428 0.0414124 0.043257 0.0439091 0.0434526 0.0422452 0.0406513 0.0388636 0.0371236 0.0356254 0.0345714 0.0338819 0.033646 0.0338819 0.0345714 0.0356254 0.0371236 0.0388636 0.0406513 0.0422452 0.0434526 0.0439091 0.043257 0.0414124 0.0385428 0.0351267 0.0319584 0.0302325 0.0310203 0.0347717 0.0410735 0.0480134 0.0534583 0.0555069 0.0539845 0.0511032 0.0500839 0.0529174 0.0581261 0.0609481 0.0569765 0.0459958 0.0326871 0.0245327 0.0355524 0.102973 0.308128 0.764567 1.53779 2.50706 3.23573 2.99812 1.14832 -2.23597 -5.97457 -8.25975 -7.82954 -4.88034 -0.906813 2.34807 3.91175 3.85991 2.8977 1.7639 0.886827 0.366014 0.119511 0.0273241 0.00189111 -0.00186758 -0.00111523 -0.000353204 -6.05e-05 3.95949e-06 6.74995e-06 2.47161e-06 4.53503e-07 -1.95535e-08 -4.37225e-08 -1.46629e-08 -1.80489e-09 5.07712e-10 2.9755e-10 5.41099e-11 -5.08662e-12 -4.99398e-12 -9.61008e-13 7.44579e-14 7.45576e-14 1.21624e-14 -1.53862e-15 -9.41474e-16 -1.00785e-16 2.66261e-17 9.06951e-18 3.24479e-19 -3.18091e-19 -5.87325e-20 3.44283e-21 2.46737e-21 1.95293e-22 -5.24471e-23 -1.15095e-23 2.05042e-25 3.15933e-25 2.52178e-26 -4.91133e-27 -9.75344e-28 -1.69989e-28 7.59256e-30 0 0 
0 0 7.82288e-30 -1.18599e-29 -2.12084e-28 -2.72177e-27 -6.39912e-28 1.22358e-25 5.17933e-25 -2.91783e-24 -3.14049e-23 -1.80957e-23 9.98654e-22 4.46297e-21 -1.29946e-20 -1.77622e-19 -3.29592e-19 3.27787e-18 2.04516e-17 2.72425e-18 -4.33872e-16 -1.70784e-15 1.99665e-15 3.96007e-14 1.17206e-13 -2.20391e-13 -2.79125e-12 -7.68522e-12 1.11608e-11 1.58717e-10 5.12629e-10 4.02174e-11 -6.65802e-09 -3.07908e-08 -5.81323e-08 1.13703e-07 1.2913e-06 4.99933e-06 9.15411e-06 -1.44094e-05 -0.000180985 -0.000750517 -0.00180915 -0.00130763 0.0111647 0.0676009 0.239239 0.641634 1.39237 2.49093 3.65034 4.21913 3.38857 0.733273 -3.21996 -6.95148 -8.72559 -7.72701 -4.60582 -0.933915 1.88976 3.30625 3.48291 2.87282 1.9345 1.036 0.39345 0.0460979 -0.0845285 -0.102564 -0.0807462 -0.0514313 -0.0233551 0.000712465 0.0176139 0.0257221 0.0265238 0.0244109 0.0235853 0.0260774 0.0310849 0.0362753 0.0391722 0.0387304 0.0350875 0.0295647 0.0238365 0.0190697 0.0162572 0.015353 0.0162465 0.0182792 0.0210339 0.0239261 0.0266589 0.0289898 0.0308508 0.0322487 0.0332143 0.0338425 0.0339632 0.0338425 0.0332143 0.0322487 0.0308508 0.0289898 0.0266589 0.0239261 0.0210339 0.0182792 0.0162465 0.015353 0.0162572 0.0190697 0.0238365 0.0295647 0.0350875 0.0387304 0.0391722 0.0362753 0.0310849 0.0260774 0.0235853 0.0244109 0.0265238 0.0257221 0.0176139 0.000712465 -0.0233551 -0.0514313 -0.0807462 -0.102564 -0.0845285 0.0460979 0.39345 1.036 1.9345 2.87282 3.48291 3.30625 1.88976 -0.933915 -4.60582 -7.72701 -8.72559 -6.95148 -3.21996 0.733273 3.38857 4.21913 3.65034 2.49093 1.39237 0.641634 0.239239 0.0676009 0.0111647 -0.00130763 -0.00180915 -0.000750517 -0.000180985 -1.44094e-05 9.15411e-06 4.99933e-06 1.2913e-06 1.13703e-07 -5.81323e-08 -3.07908e-08 -6.65802e-09 4.02175e-11 5.12628e-10 1.58718e-10 1.11704e-11 -7.65414e-12 -2.77952e-12 -2.19373e-13 1.16766e-13 3.94459e-14 1.98787e-15 -1.70154e-15 -4.32229e-16 2.72528e-18 2.03781e-17 3.26578e-18 -3.28498e-19 -1.76999e-19 -1.2947e-20 4.44798e-21 9.95226e-22 -1.80482e-23 -3.13009e-23 -2.90794e-24 5.16281e-25 1.21961e-25 -6.3777e-28 -2.78675e-27 -7.08556e-28 -3.48942e-29 0 0 
0 0 3.78278e-30 -1.87583e-28 -9.91076e-28 -4.25644e-27 2.94352e-26 3.11999e-25 8.04962e-27 -1.24615e-23 -4.99915e-23 2.44496e-22 2.63588e-21 2.61153e-21 -6.82263e-20 -3.37811e-19 5.03786e-19 1.03995e-17 2.79902e-17 -1.26003e-16 -1.07865e-15 -1.59752e-15 1.4566e-14 8.56587e-14 7.97042e-14 -1.11874e-12 -5.74695e-12 -6.01879e-12 6.08033e-11 3.42771e-10 6.27659e-10 -1.88475e-09 -1.68651e-08 -5.3704e-08 -3.7686e-08 5.0565e-07 2.98348e-06 8.58296e-06 6.41818e-06 -7.07242e-05 -0.000430592 -0.00137515 -0.00231781 0.00223747 0.0329646 0.143091 0.432936 1.03254 2.01333 3.22501 4.15322 3.99464 2.09167 -1.43762 -5.40062 -8.04149 -8.17172 -5.9959 -2.84139 -0.070281 1.73724 2.69043 3.03446 2.88008 2.31871 1.54389 0.794664 0.242106 -0.0640088 -0.174776 -0.178532 -0.145022 -0.107504 -0.0739525 -0.0440168 -0.0189569 -0.0015327 0.00715026 0.00888497 0.00752499 0.00684278 0.00892157 0.0136809 0.0196797 0.0251267 0.0286389 0.0295744 0.0282236 0.0252037 0.0213168 0.0172808 0.0137099 0.0109159 0.00891447 0.00767523 0.0069628 0.00670743 0.00673327 0.00687424 0.00703902 0.00706051 0.00703902 0.00687424 0.00673327 0.00670743 0.0069628 0.00767523 0.00891447 0.0109159 0.0137099 0.0172808 0.0213168 0.0252037 0.0282236 0.0295744 0.0286389 0.0251267 0.0196797 0.0136809 0.00892157 0.00684278 0.00752499 0.00888497 0.00715026 -0.0015327 -0.0189569 -0.0440168 -0.0739525 -0.107504 -0.145022 -0.178532 -0.174776 -0.0640088 0.242106 0.794664 1.54389 2.31871 2.88008 3.03446 2.69043 1.73724 -0.070281 -2.84139 -5.9959 -8.17172 -8.04149 -5.40062 -1.43762 2.09167 3.99464 4.15322 3.22501 2.01333 1.03254 0.432936 0.143091 0.0329646 0.00223747 -0.00231781 -0.00137515 -0.000430592 -7.07242e-05 6.41818e-06 8.58296e-06 2.98348e-06 5.0565e-07 -3.7686e-08 -5.3704e-08 -1.68651e-08 -1.88475e-09 6.27659e-10 3.42775e-10 6.08232e-11 -5.9812e-12 -5.72219e-12 -1.11397e-12 7.94558e-14 8.53303e-14 1.45083e-14 -1.59203e-15 -1.07464e-15 -1.25516e-16 2.78927e-17 1.03619e-17 5.01804e-19 -3.36646e-19 -6.79857e-20 2.60373e-21 2.62695e-21 2.43644e-22 -4.98293e-23 -1.24201e-23 8.14706e-27 3.10998e-25 2.93253e-26 -4.44813e-27 -1.64393e-27 -1.90409e-28 0 0 
0 0 -3.60383e-29 -6.55714e-28 -2.51135e-27 3.17877e-28 1.16776e-25 4.64034e-25 -2.9993e-24 -3.04019e-23 -1.08948e-23 1.01786e-21 4.39625e-21 -1.41903e-20 -1.84059e-19 -3.27971e-19 3.50954e-18 2.16639e-17 2.31732e-18 -4.6735e-16 -1.85577e-15 2.05344e-15 4.28961e-14 1.31083e-13 -2.16775e-13 -3.01314e-12 -8.78338e-12 9.55877e-12 1.68938e-10 5.88881e-10 2.50978e-10 -6.82833e-09 -3.48782e-08 -7.54679e-08 8.89426e-08 1.41265e-06 5.90535e-06 1.19091e-05 -1.23331e-05 -0.000202683 -0.000874032 -0.00216114 -0.00175097 0.0122761 0.0763447 0.270236 0.719143 1.53948 2.69974 3.844 4.24745 3.10865 0.168793 -3.76486 -7.0037 -8.01116 -6.52994 -3.72665 -1.15899 0.398011 1.16091 1.65861 2.11356 2.41386 2.39268 2.0134 1.39333 0.735113 0.214452 -0.095129 -0.218303 -0.226868 -0.190257 -0.148336 -0.113091 -0.0830419 -0.0553785 -0.0307923 -0.0126212 -0.00252655 3.92644e-05 -0.00174967 -0.00435858 -0.00496781 -0.00251408 0.00256198 0.00902086 0.0154182 0.0206244 0.0240029 0.0255383 0.0254131 0.0241132 0.0222193 0.019909 0.0176993 0.0156733 0.0140668 0.0129741 0.0122353 0.0120928 0.0122353 0.0129741 0.0140668 0.0156733 0.0176993 0.019909 0.0222193 0.0241132 0.0254131 0.0255383 0.0240029 0.0206244 0.0154182 0.00902086 0.00256198 -0.00251408 -0.00496781 -0.00435858 -0.00174967 3.92644e-05 -0.00252655 -0.0126212 -0.0307923 -0.0553785 -0.0830419 -0.113091 -0.148336 -0.190257 -0.226868 -0.218303 -0.095129 0.214452 0.735113 1.39333 2.0134 2.39268 2.41386 2.11356 1.65861 1.16091 0.398011 -1.15899 -3.72665 -6.52994 -8.01116 -7.0037 -3.76486 0.168793 3.10865 4.24745 3.844 2.69974 1.53948 0.719143 0.270236 0.0763447 0.0122761 -0.00175097 -0.00216114 -0.000874032 -0.000202683 -1.23331e-05 1.19091e-05 5.90535e-06 1.41265e-06 8.89426e-08 -7.54678e-08 -3.48782e-08 -6.82832e-09 2.50976e-10 5.8889e-10 1.68968e-10 9.56654e-12 -8.74445e-12 -3.00062e-12 -2.15778e-13 1.30595e-13 4.27301e-14 2.04438e-15 -1.84901e-15 -4.65599e-16 2.32103e-18 2.15869e-17 3.49674e-18 -3.269e-19 -1.8342e-19 -1.41389e-20 4.38165e-21 1.0144e-21 -1.08718e-23 -3.03023e-23 -2.98925e-24 4.62572e-25 1.1634e-25 -1.79473e-29 -1.9488e-27 -5.22186e-28 0 0 
0 0 -1.62655e-28 -1.41011e-27 -3.82143e-27 2.5528e-26 2.75721e-25 1.91919e-26 -1.1275e-23 -4.66351e-23 2.22463e-22 2.49419e-21 2.77598e-21 -6.48638e-20 -3.35873e-19 4.32505e-19 1.02619e-17 2.96695e-17 -1.17982e-16 -1.09917e-15 -1.87811e-15 1.39594e-14 8.94567e-14 1.08737e-13 -1.06652e-12 -6.05939e-12 -8.38506e-12 5.54302e-11 3.58155e-10 7.85189e-10 -1.40908e-09 -1.70784e-08 -6.15671e-08 -7.0439e-08 4.61754e-07 3.20223e-06 1.01101e-05 1.07889e-05 -6.78639e-05 -0.000463494 -0.00155071 -0.00279292 0.00166552 0.0342903 0.152998 0.465726 1.10762 2.13892 3.3664 4.20707 3.81556 1.60506 -2.08446 -5.79814 -7.72177 -6.98483 -4.35312 -1.55535 0.127239 0.61614 0.59869 0.684872 1.04839 1.55933 1.98393 2.11518 1.8813 1.37498 0.778387 0.263358 -0.0745307 -0.230856 -0.260008 -0.227875 -0.182174 -0.143738 -0.114447 -0.0894213 -0.0652499 -0.042149 -0.0228583 -0.0098338 -0.00388874 -0.00360864 -0.00660865 -0.0103752 -0.0127649 -0.0128758 -0.0106502 -0.0066487 -0.00158731 0.00376997 0.00882776 0.0131381 0.0165409 0.0191208 0.0209582 0.0222128 0.0229096 0.0233395 0.0235277 0.0233395 0.0229096 0.0222128 0.0209582 0.0191208 0.0165409 0.0131381 0.00882776 0.00376997 -0.00158731 -0.0066487 -0.0106502 -0.0128758 -0.0127649 -0.0103752 -0.00660865 -0.00360864 -0.00388874 -0.0098338 -0.0228583 -0.042149 -0.0652499 -0.0894213 -0.114447 -0.143738 -0.182174 -0.227875 -0.260008 -0.230856 -0.0745307 0.263358 0.778387 1.37498 1.8813 2.11518 1.98393 1.55933 1.04839 0.684872 0.59869 0.61614 0.127239 -1.55535 -4.35312 -6.98483 -7.72177 -5.79814 -2.08446 1.60506 3.81556 4.20707 3.3664 2.13892 1.10762 0.465726 0.152998 0.0342903 0.00166552 -0.00279292 -0.00155071 -0.000463494 -6.78639e-05 1.07889e-05 1.01101e-05 3.20223e-06 4.61754e-07 -7.04389e-08 -6.15671e-08 -1.70784e-08 -1.40908e-09 7.85208e-10 3.58185e-10 5.53175e-11 -8.34526e-12 -6.03473e-12 -1.06208e-12 1.08374e-13 8.91164e-14 1.39044e-14 -1.87167e-15 -1.09512e-15 -1.17529e-16 2.95671e-17 1.02252e-17 4.30789e-19 -3.34726e-19 -6.46371e-20 2.76768e-21 2.48584e-21 2.21695e-22 -4.64853e-23 -1.12379e-23 1.9234e-26 2.74691e-25 2.53705e-26 2.11623e-27 -8.80267e-28 0 0 
0 0 -4.17654e-28 -1.72619e-27 -7.77279e-28 9.35901e-26 4.13926e-25 -2.31551e-24 -2.63203e-23 -1.95869e-23 8.63834e-22 4.15461e-21 -1.07189e-20 -1.67028e-19 -3.62569e-19 2.99684e-18 2.09001e-17 1.14213e-17 -4.21905e-16 -1.89891e-15 9.76462e-16 3.99399e-14 1.40867e-13 -1.24565e-13 -2.82333e-12 -9.59972e-12 2.98508e-12 1.54232e-10 6.27816e-10 6.36721e-10 -5.71798e-09 -3.53532e-08 -9.22472e-08 2.09657e-08 1.3162e-06 6.27212e-06 1.46258e-05 -4.1245e-06 -0.000193639 -0.000912313 -0.00240993 -0.00251284 0.0109121 0.0758331 0.276092 0.742713 1.59334 2.78016 3.9041 4.18693 2.82078 -0.346802 -4.29723 -7.16634 -7.47181 -5.28751 -2.18185 0.103851 0.912064 0.713852 0.274381 0.0458556 0.163026 0.596032 1.18587 1.69651 1.93405 1.82467 1.42563 0.886882 0.373505 -0.003753 -0.21142 -0.278565 -0.26262 -0.216392 -0.171673 -0.139068 -0.116039 -0.096531 -0.0765497 -0.0557884 -0.0361317 -0.0201466 -0.00959148 -0.00451822 -0.00402843 -0.00637499 -0.0100481 -0.0137493 -0.0165569 -0.0182168 -0.0186074 -0.018058 -0.0167955 -0.0152165 -0.0135085 -0.0119217 -0.0108153 -0.0100684 -0.00984006 -0.0100684 -0.0108153 -0.0119217 -0.0135085 -0.0152165 -0.0167955 -0.018058 -0.0186074 -0.0182168 -0.0165569 -0.0137493 -0.0100481 -0.00637499 -0.00402843 -0.00451822 -0.00959148 -0.0201466 -0.0361317 -0.0557884 -0.0765497 -0.096531 -0.116039 -0.139068 -0.171673 -0.216392 -0.26262 -0.278565 -0.21142 -0.003753 0.373505 0.886882 1.42563 1.82467 1.93405 1.69651 1.18587 0.596032 0.163026 0.0458556 0.274381 0.713852 0.912064 0.103851 -2.18185 -5.28751 -7.47181 -7.16634 -4.29723 -0.346802 2.82078 4.18693 3.9041 2.78016 1.59334 0.742713 0.276092 0.0758331 0.0109121 -0.00251284 -0.00240993 -0.000912313 -0.000193639 -4.1245e-06 1.46258e-05 6.27212e-06 1.3162e-06 2.09657e-08 -9.22471e-08 -3.53531e-08 -5.71798e-09 6.36751e-10 6.27807e-10 1.53825e-10 2.98097e-12 -9.56164e-12 -2.81194e-12 -1.23954e-13 1.40344e-13 3.97863e-14 9.71492e-16 -1.89205e-15 -4.20335e-16 1.13917e-17 2.08264e-17 2.98597e-18 -3.61382e-19 -1.66453e-19 -1.068e-20 4.14093e-21 8.60923e-22 -1.9534e-23 -2.62348e-23 -2.30784e-24 4.12389e-25 9.48449e-26 1.8509e-26 -4.48004e-28 0 0 
0 0 -7.14694e-28 7.88253e-28 1.62971e-26 2.17e-25 1.70739e-25 -8.49419e-24 -4.20555e-23 1.45111e-22 2.07707e-21 3.64087e-21 -5.00787e-20 -3.08402e-19 1.50359e-19 8.63646e-18 3.06167e-17 -7.89715e-17 -9.83691e-16 -2.25888e-15 1.03597e-14 8.341e-14 1.50728e-13 -8.01559e-13 -5.72228e-12 -1.13017e-11 3.81942e-11 3.30143e-10 9.1674e-10 -4.56098e-10 -1.47311e-08 -6.36898e-08 -1.09319e-07 3.13556e-07 2.98833e-06 1.08092e-05 1.63006e-05 -4.98636e-05 -0.000435357 -0.00158943 -0.00321228 9.31326e-05 0.0303755 0.146125 0.458173 1.10648 2.15238 3.389 4.19918 3.70243 1.32605 -2.48451 -6.11443 -7.66886 -6.39573 -3.32846 -0.400005 1.11415 1.25649 0.75963 0.194599 -0.211705 -0.352513 -0.166823 0.298792 0.899843 1.45086 1.77822 1.78853 1.5054 1.04122 0.540662 0.124663 -0.146254 -0.272324 -0.292193 -0.256414 -0.205859 -0.163221 -0.13492 -0.11728 -0.104017 -0.0901063 -0.0738159 -0.0558091 -0.038334 -0.0233689 -0.0121995 -0.00518251 -0.00190826 -0.00158521 -0.0032898 -0.0059291 -0.00899216 -0.0117923 -0.0142844 -0.0162881 -0.0177199 -0.0187237 -0.0192942 -0.0195557 -0.0192942 -0.0187237 -0.0177199 -0.0162881 -0.0142844 -0.0117923 -0.00899216 -0.0059291 -0.0032898 -0.00158521 -0.00190826 -0.00518251 -0.0121995 -0.0233689 -0.038334 -0.0558091 -0.0738159 -0.0901063 -0.104017 -0.11728 -0.13492 -0.163221 -0.205859 -0.256414 -0.292193 -0.272324 -0.146254 0.124663 0.540662 1.04122 1.5054 1.78853 1.77822 1.45086 0.899843 0.298792 -0.166823 -0.352513 -0.211705 0.194599 0.75963 1.25649 1.11415 -0.400005 -3.32846 -6.39573 -7.66886 -6.11443 -2.48451 1.32605 3.70243 4.19918 3.389 2.15238 1.10648 0.458173 0.146125 0.0303755 9.31326e-05 -0.00321228 -0.00158943 -0.000435357 -4.98636e-05 1.63006e-05 1.08092e-05 2.98833e-06 3.13556e-07 -1.09319e-07 -6.36897e-08 -1.47311e-08 -4.5607e-10 9.1661e-10 3.29165e-10 3.8047e-11 -1.12592e-11 -5.69971e-12 -7.98229e-13 1.502e-13 8.30946e-14 1.03186e-14 -2.25103e-15 -9.80092e-16 -7.86639e-17 3.05111e-17 8.60574e-18 1.49661e-19 -3.07356e-19 -4.99046e-20 3.62952e-21 2.07016e-21 1.44608e-22 -4.19209e-23 -8.46657e-24 1.70169e-25 2.2248e-25 5.77386e-26 2.86069e-27 0 0 
0 0 -6.0036e-28 1.10388e-26 6.24688e-26 3.50818e-25 -1.25588e-24 -1.99343e-23 -3.39109e-23 5.94891e-22 3.62689e-21 -4.55513e-21 -1.29806e-19 -3.93948e-19 1.94079e-18 1.78737e-17 2.46494e-17 -3.08744e-16 -1.76237e-15 -7.52437e-16 3.09893e-14 1.38502e-13 2.10809e-14 -2.21964e-12 -9.54302e-12 -6.11886e-12 1.15737e-10 5.97503e-10 1.04478e-09 -3.53872e-09 -3.10939e-08 -1.00891e-07 -7.09056e-08 9.97655e-07 5.86429e-06 1.63168e-05 8.26983e-06 -0.000152937 -0.000844111 -0.0024727 -0.00340705 0.00727593 0.0658041 0.25506 0.708437 1.55069 2.74147 3.87766 4.15685 2.74136 -0.513287 -4.51029 -7.27706 -7.3044 -4.78895 -1.4807 0.817935 1.55415 1.30336 0.772479 0.252128 -0.196006 -0.493031 -0.559743 -0.368267 0.0608777 0.637418 1.20448 1.60447 1.73647 1.58445 1.2187 0.757883 0.319026 -0.0163403 -0.217983 -0.299442 -0.297727 -0.2546 -0.202433 -0.159385 -0.131351 -0.115869 -0.10729 -0.100437 -0.0920183 -0.0808411 -0.0675107 -0.0531401 -0.0393328 -0.0269683 -0.0169463 -0.00930562 -0.00387668 -0.000283591 0.00182347 0.00297292 0.00341081 0.00354229 0.00359332 0.00355303 0.00359332 0.00354229 0.00341081 0.00297292 0.00182347 -0.000283591 -0.00387668 -0.00930562 -0.0169463 -0.0269683 -0.0393328 -0.0531401 -0.0675107 -0.0808411 -0.0920183 -0.100437 -0.10729 -0.115869 -0.131351 -0.159385 -0.202433 -0.2546 -0.297727 -0.299442 -0.217983 -0.0163403 0.319026 0.757883 1.2187 1.58445 1.73647 1.60447 1.20448 0.637418 0.0608777 -0.368267 -0.559743 -0.493031 -0.196006 0.252128 0.772479 1.30336 1.55415 0.817935 -1.4807 -4.78895 -7.3044 -7.27706 -4.51029 -0.513287 2.74136 4.15685 3.87766 2.74147 1.55069 0.708437 0.25506 0.0658041 0.00727593 -0.00340705 -0.0024727 -0.000844111 -0.000152937 8.26985e-06 1.63168e-05 5.86429e-06 9.97654e-07 -7.09056e-08 -1.00891e-07 -3.10939e-08 -3.53872e-09 1.04438e-09 5.95585e-10 1.1527e-10 -6.10237e-12 -9.50633e-12 -2.21074e-12 2.11116e-14 1.37988e-13 3.08703e-14 -7.50814e-16 -1.75602e-15 -3.07596e-16 2.4571e-17 1.7811e-17 1.93372e-18 -3.92647e-19 -1.29362e-19 -4.53778e-21 3.61498e-21 5.92895e-22 -3.38086e-23 -1.98701e-23 -1.25091e-24 3.6486e-25 1.22748e-25 1.25973e-26 0 0 
0 0 1.05401e-27 3.58498e-26 1.50468e-25 3.11025e-25 -5.10915e-24 -3.43877e-23 5.31401e-23 1.4706e-21 4.27806e-21 -2.95811e-20 -2.50193e-19 -1.79023e-19 5.95987e-18 2.85746e-17 -2.63136e-17 -7.45514e-16 -2.44129e-15 5.0862e-15 6.68654e-14 1.80175e-13 -4.09329e-13 -4.6537e-12 -1.31137e-11 1.47013e-11 2.58004e-10 9.39925e-10 6.31875e-10 -1.02209e-08 -5.74672e-08 -1.37928e-07 1.0347e-07 2.34578e-06 1.0234e-05 2.08896e-05 -2.16293e-05 -0.000348937 -0.00146056 -0.00341686 -0.00200925 0.0222006 0.123928 0.411691 1.02993 2.05533 3.30187 4.15953 3.72189 1.36718 -2.48085 -6.15562 -7.66859 -6.2394 -2.99692 0.00148601 1.47973 1.60639 1.19825 0.752158 0.335323 -0.0585599 -0.384729 -0.603905 -0.667219 -0.516348 -0.146275 0.375765 0.934529 1.39237 1.6383 1.6285 1.39043 1.0058 0.578187 0.19617 -0.0852585 -0.250022 -0.313716 -0.307116 -0.263908 -0.211043 -0.164863 -0.132383 -0.113412 -0.104394 -0.100907 -0.0991008 -0.0966855 -0.0923902 -0.0861941 -0.0785277 -0.0701029 -0.0616967 -0.0537638 -0.0468493 -0.0410956 -0.0365781 -0.0333849 -0.0314477 -0.0308613 -0.0314477 -0.0333849 -0.0365781 -0.0410956 -0.0468493 -0.0537638 -0.0616967 -0.0701029 -0.0785277 -0.0861941 -0.0923902 -0.0966855 -0.0991008 -0.100907 -0.104394 -0.113412 -0.132383 -0.164863 -0.211043 -0.263908 -0.307116 -0.313716 -0.250022 -0.0852585 0.19617 0.578187 1.0058 1.39043 1.6285 1.6383 1.39237 0.934529 0.375765 -0.146275 -0.516348 -0.667219 -0.603905 -0.384729 -0.0585599 0.335323 0.752158 1.19825 1.60639 1.47973 0.00148601 -2.99692 -6.2394 -7.66859 -6.15562 -2.48085 1.36718 3.72189 4.15953 3.30187 2.05533 1.02993 0.411691 0.123928 0.0222006 -0.00200925 -0.00341686 -0.00146056 -0.000348937 -2.16293e-05 2.08896e-05 1.0234e-05 2.34578e-06 1.0347e-07 -1.37928e-07 -5.74671e-08 -1.02209e-08 6.30998e-10 9.3667e-10 2.56943e-10 1.4625e-11 -1.30653e-11 -4.63545e-12 -4.07556e-13 1.79529e-13 6.66131e-14 5.06522e-15 -2.43272e-15 -7.42795e-16 -2.62004e-17 2.8476e-17 5.93871e-18 -1.78543e-19 -2.49348e-19 -2.94781e-20 4.26442e-21 1.46573e-21 5.29482e-23 -3.42783e-23 -5.08928e-24 3.37047e-25 1.85208e-25 3.2405e-26 0 0 
0 0 6.20754e-27 7.98575e-26 2.69787e-25 -3.15575e-25 -1.25988e-23 -4.07188e-23 3.07905e-22 2.74731e-21 1.09259e-21 -8.22703e-20 -3.71135e-19 7.78072e-19 1.29301e-17 3.32915e-17 -1.6673e-16 -1.40845e-15 -2.23979e-15 1.86322e-14 1.17842e-13 1.5331e-13 -1.35941e-12 -8.19094e-12 -1.3701e-11 6.42149e-11 4.86241e-10 1.27737e-09 -9.98288e-10 -2.26855e-08 -9.51535e-08 -1.51108e-07 5.46465e-07 4.68773e-06 1.60188e-05 2.03081e-05 -9.19166e-05 -0.000678445 -0.00228931 -0.00408405 0.00248886 0.0488575 0.211733 0.622439 1.41738 2.5873 3.7673 4.16488 2.89124 -0.292216 -4.34368 -7.23273 -7.3195 -4.73838 -1.32155 1.00967 1.70596 1.45888 1.04473 0.700062 0.382999 0.0863793 -0.184674 -0.440553 -0.642535 -0.720068 -0.624268 -0.336518 0.114163 0.640132 1.12769 1.47168 1.60381 1.51497 1.24854 0.879817 0.492065 0.152064 -0.10057 -0.25462 -0.321491 -0.324162 -0.288968 -0.238545 -0.188472 -0.147799 -0.119198 -0.102158 -0.0938485 -0.0913636 -0.0918833 -0.0935025 -0.0949869 -0.0956901 -0.0956083 -0.0949523 -0.0938066 -0.092531 -0.0914651 -0.0907045 -0.0904569 -0.0907045 -0.0914651 -0.092531 -0.0938066 -0.0949523 -0.0956083 -0.0956901 -0.0949869 -0.0935025 -0.0918833 -0.0913636 -0.0938485 -0.102158 -0.119198 -0.147799 -0.188472 -0.238545 -0.288968 -0.324162 -0.321491 -0.25462 -0.10057 0.152064 0.492065 0.879817 1.24854 1.51497 1.60381 1.47168 1.12769 0.640132 0.114163 -0.336518 -0.624268 -0.720068 -0.642535 -0.440553 -0.184674 0.0863793 0.382999 0.700062 1.04473 1.45888 1.70596 1.00967 -1.32155 -4.73838 -7.3195 -7.23273 -4.34368 -0.292216 2.89124 4.16488 3.7673 2.5873 1.41738 0.622439 0.211733 0.0488575 0.00248886 -0.00408405 -0.00228931 -0.000678445 -9.19166e-05 2.03081e-05 1.60188e-05 4.68773e-06 5.46465e-07 -1.51109e-07 -9.51535e-08 -2.26858e-08 -9.99936e-10 1.27252e-09 4.84224e-10 6.39264e-11 -1.36546e-11 -8.15944e-12 -1.35389e-12 1.52814e-13 1.17405e-13 1.856e-14 -2.23246e-15 -1.40339e-15 -1.66103e-16 3.31804e-17 1.28849e-17 7.75137e-19 -3.69902e-19 -8.19893e-20 1.09037e-21 2.7383e-21 3.06869e-22 -4.0592e-23 -1.255e-23 -2.82086e-25 1.48841e-25 6.16048e-26 0 0 
0 0 1.72383e-26 1.36061e-25 3.51084e-25 -2.20195e-24 -2.36569e-23 -1.29612e-23 8.32864e-22 3.96595e-21 -1.0977e-20 -1.69101e-19 -3.78927e-19 3.09023e-18 2.2487e-17 1.66733e-17 -4.48472e-16 -2.19161e-15 2.32825e-16 4.34591e-14 1.74748e-13 -3.56987e-14 -3.07266e-12 -1.24872e-11 -6.38283e-12 1.59514e-10 8.10818e-10 1.42064e-09 -4.90734e-09 -4.34589e-08 -1.41668e-07 -9.37718e-08 1.4491e-06 8.33575e-06 2.2376e-05 7.15441e-06 -0.000227259 -0.00117822 -0.00326569 -0.00388121 0.0121345 0.0917731 0.335469 0.889416 1.8563 3.10364 4.07397 3.85363 1.71547 -2.0692 -5.89666 -7.66106 -6.37605 -3.08595 0.035784 1.56063 1.65565 1.24949 0.895805 0.62492 0.385394 0.185869 -0.00481923 -0.222219 -0.444074 -0.629767 -0.734595 -0.701745 -0.498791 -0.138374 0.328011 0.813743 1.22284 1.4805 1.54818 1.43197 1.17517 0.839763 0.490363 0.178485 -0.0642343 -0.226516 -0.313822 -0.34079 -0.326509 -0.288788 -0.241977 -0.196172 -0.156572 -0.125991 -0.104049 -0.0899192 -0.0816074 -0.0774738 -0.0760979 -0.0762925 -0.0772031 -0.0782473 -0.0791916 -0.0798305 -0.0800042 -0.0798305 -0.0791916 -0.0782473 -0.0772031 -0.0762925 -0.0760979 -0.0774738 -0.0816074 -0.0899192 -0.104049 -0.125991 -0.156572 -0.196172 -0.241977 -0.288788 -0.326509 -0.34079 -0.313822 -0.226516 -0.0642343 0.178485 0.490363 0.839763 1.17517 1.43197 1.54818 1.4805 1.22284 0.813743 0.328011 -0.138374 -0.498791 -0.701745 -0.734595 -0.629767 -0.444074 -0.222219 -0.00481923 0.185869 0.385394 0.62492 0.895805 1.24949 1.65565 1.56063 0.035784 -3.08595 -6.37605 -7.66106 -5.89666 -2.0692 1.71547 3.85363 4.07397 3.10364 1.8563 0.889416 0.335469 0.0917731 0.0121345 -0.00388121 -0.00326569 -0.00117822 -0.000227258 7.15445e-06 2.2376e-05 8.33575e-06 1.4491e-06 -9.37721e-08 -1.41668e-07 -4.34594e-08 -4.91007e-09 1.41437e-09 8.07438e-10 1.58828e-10 -6.37272e-12 -1.24404e-11 -3.06051e-12 -3.53988e-14 1.74113e-13 4.32946e-14 2.30288e-16 -2.18387e-15 -4.46832e-16 1.66283e-17 2.24094e-17 3.07921e-18 -3.77719e-19 -1.6853e-19 -1.09378e-20 3.95315e-21 8.30107e-22 -1.29292e-23 -2.35658e-23 -2.18642e-24 -1.86964e-25 8.69433e-26 0 0 
0 0 3.54867e-26 1.71237e-25 2.2415e-25 -6.1504e-24 -3.48708e-23 9.29625e-23 1.68678e-21 3.9109e-21 -3.86097e-20 -2.81491e-19 -5.87019e-20 7.38589e-18 3.19854e-17 -4.56587e-17 -9.11618e-16 -2.77283e-15 6.98708e-15 8.19291e-14 2.13896e-13 -5.20524e-13 -5.75037e-12 -1.64644e-11 1.64443e-11 3.20022e-10 1.2157e-09 1.01729e-09 -1.25818e-08 -7.47991e-08 -1.8725e-07 1.1151e-07 3.05109e-06 1.34496e-05 2.72309e-05 -2.97478e-05 -0.000456324 -0.0018678 -0.0042208 -0.00192289 0.0294313 0.155536 0.49957 1.20924 2.32374 3.55699 4.17054 3.22236 0.289263 -3.78718 -6.99556 -7.4657 -5.04911 -1.52389 0.988278 1.74965 1.47223 1.05358 0.767653 0.540095 0.359044 0.233629 0.10932 -0.0442352 -0.217666 -0.407496 -0.590806 -0.716913 -0.740404 -0.626958 -0.364592 0.0182061 0.463531 0.896811 1.24341 1.45096 1.49732 1.39189 1.17007 0.879332 0.568822 0.278988 0.0367713 -0.144606 -0.264421 -0.329758 -0.352282 -0.344806 -0.318768 -0.283684 -0.246154 -0.210628 -0.179344 -0.153404 -0.132681 -0.116907 -0.105206 -0.0969989 -0.0915943 -0.0885441 -0.0876301 -0.0885441 -0.0915943 -0.0969989 -0.105206 -0.116907 -0.132681 -0.153404 -0.179344 -0.210628 -0.246154 -0.283684 -0.318768 -0.344806 -0.352282 -0.329758 -0.264421 -0.144606 0.0367713 0.278988 0.568822 0.879332 1.17007 1.39189 1.49732 1.45096 1.24341 0.896811 0.463531 0.0182061 -0.364592 -0.626958 -0.740404 -0.716913 -0.590806 -0.407496 -0.217666 -0.0442352 0.10932 0.233629 0.359044 0.540095 0.767653 1.05358 1.47223 1.74965 0.988278 -1.52389 -5.04911 -7.4657 -6.99556 -3.78718 0.289263 3.22236 4.17054 3.55699 2.32374 1.20924 0.49957 0.155536 0.0294313 -0.00192289 -0.0042208 -0.0018678 -0.000456324 -2.97478e-05 2.72309e-05 1.34496e-05 3.05109e-06 1.1151e-07 -1.8725e-07 -7.48002e-08 -1.25859e-08 1.01072e-09 1.21062e-09 3.1868e-10 1.63538e-11 -1.64047e-11 -5.72808e-12 -5.1828e-13 2.13146e-13 8.16241e-14 6.95874e-15 -2.76329e-15 -9.08336e-16 -4.54731e-17 3.1877e-17 7.36003e-18 -5.86704e-20 -2.80553e-19 -3.84771e-20 3.89874e-21 1.68125e-21 9.2645e-23 -3.47378e-23 -6.21669e-24 -1.13426e-24 7.18123e-26 0 0 
0 0 5.85107e-26 1.10243e-25 -4.09521e-25 -1.27084e-23 -3.70264e-23 3.35077e-22 2.78699e-21 3.66863e-22 -8.82003e-20 -3.82024e-19 9.08571e-19 1.39953e-17 3.52747e-17 -1.85198e-16 -1.554e-15 -2.53518e-15 2.04405e-14 1.3317e-13 1.92388e-13 -1.46574e-12 -9.45136e-12 -1.79899e-11 6.52195e-11 5.6376e-10 1.63722e-09 -4.99767e-10 -2.58662e-08 -1.17613e-07 -2.10763e-07 5.7705e-07 5.60804e-06 1.98482e-05 2.68451e-05 -0.000105227 -0.000807394 -0.00273326 -0.00485302 0.00296235 0.057147 0.2442 0.705694 1.57269 2.79056 3.90197 4.02602 2.30417 -1.26568 -5.2901 -7.57286 -6.75415 -3.56125 -0.215839 1.5454 1.7009 1.25673 0.896871 0.658999 0.458335 0.323931 0.244183 0.160849 0.0644444 -0.0456568 -0.188666 -0.357465 -0.526756 -0.668983 -0.74175 -0.706772 -0.546719 -0.264608 0.10742 0.516012 0.901456 1.20781 1.39717 1.45477 1.38736 1.22016 0.986885 0.723401 0.461291 0.223758 0.0251696 -0.12869 -0.238578 -0.309502 -0.348684 -0.363991 -0.362741 -0.3511 -0.333998 -0.314811 -0.296172 -0.279618 -0.266223 -0.256308 -0.250363 -0.24835 -0.250363 -0.256308 -0.266223 -0.279618 -0.296172 -0.314811 -0.333998 -0.3511 -0.362741 -0.363991 -0.348684 -0.309502 -0.238578 -0.12869 0.0251696 0.223758 0.461291 0.723401 0.986885 1.22016 1.38736 1.45477 1.39717 1.20781 0.901456 0.516012 0.10742 -0.264608 -0.546719 -0.706772 -0.74175 -0.668983 -0.526756 -0.357465 -0.188666 -0.0456568 0.0644444 0.160849 0.244183 0.323931 0.458335 0.658999 0.896871 1.25673 1.7009 1.5454 -0.215839 -3.56125 -6.75415 -7.57286 -5.2901 -1.26568 2.30417 4.02602 3.90197 2.79056 1.57269 0.705694 0.2442 0.057147 0.00296235 -0.00485303 -0.00273326 -0.000807394 -0.000105227 2.68452e-05 1.98483e-05 5.60804e-06 5.7705e-07 -2.10764e-07 -1.17615e-07 -2.58717e-08 -5.0397e-10 1.63033e-09 5.61443e-10 6.49239e-11 -1.79289e-11 -9.4154e-12 -1.4598e-12 1.91772e-13 1.32682e-13 2.03617e-14 -2.52704e-15 -1.54848e-15 -1.84507e-16 3.5159e-17 1.39469e-17 9.0519e-19 -3.8077e-19 -8.7902e-20 3.67188e-22 2.77796e-21 3.33971e-22 -3.68896e-23 -1.29745e-23 -3.05611e-24 -5.25754e-26 0 0 
0 0 7.64131e-26 -1.72528e-25 -1.95956e-24 -2.15133e-23 -1.3267e-23 7.69548e-22 3.7885e-21 -9.85937e-21 -1.6233e-19 -3.91758e-19 2.90592e-18 2.25082e-17 2.19248e-17 -4.34536e-16 -2.29449e-15 -5.35015e-16 4.29412e-14 1.90772e-13 4.58695e-14 -3.04453e-12 -1.39665e-11 -1.36044e-11 1.52793e-10 9.01217e-10 1.93923e-09 -3.94228e-09 -4.6733e-08 -1.69941e-07 -1.75959e-07 1.44692e-06 9.33267e-06 2.6799e-05 1.55638e-05 -0.000236725 -0.00130201 -0.00371125 -0.00471549 0.0121714 0.0980305 0.360669 0.952107 1.96524 3.22484 4.10141 3.63368 1.16222 -2.82088 -6.46346 -7.63565 -5.68144 -2.105 0.759958 1.77811 1.52938 1.06423 0.777174 0.564787 0.388351 0.291726 0.23429 0.172047 0.115386 0.0535141 -0.036669 -0.152621 -0.292471 -0.449783 -0.59642 -0.701752 -0.73469 -0.667322 -0.491888 -0.218721 0.123325 0.49026 0.836693 1.1211 1.31454 1.40485 1.39379 1.29699 1.13611 0.936057 0.72017 0.507312 0.311548 0.140923 -0.000611437 -0.113105 -0.198883 -0.261724 -0.305697 -0.335242 -0.354006 -0.365239 -0.37148 -0.374581 -0.376014 -0.376338 -0.376014 -0.374581 -0.37148 -0.365239 -0.354006 -0.335242 -0.305697 -0.261724 -0.198883 -0.113105 -0.000611437 0.140923 0.311548 0.507312 0.72017 0.936057 1.13611 1.29699 1.39379 1.40485 1.31454 1.1211 0.836693 0.49026 0.123325 -0.218721 -0.491888 -0.667322 -0.73469 -0.701752 -0.59642 -0.449783 -0.292471 -0.152621 -0.036669 0.0535141 0.115386 0.172047 0.23429 0.291726 0.388351 0.564787 0.777174 1.06423 1.52938 1.77811 0.759958 -2.105 -5.68144 -7.63565 -6.46346 -2.82088 1.16222 3.63368 4.10141 3.22484 1.96524 0.952107 0.360669 0.0980305 0.0121714 -0.0047155 -0.00371126 -0.00130201 -0.000236725 1.55638e-05 2.6799e-05 9.33267e-06 1.44692e-06 -1.7596e-07 -1.69944e-07 -4.67395e-08 -3.93901e-09 1.93099e-09 8.97583e-10 1.5214e-10 -1.35674e-11 -1.39145e-11 -3.03253e-12 4.58838e-14 1.90085e-13 4.27795e-14 -5.34924e-16 -2.28645e-15 -4.32955e-16 2.18627e-17 2.24312e-17 2.8956e-18 -3.90518e-19 -1.61787e-19 -9.82423e-21 3.77639e-21 7.67038e-22 -1.32323e-23 -2.21543e-23 -6.20904e-24 -3.86816e-25 0 0 
0 0 6.84076e-26 -8.4427e-25 -4.85827e-24 -3.04843e-23 6.07897e-23 1.42233e-21 3.97891e-21 -3.04874e-20 -2.55116e-19 -1.84568e-19 6.28821e-18 3.1302e-17 -2.25726e-17 -8.1734e-16 -2.93937e-15 4.45279e-15 7.60614e-14 2.40717e-13 -3.09746e-13 -5.40339e-12 -1.86861e-11 1.61745e-12 2.93198e-10 1.327e-09 1.88997e-09 -1.03519e-08 -7.68646e-08 -2.25234e-07 -2.94564e-08 2.88386e-06 1.43154e-05 3.28331e-05 -1.41135e-05 -0.000442263 -0.00194765 -0.00467741 -0.00322675 0.0272116 0.154475 0.506176 1.23353 2.36855 3.59583 4.13094 3.01085 -0.121266 -4.25985 -7.24442 -7.25041 -4.41473 -0.818718 1.39773 1.78272 1.32061 0.913612 0.682633 0.482343 0.334116 0.265938 0.215651 0.164852 0.131783 0.0965035 0.0446193 -0.020396 -0.109934 -0.22787 -0.362987 -0.50421 -0.628538 -0.707292 -0.71783 -0.641876 -0.475699 -0.231031 0.0694546 0.392788 0.705299 0.976418 1.18362 1.31536 1.36909 1.35227 1.27707 1.15892 1.01389 0.856133 0.69774 0.547039 0.410064 0.289662 0.187405 0.102807 0.0350607 -0.0175249 -0.0563869 -0.0830824 -0.0985506 -0.103666 -0.0985506 -0.0830824 -0.0563869 -0.0175249 0.0350607 0.102807 0.187405 0.289662 0.410064 0.547039 0.69774 0.856133 1.01389 1.15892 1.27707 1.35227 1.36909 1.31536 1.18362 0.976418 0.705299 0.392788 0.0694546 -0.231031 -0.475699 -0.641876 -0.71783 -0.707292 -0.628538 -0.50421 -0.362987 -0.22787 -0.109934 -0.020396 0.0446193 0.0965035 0.131783 0.164852 0.215651 0.265938 0.334116 0.482343 0.682633 0.913612 1.32061 1.78272 1.39773 -0.818718 -4.41473 -7.25041 -7.24442 -4.25985 -0.121266 3.01085 4.13094 3.59583 2.36855 1.23353 0.506176 0.154475 0.0272116 -0.00322675 -0.00467742 -0.00194765 -0.000442263 -1.41136e-05 3.28331e-05 1.43154e-05 2.88386e-06 -2.94577e-08 -2.25239e-07 -7.6871e-08 -1.03328e-08 1.88178e-09 1.32176e-09 2.91986e-10 1.58569e-12 -1.86182e-11 -5.38251e-12 -3.08293e-13 2.39873e-13 7.57795e-14 4.43376e-15 -2.92929e-15 -8.14409e-16 -2.24696e-17 3.11964e-17 6.26627e-18 -1.84098e-19 -2.54271e-19 -3.03829e-20 3.96654e-21 1.41773e-21 6.05178e-23 -3.17072e-23 -1.04908e-23 -1.0463e-24 0 0 
0 0 1.41589e-27 -2.07979e-24 -9.3944e-24 -3.51202e-23 2.13832e-22 2.25286e-21 2.24136e-21 -6.48284e-20 -3.47654e-19 4.05903e-19 1.12468e-17 3.71945e-17 -1.15283e-16 -1.33596e-15 -3.16351e-15 1.37979e-14 1.19776e-13 2.60179e-13 -9.71668e-13 -8.61728e-12 -2.24863e-11 3.39755e-11 4.99499e-10 1.81034e-09 1.14824e-09 -2.09205e-08 -1.17073e-07 -2.70853e-07 2.98144e-07 5.04569e-06 2.04386e-05 3.56503e-05 -7.1044e-05 -0.000737595 -0.0027309 -0.00544313 0.000291837 0.0495437 0.228186 0.679959 1.54153 2.76246 3.87754 3.98146 2.19503 -1.45752 -5.49162 -7.62149 -6.52091 -3.10526 0.219561 1.74081 1.65314 1.12592 0.802574 0.6023 0.41182 0.295164 0.245013 0.19488 0.152906 0.132137 0.107459 0.0776952 0.0460055 -0.00306934 -0.0726488 -0.162513 -0.276165 -0.402803 -0.527887 -0.63398 -0.697978 -0.702747 -0.636922 -0.497899 -0.294865 -0.0441144 0.231395 0.507714 0.762912 0.979329 1.14638 1.25914 1.31894 1.33124 1.30436 1.24797 1.17147 1.08385 0.992241 0.902938 0.820009 0.746842 0.685201 0.636555 0.601404 0.580344 0.573273 0.580344 0.601404 0.636555 0.685201 0.746842 0.820009 0.902938 0.992241 1.08385 1.17147 1.24797 1.30436 1.33124 1.31894 1.25914 1.14638 0.979329 0.762912 0.507714 0.231395 -0.0441144 -0.294865 -0.497899 -0.636922 -0.702747 -0.697978 -0.63398 -0.527887 -0.402803 -0.276165 -0.162513 -0.0726488 -0.00306934 0.0460055 0.0776952 0.107459 0.132137 0.152906 0.19488 0.245013 0.295164 0.41182 0.6023 0.802574 1.12592 1.65314 1.74081 0.219561 -3.10526 -6.52091 -7.62149 -5.49162 -1.45752 2.19503 3.98146 3.87754 2.76246 1.54153 0.679959 0.228186 0.0495437 0.000291834 -0.00544313 -0.0027309 -0.000737595 -7.1044e-05 3.56503e-05 2.04386e-05 5.04569e-06 2.98142e-07 -2.70858e-07 -1.17077e-07 -2.08733e-08 1.14284e-09 1.80335e-09 4.97485e-10 3.38065e-11 -2.24076e-11 -8.58454e-12 -9.67612e-13 2.59308e-13 1.19338e-13 1.37438e-14 -3.15306e-15 -1.33123e-15 -1.14845e-16 3.70717e-17 1.1208e-17 4.04281e-19 -3.46516e-19 -6.46098e-20 2.23523e-21 2.24562e-21 2.12934e-22 -3.71011e-23 -1.51457e-23 -2.12406e-24 0 0 
0 0 -1.67529e-25 -4.00275e-24 -1.54959e-23 -2.82446e-23 4.72249e-22 3.11996e-21 -2.86884e-21 -1.14497e-19 -4.05239e-19 1.56387e-18 1.76601e-17 3.53794e-17 -2.72996e-16 -1.95962e-15 -2.51644e-15 2.8795e-14 1.71707e-13 2.17715e-13 -2.03872e-12 -1.26419e-11 -2.36694e-11 9.07406e-11 7.80842e-10 2.28651e-09 -7.32462e-10 -3.68382e-08 -1.66658e-07 -2.87313e-07 8.87083e-07 8.0539e-06 2.73052e-05 3.2168e-05 -0.000164528 -0.00113304 -0.00361297 -0.00576344 0.00655365 0.0804051 0.319912 0.879206 1.8653 3.12721 4.05155 3.65921 1.23753 -2.76277 -6.45803 -7.62564 -5.56538 -1.87069 0.985681 1.85741 1.46498 0.968235 0.719959 0.529964 0.354305 0.268577 0.226463 0.175253 0.142271 0.126621 0.104605 0.0863316 0.0709624 0.0451132 0.0108744 -0.0371807 -0.106737 -0.194559 -0.299829 -0.415234 -0.526324 -0.619995 -0.679307 -0.691008 -0.647848 -0.547048 -0.394535 -0.200582 0.0199922 0.251065 0.477574 0.68608 0.867686 1.0165 1.13094 1.21193 1.26283 1.28859 1.29435 1.28596 1.26819 1.24599 1.22274 1.20181 1.18521 1.17477 1.17113 1.17477 1.18521 1.20181 1.22274 1.24599 1.26819 1.28596 1.29435 1.28859 1.26283 1.21193 1.13094 1.0165 0.867686 0.68608 0.477574 0.251065 0.0199922 -0.200582 -0.394535 -0.547048 -0.647848 -0.691008 -0.679307 -0.619995 -0.526324 -0.415234 -0.299829 -0.194559 -0.106737 -0.0371807 0.0108744 0.0451132 0.0709624 0.0863316 0.104605 0.126621 0.142271 0.175253 0.226463 0.268577 0.354305 0.529964 0.719959 0.968235 1.46498 1.85741 0.985681 -1.87069 -5.56538 -7.62564 -6.45803 -2.76277 1.23753 3.65921 4.05155 3.12721 1.8653 0.879206 0.319912 0.0804051 0.00655365 -0.00576344 -0.00361297 -0.00113304 -0.000164528 3.2168e-05 2.73052e-05 8.05391e-06 8.87082e-07 -2.8732e-07 -1.66656e-07 -3.67465e-08 -7.30526e-10 2.27793e-09 7.77758e-10 9.03391e-11 -2.35916e-11 -1.25946e-11 -2.03055e-12 2.17065e-13 1.71088e-13 2.86856e-14 -2.50893e-15 -1.95276e-15 -2.71994e-16 3.52676e-17 1.75998e-17 1.55822e-18 -4.03938e-19 -1.14114e-19 -2.85745e-21 3.11002e-21 4.70302e-22 -3.10273e-23 -1.85242e-23 -3.63769e-24 0 0 
0 0 -4.84205e-25 -6.61363e-24 -2.25223e-23 -4.85544e-25 8.51181e-22 3.76326e-21 -1.29169e-20 -1.78078e-19 -3.77941e-19 3.45569e-18 2.49729e-17 1.9757e-17 -5.08524e-16 -2.61681e-15 -4.58861e-16 5.03972e-14 2.26636e-13 7.52478e-14 -3.59604e-12 -1.72732e-11 -1.99922e-11 1.79403e-10 1.13911e-09 2.65207e-09 -4.27467e-09 -5.90825e-08 -2.22865e-07 -2.48787e-07 1.81917e-06 1.19604e-05 3.42061e-05 1.8743e-05 -0.000303073 -0.0016306 -0.00452897 -0.00535681 0.0162272 0.12064 0.429274 1.09924 2.1928 3.44559 4.10854 3.18366 0.196034 -3.96726 -7.13456 -7.31747 -4.49748 -0.788747 1.49501 1.8201 1.26961 0.85085 0.653998 0.464086 0.310244 0.25029 0.208744 0.158518 0.134313 0.119385 0.0978459 0.0857527 0.0760996 0.060709 0.045671 0.0231791 -0.0118725 -0.0589943 -0.12428 -0.206274 -0.301011 -0.403914 -0.503387 -0.58932 -0.650126 -0.675886 -0.661277 -0.603448 -0.505469 -0.372991 -0.214684 -0.0408468 0.139116 0.315604 0.481689 0.631655 0.762777 0.873356 0.96391 1.03593 1.09141 1.13284 1.16269 1.18331 1.19656 1.20395 1.20628 1.20395 1.19656 1.18331 1.16269 1.13284 1.09141 1.03593 0.96391 0.873356 0.762777 0.631655 0.481689 0.315604 0.139116 -0.0408468 -0.214684 -0.372991 -0.505469 -0.603448 -0.661277 -0.675886 -0.650126 -0.58932 -0.503387 -0.403914 -0.301011 -0.206274 -0.12428 -0.0589943 -0.0118725 0.0231791 0.045671 0.060709 0.0760996 0.0857527 0.0978459 0.119385 0.134313 0.158518 0.208744 0.25029 0.310244 0.464086 0.653998 0.85085 1.26961 1.8201 1.49501 -0.788747 -4.49748 -7.31747 -7.13456 -3.96726 0.196034 3.18366 4.10854 3.44559 2.1928 1.09924 0.429274 0.12064 0.0162272 -0.00535681 -0.00452897 -0.0016306 -0.000303073 1.87431e-05 3.42061e-05 1.19604e-05 1.81917e-06 -2.48794e-07 -2.22851e-07 -5.89258e-08 -4.2588e-09 2.64248e-09 1.1347e-09 1.78648e-10 -1.9936e-11 -1.72097e-11 -3.58197e-12 7.52116e-14 2.25833e-13 5.0209e-14 -4.59558e-16 -2.60777e-15 -5.06691e-16 1.97063e-17 2.48884e-17 3.44354e-18 -3.76777e-19 -1.77488e-19 -1.28717e-20 3.75141e-21 8.47706e-22 -3.85251e-24 -1.80146e-23 -5.47374e-24 0 0 
0 0 -9.86216e-25 -9.7257e-24 -2.9146e-23 5.84151e-23 1.34551e-21 3.81167e-21 -2.92772e-20 -2.50183e-19 -2.0539e-19 6.1879e-18 3.21496e-17 -1.63276e-17 -8.2696e-16 -3.19491e-15 3.57228e-15 7.89552e-14 2.76484e-13 -2.08154e-13 -5.69826e-12 -2.21253e-11 -8.81157e-12 3.06618e-10 1.56596e-09 2.76677e-09 -1.00211e-08 -8.81833e-08 -2.8062e-07 -1.25136e-07 3.16556e-06 1.67197e-05 4.01434e-05 -8.43729e-06 -0.000493036 -0.00222207 -0.00539186 -0.00393498 0.0298497 0.170563 0.554732 1.33395 2.51197 3.70447 4.04856 2.58415 -0.872487 -5.02034 -7.52647 -6.77311 -3.41344 0.100978 1.78712 1.69327 1.09607 0.76721 0.596503 0.405351 0.278479 0.236587 0.191481 0.145329 0.12832 0.111777 0.091271 0.082902 0.0738866 0.0626336 0.0559511 0.044899 0.0291863 0.00856289 -0.0241752 -0.0684772 -0.126677 -0.199543 -0.28238 -0.372137 -0.460885 -0.54101 -0.605157 -0.645805 -0.659232 -0.642585 -0.596877 -0.524865 -0.431039 -0.321413 -0.201762 -0.0785011 0.0436343 0.159741 0.267099 0.363017 0.446419 0.51651 0.573178 0.616733 0.647437 0.665733 0.671764 0.665733 0.647437 0.616733 0.573178 0.51651 0.446419 0.363017 0.267099 0.159741 0.0436343 -0.0785011 -0.201762 -0.321413 -0.431039 -0.524865 -0.596877 -0.642585 -0.659232 -0.645805 -0.605157 -0.54101 -0.460885 -0.372137 -0.28238 -0.199543 -0.126677 -0.0684772 -0.0241752 0.00856289 0.0291863 0.044899 0.0559511 0.0626336 0.0738866 0.082902 0.091271 0.111777 0.12832 0.145329 0.191481 0.236587 0.278479 0.405351 0.596503 0.76721 1.09607 1.69327 1.78712 0.100978 -3.41344 -6.77311 -7.52647 -5.02034 -0.872487 2.58415 4.04856 3.70447 2.51197 1.33395 0.554732 0.170563 0.0298497 -0.00393498 -0.00539186 -0.00222207 -0.000493037 -8.4374e-06 4.01433e-05 1.67197e-05 3.16556e-06 -1.25144e-07 -2.80587e-07 -8.79386e-08 -9.98256e-09 2.75734e-09 1.56001e-09 3.05365e-10 -8.80743e-12 -2.20457e-11 -5.67636e-12 -2.07036e-13 2.75524e-13 7.86645e-14 3.55614e-15 -3.18406e-15 -8.24017e-16 -1.62446e-17 3.20422e-17 6.16647e-18 -2.04863e-19 -2.49362e-19 -2.91774e-20 3.79993e-21 1.34006e-21 5.5069e-23 -1.0234e-23 -7.34892e-24 0 0 
0 0 -1.69067e-24 -1.2934e-23 -3.33908e-23 1.57645e-22 1.92376e-21 2.82431e-21 -5.27858e-20 -3.21285e-19 1.74553e-19 9.76982e-18 3.77334e-17 -7.90443e-17 -1.22287e-15 -3.54909e-15 1.00792e-14 1.14027e-13 3.10854e-13 -6.71024e-13 -8.35435e-12 -2.66387e-11 1.26465e-11 4.76996e-10 2.04102e-09 2.46413e-09 -1.8457e-08 -1.2402e-07 -3.32711e-07 1.14554e-07 4.97363e-06 2.21754e-05 4.39184e-05 -5.28462e-05 -0.000737398 -0.00288869 -0.00610106 -0.00123917 0.0477478 0.22988 0.693678 1.57636 2.81187 3.89586 3.88005 1.89555 -1.91727 -5.8922 -7.66149 -6.07171 -2.38572 0.789997 1.91149 1.5265 0.956263 0.707214 0.54302 0.355181 0.256878 0.224739 0.175104 0.135591 0.123563 0.104467 0.0861367 0.079895 0.0697763 0.0607517 0.0568113 0.0492561 0.0422442 0.0340836 0.0196015 0.000609691 -0.0276528 -0.0667323 -0.116096 -0.177558 -0.247426 -0.323267 -0.400605 -0.473859 -0.538723 -0.589803 -0.624589 -0.640556 -0.637626 -0.616786 -0.580106 -0.531034 -0.472602 -0.409031 -0.343241 -0.278914 -0.218291 -0.164027 -0.117513 -0.0802279 -0.0529173 -0.0363972 -0.0307972 -0.0363972 -0.0529173 -0.0802279 -0.117513 -0.164027 -0.218291 -0.278914 -0.343241 -0.409031 -0.472602 -0.531034 -0.580106 -0.616786 -0.637626 -0.640556 -0.624589 -0.589803 -0.538723 -0.473859 -0.400605 -0.323267 -0.247426 -0.177558 -0.116096 -0.0667323 -0.0276528 0.000609691 0.0196015 0.0340836 0.0422442 0.0492561 0.0568113 0.0607517 0.0697763 0.079895 0.0861367 0.104467 0.123563 0.135591 0.175104 0.224739 0.256878 0.355181 0.54302 0.707214 0.956263 1.5265 1.91149 0.789997 -2.38572 -6.07171 -7.66149 -5.8922 -1.91727 1.89555 3.88005 3.89586 2.81187 1.57636 0.693678 0.22988 0.0477478 -0.00123917 -0.00610106 -0.00288869 -0.000737399 -5.28463e-05 4.39184e-05 2.21754e-05 4.97362e-06 1.14549e-07 -3.32649e-07 -1.23663e-07 -1.83851e-08 2.45667e-09 2.03341e-09 4.7509e-10 1.2558e-11 -2.65451e-11 -8.32271e-12 -6.68078e-13 3.09805e-13 1.13612e-13 1.00387e-14 -3.53734e-15 -1.21856e-15 -7.8734e-17 3.76094e-17 9.73629e-18 1.73732e-19 -3.2024e-19 -5.26084e-20 2.8161e-21 1.91603e-21 1.55399e-22 8.50217e-24 -8.80739e-24 0 0 
0 0 -2.58422e-24 -1.56367e-23 -3.28604e-23 3.03162e-22 2.5276e-21 3.59507e-22 -8.34529e-20 -3.78559e-19 8.14768e-19 1.40916e-17 4.0017e-17 -1.72935e-16 -1.67926e-15 -3.51989e-15 1.94146e-14 1.54307e-13 3.18174e-13 -1.34348e-12 -1.15176e-11 -3.01248e-11 4.69127e-11 6.91964e-10 2.53231e-09 1.57096e-09 -2.99232e-08 -1.65706e-07 -3.7047e-07 4.97407e-07 7.2557e-06 2.80654e-05 4.42784e-05 -0.000117066 -0.0010349 -0.00360247 -0.0065547 0.00292278 0.0699759 0.297665 0.842646 1.81928 3.08359 4.01713 3.61821 1.15458 -2.89755 -6.5725 -7.58207 -5.28629 -1.4616 1.29165 1.91762 1.35378 0.851131 0.661795 0.492205 0.31448 0.242785 0.213294 0.160271 0.128827 0.118974 0.097586 0.0824267 0.0771529 0.0658378 0.0585525 0.0550085 0.0481348 0.0443829 0.0403372 0.0335858 0.0268431 0.0151355 -0.0014534 -0.0243379 -0.0561794 -0.0957066 -0.144497 -0.200376 -0.261597 -0.325868 -0.389154 -0.449407 -0.502834 -0.547957 -0.582735 -0.606825 -0.620323 -0.623797 -0.619268 -0.607823 -0.592085 -0.573429 -0.554384 -0.53609 -0.520571 -0.508445 -0.50103 -0.498367 -0.50103 -0.508445 -0.520571 -0.53609 -0.554384 -0.573429 -0.592085 -0.607823 -0.619268 -0.623797 -0.620323 -0.606825 -0.582735 -0.547957 -0.502834 -0.449407 -0.389154 -0.325868 -0.261597 -0.200376 -0.144497 -0.0957066 -0.0561794 -0.0243379 -0.0014534 0.0151355 0.0268431 0.0335858 0.0403372 0.0443829 0.0481348 0.0550085 0.0585525 0.0658378 0.0771529 0.0824267 0.097586 0.118974 0.128827 0.160271 0.213294 0.242785 0.31448 0.492205 0.661795 0.851131 1.35378 1.91762 1.29165 -1.4616 -5.28629 -7.58207 -6.5725 -2.89755 1.15458 3.61821 4.01713 3.08359 1.81928 0.842646 0.297665 0.0699759 0.00292278 -0.0065547 -0.00360247 -0.0010349 -0.000117066 4.42784e-05 2.80654e-05 7.25569e-06 4.97406e-07 -3.70372e-07 -1.65214e-07 -2.98059e-08 1.56797e-09 2.52306e-09 6.89248e-10 4.66819e-11 -3.00222e-11 -1.14745e-11 -1.33793e-12 3.17147e-13 1.53751e-13 1.93395e-14 -3.5087e-15 -1.67339e-15 -1.7229e-16 3.98885e-17 1.40436e-17 8.11719e-19 -3.77343e-19 -8.31749e-20 3.59691e-22 2.51753e-21 3.0358e-22 4.15055e-23 -9.26548e-24 0 0 
0 0 -3.6191e-24 -1.71147e-23 -2.51293e-23 4.95905e-22 3.07808e-21 -3.94147e-21 -1.2032e-19 -4.07713e-19 1.74787e-18 1.8926e-17 3.7304e-17 -2.99914e-16 -2.16886e-15 -2.95729e-15 3.17049e-14 1.97715e-13 2.87293e-13 -2.24139e-12 -1.50835e-11 -3.18481e-11 9.58431e-11 9.4896e-10 2.99909e-09 -6.62905e-11 -4.45365e-08 -2.116e-07 -3.84932e-07 1.04189e-06 9.98218e-06 3.40484e-05 4.01007e-05 -0.000202294 -0.00137974 -0.00432919 -0.0066635 0.00864354 0.0962806 0.372411 0.997587 2.05584 3.32084 4.07077 3.28276 0.396044 -3.78423 -7.06731 -7.33751 -4.47802 -0.66611 1.63204 1.84868 1.19514 0.775636 0.624063 0.444682 0.283116 0.233407 0.201599 0.147678 0.124328 0.114373 0.0915128 0.079789 0.0744041 0.0624427 0.0568406 0.0528298 0.0459914 0.0435123 0.0399924 0.0359206 0.0335705 0.0285207 0.0226332 0.0140579 0.000825133 -0.0164177 -0.040238 -0.0697896 -0.105758 -0.147463 -0.193324 -0.242712 -0.292866 -0.342903 -0.390245 -0.434051 -0.472836 -0.506076 -0.533667 -0.555441 -0.57224 -0.5842 -0.592712 -0.59803 -0.601502 -0.603218 -0.604281 -0.604387 -0.604281 -0.603218 -0.601502 -0.59803 -0.592712 -0.5842 -0.57224 -0.555441 -0.533667 -0.506076 -0.472836 -0.434051 -0.390245 -0.342903 -0.292866 -0.242712 -0.193324 -0.147463 -0.105758 -0.0697896 -0.040238 -0.0164177 0.000825133 0.0140579 0.0226332 0.0285207 0.0335705 0.0359206 0.0399924 0.0435123 0.0459914 0.0528298 0.0568406 0.0624427 0.0744041 0.079789 0.0915128 0.114373 0.124328 0.147678 0.201599 0.233407 0.283116 0.444682 0.624063 0.775636 1.19514 1.84868 1.63204 -0.66611 -4.47802 -7.33751 -7.06731 -3.78423 0.396044 3.28276 4.07077 3.32084 2.05584 0.997587 0.372411 0.0962806 0.00864354 -0.0066635 -0.00432919 -0.00137974 -0.000202295 4.01008e-05 3.40483e-05 9.98216e-06 1.04189e-06 -3.84786e-07 -2.10953e-07 -4.43613e-08 -6.17612e-11 2.98837e-09 9.45286e-10 9.54144e-11 -3.17439e-11 -1.50279e-11 -2.23243e-12 2.86439e-13 1.97011e-13 3.1585e-14 -2.94866e-15 -2.16136e-15 -2.9882e-16 3.71893e-17 1.8862e-17 1.74161e-18 -4.06426e-19 -1.19922e-19 -3.92692e-21 3.06596e-21 5.0096e-22 9.09864e-23 -8.10178e-24 0 0 
0 0 -4.7174e-24 -1.66584e-23 -8.22136e-24 7.30916e-22 3.4882e-21 -1.02747e-20 -1.61517e-19 -3.95468e-19 2.97779e-18 2.39555e-17 2.8212e-17 -4.58629e-16 -2.65764e-15 -1.74705e-15 4.68034e-14 2.41637e-13 2.09335e-13 -3.36187e-12 -1.88982e-11 -3.11366e-11 1.60205e-10 1.24118e-09 3.3972e-09 -2.55266e-09 -6.21344e-08 -2.59468e-07 -3.68271e-07 1.75355e-06 1.30806e-05 3.97476e-05 3.05844e-05 -0.000307988 -0.00176187 -0.00503251 -0.00636463 0.015893 0.126097 0.452122 1.15418 2.28007 3.5202 4.06351 2.89581 -0.349417 -4.56001 -7.39444 -6.97774 -3.69375 -0.00643982 1.84263 1.73884 1.06024 0.722771 0.590072 0.40149 0.260044 0.226695 0.189806 0.137462 0.121242 0.109607 0.0864179 0.0779787 0.0716431 0.0596481 0.0555285 0.0507567 0.0442688 0.0422839 0.038383 0.0351721 0.0337957 0.0305788 0.0286391 0.0253982 0.0206669 0.0148614 0.00543756 -0.0064575 -0.0226612 -0.0428615 -0.0669762 -0.0953449 -0.12642 -0.160614 -0.195873 -0.231938 -0.267256 -0.301241 -0.332873 -0.36156 -0.387073 -0.408861 -0.427323 -0.441922 -0.45334 -0.461171 -0.466004 -0.467443 -0.466004 -0.461171 -0.45334 -0.441922 -0.427323 -0.408861 -0.387073 -0.36156 -0.332873 -0.301241 -0.267256 -0.231938 -0.195873 -0.160614 -0.12642 -0.0953449 -0.0669762 -0.0428615 -0.0226612 -0.0064575 0.00543756 0.0148614 0.0206669 0.0253982 0.0286391 0.0305788 0.0337957 0.0351721 0.038383 0.0422839 0.0442688 0.0507567 0.0555285 0.0596481 0.0716431 0.0779787 0.0864179 0.109607 0.121242 0.137462 0.189806 0.226695 0.260044 0.40149 0.590072 0.722771 1.06024 1.73884 1.84263 -0.00643982 -3.69375 -6.97774 -7.39444 -4.56001 -0.349417 2.89581 4.06351 3.5202 2.28007 1.15418 0.452122 0.126097 0.015893 -0.00636463 -0.00503251 -0.00176187 -0.000307988 3.05843e-05 3.97476e-05 1.30806e-05 1.75356e-06 -3.68069e-07 -2.58653e-07 -6.18898e-08 -2.53719e-09 3.38537e-09 1.23644e-09 1.59521e-10 -3.10414e-11 -1.88293e-11 -3.34869e-12 2.08836e-13 2.40787e-13 4.66289e-14 -1.74338e-15 -2.64853e-15 -4.56979e-16 2.81337e-17 2.38751e-17 2.96734e-18 -3.94252e-19 -1.60987e-19 -1.02392e-20 3.4747e-21 7.42812e-22 1.57457e-22 -4.77565e-24 0 0 
0 0 -5.78337e-24 -1.37131e-23 1.89372e-23 9.97643e-22 3.6793e-21 -1.8617e-20 -2.04526e-19 -3.32199e-19 4.47585e-18 2.88212e-17 1.19585e-17 -6.44337e-16 -3.10994e-15 1.65313e-16 6.42792e-14 2.83287e-13 7.94805e-14 -4.68082e-12 -2.27751e-11 -2.75054e-11 2.39361e-10 1.55801e-09 3.68606e-09 -5.91839e-09 -8.22583e-08 -3.06771e-07 -3.15294e-07 2.62221e-06 1.64411e-05 4.48052e-05 1.54153e-05 -0.000431711 -0.00216786 -0.00567858 -0.00563251 0.0245076 0.158573 0.534452 1.30813 2.48712 3.68097 4.00527 2.47986 -1.05692 -5.21812 -7.57944 -6.54889 -2.96612 0.522792 1.95525 1.61286 0.951513 0.685806 0.5581 0.363687 0.243938 0.221221 0.178323 0.129602 0.119044 0.104768 0.0823614 0.076588 0.0689065 0.0573869 0.0545013 0.0488584 0.0429586 0.0412661 0.0368553 0.0342244 0.0326976 0.0297204 0.0287956 0.0268002 0.0249891 0.0232216 0.0198631 0.0162643 0.0103928 0.00305111 -0.00664144 -0.0189466 -0.0333742 -0.0505694 -0.0692441 -0.0899448 -0.11121 -0.133221 -0.154838 -0.175751 -0.195348 -0.213058 -0.228722 -0.241806 -0.252362 -0.259768 -0.264462 -0.265876 -0.264462 -0.259768 -0.252362 -0.241806 -0.228722 -0.213058 -0.195348 -0.175751 -0.154838 -0.133221 -0.11121 -0.0899448 -0.0692441 -0.0505694 -0.0333742 -0.0189466 -0.00664144 0.00305111 0.0103928 0.0162643 0.0198631 0.0232216 0.0249891 0.0268002 0.0287956 0.0297204 0.0326976 0.0342244 0.0368553 0.0412661 0.0429586 0.0488584 0.0545013 0.0573869 0.0689065 0.076588 0.0823614 0.104768 0.119044 0.129602 0.178323 0.221221 0.243938 0.363687 0.5581 0.685806 0.951513 1.61286 1.95525 0.522792 -2.96612 -6.54889 -7.57944 -5.21812 -1.05692 2.47986 4.00527 3.68097 2.48712 1.30813 0.534452 0.158573 0.0245076 -0.00563251 -0.00567858 -0.00216786 -0.000431711 1.54153e-05 4.48052e-05 1.64411e-05 2.62223e-06 -3.15026e-07 -3.05782e-07 -8.19341e-08 -5.88851e-09 3.67361e-09 1.55213e-09 2.38368e-10 -2.74305e-11 -2.26931e-11 -4.66275e-12 7.95324e-14 2.82303e-13 6.40422e-14 1.61493e-16 -3.09939e-15 -6.42041e-16 1.19418e-17 2.87253e-17 4.46033e-18 -3.3123e-19 -2.03858e-19 -1.85541e-20 3.66537e-21 1.01857e-21 2.39424e-22 1.05181e-24 0 0 
0 0 -6.72126e-24 -8.01283e-24 5.61911e-23 1.2814e-21 3.59741e-21 -2.87046e-20 -2.46581e-19 -2.14169e-19 6.18223e-18 3.31822e-17 -1.14297e-17 -8.49299e-16 -3.49428e-15 2.75774e-15 8.34485e-14 3.20126e-13 -1.01644e-13 -6.15332e-12 -2.65195e-11 -2.07667e-11 3.31115e-10 1.88607e-09 3.83603e-09 -1.01009e-08 -1.04177e-07 -3.51016e-07 -2.24667e-07 3.62108e-06 1.99273e-05 4.89354e-05 -5.12515e-06 -0.000569216 -0.00258218 -0.00624025 -0.0044858 0.0341934 0.192621 0.61685 1.45539 2.67348 3.80488 3.90807 2.05618 -1.70775 -5.76025 -7.65152 -6.09069 -2.31529 0.934845 1.9984 1.48721 0.867274 0.659281 0.527739 0.331709 0.23302 0.216178 0.167732 0.123881 0.117209 0.100167 0.0792881 0.0754444 0.0662991 0.0557115 0.0535418 0.0471017 0.0420351 0.0403552 0.0356301 0.0335546 0.0316786 0.028718 0.0278829 0.0259372 0.0248069 0.0239368 0.0223333 0.0214628 0.0193668 0.0173224 0.0142225 0.0101413 0.00514717 -0.00129002 -0.00859591 -0.0175079 -0.0269299 -0.0374912 -0.0481836 -0.0591357 -0.069697 -0.0797003 -0.0887387 -0.0965543 -0.103005 -0.10763 -0.110548 -0.111447 -0.110548 -0.10763 -0.103005 -0.0965543 -0.0887387 -0.0797003 -0.069697 -0.0591357 -0.0481836 -0.0374912 -0.0269299 -0.0175079 -0.00859591 -0.00129002 0.00514717 0.0101413 0.0142225 0.0173224 0.0193668 0.0214628 0.0223333 0.0239368 0.0248069 0.0259372 0.0278829 0.028718 0.0316786 0.0335546 0.0356301 0.0403552 0.0420351 0.0471017 0.0535418 0.0557115 0.0662991 0.0754444 0.0792881 0.100167 0.117209 0.123881 0.167732 0.216178 0.23302 0.331709 0.527739 0.659281 0.867274 1.48721 1.9984 0.934845 -2.31529 -6.09069 -7.65152 -5.76025 -1.70775 2.05618 3.90807 3.80488 2.67348 1.45539 0.61685 0.192621 0.0341934 -0.0044858 -0.00624025 -0.00258218 -0.000569216 -5.12505e-06 4.89354e-05 1.99273e-05 3.62112e-06 -2.2433e-07 -3.49855e-07 -1.03766e-07 -1.00534e-08 3.82353e-09 1.87903e-09 3.29769e-10 -2.07244e-11 -2.64252e-11 -6.12983e-12 -1.0085e-13 3.19027e-13 8.31435e-14 2.74402e-15 -3.48256e-15 -8.46297e-16 -1.13603e-17 3.30727e-17 6.16097e-18 -2.13632e-19 -2.45779e-19 -2.86086e-20 3.58428e-21 1.31327e-21 3.3345e-22 9.42289e-24 0 0 
0 0 -7.45427e-24 3.32993e-25 1.02037e-22 1.56561e-21 3.22621e-21 -4.00521e-20 -2.85124e-19 -4.485e-20 8.01225e-18 3.67733e-17 -4.10248e-17 -1.06362e-15 -3.7886e-15 5.92516e-15 1.03438e-13 3.50252e-13 -3.27246e-13 -7.71659e-12 -2.99545e-11 -1.11081e-11 4.31762e-10 2.21071e-09 3.83457e-09 -1.49384e-08 -1.26948e-07 -3.90118e-07 -9.96495e-08 4.70814e-06 2.33901e-05 5.19683e-05 -3.0129e-05 -0.000714723 -0.00298855 -0.00670017 -0.00298842 0.0445432 0.226987 0.696722 1.59238 2.83697 3.89563 3.78485 1.64382 -2.28922 -6.19432 -7.64027 -5.63539 -1.75112 1.24682 1.99603 1.37169 0.804067 0.639504 0.499433 0.305586 0.225937 0.211156 0.158232 0.119818 0.115515 0.0959358 0.0769713 0.0743285 0.0638679 0.0544795 0.0526612 0.0456842 0.0413127 0.0395597 0.0347333 0.0330986 0.0307949 0.0280636 0.0272299 0.0250243 0.0240971 0.0230613 0.0217992 0.0213561 0.0202301 0.0197887 0.0187102 0.0176318 0.0162337 0.0142721 0.0122033 0.00918543 0.00622343 0.0024059 -0.00136809 -0.00561087 -0.00968243 -0.0138695 -0.0176752 -0.0210912 -0.0238688 -0.0260008 -0.0273156 -0.027685 -0.0273156 -0.0260008 -0.0238688 -0.0210912 -0.0176752 -0.0138695 -0.00968243 -0.00561087 -0.00136809 0.0024059 0.00622343 0.00918543 0.0122033 0.0142721 0.0162337 0.0176318 0.0187102 0.0197887 0.0202301 0.0213561 0.0217992 0.0230613 0.0240971 0.0250243 0.0272299 0.0280636 0.0307949 0.0330986 0.0347333 0.0395597 0.0413127 0.0456842 0.0526612 0.0544795 0.0638679 0.0743285 0.0769713 0.0959358 0.115515 0.119818 0.158232 0.211156 0.225937 0.305586 0.499433 0.639504 0.804067 1.37169 1.99603 1.24682 -1.75112 -5.63539 -7.64027 -6.19432 -2.28922 1.64382 3.78485 3.89563 2.83697 1.59238 0.696722 0.226987 0.0445432 -0.00298842 -0.00670017 -0.00298855 -0.000714723 -3.01289e-05 5.19683e-05 2.33901e-05 4.70819e-06 -9.92402e-08 -3.88798e-07 -1.26446e-07 -1.48709e-08 3.82263e-09 2.20254e-09 4.30033e-10 -1.11093e-11 -2.98492e-11 -7.68741e-12 -3.25553e-13 3.49066e-13 1.03063e-13 5.89953e-15 -3.77605e-15 -1.05988e-15 -4.08483e-17 3.6653e-17 7.98487e-18 -4.49163e-20 -2.84202e-19 -3.99192e-20 3.21512e-21 1.60981e-21 4.34568e-22 2.00373e-23 0 0 
0 0 -7.93983e-24 1.0817e-23 1.53732e-22 1.83428e-21 2.59317e-21 -5.20054e-20 -3.18207e-19 1.64919e-19 9.86611e-18 3.94475e-17 -7.50421e-17 -1.2763e-15 -3.98381e-15 9.48468e-15 1.23272e-13 3.72686e-13 -5.84503e-13 -9.29526e-12 -3.29437e-11 8.82455e-13 5.36342e-10 2.51759e-09 3.68983e-09 -2.0178e-08 -1.49506e-07 -4.22679e-07 5.18511e-08 5.82933e-06 2.66824e-05 5.38736e-05 -5.81131e-05 -0.000861386 -0.00337138 -0.00705239 -0.00124526 0.0550653 0.26033 0.77155 1.71607 2.9766 3.95814 3.64848 1.25895 -2.79369 -6.53213 -7.57373 -5.20774 -1.27625 1.47668 1.96684 1.27144 0.757731 0.623948 0.47372 0.284915 0.221424 0.206258 0.150129 0.117158 0.113909 0.0922001 0.0753871 0.0733518 0.061844 0.0536291 0.0518679 0.0444216 0.0408519 0.038786 0.0339386 0.0326447 0.0301369 0.0276243 0.0267793 0.0243995 0.0236148 0.0223014 0.0211286 0.020663 0.0194737 0.0191878 0.0183765 0.0179765 0.0175558 0.0169986 0.0166502 0.0157674 0.0152184 0.0140267 0.0131412 0.0117984 0.0106838 0.00925005 0.00815177 0.00700309 0.00613497 0.00538982 0.00499788 0.00483226 0.00499788 0.00538982 0.00613497 0.00700309 0.00815177 0.00925005 0.0106838 0.0117984 0.0131412 0.0140267 0.0152184 0.0157674 0.0166502 0.0169986 0.0175558 0.0179765 0.0183765 0.0191878 0.0194737 0.020663 0.0211286 0.0223014 0.0236148 0.0243995 0.0267793 0.0276243 0.0301369 0.0326447 0.0339386 0.038786 0.0408519 0.0444216 0.0518679 0.0536291 0.061844 0.0733518 0.0753871 0.0922001 0.113909 0.117158 0.150129 0.206258 0.221424 0.284915 0.47372 0.623948 0.757731 1.27144 1.96684 1.47668 -1.27625 -5.20774 -7.57373 -6.53213 -2.79369 1.25895 3.64848 3.95814 2.9766 1.71607 0.77155 0.26033 0.0550653 -0.00124526 -0.00705239 -0.00337138 -0.000861386 -5.8113e-05 5.38736e-05 2.66824e-05 5.8294e-06 5.23353e-08 -4.21214e-07 -1.48915e-07 -2.00891e-08 3.67901e-09 2.50837e-09 5.34219e-10 8.29846e-13 -3.28292e-11 -9.26036e-12 -5.81796e-13 3.71442e-13 1.22828e-13 9.44578e-15 -3.97079e-15 -1.27184e-15 -7.47434e-17 3.93196e-17 9.83254e-18 1.64115e-19 -3.17184e-19 -5.18337e-20 2.58524e-21 1.89145e-21 5.36926e-22 3.22647e-23 0 0 
0 0 -8.17756e-24 2.25813e-23 2.07592e-22 2.07406e-21 1.76784e-21 -6.38153e-20 -3.44739e-19 3.97973e-19 1.16396e-17 4.11947e-17 -1.11011e-16 -1.47639e-15 -4.08492e-15 1.31918e-14 1.4196e-13 3.87491e-13 -8.55565e-13 -1.0808e-11 -3.54058e-11 1.4257e-11 6.39055e-10 2.79407e-09 3.43074e-09 -2.54964e-08 -1.70758e-07 -4.48125e-07 2.17926e-07 6.92321e-06 2.96713e-05 5.47612e-05 -8.71497e-05 -0.00100182 -0.00371675 -0.0073021 0.000607555 0.0652185 0.2913 0.839017 1.82404 3.09232 3.99809 3.51106 0.914739 -3.21774 -6.78733 -7.47663 -4.82562 -0.888412 1.64148 1.92505 1.18824 0.724399 0.61121 0.451261 0.268979 0.218554 0.201635 0.143496 0.115385 0.11233 0.0890288 0.0742556 0.0723658 0.0600952 0.0530239 0.0511347 0.0434574 0.0404702 0.0380654 0.0333729 0.0323082 0.0295288 0.0272965 0.0263531 0.0240141 0.0232951 0.0218115 0.0206362 0.020096 0.018867 0.0185907 0.0176935 0.0173744 0.0168466 0.0165191 0.0162854 0.0157874 0.0157961 0.0152917 0.0153063 0.0149018 0.0147907 0.0143746 0.0142524 0.0138972 0.013842 0.0135757 0.0135942 0.0134363 0.0135942 0.0135757 0.013842 0.0138972 0.0142524 0.0143746 0.0147907 0.0149018 0.0153063 0.0152917 0.0157961 0.0157874 0.0162854 0.0165191 0.0168466 0.0173744 0.0176935 0.0185907 0.018867 0.020096 0.0206362 0.0218115 0.0232951 0.0240141 0.0263531 0.0272965 0.0295288 0.0323082 0.0333729 0.0380654 0.0404702 0.0434574 0.0511347 0.0530239 0.0600952 0.0723658 0.0742556 0.0890288 0.11233 0.115385 0.143496 0.201635 0.218554 0.268979 0.451261 0.61121 0.724399 1.18824 1.92505 1.64148 -0.888412 -4.82562 -7.47663 -6.78733 -3.21774 0.914739 3.51106 3.99809 3.09232 1.82404 0.839017 0.2913 0.0652185 0.000607555 -0.0073021 -0.00371675 -0.00100182 -8.71497e-05 5.47612e-05 2.96713e-05 6.92331e-06 2.1848e-07 -4.46536e-07 -1.70083e-07 -2.5386e-08 3.42143e-09 2.78392e-09 6.36546e-10 1.41477e-11 -3.5284e-11 -1.07676e-11 -8.51804e-13 3.86217e-13 1.41451e-13 1.31392e-14 -4.07177e-15 -1.47126e-15 -1.10585e-16 4.10624e-17 1.16001e-17 3.96356e-19 -3.43637e-19 -6.36053e-20 1.76386e-21 2.14402e-21 6.34512e-22 4.52113e-23 0 0 
0 0 -8.20779e-24 3.45245e-23 2.59432e-22 2.27547e-21 8.52482e-22 -7.47177e-20 -3.64541e-19 6.32878e-19 1.32341e-17 4.21327e-17 -1.46046e-16 -1.65388e-15 -4.10958e-15 1.67654e-14 1.58581e-13 3.95682e-13 -1.11933e-12 -1.21742e-11 -3.73178e-11 2.78022e-11 7.33781e-10 3.03015e-09 3.1033e-09 -3.05305e-08 -1.89674e-07 -4.66687e-07 3.83938e-07 7.9263e-06 3.22461e-05 5.48571e-05 -0.000115054 -0.00112869 -0.00401314 -0.00746355 0.0024159 0.074454 0.318622 0.897082 1.91443 3.18481 4.0212 3.38339 0.62136 -3.56091 -6.97377 -7.36989 -4.50157 -0.582624 1.75613 1.88068 1.12242 0.701033 0.600873 0.432502 0.257158 0.216744 0.197508 0.138272 0.114262 0.110887 0.0864099 0.0735086 0.0715074 0.0586747 0.0525645 0.0504745 0.042631 0.0401837 0.0375083 0.0329284 0.0320487 0.0290892 0.0270255 0.0260824 0.0237084 0.0231051 0.0215186 0.02044 0.0198455 0.0185682 0.0182367 0.0171715 0.0168212 0.0162387 0.0158322 0.0155921 0.0152256 0.0151942 0.0147711 0.0147713 0.0144069 0.0144363 0.0141372 0.0141515 0.0139637 0.0139802 0.0138224 0.0139019 0.0137959 0.0139019 0.0138224 0.0139802 0.0139637 0.0141515 0.0141372 0.0144363 0.0144069 0.0147713 0.0147711 0.0151942 0.0152256 0.0155921 0.0158322 0.0162387 0.0168212 0.0171715 0.0182367 0.0185682 0.0198455 0.02044 0.0215186 0.0231051 0.0237084 0.0260824 0.0270255 0.0290892 0.0320487 0.0329284 0.0375083 0.0401837 0.042631 0.0504745 0.0525645 0.0586747 0.0715074 0.0735086 0.0864099 0.110887 0.114262 0.138272 0.197508 0.216744 0.257158 0.432502 0.600873 0.701033 1.12242 1.88068 1.75613 -0.582624 -4.50157 -7.36989 -6.97377 -3.56091 0.62136 3.38339 4.0212 3.18481 1.91443 0.897082 0.318622 0.074454 0.0024159 -0.00746355 -0.00401314 -0.00112869 -0.000115054 5.48571e-05 3.22461e-05 7.92642e-06 3.84548e-07 -4.64999e-07 -1.88924e-07 -3.03997e-08 3.09573e-09 3.01921e-09 7.30919e-10 2.76367e-11 -3.71907e-11 -1.2129e-11 -1.11455e-12 3.94401e-13 1.58014e-13 1.66997e-14 -4.09651e-15 -1.64815e-15 -1.45495e-16 4.19985e-17 1.31894e-17 6.30451e-19 -3.6338e-19 -7.44725e-20 8.52769e-22 2.35725e-21 7.21802e-22 5.78269e-23 0 0 
0 0 -8.10118e-24 4.54466e-23 3.05041e-22 2.43322e-21 -3.31165e-23 -8.40057e-20 -3.78192e-19 8.4661e-19 1.45642e-17 4.24727e-17 -1.7717e-16 -1.80039e-15 -4.08406e-15 1.99176e-14 1.72342e-13 3.98972e-13 -1.35374e-12 -1.33206e-11 -3.87057e-11 4.01855e-11 8.14624e-10 3.21878e-09 2.76376e-09 -3.49141e-08 -2.05354e-07 -4.79223e-07 5.34222e-07 8.77842e-06 3.43224e-05 5.44604e-05 -0.00013961 -0.00123523 -0.00425169 -0.00755675 0.00402348 0.0822548 0.341158 0.944039 1.98588 3.25504 4.03287 3.27453 0.386416 -3.8245 -7.10424 -7.27027 -4.24362 -0.352953 1.83287 1.84055 1.07294 0.68512 0.592657 0.417745 0.248729 0.215652 0.194017 0.134366 0.113529 0.109608 0.0844819 0.0730515 0.0708048 0.0576243 0.0522527 0.0498279 0.0419993 0.0399524 0.0370343 0.0325932 0.0318631 0.0287535 0.0269359 0.0258735 0.0235243 0.0229996 0.0212893 0.0203104 0.0196492 0.0183964 0.0181231 0.0170246 0.0166775 0.0159772 0.0155628 0.015171 0.0146846 0.0145543 0.0140891 0.0140591 0.0136617 0.013773 0.01344 0.0135508 0.0132731 0.0133834 0.0131974 0.0133272 0.0131853 0.0133272 0.0131974 0.0133834 0.0132731 0.0135508 0.01344 0.013773 0.0136617 0.0140591 0.0140891 0.0145543 0.0146846 0.015171 0.0155628 0.0159772 0.0166775 0.0170246 0.0181231 0.0183964 0.0196492 0.0203104 0.0212893 0.0229996 0.0235243 0.0258735 0.0269359 0.0287535 0.0318631 0.0325932 0.0370343 0.0399524 0.0419993 0.0498279 0.0522527 0.0576243 0.0708048 0.0730515 0.0844819 0.109608 0.113529 0.134366 0.194017 0.215652 0.248729 0.417745 0.592657 0.68512 1.07294 1.84055 1.83287 -0.352953 -4.24362 -7.27027 -7.10424 -3.8245 0.386416 3.27453 4.03287 3.25504 1.98588 0.944039 0.341158 0.0822548 0.00402348 -0.00755675 -0.00425169 -0.00123523 -0.00013961 5.44604e-05 3.43225e-05 8.77855e-06 5.34885e-07 -4.77459e-07 -2.04542e-07 -3.47657e-08 2.75791e-09 3.20722e-09 8.11463e-10 3.99694e-11 -3.8575e-11 -1.32713e-11 -1.34806e-12 3.97696e-13 1.71728e-13 1.98404e-14 -4.07127e-15 -1.79417e-15 -1.76508e-16 4.23386e-17 1.45151e-17 8.43449e-19 -3.76993e-19 -8.37305e-20 -2.87291e-23 2.52502e-21 7.94189e-22 6.90305e-23 0 0 
0 0 -7.94213e-24 5.42072e-23 3.40643e-22 2.54536e-21 -7.69701e-22 -9.10861e-20 -3.86735e-19 1.01746e-18 1.55622e-17 4.24673e-17 -2.01645e-16 -1.90947e-15 -4.03793e-15 2.2385e-14 1.82615e-13 3.99368e-13 -1.53824e-12 -1.41856e-11 -3.9627e-11 5.01253e-11 8.76428e-10 3.35561e-09 2.46977e-09 -3.8315e-08 -2.17074e-07 -4.86923e-07 6.53995e-07 9.42763e-06 3.58415e-05 5.38877e-05 -0.000158798 -0.00131571 -0.00442608 -0.00760336 0.00528795 0.0881753 0.357964 0.978542 2.03748 3.30418 4.03768 3.19168 0.215206 -4.01056 -7.18931 -7.19034 -4.0567 -0.193621 1.88111 1.80922 1.03863 0.674811 0.586629 0.407156 0.243042 0.214908 0.191385 0.131752 0.113124 0.108709 0.0831715 0.0727335 0.0702973 0.056916 0.0520431 0.0494353 0.0416036 0.0398101 0.0367355 0.0324215 0.0317053 0.0285423 0.0268005 0.0256762 0.0233521 0.0228644 0.0211819 0.0202893 0.019594 0.0183589 0.0180146 0.0168486 0.0165412 0.0158448 0.015462 0.015078 0.0146172 0.0144717 0.0139212 0.0138823 0.0133478 0.0133136 0.0128814 0.012895 0.0125719 0.0126266 0.0124559 0.0124883 0.0123146 0.0124883 0.0124559 0.0126266 0.0125719 0.012895 0.0128814 0.0133136 0.0133478 0.0138823 0.0139212 0.0144717 0.0146172 0.015078 0.015462 0.0158448 0.0165412 0.0168486 0.0180146 0.0183589 0.019594 0.0202893 0.0211819 0.0228644 0.0233521 0.0256762 0.0268005 0.0285423 0.0317053 0.0324215 0.0367355 0.0398101 0.0416036 0.0494353 0.0520431 0.056916 0.0702973 0.0727335 0.0831715 0.108709 0.113124 0.131752 0.191385 0.214908 0.243042 0.407156 0.586629 0.674811 1.03863 1.80922 1.88111 -0.193621 -4.0567 -7.19034 -7.18931 -4.01056 0.215206 3.19168 4.03768 3.30418 2.03748 0.978542 0.357964 0.0881753 0.00528795 -0.00760336 -0.00442608 -0.00131571 -0.000158798 5.38877e-05 3.58415e-05 9.42777e-06 6.54694e-07 -4.85107e-07 -2.16216e-07 -3.8153e-08 2.46533e-09 3.3436e-09 8.73041e-10 4.98688e-11 -3.9494e-11 -1.41333e-11 -1.53186e-12 3.98104e-13 1.81967e-13 2.22987e-14 -4.02541e-15 -1.90289e-15 -2.00897e-16 4.23342e-17 1.55099e-17 1.01371e-18 -3.85513e-19 -9.07883e-20 -7.61954e-22 2.64479e-21 8.48197e-22 7.78352e-23 0 0 
0 0 -7.80941e-24 5.98722e-23 3.63267e-22 2.61206e-21 -1.2566e-21 -9.55159e-20 -3.91292e-19 1.1277e-18 1.618e-17 4.23527e-17 -2.17278e-16 -1.97664e-15 -3.99781e-15 2.39566e-14 1.88956e-13 3.98728e-13 -1.65619e-12 -1.47235e-11 -4.01462e-11 5.65587e-11 9.15197e-10 3.43834e-09 2.27093e-09 -4.04691e-08 -2.24316e-07 -4.90969e-07 7.31156e-07 9.83392e-06 3.6766e-05 5.34174e-05 -0.000171006 -0.0013658 -0.0045322 -0.00762254 0.00609565 0.0918719 0.368337 0.999629 2.06865 3.33323 4.03913 3.13987 0.111196 -4.12117 -7.23702 -7.13896 -3.94363 -0.0999877 1.90745 1.78939 1.01856 0.669099 0.582914 0.400802 0.239893 0.214478 0.189807 0.130166 0.112988 0.108158 0.0823898 0.072581 0.0699181 0.0564462 0.0519104 0.0491636 0.0413613 0.0397949 0.0365706 0.0323281 0.0315949 0.0284233 0.0267231 0.0255998 0.0233178 0.0228612 0.0211079 0.0202457 0.0194787 0.0182524 0.0179819 0.01685 0.0165746 0.0157578 0.0153692 0.0148702 0.0142906 0.0140224 0.0134708 0.0133777 0.0128491 0.0127941 0.0123463 0.012378 0.011993 0.012068 0.0117916 0.0119747 0.0117396 0.0119747 0.0117916 0.012068 0.011993 0.012378 0.0123463 0.0127941 0.0128491 0.0133777 0.0134708 0.0140224 0.0142906 0.0148702 0.0153692 0.0157578 0.0165746 0.01685 0.0179819 0.0182524 0.0194787 0.0202457 0.0211079 0.0228612 0.0233178 0.0255998 0.0267231 0.0284233 0.0315949 0.0323281 0.0365706 0.0397949 0.0413613 0.0491636 0.0519104 0.0564462 0.0699181 0.072581 0.0823898 0.108158 0.112988 0.130166 0.189807 0.214478 0.239893 0.400802 0.582914 0.669099 1.01856 1.78939 1.90745 -0.0999877 -3.94363 -7.13896 -7.23702 -4.12117 0.111196 3.13987 4.03913 3.33323 2.06865 0.999629 0.368337 0.0918719 0.00609565 -0.00762254 -0.0045322 -0.0013658 -0.000171006 5.34175e-05 3.6766e-05 9.83407e-06 7.3188e-07 -4.8912e-07 -2.23429e-07 -4.02985e-08 2.26743e-09 3.42608e-09 9.11667e-10 5.62761e-11 -4.00121e-11 -1.46693e-11 -1.64936e-12 3.97476e-13 1.88286e-13 2.38645e-14 -3.98553e-15 -1.96983e-15 -2.16475e-16 4.22204e-17 1.61256e-17 1.12358e-18 -3.90059e-19 -9.5204e-20 -1.24663e-21 2.71627e-21 8.81483e-22 8.34552e-23 0 0 
0 0 -7.75852e-24 6.18312e-23 3.71023e-22 2.63415e-21 -1.42673e-21 -9.7023e-20 -3.92707e-19 1.16579e-18 1.6389e-17 4.22945e-17 -2.22652e-16 -1.99931e-15 -3.98223e-15 2.44961e-14 1.91099e-13 3.98358e-13 -1.69675e-12 -1.49059e-11 -4.03131e-11 5.87848e-11 9.28408e-10 3.466e-09 2.20069e-09 -4.12066e-08 -2.26764e-07 -4.92212e-07 7.57794e-07 9.9722e-06 3.70762e-05 5.32382e-05 -0.000175194 -0.0013828 -0.00456781 -0.0076274 0.00637329 0.0931288 0.371844 1.00672 2.07907 3.34284 4.03936 3.12225 0.0762972 -4.15787 -7.25238 -7.12125 -3.90581 -0.0691699 1.91576 1.78256 1.01192 0.667209 0.581724 0.398701 0.238839 0.214336 0.189305 0.129631 0.112894 0.107957 0.0820748 0.0725278 0.0698055 0.0562979 0.0519232 0.0491694 0.041261 0.0396805 0.0365204 0.0323041 0.0315644 0.0283293 0.0266804 0.0255147 0.0232161 0.0227848 0.0210613 0.0201617 0.01946 0.0182443 0.0178668 0.0167007 0.0163354 0.0154722 0.0150071 0.0144981 0.013893 0.0135631 0.012912 0.0127747 0.0121401 0.0120532 0.0114935 0.0114032 0.0110417 0.0110963 0.0108075 0.0109399 0.0107419 0.0109399 0.0108075 0.0110963 0.0110417 0.0114032 0.0114935 0.0120532 0.0121401 0.0127747 0.012912 0.0135631 0.013893 0.0144981 0.0150071 0.0154722 0.0163354 0.0167007 0.0178668 0.0182443 0.01946 0.0201617 0.0210613 0.0227848 0.0232161 0.0255147 0.0266804 0.0283293 0.0315644 0.0323041 0.0365204 0.0396805 0.041261 0.0491694 0.0519232 0.0562979 0.0698055 0.0725278 0.0820748 0.107957 0.112894 0.129631 0.189305 0.214336 0.238839 0.398701 0.581724 0.667209 1.01192 1.78256 1.91576 -0.0691699 -3.90581 -7.12125 -7.25238 -4.15787 0.0762972 3.12225 4.03936 3.34284 2.07907 1.00672 0.371844 0.0931288 0.00637329 -0.0076274 -0.00456781 -0.0013828 -0.000175194 5.32383e-05 3.70762e-05 9.97234e-06 7.58525e-07 -4.90354e-07 -2.25867e-07 -4.10331e-08 2.19754e-09 3.45365e-09 9.24828e-10 5.84932e-11 -4.01787e-11 -1.48511e-11 -1.68978e-12 3.97111e-13 1.90421e-13 2.44021e-14 -3.97003e-15 -1.99243e-15 -2.2183e-16 4.21627e-17 1.6334e-17 1.16153e-18 -3.91471e-19 -9.67061e-20 -1.416e-21 2.73998e-21 8.9272e-22 8.53864e-23 0 0 
0 0 -7.80941e-24 5.98722e-23 3.63267e-22 2.61206e-21 -1.2566e-21 -9.55159e-20 -3.91292e-19 1.1277e-18 1.618e-17 4.23527e-17 -2.17278e-16 -1.97664e-15 -3.99781e-15 2.39566e-14 1.88956e-13 3.98728e-13 -1.65619e-12 -1.47235e-11 -4.01462e-11 5.65587e-11 9.15197e-10 3.43834e-09 2.27093e-09 -4.04691e-08 -2.24316e-07 -4.90969e-07 7.31156e-07 9.83392e-06 3.6766e-05 5.34174e-05 -0.000171006 -0.0013658 -0.0045322 -0.00762254 0.00609565 0.0918719 0.368337 0.999629 2.06865 3.33323 4.03913 3.13987 0.111196 -4.12117 -7.23702 -7.13896 -3.94363 -0.0999877 1.90745 1.7894 1.01856 0.669106 0.58292 0.400807 0.239892 0.21447 0.189802 0.130166 0.112993 0.108166 0.0824051 0.0726054 0.0699487 0.0564635 0.0519118 0.0491608 0.0413632 0.0398067 0.036588 0.0323422 0.0316002 0.0284204 0.0267135 0.0255877 0.0233012 0.0228318 0.0210549 0.0201549 0.0193251 0.01801 0.0176217 0.0163398 0.0158921 0.0148965 0.0143448 0.0137164 0.0130562 0.0127724 0.0122781 0.0123165 0.0119885 0.0121948 0.012048 0.0123932 0.0123197 0.0126833 0.0126358 0.0129587 0.0127686 0.0129587 0.0126358 0.0126833 0.0123197 0.0123932 0.012048 0.0121948 0.0119885 0.0123165 0.0122781 0.0127724 0.0130562 0.0137164 0.0143448 0.0148965 0.0158921 0.0163398 0.0176217 0.01801 0.0193251 0.0201549 0.0210549 0.0228318 0.0233012 0.0255877 0.0267135 0.0284204 0.0316002 0.0323422 0.036588 0.0398067 0.0413632 0.0491608 0.0519118 0.0564635 0.0699487 0.0726054 0.0824051 0.108166 0.112993 0.130166 0.189802 0.21447 0.239892 0.400807 0.58292 0.669106 1.01856 1.7894 1.90745 -0.0999877 -3.94363 -7.13896 -7.23702 -4.12117 0.111196 3.13987 4.03913 3.33323 2.06865 0.999629 0.368337 0.0918719 0.00609565 -0.00762254 -0.0045322 -0.0013658 -0.000171006 5.34175e-05 3.6766e-05 9.83407e-06 7.3188e-07 -4.8912e-07 -2.23429e-07 -4.02985e-08 2.26743e-09 3.42608e-09 9.11667e-10 5.62761e-11 -4.00121e-11 -1.46693e-11 -1.64936e-12 3.97476e-13 1.88286e-13 2.38645e-14 -3.98553e-15 -1.96983e-15 -2.16475e-16 4.22204e-17 1.61256e-17 1.12358e-18 -3.90059e-19 -9.5204e-20 -1.24663e-21 2.71627e-21 8.81483e-22 8.34552e-23 0 0 
0 0 -7.94213e-24 5.42072e-23 3.40643e-22 2.54536e-21 -7.69701e-22 -9.10861e-20 -3.86735e-19 1.01746e-18 1.55622e-17 4.24673e-17 -2.01645e-16 -1.90947e-15 -4.03793e-15 2.2385e-14 1.82615e-13 3.99368e-13 -1.53824e-12 -1.41856e-11 -3.9627e-11 5.01253e-11 8.76428e-10 3.35561e-09 2.46977e-09 -3.8315e-08 -2.17074e-07 -4.86923e-07 6.53995e-07 9.42763e-06 3.58415e-05 5.38877e-05 -0.000158798 -0.00131571 -0.00442608 -0.00760336 0.00528795 0.0881753 0.357964 0.978542 2.03748 3.30418 4.03768 3.19168 0.215206 -4.01056 -7.18931 -7.19034 -4.0567 -0.193618 1.88112 1.80922 1.03863 0.674815 0.586629 0.407153 0.243039 0.214904 0.191387 0.131758 0.113131 0.108724 0.0831984 0.0727647 0.070325 0.0569355 0.052064 0.0494556 0.0416245 0.0398311 0.0367546 0.0324308 0.0317075 0.0285373 0.0267882 0.0256459 0.0232849 0.0227326 0.0209473 0.0199149 0.0190371 0.0175876 0.0170145 0.0156432 0.0151977 0.0144854 0.0142614 0.0142595 0.0144374 0.0152033 0.0158329 0.0172138 0.0182842 0.0199733 0.0213087 0.0230396 0.0242798 0.0256585 0.0265007 0.0271699 0.027214 0.0271699 0.0265007 0.0256585 0.0242798 0.0230396 0.0213087 0.0199733 0.0182842 0.0172138 0.0158329 0.0152033 0.0144374 0.0142595 0.0142614 0.0144854 0.0151977 0.0156432 0.0170145 0.0175876 0.0190371 0.0199149 0.0209473 0.0227326 0.0232849 0.0256459 0.0267882 0.0285373 0.0317075 0.0324308 0.0367546 0.0398311 0.0416245 0.0494556 0.052064 0.0569355 0.070325 0.0727647 0.0831984 0.108724 0.113131 0.131758 0.191387 0.214904 0.243039 0.407153 0.586629 0.674815 1.03863 1.80922 1.88112 -0.193618 -4.0567 -7.19034 -7.18931 -4.01056 0.215206 3.19168 4.03768 3.30418 2.03748 0.978542 0.357964 0.0881753 0.00528795 -0.00760336 -0.00442608 -0.00131571 -0.000158798 5.38877e-05 3.58415e-05 9.42777e-06 6.54694e-07 -4.85107e-07 -2.16216e-07 -3.8153e-08 2.46533e-09 3.3436e-09 8.73041e-10 4.98688e-11 -3.9494e-11 -1.41333e-11 -1.53186e-12 3.98104e-13 1.81967e-13 2.22987e-14 -4.02541e-15 -1.90289e-15 -2.00897e-16 4.23342e-17 1.55099e-17 1.01371e-18 -3.85513e-19 -9.07883e-20 -7.61954e-22 2.64479e-21 8.48197e-22 7.78352e-23 0 0 
0 0 -8.10118e-24 4.54466e-23 3.05041e-22 2.43322e-21 -3.31165e-23 -8.40057e-20 -3.78192e-19 8.4661e-19 1.45642e-17 4.24727e-17 -1.7717e-16 -1.80039e-15 -4.08406e-15 1.99176e-14 1.72342e-13 3.98972e-13 -1.35374e-12 -1.33206e-11 -3.87057e-11 4.01855e-11 8.14624e-10 3.21878e-09 2.76376e-09 -3.49141e-08 -2.05354e-07 -4.79223e-07 5.34222e-07 8.77842e-06 3.43224e-05 5.44604e-05 -0.00013961 -0.00123523 -0.00425169 -0.00755675 0.00402348 0.0822548 0.341158 0.944039 1.98588 3.25504 4.03287 3.27453 0.386416 -3.8245 -7.10423 -7.27027 -4.24361 -0.352935 1.83289 1.84055 1.07294 0.68512 0.59266 0.417741 0.248719 0.215653 0.19402 0.134369 0.113535 0.109619 0.0844965 0.0730587 0.0708084 0.0576393 0.0522799 0.0498545 0.0420235 0.039967 0.0370397 0.0325919 0.0318548 0.0287251 0.0268599 0.025708 0.0232192 0.022507 0.0205709 0.0193601 0.0185065 0.0171787 0.017063 0.0164901 0.0171698 0.0181115 0.0200491 0.0227776 0.0261919 0.030689 0.0354761 0.0411691 0.0467749 0.0529421 0.0584882 0.0640756 0.0686296 0.0727078 0.0754797 0.0774482 0.0779324 0.0774482 0.0754797 0.0727078 0.0686296 0.0640756 0.0584882 0.0529421 0.0467749 0.0411691 0.0354761 0.030689 0.0261919 0.0227776 0.0200491 0.0181115 0.0171698 0.0164901 0.017063 0.0171787 0.0185065 0.0193601 0.0205709 0.022507 0.0232192 0.025708 0.0268599 0.0287251 0.0318548 0.0325919 0.0370397 0.039967 0.0420235 0.0498545 0.0522799 0.0576393 0.0708084 0.0730587 0.0844965 0.109619 0.113535 0.134369 0.19402 0.215653 0.248719 0.417741 0.59266 0.68512 1.07294 1.84055 1.83289 -0.352935 -4.24361 -7.27027 -7.10423 -3.8245 0.386416 3.27453 4.03287 3.25504 1.98588 0.944039 0.341158 0.0822548 0.00402348 -0.00755675 -0.00425169 -0.00123523 -0.00013961 5.44604e-05 3.43225e-05 8.77855e-06 5.34885e-07 -4.77459e-07 -2.04542e-07 -3.47657e-08 2.75791e-09 3.20722e-09 8.11463e-10 3.99694e-11 -3.8575e-11 -1.32713e-11 -1.34806e-12 3.97696e-13 1.71728e-13 1.98404e-14 -4.07127e-15 -1.79417e-15 -1.76508e-16 4.23386e-17 1.45151e-17 8.43449e-19 -3.76993e-19 -8.37305e-20 -2.87291e-23 2.52502e-21 7.94189e-22 6.90305e-23 0 0 
0 0 -8.20779e-24 3.45245e-23 2.59432e-22 2.27547e-21 8.52482e-22 -7.47177e-20 -3.64541e-19 6.32878e-19 1.32341e-17 4.21327e-17 -1.46046e-16 -1.65388e-15 -4.10958e-15 1.67654e-14 1.58581e-13 3.95682e-13 -1.11933e-12 -1.21742e-11 -3.73178e-11 2.78022e-11 7.33781e-10 3.03015e-09 3.1033e-09 -3.05305e-08 -1.89674e-07 -4.66687e-07 3.83938e-07 7.9263e-06 3.22461e-05 5.48571e-05 -0.000115054 -0.00112869 -0.00401314 -0.00746355 0.0024159 0.074454 0.318622 0.897082 1.91443 3.18481 4.0212 3.38339 0.62136 -3.5609 -6.97376 -7.36989 -4.50155 -0.582621 1.75614 1.88067 1.12241 0.701028 0.600878 0.432493 0.257148 0.216734 0.197501 0.138265 0.114259 0.110888 0.0864019 0.0734966 0.071499 0.0586728 0.0525632 0.0504809 0.0426345 0.0401725 0.0374859 0.0328856 0.0319526 0.0288903 0.026662 0.0255008 0.0228806 0.0220722 0.0204375 0.0196289 0.0198498 0.0201951 0.0225891 0.0256325 0.0310035 0.0378979 0.0467678 0.0575299 0.0697106 0.0834831 0.0977435 0.112876 0.127631 0.142294 0.155677 0.168007 0.178419 0.186999 0.193118 0.197027 0.198207 0.197027 0.193118 0.186999 0.178419 0.168007 0.155677 0.142294 0.127631 0.112876 0.0977435 0.0834831 0.0697106 0.0575299 0.0467678 0.0378979 0.0310035 0.0256325 0.0225891 0.0201951 0.0198498 0.0196289 0.0204375 0.0220722 0.0228806 0.0255008 0.026662 0.0288903 0.0319526 0.0328856 0.0374859 0.0401725 0.0426345 0.0504809 0.0525632 0.0586728 0.071499 0.0734966 0.0864019 0.110888 0.114259 0.138265 0.197501 0.216734 0.257148 0.432493 0.600878 0.701028 1.12241 1.88067 1.75614 -0.582621 -4.50155 -7.36989 -6.97376 -3.5609 0.62136 3.38339 4.0212 3.18481 1.91443 0.897082 0.318622 0.074454 0.0024159 -0.00746355 -0.00401314 -0.00112869 -0.000115054 5.48571e-05 3.22461e-05 7.92642e-06 3.84548e-07 -4.64999e-07 -1.88924e-07 -3.03997e-08 3.09573e-09 3.01921e-09 7.30919e-10 2.76367e-11 -3.71907e-11 -1.2129e-11 -1.11455e-12 3.94401e-13 1.58014e-13 1.66997e-14 -4.09651e-15 -1.64815e-15 -1.45495e-16 4.19985e-17 1.31894e-17 6.30451e-19 -3.6338e-19 -7.44725e-20 8.52769e-22 2.35725e-21 7.21802e-22 5.78269e-23 0 0 
0 0 -8.17756e-24 2.25813e-23 2.07592e-22 2.07406e-21 1.76784e-21 -6.38153e-20 -3.44739e-19 3.97973e-19 1.16396e-17 4.11947e-17 -1.11011e-16 -1.47639e-15 -4.08492e-15 1.31918e-14 1.4196e-13 3.87491e-13 -8.55565e-13 -1.0808e-11 -3.54058e-11 1.4257e-11 6.39055e-10 2.79407e-09 3.43074e-09 -2.54964e-08 -1.70758e-07 -4.48125e-07 2.17926e-07 6.92321e-06 2.96713e-05 5.47612e-05 -8.71497e-05 -0.00100182 -0.00371675 -0.0073021 0.000607555 0.0652185 0.2913 0.839017 1.82404 3.09232 3.99808 3.51106 0.914747 -3.21774 -6.78732 -7.47663 -4.82562 -0.888415 1.64149 1.92506 1.18823 0.724379 0.611189 0.45125 0.268971 0.218536 0.201624 0.14349 0.11538 0.112321 0.0890169 0.0742514 0.0723616 0.0600795 0.0530094 0.0511243 0.043434 0.0404202 0.0379609 0.0331529 0.0319097 0.0289028 0.0264357 0.0253651 0.0232061 0.0232882 0.0236241 0.0257827 0.0306393 0.0374129 0.0481773 0.0616671 0.0791914 0.0998624 0.123757 0.150235 0.17825 0.2078 0.23705 0.266232 0.293653 0.319378 0.342248 0.362405 0.379004 0.392362 0.401774 0.407614 0.409397 0.407614 0.401774 0.392362 0.379004 0.362405 0.342248 0.319378 0.293653 0.266232 0.23705 0.2078 0.17825 0.150235 0.123757 0.0998624 0.0791914 0.0616671 0.0481773 0.0374129 0.0306393 0.0257827 0.0236241 0.0232882 0.0232061 0.0253651 0.0264357 0.0289028 0.0319097 0.0331529 0.0379609 0.0404202 0.043434 0.0511243 0.0530094 0.0600795 0.0723616 0.0742514 0.0890169 0.112321 0.11538 0.14349 0.201624 0.218536 0.268971 0.45125 0.611189 0.724379 1.18823 1.92506 1.64149 -0.888415 -4.82562 -7.47663 -6.78732 -3.21774 0.914747 3.51106 3.99808 3.09232 1.82404 0.839017 0.2913 0.0652185 0.000607555 -0.0073021 -0.00371675 -0.00100182 -8.71497e-05 5.47612e-05 2.96713e-05 6.92331e-06 2.1848e-07 -4.46536e-07 -1.70083e-07 -2.5386e-08 3.42143e-09 2.78392e-09 6.36546e-10 1.41477e-11 -3.5284e-11 -1.07676e-11 -8.51804e-13 3.86217e-13 1.41451e-13 1.31392e-14 -4.07177e-15 -1.47126e-15 -1.10585e-16 4.10624e-17 1.16001e-17 3.96356e-19 -3.43637e-19 -6.36053e-20 1.76386e-21 2.14402e-21 6.34512e-22 4.52113e-23 0 0 
0 0 -7.93983e-24 1.0817e-23 1.53732e-22 1.83428e-21 2.59317e-21 -5.20054e-20 -3.18207e-19 1.64919e-19 9.86611e-18 3.94475e-17 -7.50421e-17 -1.2763e-15 -3.98381e-15 9.48468e-15 1.23272e-13 3.72686e-13 -5.84503e-13 -9.29526e-12 -3.29437e-11 8.82455e-13 5.36342e-10 2.51759e-09 3.68983e-09 -2.0178e-08 -1.49506e-07 -4.22679e-07 5.18511e-08 5.82933e-06 2.66824e-05 5.38736e-05 -5.8113e-05 -0.000861386 -0.00337138 -0.00705239 -0.00124526 0.0550652 0.26033 0.77155 1.71607 2.9766 3.95814 3.64848 1.25897 -2.79369 -6.53212 -7.57373 -5.20774 -1.27625 1.47668 1.96684 1.27146 0.757731 0.623942 0.473726 0.284907 0.221425 0.206265 0.150141 0.117162 0.113901 0.0921974 0.0753899 0.0733543 0.0618387 0.053614 0.0518057 0.0443091 0.0406493 0.0384112 0.0333293 0.031822 0.0292774 0.0272101 0.0277799 0.0284575 0.0331701 0.0407321 0.0527232 0.0704921 0.0931347 0.122439 0.156738 0.196335 0.239812 0.285813 0.333305 0.380152 0.425929 0.468527 0.507995 0.542932 0.573641 0.599403 0.620873 0.63777 0.650633 0.659523 0.664837 0.666559 0.664837 0.659523 0.650633 0.63777 0.620873 0.599403 0.573641 0.542932 0.507995 0.468527 0.425929 0.380152 0.333305 0.285813 0.239812 0.196335 0.156738 0.122439 0.0931347 0.0704921 0.0527232 0.0407321 0.0331701 0.0284575 0.0277799 0.0272101 0.0292774 0.031822 0.0333293 0.0384112 0.0406493 0.0443091 0.0518057 0.053614 0.0618387 0.0733543 0.0753899 0.0921974 0.113901 0.117162 0.150141 0.206265 0.221425 0.284907 0.473726 0.623942 0.757731 1.27146 1.96684 1.47668 -1.27625 -5.20774 -7.57373 -6.53212 -2.79369 1.25897 3.64848 3.95814 2.9766 1.71607 0.77155 0.26033 0.0550652 -0.00124526 -0.00705239 -0.00337138 -0.000861386 -5.8113e-05 5.38736e-05 2.66824e-05 5.8294e-06 5.23353e-08 -4.21214e-07 -1.48915e-07 -2.00891e-08 3.67901e-09 2.50837e-09 5.34219e-10 8.29846e-13 -3.28292e-11 -9.26036e-12 -5.81796e-13 3.71442e-13 1.22828e-13 9.44578e-15 -3.97079e-15 -1.27184e-15 -7.47434e-17 3.93196e-17 9.83254e-18 1.64115e-19 -3.17184e-19 -5.18337e-20 2.58524e-21 1.89145e-21 5.36926e-22 3.22647e-23 0 0 
0 0 -7.45427e-24 3.32993e-25 1.02037e-22 1.56561e-21 3.22621e-21 -4.00521e-20 -2.85124e-19 -4.485e-20 8.01225e-18 3.67733e-17 -4.10248e-17 -1.06362e-15 -3.7886e-15 5.92516e-15 1.03438e-13 3.50252e-13 -3.27246e-13 -7.71659e-12 -2.99545e-11 -1.11081e-11 4.31762e-10 2.21071e-09 3.83457e-09 -1.49384e-08 -1.26948e-07 -3.90118e-07 -9.96495e-08 4.70814e-06 2.33901e-05 5.19683e-05 -3.01288e-05 -0.000714724 -0.00298856 -0.00670017 -0.00298843 0.0445432 0.226987 0.696722 1.59238 2.83697 3.89563 3.78485 1.64382 -2.28921 -6.19431 -7.64024 -5.63537 -1.75111 1.24683 1.99604 1.37169 0.804098 0.639551 0.49945 0.305594 0.225956 0.211173 0.158234 0.119826 0.115521 0.0959491 0.0769747 0.0743266 0.0638507 0.0543929 0.0524725 0.0453448 0.0407674 0.0388076 0.0340261 0.0330631 0.0327152 0.0342207 0.0411565 0.0516957 0.0698748 0.0955654 0.129457 0.172795 0.223538 0.281846 0.344549 0.410036 0.475556 0.538498 0.597218 0.649234 0.694441 0.731315 0.760695 0.782451 0.797947 0.807822 0.813604 0.816339 0.817219 0.817095 0.816756 0.816667 0.816756 0.817095 0.817219 0.816339 0.813604 0.807822 0.797947 0.782451 0.760695 0.731315 0.694441 0.649234 0.597218 0.538498 0.475556 0.410036 0.344549 0.281846 0.223538 0.172795 0.129457 0.0955654 0.0698748 0.0516957 0.0411565 0.0342207 0.0327152 0.0330631 0.0340261 0.0388076 0.0407674 0.0453448 0.0524725 0.0543929 0.0638507 0.0743266 0.0769747 0.0959491 0.115521 0.119826 0.158234 0.211173 0.225956 0.305594 0.49945 0.639551 0.804098 1.37169 1.99604 1.24683 -1.75111 -5.63537 -7.64024 -6.19431 -2.28921 1.64382 3.78485 3.89563 2.83697 1.59238 0.696722 0.226987 0.0445432 -0.00298843 -0.00670016 -0.00298855 -0.000714723 -3.01288e-05 5.19683e-05 2.33901e-05 4.70819e-06 -9.92402e-08 -3.88798e-07 -1.26446e-07 -1.48709e-08 3.82263e-09 2.20254e-09 4.30033e-10 -1.11093e-11 -2.98492e-11 -7.68741e-12 -3.25553e-13 3.49066e-13 1.03063e-13 5.89953e-15 -3.77605e-15 -1.05988e-15 -4.08483e-17 3.6653e-17 7.98487e-18 -4.49163e-20 -2.84202e-19 -3.99192e-20 3.21512e-21 1.60981e-21 4.34568e-22 2.00373e-23 0 0 
0 0 -6.72126e-24 -8.01283e-24 5.61911e-23 1.2814e-21 3.59741e-21 -2.87046e-20 -2.46581e-19 -2.14169e-19 6.18223e-18 3.31822e-17 -1.14297e-17 -8.49299e-16 -3.49428e-15 2.75774e-15 8.34485e-14 3.20126e-13 -1.01644e-13 -6.15332e-12 -2.65195e-11 -2.07667e-11 3.31115e-10 1.88607e-09 3.83603e-09 -1.01009e-08 -1.04177e-07 -3.51016e-07 -2.24667e-07 3.62108e-06 1.99273e-05 4.89354e-05 -5.12505e-06 -0.000569216 -0.00258218 -0.00624025 -0.00448581 0.0341933 0.192621 0.616851 1.45539 2.67348 3.80489 3.90808 2.05618 -1.70776 -5.76024 -7.65149 -6.09068 -2.31526 0.934892 1.99844 1.48724 0.867311 0.659316 0.527758 0.331738 0.233028 0.21618 0.167731 0.123885 0.117218 0.100175 0.0792637 0.0753799 0.0661552 0.0554444 0.0530988 0.0464663 0.0414435 0.0405114 0.0380771 0.041111 0.0489073 0.0622482 0.0864405 0.120073 0.166301 0.224703 0.293321 0.371382 0.453707 0.53765 0.617952 0.690781 0.752932 0.801516 0.835784 0.854723 0.860099 0.852736 0.835631 0.810943 0.781703 0.750409 0.719607 0.691427 0.667542 0.6496 0.638358 0.634637 0.638358 0.6496 0.667542 0.691427 0.719607 0.750409 0.781703 0.810943 0.835631 0.852736 0.860099 0.854723 0.835784 0.801516 0.752932 0.690781 0.617952 0.53765 0.453707 0.371382 0.293321 0.224703 0.166301 0.120073 0.0864405 0.0622482 0.0489073 0.041111 0.0380771 0.0405114 0.0414435 0.0464663 0.0530988 0.0554444 0.0661552 0.0753799 0.0792637 0.100175 0.117218 0.123885 0.167731 0.21618 0.233028 0.331738 0.527758 0.659316 0.867311 1.48724 1.99844 0.934892 -2.31526 -6.09068 -7.65149 -5.76024 -1.70776 2.05618 3.90808 3.80489 2.67348 1.45539 0.616851 0.192621 0.0341933 -0.00448581 -0.00624025 -0.00258218 -0.000569217 -5.1251e-06 4.89354e-05 1.99273e-05 3.62112e-06 -2.2433e-07 -3.49855e-07 -1.03765e-07 -1.00534e-08 3.82353e-09 1.87903e-09 3.29769e-10 -2.07244e-11 -2.64252e-11 -6.12983e-12 -1.0085e-13 3.19027e-13 8.31435e-14 2.74402e-15 -3.48256e-15 -8.46297e-16 -1.13603e-17 3.30727e-17 6.16097e-18 -2.13632e-19 -2.45779e-19 -2.86086e-20 3.58428e-21 1.31327e-21 3.3345e-22 9.42289e-24 0 0 
0 0 -5.78337e-24 -1.37131e-23 1.89372e-23 9.97643e-22 3.6793e-21 -1.8617e-20 -2.04526e-19 -3.32199e-19 4.47585e-18 2.88212e-17 1.19585e-17 -6.44337e-16 -3.10994e-15 1.65313e-16 6.42792e-14 2.83287e-13 7.94805e-14 -4.68082e-12 -2.27751e-11 -2.75054e-11 2.39361e-10 1.55801e-09 3.68606e-09 -5.91839e-09 -8.22583e-08 -3.06771e-07 -3.15294e-07 2.62221e-06 1.64411e-05 4.48052e-05 1.54153e-05 -0.000431712 -0.00216787 -0.00567858 -0.00563252 0.0245075 0.158573 0.534452 1.30813 2.48712 3.68096 4.00527 2.47985 -1.05693 -5.21811 -7.57943 -6.54889 -2.96609 0.522846 1.95528 1.61289 0.951544 0.685815 0.558121 0.363712 0.243911 0.221208 0.178329 0.129591 0.119032 0.104719 0.0822514 0.0763733 0.0685265 0.0568771 0.0539836 0.0489944 0.045352 0.0491116 0.0554429 0.0716389 0.10005 0.140716 0.198901 0.271724 0.358831 0.456407 0.557568 0.657249 0.746774 0.820767 0.873462 0.901396 0.903819 0.880701 0.835509 0.771007 0.692631 0.604578 0.512148 0.419455 0.330398 0.248263 0.175356 0.113743 0.0645101 0.0290095 0.00726991 0.000163968 0.00726991 0.0290095 0.0645101 0.113743 0.175356 0.248263 0.330398 0.419455 0.512148 0.604578 0.692631 0.771007 0.835509 0.880701 0.903819 0.901396 0.873462 0.820767 0.746774 0.657249 0.557568 0.456407 0.358831 0.271724 0.198901 0.140716 0.10005 0.0716389 0.0554429 0.0491116 0.045352 0.0489944 0.0539836 0.0568771 0.0685265 0.0763733 0.0822514 0.104719 0.119032 0.129591 0.178329 0.221208 0.243911 0.363712 0.558121 0.685815 0.951544 1.61289 1.95528 0.522846 -2.96609 -6.54889 -7.57943 -5.21811 -1.05693 2.47985 4.00527 3.68096 2.48712 1.30813 0.534452 0.158573 0.0245075 -0.00563252 -0.00567858 -0.00216786 -0.000431712 1.54154e-05 4.48052e-05 1.64411e-05 2.62222e-06 -3.15027e-07 -3.05782e-07 -8.1934e-08 -5.88851e-09 3.67361e-09 1.55213e-09 2.38368e-10 -2.74305e-11 -2.26931e-11 -4.66275e-12 7.95324e-14 2.82303e-13 6.40422e-14 1.61493e-16 -3.09939e-15 -6.42041e-16 1.19418e-17 2.87253e-17 4.46033e-18 -3.3123e-19 -2.03858e-19 -1.85541e-20 3.66537e-21 1.01857e-21 2.39424e-22 1.05181e-24 0 0 
0 0 -4.7174e-24 -1.66584e-23 -8.22136e-24 7.30916e-22 3.4882e-21 -1.02747e-20 -1.61517e-19 -3.95468e-19 2.97779e-18 2.39555e-17 2.8212e-17 -4.58629e-16 -2.65764e-15 -1.74705e-15 4.68034e-14 2.41637e-13 2.09335e-13 -3.36187e-12 -1.88982e-11 -3.11366e-11 1.60205e-10 1.24118e-09 3.3972e-09 -2.55266e-09 -6.21344e-08 -2.59468e-07 -3.68271e-07 1.75355e-06 1.30806e-05 3.97476e-05 3.05843e-05 -0.000307988 -0.00176187 -0.00503251 -0.00636462 0.015893 0.126097 0.452123 1.15419 2.28007 3.5202 4.0635 2.8958 -0.349435 -4.56001 -7.39442 -6.97772 -3.69372 -0.00640637 1.84266 1.73888 1.06024 0.722756 0.590103 0.40151 0.260034 0.226694 0.189795 0.13742 0.121177 0.109449 0.0861371 0.0775303 0.0711481 0.0595996 0.0574084 0.0576772 0.0618823 0.0796974 0.108627 0.155011 0.222722 0.308567 0.413471 0.529595 0.648746 0.761638 0.855472 0.922302 0.95328 0.944852 0.896486 0.810274 0.692736 0.549987 0.391304 0.224128 0.0564851 -0.105639 -0.257116 -0.394506 -0.51582 -0.619667 -0.706327 -0.775569 -0.828597 -0.865606 -0.88773 -0.894891 -0.88773 -0.865606 -0.828597 -0.775569 -0.706327 -0.619667 -0.51582 -0.394506 -0.257116 -0.105639 0.0564851 0.224128 0.391304 0.549987 0.692736 0.810274 0.896486 0.944852 0.95328 0.922302 0.855472 0.761638 0.648746 0.529595 0.413471 0.308567 0.222722 0.155011 0.108627 0.0796974 0.0618823 0.0576772 0.0574084 0.0595996 0.0711481 0.0775303 0.0861371 0.109449 0.121177 0.13742 0.189795 0.226694 0.260034 0.40151 0.590103 0.722756 1.06024 1.73888 1.84266 -0.00640637 -3.69372 -6.97772 -7.39442 -4.56001 -0.349435 2.8958 4.0635 3.5202 2.28007 1.15419 0.452123 0.126097 0.015893 -0.00636462 -0.00503251 -0.00176187 -0.000307988 3.05843e-05 3.97476e-05 1.30806e-05 1.75356e-06 -3.68069e-07 -2.58654e-07 -6.18898e-08 -2.53719e-09 3.38537e-09 1.23644e-09 1.59521e-10 -3.10414e-11 -1.88293e-11 -3.34869e-12 2.08836e-13 2.40787e-13 4.66289e-14 -1.74337e-15 -2.64853e-15 -4.56979e-16 2.81337e-17 2.38751e-17 2.96734e-18 -3.94252e-19 -1.60987e-19 -1.02392e-20 3.4747e-21 7.42812e-22 1.57457e-22 -4.77565e-24 0 0 
0 0 -3.6191e-24 -1.71147e-23 -2.51293e-23 4.95905e-22 3.07808e-21 -3.94147e-21 -1.2032e-19 -4.07713e-19 1.74787e-18 1.8926e-17 3.7304e-17 -2.99914e-16 -2.16886e-15 -2.95729e-15 3.17049e-14 1.97715e-13 2.87293e-13 -2.24139e-12 -1.50835e-11 -3.18481e-11 9.58431e-11 9.48959e-10 2.99909e-09 -6.62912e-11 -4.45365e-08 -2.116e-07 -3.84932e-07 1.04189e-06 9.98219e-06 3.40483e-05 4.01007e-05 -0.000202295 -0.00137974 -0.00432919 -0.00666349 0.00864355 0.0962806 0.372412 0.99759 2.05584 3.32083 4.07078 3.28276 0.396056 -3.78424 -7.0673 -7.33748 -4.478 -0.666067 1.63207 1.8487 1.19515 0.775633 0.624078 0.444682 0.283104 0.233395 0.201565 0.147591 0.124162 0.114035 0.091073 0.0795507 0.0755052 0.0675915 0.0714678 0.086311 0.112521 0.162371 0.234575 0.331063 0.451743 0.585387 0.722759 0.848084 0.944658 0.999961 1.00179 0.946527 0.834266 0.671569 0.469442 0.240076 -0.00176024 -0.244084 -0.475122 -0.68724 -0.874594 -1.03474 -1.16739 -1.27364 -1.35647 -1.41864 -1.46428 -1.49616 -1.51783 -1.53122 -1.53876 -1.54096 -1.53876 -1.53122 -1.51783 -1.49616 -1.46428 -1.41864 -1.35647 -1.27364 -1.16739 -1.03474 -0.874594 -0.68724 -0.475122 -0.244084 -0.00176024 0.240076 0.469442 0.671569 0.834266 0.946527 1.00179 0.999961 0.944658 0.848084 0.722759 0.585387 0.451743 0.331063 0.234575 0.162371 0.112521 0.086311 0.0714678 0.0675915 0.0755052 0.0795507 0.091073 0.114035 0.124162 0.147591 0.201565 0.233395 0.283104 0.444682 0.624078 0.775633 1.19515 1.8487 1.63207 -0.666067 -4.478 -7.33748 -7.0673 -3.78424 0.396056 3.28276 4.07078 3.32083 2.05584 0.99759 0.372412 0.0962806 0.00864355 -0.00666348 -0.00432918 -0.00137974 -0.000202294 4.01009e-05 3.40484e-05 9.98217e-06 1.04189e-06 -3.84787e-07 -2.10953e-07 -4.43613e-08 -6.17573e-11 2.98837e-09 9.45287e-10 9.54144e-11 -3.17439e-11 -1.50279e-11 -2.23243e-12 2.86439e-13 1.97011e-13 3.1585e-14 -2.94866e-15 -2.16136e-15 -2.98819e-16 3.71892e-17 1.8862e-17 1.74161e-18 -4.06426e-19 -1.19922e-19 -3.92692e-21 3.06596e-21 5.0096e-22 9.09864e-23 -8.10178e-24 0 0 
0 0 -2.58422e-24 -1.56367e-23 -3.28604e-23 3.03162e-22 2.5276e-21 3.59507e-22 -8.34529e-20 -3.78559e-19 8.14769e-19 1.40916e-17 4.0017e-17 -1.72935e-16 -1.67926e-15 -3.51989e-15 1.94146e-14 1.54307e-13 3.18174e-13 -1.34348e-12 -1.15176e-11 -3.01248e-11 4.69127e-11 6.91964e-10 2.53231e-09 1.57096e-09 -2.99232e-08 -1.65706e-07 -3.70471e-07 4.97406e-07 7.2557e-06 2.80654e-05 4.42784e-05 -0.000117066 -0.0010349 -0.00360247 -0.00655469 0.00292279 0.0699758 0.297665 0.842646 1.81928 3.08359 4.01712 3.61819 1.15457 -2.89754 -6.57248 -7.58205 -5.28629 -1.46156 1.29168 1.91762 1.35379 0.851155 0.661801 0.492193 0.314462 0.242766 0.213196 0.160094 0.128482 0.118647 0.097988 0.085591 0.087677 0.092442 0.115483 0.163002 0.233817 0.337662 0.469626 0.619652 0.776453 0.916382 1.01901 1.06433 1.03651 0.931337 0.750371 0.506405 0.217367 -0.0957849 -0.410452 -0.708562 -0.974328 -1.19875 -1.37654 -1.50781 -1.5958 -1.64588 -1.66558 -1.66161 -1.64175 -1.6119 -1.57819 -1.5446 -1.51532 -1.49241 -1.47814 -1.47315 -1.47814 -1.49241 -1.51532 -1.5446 -1.57819 -1.6119 -1.64175 -1.66161 -1.66558 -1.64588 -1.5958 -1.50781 -1.37654 -1.19875 -0.974328 -0.708562 -0.410452 -0.0957849 0.217367 0.506405 0.750371 0.931337 1.03651 1.06433 1.01901 0.916382 0.776453 0.619652 0.469626 0.337662 0.233817 0.163002 0.115483 0.092442 0.087677 0.085591 0.097988 0.118647 0.128482 0.160094 0.213196 0.242766 0.314462 0.492193 0.661801 0.851155 1.35379 1.91762 1.29168 -1.46156 -5.28629 -7.58205 -6.57248 -2.89754 1.15457 3.61819 4.01712 3.08359 1.81928 0.842646 0.297665 0.0699758 0.00292279 -0.00655469 -0.00360247 -0.0010349 -0.000117066 4.42784e-05 2.80654e-05 7.25569e-06 4.97405e-07 -3.70372e-07 -1.65214e-07 -2.98059e-08 1.56797e-09 2.52306e-09 6.89247e-10 4.66819e-11 -3.00222e-11 -1.14745e-11 -1.33793e-12 3.17148e-13 1.53751e-13 1.93395e-14 -3.5087e-15 -1.67339e-15 -1.7229e-16 3.98885e-17 1.40436e-17 8.11719e-19 -3.77344e-19 -8.3175e-20 3.59687e-22 2.51754e-21 3.0358e-22 4.15056e-23 -9.26548e-24 0 0 
0 0 -1.69067e-24 -1.2934e-23 -3.33908e-23 1.57645e-22 1.92376e-21 2.82432e-21 -5.27858e-20 -3.21285e-19 1.74554e-19 9.76982e-18 3.77334e-17 -7.90443e-17 -1.22287e-15 -3.54909e-15 1.00792e-14 1.14027e-13 3.10854e-13 -6.71025e-13 -8.35435e-12 -2.66387e-11 1.26465e-11 4.76996e-10 2.04102e-09 2.46413e-09 -1.8457e-08 -1.2402e-07 -3.32711e-07 1.14553e-07 4.97362e-06 2.21754e-05 4.39184e-05 -5.28459e-05 -0.000737396 -0.00288869 -0.00610106 -0.00123916 0.0477478 0.22988 0.693677 1.57636 2.81187 3.89585 3.88005 1.89555 -1.91726 -5.89218 -7.66147 -6.07171 -2.38568 0.790027 1.9115 1.52651 0.956303 0.707238 0.543011 0.355153 0.256796 0.224508 0.174762 0.135499 0.125016 0.11084 0.104582 0.123428 0.158913 0.22398 0.328466 0.464618 0.629677 0.806216 0.965685 1.0826 1.12641 1.07686 0.926887 0.679898 0.356483 -0.0161072 -0.405174 -0.778183 -1.10913 -1.37793 -1.57522 -1.69847 -1.75289 -1.74802 -1.69585 -1.60982 -1.50174 -1.38305 -1.26207 -1.14618 -1.03981 -0.946862 -0.869108 -0.808041 -0.764088 -0.737743 -0.728893 -0.737743 -0.764088 -0.808041 -0.869108 -0.946862 -1.03981 -1.14618 -1.26207 -1.38305 -1.50174 -1.60982 -1.69585 -1.74802 -1.75289 -1.69847 -1.57522 -1.37793 -1.10913 -0.778183 -0.405174 -0.0161072 0.356483 0.679898 0.926887 1.07686 1.12641 1.0826 0.965685 0.806216 0.629677 0.464618 0.328466 0.22398 0.158913 0.123428 0.104582 0.11084 0.125016 0.135499 0.174762 0.224508 0.256796 0.355153 0.543011 0.707238 0.956303 1.52651 1.9115 0.790027 -2.38568 -6.07171 -7.66147 -5.89218 -1.91726 1.89555 3.88005 3.89585 2.81187 1.57636 0.693677 0.22988 0.0477478 -0.00123916 -0.00610106 -0.00288869 -0.000737395 -5.2846e-05 4.39185e-05 2.21755e-05 4.97363e-06 1.14548e-07 -3.32649e-07 -1.23663e-07 -1.83851e-08 2.45666e-09 2.03341e-09 4.7509e-10 1.2558e-11 -2.65451e-11 -8.32271e-12 -6.68078e-13 3.09805e-13 1.13612e-13 1.00387e-14 -3.53733e-15 -1.21856e-15 -7.87341e-17 3.76094e-17 9.73629e-18 1.73733e-19 -3.2024e-19 -5.26085e-20 2.81611e-21 1.91603e-21 1.55399e-22 8.50215e-24 -8.80739e-24 0 0 
0 0 -9.86215e-25 -9.72569e-24 -2.9146e-23 5.8415e-23 1.34551e-21 3.81168e-21 -2.92771e-20 -2.50183e-19 -2.05391e-19 6.1879e-18 3.21496e-17 -1.63276e-17 -8.2696e-16 -3.19491e-15 3.57228e-15 7.89551e-14 2.76484e-13 -2.08154e-13 -5.69826e-12 -2.21253e-11 -8.81161e-12 3.06618e-10 1.56596e-09 2.76677e-09 -1.00211e-08 -8.81832e-08 -2.80621e-07 -1.25138e-07 3.16557e-06 1.67197e-05 4.01434e-05 -8.43725e-06 -0.000493035 -0.00222206 -0.00539185 -0.00393499 0.0298497 0.170563 0.554731 1.33395 2.51196 3.70447 4.04857 2.58413 -0.872491 -5.02032 -7.52647 -6.77313 -3.41344 0.100997 1.78711 1.69328 1.09606 0.767196 0.596472 0.405244 0.278258 0.236275 0.191802 0.148379 0.139241 0.141056 0.157268 0.213632 0.30642 0.438806 0.613809 0.807389 0.992652 1.13507 1.19244 1.13794 0.956756 0.653843 0.257008 -0.19527 -0.654786 -1.07645 -1.42412 -1.67346 -1.81623 -1.85536 -1.80474 -1.68357 -1.51299 -1.31394 -1.10373 -0.896825 -0.702615 -0.527976 -0.375518 -0.246608 -0.140265 -0.0550881 0.0109036 0.0598108 0.0933344 0.112895 0.119327 0.112895 0.0933344 0.0598108 0.0109036 -0.0550881 -0.140265 -0.246608 -0.375518 -0.527976 -0.702615 -0.896825 -1.10373 -1.31394 -1.51299 -1.68357 -1.80474 -1.85536 -1.81623 -1.67346 -1.42412 -1.07645 -0.654786 -0.19527 0.257008 0.653843 0.956756 1.13794 1.19244 1.13507 0.992652 0.807389 0.613809 0.438806 0.30642 0.213632 0.157268 0.141056 0.139241 0.148379 0.191802 0.236275 0.278258 0.405244 0.596472 0.767196 1.09606 1.69328 1.78711 0.100997 -3.41344 -6.77313 -7.52647 -5.02032 -0.872491 2.58413 4.04857 3.70447 2.51196 1.33395 0.554731 0.170563 0.0298497 -0.00393498 -0.00539184 -0.00222206 -0.000493036 -8.4373e-06 4.01434e-05 1.67197e-05 3.16556e-06 -1.25143e-07 -2.80586e-07 -8.79386e-08 -9.98256e-09 2.75734e-09 1.56001e-09 3.05366e-10 -8.80743e-12 -2.20457e-11 -5.67636e-12 -2.07036e-13 2.75523e-13 7.86644e-14 3.55613e-15 -3.18406e-15 -8.24016e-16 -1.62445e-17 3.20422e-17 6.16647e-18 -2.04861e-19 -2.49361e-19 -2.91774e-20 3.79992e-21 1.34006e-21 5.50689e-23 -1.02341e-23 -7.34892e-24 0 0 
0 0 -4.84204e-25 -6.61363e-24 -2.25223e-23 -4.8556e-25 8.51181e-22 3.76326e-21 -1.29169e-20 -1.78077e-19 -3.77941e-19 3.45568e-18 2.49729e-17 1.9757e-17 -5.08524e-16 -2.61681e-15 -4.58862e-16 5.03971e-14 2.26636e-13 7.52493e-14 -3.59603e-12 -1.72732e-11 -1.99922e-11 1.79403e-10 1.13912e-09 2.65208e-09 -4.27466e-09 -5.90825e-08 -2.22865e-07 -2.48788e-07 1.81918e-06 1.19604e-05 3.42061e-05 1.87431e-05 -0.000303072 -0.00163059 -0.00452896 -0.00535681 0.0162271 0.12064 0.429274 1.09924 2.1928 3.44559 4.10856 3.18368 0.196045 -3.96725 -7.13454 -7.31744 -4.49743 -0.788706 1.49504 1.82012 1.26957 0.850768 0.653869 0.463829 0.310109 0.251262 0.213966 0.17534 0.177313 0.213431 0.279497 0.401109 0.573134 0.776617 0.991096 1.16917 1.26032 1.22541 1.03582 0.695132 0.234726 -0.294348 -0.82545 -1.29712 -1.6597 -1.88356 -1.96246 -1.90761 -1.74533 -1.50771 -1.2279 -0.935635 -0.653347 -0.397267 -0.176006 0.00682285 0.152441 0.264024 0.346685 0.405842 0.446568 0.473626 0.49077 0.501125 0.506949 0.509881 0.510709 0.509881 0.506949 0.501125 0.49077 0.473626 0.446568 0.405842 0.346685 0.264024 0.152441 0.00682285 -0.176006 -0.397267 -0.653347 -0.935635 -1.2279 -1.50771 -1.74533 -1.90761 -1.96246 -1.88356 -1.6597 -1.29712 -0.82545 -0.294348 0.234726 0.695132 1.03582 1.22541 1.26032 1.16917 0.991096 0.776617 0.573134 0.401109 0.279497 0.213431 0.177313 0.17534 0.213966 0.251262 0.310109 0.463829 0.653869 0.850768 1.26957 1.82012 1.49504 -0.788706 -4.49743 -7.31744 -7.13454 -3.96725 0.196045 3.18368 4.10856 3.44559 2.1928 1.09924 0.429274 0.12064 0.0162271 -0.0053568 -0.00452895 -0.00163059 -0.000303072 1.8743e-05 3.42061e-05 1.19604e-05 1.81917e-06 -2.48794e-07 -2.22851e-07 -5.89259e-08 -4.25882e-09 2.64248e-09 1.1347e-09 1.78648e-10 -1.99361e-11 -1.72098e-11 -3.58197e-12 7.52114e-14 2.25832e-13 5.0209e-14 -4.59557e-16 -2.60776e-15 -5.06691e-16 1.97064e-17 2.48884e-17 3.44354e-18 -3.76776e-19 -1.77488e-19 -1.28717e-20 3.75141e-21 8.47705e-22 -3.85251e-24 -1.80146e-23 -5.47375e-24 0 0 
0 0 -1.67529e-25 -4.00275e-24 -1.54959e-23 -2.82446e-23 4.72249e-22 3.11996e-21 -2.86883e-21 -1.14496e-19 -4.05239e-19 1.56387e-18 1.76601e-17 3.53794e-17 -2.72996e-16 -1.95963e-15 -2.51645e-15 2.8795e-14 1.71707e-13 2.17716e-13 -2.03872e-12 -1.26419e-11 -2.36694e-11 9.07405e-11 7.80843e-10 2.28652e-09 -7.32456e-10 -3.68382e-08 -1.66659e-07 -2.87313e-07 8.87084e-07 8.05392e-06 2.73052e-05 3.2168e-05 -0.000164528 -0.00113304 -0.00361297 -0.00576344 0.00655361 0.0804051 0.319913 0.879207 1.86531 3.12721 4.05156 3.65922 1.23755 -2.76278 -6.45801 -7.6256 -5.56534 -1.87065 0.985672 1.85735 1.46486 0.968056 0.719705 0.529984 0.356079 0.27646 0.250437 0.234713 0.26951 0.367646 0.514457 0.71725 0.954363 1.17185 1.31764 1.33146 1.16662 0.817202 0.309847 -0.292171 -0.902746 -1.43904 -1.83192 -2.04278 -2.06638 -1.92396 -1.65745 -1.31557 -0.946025 -0.588123 -0.268902 -0.00437798 0.200808 0.348794 0.447102 0.504984 0.532311 0.538232 0.530054 0.514137 0.494548 0.474783 0.456559 0.441582 0.430339 0.423586 0.421198 0.423586 0.430339 0.441582 0.456559 0.474783 0.494548 0.514137 0.530054 0.538232 0.532311 0.504984 0.447102 0.348794 0.200808 -0.00437798 -0.268902 -0.588123 -0.946025 -1.31557 -1.65745 -1.92396 -2.06638 -2.04278 -1.83192 -1.43904 -0.902746 -0.292171 0.309847 0.817202 1.16662 1.33146 1.31764 1.17185 0.954363 0.71725 0.514457 0.367646 0.26951 0.234713 0.250437 0.27646 0.356079 0.529984 0.719705 0.968056 1.46486 1.85735 0.985672 -1.87065 -5.56534 -7.6256 -6.45801 -2.76278 1.23755 3.65922 4.05156 3.12721 1.86531 0.879207 0.319913 0.0804051 0.00655362 -0.00576344 -0.00361297 -0.00113304 -0.000164528 3.2168e-05 2.73052e-05 8.0539e-06 8.8708e-07 -2.8732e-07 -1.66656e-07 -3.67465e-08 -7.30528e-10 2.27793e-09 7.77758e-10 9.03391e-11 -2.35916e-11 -1.25946e-11 -2.03055e-12 2.17065e-13 1.71088e-13 2.86855e-14 -2.50894e-15 -1.95276e-15 -2.71994e-16 3.52677e-17 1.75997e-17 1.55822e-18 -4.03938e-19 -1.14114e-19 -2.85746e-21 3.11002e-21 4.70302e-22 -3.10273e-23 -1.85242e-23 -3.63769e-24 0 0 
0 0 1.41599e-27 -2.07979e-24 -9.39439e-24 -3.51202e-23 2.13831e-22 2.25286e-21 2.24136e-21 -6.48283e-20 -3.47653e-19 4.05904e-19 1.12468e-17 3.71945e-17 -1.15284e-16 -1.33596e-15 -3.16352e-15 1.37979e-14 1.19776e-13 2.60179e-13 -9.71668e-13 -8.61728e-12 -2.24863e-11 3.39756e-11 4.99499e-10 1.81034e-09 1.14824e-09 -2.09205e-08 -1.17073e-07 -2.70853e-07 2.98145e-07 5.04569e-06 2.04386e-05 3.56503e-05 -7.1044e-05 -0.000737595 -0.0027309 -0.00544314 0.000291821 0.0495437 0.228186 0.67996 1.54154 2.76246 3.87753 3.98146 2.19503 -1.45753 -5.4916 -7.62147 -6.52088 -3.10525 0.219545 1.74073 1.65293 1.12567 0.802807 0.605021 0.422771 0.32736 0.323291 0.359727 0.46031 0.64573 0.881218 1.13202 1.34425 1.43339 1.33527 1.01907 0.494826 -0.168448 -0.868458 -1.49463 -1.9501 -2.17951 -2.17292 -1.96111 -1.60417 -1.17109 -0.727403 -0.323358 0.00998242 0.259152 0.426217 0.521501 0.560671 0.559795 0.533437 0.493391 0.448126 0.403477 0.362487 0.327231 0.29785 0.274491 0.256362 0.243178 0.23409 0.22894 0.227232 0.22894 0.23409 0.243178 0.256362 0.274491 0.29785 0.327231 0.362487 0.403477 0.448126 0.493391 0.533437 0.559795 0.560671 0.521501 0.426217 0.259152 0.00998242 -0.323358 -0.727403 -1.17109 -1.60417 -1.96111 -2.17292 -2.17951 -1.9501 -1.49463 -0.868458 -0.168448 0.494826 1.01907 1.33527 1.43339 1.34425 1.13202 0.881218 0.64573 0.46031 0.359727 0.323291 0.32736 0.422771 0.605021 0.802807 1.12567 1.65293 1.74073 0.219545 -3.10525 -6.52088 -7.62147 -5.4916 -1.45753 2.19503 3.98146 3.87753 2.76246 1.54154 0.67996 0.228186 0.0495437 0.000291825 -0.00544313 -0.0027309 -0.000737595 -7.10441e-05 3.56503e-05 2.04386e-05 5.04568e-06 2.98142e-07 -2.70858e-07 -1.17077e-07 -2.08733e-08 1.14284e-09 1.80335e-09 4.97485e-10 3.38065e-11 -2.24076e-11 -8.58453e-12 -9.67612e-13 2.59308e-13 1.19338e-13 1.37438e-14 -3.15307e-15 -1.33123e-15 -1.14845e-16 3.70716e-17 1.1208e-17 4.04281e-19 -3.46516e-19 -6.46098e-20 2.23524e-21 2.24562e-21 2.12934e-22 -3.71012e-23 -1.51457e-23 -2.12406e-24 0 0 
0 0 6.84077e-26 -8.44269e-25 -4.85826e-24 -3.04843e-23 6.07897e-23 1.42233e-21 3.97889e-21 -3.04873e-20 -2.55116e-19 -1.84567e-19 6.28821e-18 3.1302e-17 -2.25727e-17 -8.1734e-16 -2.93937e-15 4.45278e-15 7.60614e-14 2.40717e-13 -3.09746e-13 -5.4034e-12 -1.86861e-11 1.61745e-12 2.93198e-10 1.327e-09 1.88998e-09 -1.03519e-08 -7.68646e-08 -2.25234e-07 -2.94561e-08 2.88386e-06 1.43154e-05 3.28331e-05 -1.41136e-05 -0.000442263 -0.00194765 -0.00467742 -0.00322675 0.0272116 0.154475 0.506177 1.23354 2.36855 3.59583 4.13094 3.01086 -0.121246 -4.25984 -7.24441 -7.25037 -4.41477 -0.818841 1.39748 1.78247 1.32106 0.917345 0.696861 0.523393 0.432711 0.47151 0.594466 0.788373 1.05315 1.3199 1.49868 1.50975 1.27913 0.788253 0.0940064 -0.696205 -1.4404 -2.00458 -2.30316 -2.30922 -2.05795 -1.62765 -1.11141 -0.597741 -0.151045 0.192411 0.422627 0.550066 0.595298 0.583678 0.53805 0.476783 0.413092 0.354436 0.304972 0.265354 0.23527 0.212912 0.197014 0.185743 0.178093 0.172834 0.169392 0.167174 0.166046 0.165649 0.166046 0.167174 0.169392 0.172834 0.178093 0.185743 0.197014 0.212912 0.23527 0.265354 0.304972 0.354436 0.413092 0.476783 0.53805 0.583678 0.595298 0.550066 0.422627 0.192411 -0.151045 -0.597741 -1.11141 -1.62765 -2.05795 -2.30922 -2.30316 -2.00458 -1.4404 -0.696205 0.0940064 0.788253 1.27913 1.50975 1.49868 1.3199 1.05315 0.788373 0.594466 0.47151 0.432711 0.523393 0.696861 0.917345 1.32106 1.78247 1.39748 -0.818841 -4.41477 -7.25037 -7.24441 -4.25984 -0.121246 3.01086 4.13094 3.59583 2.36855 1.23354 0.506177 0.154475 0.0272116 -0.00322675 -0.00467742 -0.00194765 -0.000442263 -1.41136e-05 3.2833e-05 1.43154e-05 2.88386e-06 -2.94572e-08 -2.25238e-07 -7.68709e-08 -1.03328e-08 1.88178e-09 1.32176e-09 2.91986e-10 1.58577e-12 -1.86182e-11 -5.38251e-12 -3.08293e-13 2.39874e-13 7.57796e-14 4.43374e-15 -2.92929e-15 -8.1441e-16 -2.24697e-17 3.11964e-17 6.26626e-18 -1.84098e-19 -2.54271e-19 -3.03829e-20 3.96654e-21 1.41773e-21 6.05177e-23 -3.17071e-23 -1.04908e-23 -1.0463e-24 0 0 
0 0 7.6413e-26 -1.72528e-25 -1.95956e-24 -2.15133e-23 -1.32669e-23 7.69546e-22 3.78849e-21 -9.85936e-21 -1.6233e-19 -3.91758e-19 2.90592e-18 2.25082e-17 2.19248e-17 -4.34535e-16 -2.29449e-15 -5.35021e-16 4.29412e-14 1.90772e-13 4.58696e-14 -3.04454e-12 -1.39666e-11 -1.36044e-11 1.52793e-10 9.01217e-10 1.93923e-09 -3.94229e-09 -4.6733e-08 -1.69941e-07 -1.75959e-07 1.44692e-06 9.33268e-06 2.6799e-05 1.55638e-05 -0.000236725 -0.00130201 -0.00371126 -0.00471549 0.0121714 0.0980304 0.36067 0.952108 1.96524 3.22484 4.10141 3.63369 1.16225 -2.82087 -6.46346 -7.63567 -5.68155 -2.10526 0.759732 1.77877 1.5341 1.08175 0.827243 0.684355 0.636046 0.744495 0.970749 1.24206 1.50209 1.64481 1.55099 1.16473 0.497914 -0.357132 -1.23444 -1.95884 -2.39461 -2.47802 -2.23474 -1.75507 -1.16006 -0.568433 -0.0659786 0.30088 0.524196 0.623801 0.631878 0.58426 0.51047 0.431854 0.361214 0.30391 0.261016 0.230522 0.209687 0.195628 0.186018 0.179085 0.17385 0.169561 0.165849 0.162788 0.160257 0.158449 0.157298 0.156951 0.157298 0.158449 0.160257 0.162788 0.165849 0.169561 0.17385 0.179085 0.186018 0.195628 0.209687 0.230522 0.261016 0.30391 0.361214 0.431854 0.51047 0.58426 0.631878 0.623801 0.524196 0.30088 -0.0659786 -0.568433 -1.16006 -1.75507 -2.23474 -2.47802 -2.39461 -1.95884 -1.23444 -0.357132 0.497914 1.16473 1.55099 1.64481 1.50209 1.24206 0.970749 0.744495 0.636046 0.684355 0.827243 1.08175 1.5341 1.77877 0.759732 -2.10526 -5.68155 -7.63567 -6.46346 -2.82087 1.16225 3.63369 4.10141 3.22484 1.96524 0.952108 0.36067 0.0980304 0.0121714 -0.00471549 -0.00371126 -0.00130201 -0.000236725 1.55638e-05 2.67991e-05 9.33268e-06 1.44692e-06 -1.7596e-07 -1.69944e-07 -4.67395e-08 -3.939e-09 1.93099e-09 8.97585e-10 1.52141e-10 -1.35674e-11 -1.39145e-11 -3.03254e-12 4.58835e-14 1.90085e-13 4.27795e-14 -5.34931e-16 -2.28645e-15 -4.32955e-16 2.18628e-17 2.24312e-17 2.8956e-18 -3.90518e-19 -1.61787e-19 -9.82421e-21 3.77639e-21 7.67037e-22 -1.32323e-23 -2.21543e-23 -6.20904e-24 -3.86816e-25 0 0 
0 0 5.85106e-26 1.10243e-25 -4.09521e-25 -1.27083e-23 -3.70263e-23 3.35077e-22 2.78698e-21 3.66855e-22 -8.82001e-20 -3.82023e-19 9.08569e-19 1.39953e-17 3.52746e-17 -1.85198e-16 -1.554e-15 -2.53518e-15 2.04405e-14 1.3317e-13 1.92388e-13 -1.46575e-12 -9.45137e-12 -1.79899e-11 6.52195e-11 5.6376e-10 1.63722e-09 -4.99767e-10 -2.58662e-08 -1.17613e-07 -2.10763e-07 5.77051e-07 5.60804e-06 1.98482e-05 2.68451e-05 -0.000105227 -0.000807394 -0.00273326 -0.00485303 0.00296235 0.057147 0.2442 0.705692 1.57268 2.79055 3.90197 4.02603 2.30419 -1.26565 -5.29015 -7.57299 -6.75442 -3.56146 -0.214986 1.55099 1.7215 1.31541 1.0369 0.948478 0.98492 1.17316 1.46061 1.70291 1.77444 1.56747 1.01373 0.163211 -0.826419 -1.74818 -2.39798 -2.64854 -2.48808 -2.00192 -1.33825 -0.653877 -0.0688528 0.350003 0.591399 0.682643 0.668807 0.597332 0.505303 0.416903 0.34423 0.289932 0.251984 0.22603 0.207785 0.193839 0.182013 0.171126 0.160703 0.150885 0.141679 0.133496 0.126338 0.120495 0.115848 0.112653 0.11067 0.110047 0.11067 0.112653 0.115848 0.120495 0.126338 0.133496 0.141679 0.150885 0.160703 0.171126 0.182013 0.193839 0.207785 0.22603 0.251984 0.289932 0.34423 0.416903 0.505303 0.597332 0.668807 0.682643 0.591399 0.350003 -0.0688528 -0.653877 -1.33825 -2.00192 -2.48808 -2.64854 -2.39798 -1.74818 -0.826419 0.163211 1.01373 1.56747 1.77444 1.70291 1.46061 1.17316 0.98492 0.948478 1.0369 1.31541 1.7215 1.55099 -0.214986 -3.56146 -6.75442 -7.57299 -5.29015 -1.26565 2.30419 4.02603 3.90197 2.79055 1.57268 0.705692 0.2442 0.057147 0.00296235 -0.00485303 -0.00273326 -0.000807395 -0.000105227 2.68452e-05 1.98483e-05 5.60804e-06 5.7705e-07 -2.10764e-07 -1.17615e-07 -2.58716e-08 -5.03961e-10 1.63033e-09 5.61443e-10 6.4924e-11 -1.79289e-11 -9.41541e-12 -1.4598e-12 1.91772e-13 1.32682e-13 2.03617e-14 -2.52704e-15 -1.54848e-15 -1.84507e-16 3.5159e-17 1.39469e-17 9.05188e-19 -3.8077e-19 -8.79019e-20 3.67186e-22 2.77796e-21 3.33971e-22 -3.68895e-23 -1.29746e-23 -3.05612e-24 -5.25757e-26 0 0 
0 0 3.54867e-26 1.71237e-25 2.2415e-25 -6.1504e-24 -3.48707e-23 9.29623e-23 1.68677e-21 3.91088e-21 -3.86096e-20 -2.81491e-19 -5.87017e-20 7.38589e-18 3.19854e-17 -4.56589e-17 -9.11618e-16 -2.77283e-15 6.98708e-15 8.19291e-14 2.13896e-13 -5.20525e-13 -5.75038e-12 -1.64644e-11 1.64442e-11 3.20022e-10 1.2157e-09 1.01729e-09 -1.25818e-08 -7.4799e-08 -1.87249e-07 1.1151e-07 3.05109e-06 1.34496e-05 2.72309e-05 -2.97478e-05 -0.000456325 -0.0018678 -0.0042208 -0.00192288 0.0294313 0.155536 0.49957 1.20924 2.32374 3.55698 4.17055 3.22236 0.289257 -3.7873 -6.99582 -7.46595 -5.04821 -1.51762 1.01144 1.81594 1.63111 1.38263 1.36542 1.49883 1.71732 1.92254 1.92237 1.56967 0.83894 -0.183899 -1.29229 -2.21679 -2.74306 -2.77732 -2.36494 -1.66611 -0.879492 -0.176641 0.337053 0.63393 0.743558 0.723791 0.636436 0.528815 0.43024 0.352566 0.296421 0.25717 0.228575 0.205927 0.186077 0.167643 0.150367 0.134511 0.120428 0.108422 0.0985911 0.0907425 0.0847091 0.0801237 0.0768515 0.0745767 0.0731235 0.0722939 0.0719695 0.0722939 0.0731235 0.0745767 0.0768515 0.0801237 0.0847091 0.0907425 0.0985911 0.108422 0.120428 0.134511 0.150367 0.167643 0.186077 0.205927 0.228575 0.25717 0.296421 0.352566 0.43024 0.528815 0.636436 0.723791 0.743558 0.63393 0.337053 -0.176641 -0.879492 -1.66611 -2.36494 -2.77732 -2.74306 -2.21679 -1.29229 -0.183899 0.83894 1.56967 1.92237 1.92254 1.71732 1.49883 1.36542 1.38263 1.63111 1.81594 1.01144 -1.51762 -5.04821 -7.46595 -6.99582 -3.7873 0.289257 3.22236 4.17055 3.55698 2.32374 1.20924 0.49957 0.155536 0.0294313 -0.00192288 -0.0042208 -0.0018678 -0.000456325 -2.97478e-05 2.72309e-05 1.34495e-05 3.05109e-06 1.11509e-07 -1.8725e-07 -7.48002e-08 -1.25859e-08 1.01072e-09 1.21062e-09 3.1868e-10 1.63538e-11 -1.64048e-11 -5.72809e-12 -5.18281e-13 2.13146e-13 8.1624e-14 6.95873e-15 -2.76329e-15 -9.08336e-16 -4.54731e-17 3.1877e-17 7.36003e-18 -5.86705e-20 -2.80553e-19 -3.84771e-20 3.89874e-21 1.68125e-21 9.2645e-23 -3.47379e-23 -6.2167e-24 -1.13426e-24 7.18125e-26 0 0 
0 0 1.72383e-26 1.36061e-25 3.51084e-25 -2.20195e-24 -2.36569e-23 -1.29613e-23 8.3286e-22 3.96594e-21 -1.0977e-20 -1.69101e-19 -3.78926e-19 3.09023e-18 2.24869e-17 1.66731e-17 -4.48471e-16 -2.19161e-15 2.32828e-16 4.34591e-14 1.74748e-13 -3.56977e-14 -3.07266e-12 -1.24872e-11 -6.38285e-12 1.59514e-10 8.10817e-10 1.42064e-09 -4.90733e-09 -4.34588e-08 -1.41668e-07 -9.37724e-08 1.44909e-06 8.33575e-06 2.23761e-05 7.15461e-06 -0.000227258 -0.00117821 -0.00326569 -0.0038812 0.0121345 0.0917732 0.335469 0.889416 1.8563 3.10364 4.07396 3.85361 1.71537 -2.06943 -5.89689 -7.6601 -6.36942 -3.06096 0.108284 1.73576 2.02024 1.91319 1.95808 2.11838 2.21334 2.09098 1.59446 0.670938 -0.530085 -1.72977 -2.62802 -3.00137 -2.7992 -2.14951 -1.27962 -0.428005 0.234728 0.640656 0.807436 0.803136 0.707539 0.583498 0.469418 0.379972 0.315043 0.268266 0.232289 0.202389 0.176096 0.152729 0.132677 0.11596 0.103033 0.093257 0.0863844 0.0816037 0.0785489 0.0765208 0.0751984 0.074324 0.0737284 0.073321 0.0731495 0.0729743 0.0729461 0.0729743 0.0731495 0.073321 0.0737284 0.074324 0.0751984 0.0765208 0.0785489 0.0816037 0.0863844 0.093257 0.103033 0.11596 0.132677 0.152729 0.176096 0.202389 0.232289 0.268266 0.315043 0.379972 0.469418 0.583498 0.707539 0.803136 0.807436 0.640656 0.234728 -0.428005 -1.27962 -2.14951 -2.7992 -3.00137 -2.62802 -1.72977 -0.530085 0.670938 1.59446 2.09098 2.21334 2.11838 1.95808 1.91319 2.02024 1.73576 0.108284 -3.06096 -6.36942 -7.6601 -5.89689 -2.06943 1.71537 3.85361 4.07396 3.10364 1.8563 0.889416 0.335469 0.0917732 0.0121345 -0.0038812 -0.00326569 -0.00117821 -0.000227258 7.15458e-06 2.2376e-05 8.33575e-06 1.44909e-06 -9.37729e-08 -1.41668e-07 -4.34593e-08 -4.91006e-09 1.41437e-09 8.07437e-10 1.58828e-10 -6.37273e-12 -1.24404e-11 -3.06051e-12 -3.53992e-14 1.74113e-13 4.32946e-14 2.30288e-16 -2.18387e-15 -4.46832e-16 1.66283e-17 2.24094e-17 3.0792e-18 -3.7772e-19 -1.6853e-19 -1.09378e-20 3.95315e-21 8.30107e-22 -1.29293e-23 -2.35658e-23 -2.18642e-24 -1.86964e-25 8.69433e-26 0 0 
0 0 6.20755e-27 7.98579e-26 2.69789e-25 -3.1557e-25 -1.25989e-23 -4.07194e-23 3.07904e-22 2.74732e-21 1.09267e-21 -8.22703e-20 -3.71137e-19 7.78064e-19 1.29301e-17 3.32916e-17 -1.66729e-16 -1.40846e-15 -2.23982e-15 1.86321e-14 1.17842e-13 1.53312e-13 -1.35941e-12 -8.19097e-12 -1.37011e-11 6.42147e-11 4.86242e-10 1.27738e-09 -9.98273e-10 -2.26855e-08 -9.51536e-08 -1.51109e-07 5.46464e-07 4.68774e-06 1.60188e-05 2.03082e-05 -9.19165e-05 -0.000678445 -0.00228931 -0.00408406 0.00248886 0.0488576 0.211733 0.62244 1.41738 2.5873 3.76728 4.16478 2.89099 -0.292466 -4.34272 -7.22592 -7.29335 -4.66152 -1.13363 1.40418 2.42786 2.61602 2.6653 2.66049 2.375 1.66612 0.540716 -0.835958 -2.12968 -2.97978 -3.18063 -2.74503 -1.87773 -0.879414 -0.0131485 0.573687 0.857498 0.905005 0.814984 0.673737 0.53687 0.426951 0.345977 0.28686 0.241175 0.203993 0.172695 0.146742 0.126376 0.111103 0.100418 0.0932003 0.0885351 0.0853655 0.0829418 0.0809003 0.0789466 0.0769953 0.0750825 0.0732401 0.0715932 0.0702714 0.0692968 0.0687326 0.0685041 0.0687326 0.0692968 0.0702714 0.0715932 0.0732401 0.0750825 0.0769953 0.0789466 0.0809003 0.0829418 0.0853655 0.0885351 0.0932003 0.100418 0.111103 0.126376 0.146742 0.172695 0.203993 0.241175 0.28686 0.345977 0.426951 0.53687 0.673737 0.814984 0.905005 0.857498 0.573687 -0.0131485 -0.879414 -1.87773 -2.74503 -3.18063 -2.97978 -2.12968 -0.835958 0.540716 1.66612 2.375 2.66049 2.6653 2.61602 2.42786 1.40418 -1.13363 -4.66152 -7.29335 -7.22592 -4.34272 -0.292466 2.89099 4.16478 3.76728 2.5873 1.41738 0.62244 0.211733 0.0488576 0.00248886 -0.00408406 -0.00228931 -0.000678445 -9.19165e-05 2.03082e-05 1.60188e-05 4.68774e-06 5.46464e-07 -1.51109e-07 -9.51536e-08 -2.26858e-08 -9.99919e-10 1.27253e-09 4.84226e-10 6.39263e-11 -1.36548e-11 -8.15947e-12 -1.35389e-12 1.52816e-13 1.17405e-13 1.85599e-14 -2.23248e-15 -1.40339e-15 -1.66103e-16 3.31808e-17 1.28849e-17 7.75132e-19 -3.69904e-19 -8.19895e-20 1.09043e-21 2.73832e-21 3.06869e-22 -4.05924e-23 -1.25501e-23 -2.82081e-25 1.48843e-25 6.16051e-26 0 0 
0 0 1.05436e-27 3.58518e-26 1.50472e-25 3.10967e-25 -5.10956e-24 -3.43876e-23 5.3154e-23 1.47066e-21 4.27791e-21 -2.95833e-20 -2.50199e-19 -1.78994e-19 5.96012e-18 2.8575e-17 -2.63171e-17 -7.45537e-16 -2.44131e-15 5.08652e-15 6.68672e-14 1.80178e-13 -4.09346e-13 -4.6538e-12 -1.31139e-11 1.47022e-11 2.58009e-10 9.39934e-10 6.31844e-10 -1.02211e-08 -5.74679e-08 -1.37928e-07 1.03476e-07 2.34581e-06 1.0234e-05 2.08895e-05 -2.16304e-05 -0.000348941 -0.00146057 -0.00341684 -0.00200916 0.022201 0.123929 0.411691 1.02992 2.0553 3.30176 4.15926 3.7216 1.36807 -2.47407 -6.12908 -7.58928 -6.0429 -2.57956 0.771774 2.7205 3.34433 3.28603 2.83185 1.90106 0.507261 -1.07911 -2.46288 -3.2705 -3.30084 -2.63563 -1.57874 -0.488897 0.359088 0.848805 1.01278 0.960115 0.808054 0.641648 0.501134 0.39552 0.31864 0.260507 0.214881 0.17851 0.150328 0.129743 0.115334 0.105717 0.0990675 0.0938061 0.0890647 0.0842539 0.0794421 0.0746102 0.0699986 0.0658306 0.0621329 0.0591121 0.0566655 0.0547615 0.0533886 0.0524404 0.0519326 0.0517061 0.0519326 0.0524404 0.0533886 0.0547615 0.0566655 0.0591121 0.0621329 0.0658306 0.0699986 0.0746102 0.0794421 0.0842539 0.0890647 0.0938061 0.0990675 0.105717 0.115334 0.129743 0.150328 0.17851 0.214881 0.260507 0.31864 0.39552 0.501134 0.641648 0.808054 0.960115 1.01278 0.848805 0.359088 -0.488897 -1.57874 -2.63563 -3.30084 -3.2705 -2.46288 -1.07911 0.507261 1.90106 2.83185 3.28603 3.34433 2.7205 0.771774 -2.57956 -6.0429 -7.58928 -6.12908 -2.47407 1.36807 3.7216 4.15926 3.30176 2.0553 1.02992 0.411691 0.123929 0.022201 -0.00200916 -0.00341684 -0.00146057 -0.000348941 -2.16304e-05 2.08895e-05 1.0234e-05 2.34581e-06 1.03476e-07 -1.37928e-07 -5.74679e-08 -1.02212e-08 6.30979e-10 9.36683e-10 2.56949e-10 1.46258e-11 -1.30654e-11 -4.63555e-12 -4.07573e-13 1.79532e-13 6.66149e-14 5.06554e-15 -2.43275e-15 -7.42819e-16 -2.62039e-17 2.84765e-17 5.93899e-18 -1.78512e-19 -2.49354e-19 -2.94804e-20 4.26426e-21 1.46579e-21 5.29623e-23 -3.4278e-23 -5.08968e-24 3.36988e-25 1.85201e-25 3.24061e-26 0 0 
0 0 -5.99579e-28 1.10315e-26 6.24133e-26 3.5049e-25 -1.25547e-24 -1.99214e-23 -3.38648e-23 5.94713e-22 3.62479e-21 -4.55962e-21 -1.29773e-19 -3.93696e-19 1.9411e-18 1.78696e-17 2.46263e-17 -3.0876e-16 -1.76201e-15 -7.5071e-16 3.09906e-14 1.3848e-13 2.09763e-14 -2.21974e-12 -9.54198e-12 -6.11333e-12 1.15746e-10 5.97468e-10 1.04454e-09 -3.53932e-09 -3.10936e-08 -1.00883e-07 -7.08751e-08 9.97702e-07 5.86418e-06 1.63158e-05 8.2664e-06 -0.000152942 -0.000844102 -0.00247261 -0.00340669 0.00727673 0.0658044 0.255055 0.708406 1.55058 2.74121 3.87735 4.15762 2.74785 -0.48707 -4.43051 -7.07624 -6.87216 -3.98211 -0.170151 2.66159 3.76488 3.47689 2.33983 0.678566 -1.16975 -2.70678 -3.49037 -3.36462 -2.49451 -1.26877 -0.114064 0.691787 1.07923 1.13159 0.995466 0.799111 0.616694 0.474557 0.370904 0.294715 0.237695 0.194519 0.162795 0.140451 0.124943 0.113739 0.104875 0.0968494 0.0891505 0.0818812 0.0751855 0.0694647 0.0646565 0.0610141 0.0582326 0.0561713 0.0546907 0.0537238 0.0530155 0.0526106 0.0522371 0.0520161 0.0518802 0.0517948 0.0518802 0.0520161 0.0522371 0.0526106 0.0530155 0.0537238 0.0546907 0.0561713 0.0582326 0.0610141 0.0646565 0.0694647 0.0751855 0.0818812 0.0891505 0.0968494 0.104875 0.113739 0.124943 0.140451 0.162795 0.194519 0.237695 0.294715 0.370904 0.474557 0.616694 0.799111 0.995466 1.13159 1.07923 0.691787 -0.114064 -1.26877 -2.49451 -3.36462 -3.49037 -2.70678 -1.16975 0.678566 2.33983 3.47689 3.76488 2.66159 -0.170151 -3.98211 -6.87216 -7.07624 -4.43051 -0.48707 2.74785 4.15762 3.87735 2.74121 1.55058 0.708406 0.255055 0.0658044 0.00727673 -0.00340669 -0.00247261 -0.000844102 -0.000152942 8.2664e-06 1.63158e-05 5.86418e-06 9.97703e-07 -7.08751e-08 -1.00883e-07 -3.10936e-08 -3.53931e-09 1.04415e-09 5.95552e-10 1.15278e-10 -6.09698e-12 -9.5053e-12 -2.21084e-12 2.10078e-14 1.37966e-13 3.08715e-14 -7.49097e-16 -1.75567e-15 -3.07614e-16 2.45479e-17 1.7807e-17 1.93403e-18 -3.92396e-19 -1.29329e-19 -4.54225e-21 3.61289e-21 5.92717e-22 -3.37625e-23 -1.98573e-23 -1.25051e-24 3.64522e-25 1.22656e-25 1.25889e-26 0 0 
0 0 -7.22854e-28 7.0907e-28 1.60212e-26 2.17576e-25 1.82558e-25 -8.45816e-24 -4.22522e-23 1.43182e-22 2.07385e-21 3.67648e-21 -4.98451e-20 -3.08221e-19 1.46024e-19 8.61449e-18 3.06103e-17 -7.8589e-17 -9.8202e-16 -2.25852e-15 1.03345e-14 8.3304e-14 1.50671e-13 -8.00316e-13 -5.71659e-12 -1.1295e-11 3.81505e-11 3.29887e-10 9.16209e-10 -4.55379e-10 -1.47223e-08 -6.36605e-08 -1.09286e-07 3.13398e-07 2.9873e-06 1.08061e-05 1.62968e-05 -4.98511e-05 -0.000435262 -0.00158909 -0.00321156 9.34399e-05 0.0303701 0.146095 0.45807 1.10624 2.15208 3.38967 4.20526 3.72769 1.40446 -2.28371 -5.67559 -6.83852 -5.03152 -1.39323 1.92889 3.39162 2.85012 1.07825 -1.03023 -2.76176 -3.60154 -3.37029 -2.31812 -0.951656 0.246959 1.00168 1.28425 1.23411 1.02786 0.795418 0.600382 0.455572 0.351699 0.276872 0.222747 0.184068 0.156934 0.137731 0.123396 0.111562 0.101102 0.0916302 0.0833435 0.0764355 0.0708589 0.0666357 0.063521 0.0613105 0.0596899 0.0583537 0.0572493 0.0562694 0.0554669 0.0546588 0.0539214 0.0533711 0.0529176 0.0526176 0.0525128 0.0526176 0.0529176 0.0533711 0.0539214 0.0546588 0.0554669 0.0562694 0.0572493 0.0583537 0.0596899 0.0613105 0.063521 0.0666357 0.0708589 0.0764355 0.0833435 0.0916302 0.101102 0.111562 0.123396 0.137731 0.156934 0.184068 0.222747 0.276872 0.351699 0.455572 0.600382 0.795418 1.02786 1.23411 1.28425 1.00168 0.246959 -0.951656 -2.31812 -3.37029 -3.60154 -2.76176 -1.03023 1.07825 2.85012 3.39162 1.92889 -1.39323 -5.03152 -6.83852 -5.67559 -2.28371 1.40446 3.72769 4.20526 3.38967 2.15208 1.10624 0.45807 0.146095 0.0303701 9.34399e-05 -0.00321156 -0.00158909 -0.000435262 -4.98511e-05 1.62968e-05 1.08061e-05 2.9873e-06 3.13397e-07 -1.09286e-07 -6.36605e-08 -1.47223e-08 -4.55349e-10 9.16082e-10 3.28911e-10 3.80036e-11 -1.12525e-11 -5.69405e-12 -7.96993e-13 1.50143e-13 8.29889e-14 1.02935e-14 -2.25067e-15 -9.78426e-16 -7.82826e-17 3.05049e-17 8.58383e-18 1.45335e-19 -3.07175e-19 -4.96716e-20 3.66506e-21 2.06695e-21 1.42685e-22 -4.21173e-23 -8.43062e-24 1.81955e-25 2.23044e-25 5.76387e-26 2.79993e-27 0 0 
0 0 -4.68431e-28 -1.76625e-27 -6.92464e-29 1.04404e-25 4.40971e-25 -2.52714e-24 -2.80794e-23 -2.16216e-23 9.01053e-22 4.36888e-21 -1.06646e-20 -1.71573e-19 -3.83021e-19 3.00182e-18 2.13088e-17 1.30155e-17 -4.22375e-16 -1.9267e-15 8.71919e-16 3.99304e-14 1.42297e-13 -1.18754e-13 -2.81867e-12 -9.65318e-12 2.71591e-12 1.53769e-10 6.28954e-10 6.46414e-10 -5.68989e-09 -3.53347e-08 -9.2449e-08 1.99102e-08 1.31347e-06 6.26985e-06 1.46412e-05 -4.03067e-06 -0.000193333 -0.000911698 -0.00240978 -0.00251804 0.010884 0.0757373 0.275861 0.742416 1.59392 2.78582 3.92803 4.26252 3.01756 0.0903685 -3.45725 -5.76669 -5.46206 -2.84724 0.211485 1.75569 1.16561 -0.724372 -2.59131 -3.51877 -3.25418 -2.08756 -0.609157 0.616467 1.30753 1.48647 1.33923 1.06743 0.802429 0.594266 0.444912 0.340611 0.267495 0.216527 0.181256 0.156403 0.137834 0.122715 0.10962 0.0983047 0.0888404 0.0815704 0.0761632 0.07237 0.0693865 0.0670008 0.0646573 0.0622622 0.0598598 0.0573684 0.0550707 0.0528753 0.0509889 0.0494303 0.0481217 0.0472138 0.0465651 0.0461243 0.0459942 0.0461243 0.0465651 0.0472138 0.0481217 0.0494303 0.0509889 0.0528753 0.0550707 0.0573684 0.0598598 0.0622622 0.0646573 0.0670008 0.0693865 0.07237 0.0761632 0.0815704 0.0888404 0.0983047 0.10962 0.122715 0.137834 0.156403 0.181256 0.216527 0.267495 0.340611 0.444912 0.594266 0.802429 1.06743 1.33923 1.48647 1.30753 0.616467 -0.609157 -2.08756 -3.25418 -3.51877 -2.59131 -0.724372 1.16561 1.75569 0.211485 -2.84724 -5.46206 -5.76669 -3.45725 0.0903685 3.01756 4.26252 3.92803 2.78582 1.59392 0.742416 0.275861 0.0757373 0.010884 -0.00251804 -0.00240978 -0.000911698 -0.000193333 -4.03067e-06 1.46412e-05 6.26985e-06 1.31347e-06 1.991e-08 -9.2449e-08 -3.53347e-08 -5.68988e-09 6.46444e-10 6.28948e-10 1.53365e-10 2.7134e-12 -9.61474e-12 -2.80729e-12 -1.18167e-13 1.41768e-13 3.97768e-14 8.67296e-16 -1.91975e-15 -4.20805e-16 1.29816e-17 2.12341e-17 2.99095e-18 -3.81786e-19 -1.70987e-19 -1.06258e-20 4.3547e-21 8.98057e-22 -2.15646e-23 -2.799e-23 -2.519e-24 4.39375e-25 1.0591e-25 2.07435e-26 -4.00557e-28 0 0 
0 0 -8.14722e-29 7.60645e-28 6.39754e-27 4.47943e-26 5.16997e-26 -1.5827e-24 -1.22287e-23 -8.17717e-24 4.17072e-22 2.42757e-21 -1.9215e-21 -8.35772e-20 -3.19692e-19 8.6155e-19 1.17501e-17 2.83456e-17 -1.47968e-16 -1.20001e-15 -1.83632e-15 1.55633e-14 9.52915e-14 1.11122e-13 -1.12974e-12 -6.33994e-12 -8.77745e-12 5.69829e-11 3.68693e-10 8.12104e-10 -1.40435e-09 -1.73227e-08 -6.26534e-08 -7.28744e-08 4.60925e-07 3.22064e-06 1.02036e-05 1.10682e-05 -6.73588e-05 -0.000463583 -0.00155597 -0.00281943 0.00157729 0.0340803 0.152729 0.466262 1.11285 2.16132 3.43816 4.39669 4.24351 2.44079 -0.669245 -3.73445 -5.18077 -4.46455 -2.6063 -1.31399 -1.47558 -2.53951 -3.28321 -2.96316 -1.71749 -0.183174 1.03433 1.64867 1.71394 1.46504 1.12696 0.826215 0.601775 0.446077 0.339798 0.267645 0.218658 0.184649 0.159685 0.139765 0.123314 0.109997 0.0995815 0.0918007 0.0857104 0.0807733 0.0761842 0.0716624 0.0672681 0.0631451 0.0595018 0.0563919 0.0539714 0.0522064 0.0508164 0.0498429 0.0490764 0.0485866 0.0482108 0.0479309 0.0477569 0.0475972 0.0475879 0.0475972 0.0477569 0.0479309 0.0482108 0.0485866 0.0490764 0.0498429 0.0508164 0.0522064 0.0539714 0.0563919 0.0595018 0.0631451 0.0672681 0.0716624 0.0761842 0.0807733 0.0857104 0.0918007 0.0995815 0.109997 0.123314 0.139765 0.159685 0.184649 0.218658 0.267645 0.339798 0.446077 0.601775 0.826215 1.12696 1.46504 1.71394 1.64867 1.03433 -0.183174 -1.71749 -2.96316 -3.28321 -2.53951 -1.47558 -1.31399 -2.6063 -4.46455 -5.18077 -3.73445 -0.669245 2.44079 4.24351 4.39669 3.43816 2.16132 1.11285 0.466262 0.152729 0.0340803 0.00157729 -0.00281943 -0.00155597 -0.000463583 -6.73588e-05 1.10682e-05 1.02036e-05 3.22064e-06 4.60925e-07 -7.28745e-08 -6.26535e-08 -1.73228e-08 -1.40435e-09 8.12123e-10 3.68725e-10 5.68656e-11 -8.73555e-12 -6.31386e-12 -1.12499e-12 1.10755e-13 9.49305e-14 1.5503e-14 -1.82994e-15 -1.19567e-15 -1.47436e-16 2.82456e-17 1.17096e-17 8.5881e-19 -3.18583e-19 -8.33073e-20 -1.91891e-21 2.41942e-21 4.15868e-22 -8.11628e-24 -1.21902e-23 -1.5791e-24 5.14641e-26 4.58153e-26 1.21964e-26 1.09083e-27 0 0 
0 0 1.87042e-27 7.81898e-27 1.12974e-26 -2.33325e-25 -1.34332e-24 4.72864e-25 3.64048e-23 1.44988e-22 -1.90941e-22 -3.78919e-21 -1.24441e-20 1.29331e-20 2.60079e-19 1.03027e-18 1.32184e-18 -1.01033e-17 -9.26857e-17 -3.71424e-16 -9.69052e-17 7.79576e-15 4.27521e-14 5.83163e-14 -5.05504e-13 -3.3253e-12 -6.81561e-12 2.08749e-11 1.94516e-10 5.80026e-10 -3.49655e-11 -7.94868e-09 -3.70489e-08 -7.48925e-08 1.10699e-07 1.5075e-06 6.16147e-06 1.23055e-05 -1.26923e-05 -0.000208219 -0.000899468 -0.00224229 -0.00193824 0.0120504 0.0768916 0.275157 0.740088 1.60691 2.87988 4.25634 5.0658 4.51879 2.26254 -1.13908 -4.34986 -6.13127 -6.23882 -5.43263 -4.57013 -3.80392 -2.74493 -1.21699 0.411199 1.59699 2.09182 2.0146 1.64443 1.22374 0.87744 0.630128 0.46313 0.352557 0.278926 0.22901 0.193534 0.166705 0.145706 0.12919 0.116131 0.105895 0.0974203 0.0902105 0.0837797 0.0779694 0.0729405 0.0686259 0.0650049 0.0620384 0.0595737 0.0575146 0.055762 0.0543017 0.0529501 0.0518097 0.0508253 0.0500377 0.0493353 0.0487696 0.0484076 0.0481267 0.0481322 0.0481267 0.0484076 0.0487696 0.0493353 0.0500377 0.0508253 0.0518097 0.0529501 0.0543017 0.055762 0.0575146 0.0595737 0.0620384 0.0650049 0.0686259 0.0729405 0.0779694 0.0837797 0.0902105 0.0974203 0.105895 0.116131 0.12919 0.145706 0.166705 0.193534 0.22901 0.278926 0.352557 0.46313 0.630128 0.87744 1.22374 1.64443 2.0146 2.09182 1.59699 0.411199 -1.21699 -2.74493 -3.80392 -4.57013 -5.43263 -6.23882 -6.13127 -4.34986 -1.13908 2.26254 4.51879 5.0658 4.25634 2.87988 1.60691 0.740088 0.275157 0.0768916 0.0120504 -0.00193824 -0.00224229 -0.000899468 -0.000208219 -1.26923e-05 1.23055e-05 6.16147e-06 1.5075e-06 1.10699e-07 -7.48926e-08 -3.70489e-08 -7.94868e-09 -3.49648e-11 5.80037e-10 1.94538e-10 2.08348e-11 -6.78782e-12 -3.31179e-12 -5.03347e-13 5.80991e-14 4.25847e-14 7.76866e-15 -9.50094e-17 -3.69867e-16 -9.24322e-17 -1.01024e-17 1.31422e-18 1.02813e-18 2.59665e-19 1.29151e-20 -1.24205e-20 -3.78138e-21 -1.90424e-22 1.44696e-22 3.63236e-23 4.71112e-25 -1.33936e-24 -2.36927e-25 -3.0505e-26 5.00365e-27 0 0 
0 0 4.33395e-27 -3.40576e-26 -2.45653e-25 -1.31261e-24 9.78114e-25 4.03026e-23 1.54505e-22 -3.06625e-22 -4.92403e-21 -1.44569e-20 4.1055e-20 4.57261e-19 1.1297e-18 -3.43661e-18 -3.2676e-17 -7.63118e-17 1.82509e-16 1.76961e-15 4.43406e-15 -4.59719e-15 -6.74726e-14 -2.06762e-13 -1.37756e-13 1.27727e-12 6.26958e-12 1.7904e-11 3.80609e-11 1.63168e-11 -5.25104e-10 -3.80513e-09 -1.49383e-08 -2.85093e-08 5.97968e-08 7.43174e-07 3.27675e-06 7.92852e-06 4.37775e-07 -9.56646e-05 -0.000505713 -0.00153907 -0.00248787 0.00284356 0.0377081 0.162784 0.496053 1.20198 2.40536 4.01456 5.5378 6.09153 4.77976 1.34915 -3.35249 -7.6326 -9.90549 -9.61454 -7.36216 -4.26896 -1.28914 1.00494 2.34645 2.74673 2.48274 1.93838 1.39831 0.980385 0.693433 0.506004 0.384282 0.304171 0.249799 0.21078 0.181299 0.158289 0.140242 0.126124 0.114887 0.105392 0.096998 0.0894696 0.0827869 0.0770231 0.0723813 0.0687695 0.0659388 0.0636685 0.0617296 0.0599627 0.0581936 0.0564878 0.0548105 0.0531924 0.0518161 0.0506182 0.0496044 0.0487919 0.0482746 0.0479534 0.0478506 0.0479534 0.0482746 0.0487919 0.0496044 0.0506182 0.0518161 0.0531924 0.0548105 0.0564878 0.0581936 0.0599627 0.0617296 0.0636685 0.0659388 0.0687695 0.0723813 0.0770231 0.0827869 0.0894696 0.096998 0.105392 0.114887 0.126124 0.140242 0.158289 0.181299 0.21078 0.249799 0.304171 0.384282 0.506004 0.693433 0.980385 1.39831 1.93838 2.48274 2.74673 2.34645 1.00494 -1.28914 -4.26896 -7.36216 -9.61454 -9.90549 -7.6326 -3.35249 1.34915 4.77976 6.09153 5.5378 4.01456 2.40536 1.20198 0.496053 0.162784 0.0377081 0.00284356 -0.00248787 -0.00153907 -0.000505713 -9.56646e-05 4.37775e-07 7.92852e-06 3.27675e-06 7.43174e-07 5.97968e-08 -2.85093e-08 -1.49383e-08 -3.80513e-09 -5.25104e-10 1.6312e-11 3.80326e-11 1.78245e-11 6.23361e-12 1.27066e-12 -1.37311e-13 -2.0611e-13 -6.72888e-14 -4.58686e-15 4.42298e-15 1.76529e-15 1.82035e-16 -7.61394e-17 -3.25976e-17 -3.42755e-18 1.12719e-18 4.56169e-19 4.09479e-20 -1.44247e-20 -4.91244e-21 -3.05827e-22 1.54162e-22 4.02106e-23 9.70448e-25 -1.35944e-24 -3.76383e-25 -4.07614e-26 0 0 
0 0 -4.92574e-26 -3.58908e-25 -1.18942e-24 2.27284e-24 4.18634e-23 1.30274e-22 -4.50033e-22 -5.04692e-21 -1.21835e-20 5.32321e-20 4.7258e-19 1.00681e-18 -4.25743e-18 -3.50893e-17 -7.648e-17 2.28917e-16 2.06726e-15 5.18027e-15 -6.83651e-15 -9.38141e-14 -2.91268e-13 -6.44813e-14 2.98733e-12 1.25112e-11 1.9192e-11 -4.52197e-11 -3.56983e-10 -1.02811e-09 -1.1704e-09 3.27208e-09 2.20238e-08 7.04548e-08 1.6597e-07 3.15485e-07 3.40235e-07 -1.55018e-06 -1.58647e-05 -8.50349e-05 -0.00032358 -0.00086089 -0.00110817 0.00338362 0.0298841 0.126739 0.397681 1.01045 2.14412 3.83119 5.72201 6.94065 6.29768 2.97724 -2.6234 -8.62411 -12.4861 -12.5557 -9.13729 -4.16705 0.183558 2.73581 3.51666 3.19348 2.45607 1.73404 1.19043 0.827659 0.595784 0.448338 0.352721 0.287791 0.24111 0.206072 0.179366 0.158862 0.142327 0.128312 0.116153 0.105672 0.0972876 0.0906753 0.0854483 0.0810686 0.0769099 0.0728356 0.0687819 0.0649006 0.061532 0.0585961 0.0563029 0.0545002 0.0532518 0.0523371 0.0517142 0.0512913 0.0509706 0.0507285 0.050555 0.0505484 0.0504717 0.0505484 0.050555 0.0507285 0.0509706 0.0512913 0.0517142 0.0523371 0.0532518 0.0545002 0.0563029 0.0585961 0.061532 0.0649006 0.0687819 0.0728356 0.0769099 0.0810686 0.0854483 0.0906753 0.0972876 0.105672 0.116153 0.128312 0.142327 0.158862 0.179366 0.206072 0.24111 0.287791 0.352721 0.448338 0.595784 0.827659 1.19043 1.73404 2.45607 3.19348 3.51666 2.73581 0.183558 -4.16705 -9.13729 -12.5557 -12.4861 -8.62411 -2.6234 2.97724 6.29768 6.94065 5.72201 3.83119 2.14412 1.01045 0.397681 0.126739 0.0298841 0.00338362 -0.00110817 -0.00086089 -0.00032358 -8.50349e-05 -1.58647e-05 -1.55018e-06 3.40235e-07 3.15485e-07 1.65969e-07 7.04548e-08 2.20238e-08 3.27208e-09 -1.17041e-09 -1.02815e-09 -3.57049e-10 -4.51108e-11 1.91048e-11 1.24638e-11 2.97765e-12 -6.41853e-14 -2.90448e-13 -9.35673e-14 -6.81887e-15 5.16738e-15 2.06208e-15 2.28316e-16 -7.63015e-17 -3.50038e-17 -4.24652e-18 1.00454e-18 4.71453e-19 5.30987e-20 -1.21564e-20 -5.03513e-21 -4.48915e-22 1.29979e-22 4.17097e-23 2.20883e-24 -4.11718e-25 -3.12137e-25 0 0 
0 0 -3.61859e-25 -2.03043e-25 3.7287e-24 4.9714e-23 1.27864e-22 -6.43506e-22 -5.81347e-21 -1.13689e-20 7.17619e-20 5.33554e-19 9.26086e-19 -5.61077e-18 -3.92289e-17 -7.25431e-17 3.03571e-16 2.30913e-15 5.18633e-15 -9.72346e-15 -1.05521e-13 -3.07982e-13 -1.1186e-14 3.40419e-12 1.38958e-11 2.12182e-11 -5.19047e-11 -4.18053e-10 -1.2531e-09 -1.49434e-09 4.58352e-09 3.24502e-08 1.04629e-07 2.05296e-07 9.78584e-08 -1.20295e-06 -6.63602e-06 -2.3026e-05 -6.14296e-05 -0.000123393 -0.000122919 0.000433349 0.00355251 0.0160109 0.0572753 0.174622 0.462987 1.07251 2.16576 3.78218 5.62039 6.87412 6.37387 3.20514 -2.41582 -8.69967 -12.9483 -13.1752 -9.49311 -4.01922 0.678831 3.20385 3.71394 3.14499 2.31529 1.60959 1.11061 0.785234 0.578628 0.445592 0.356478 0.294032 0.248604 0.214143 0.187099 0.165164 0.147539 0.133331 0.121732 0.1119 0.1033 0.0954952 0.0887468 0.0829192 0.0782545 0.0744661 0.0713459 0.068794 0.0664593 0.0642554 0.0621649 0.060246 0.0583851 0.0567972 0.0553533 0.0541943 0.0531826 0.0523841 0.0518894 0.0515888 0.0515389 0.0515888 0.0518894 0.0523841 0.0531826 0.0541943 0.0553533 0.0567972 0.0583851 0.060246 0.0621649 0.0642554 0.0664593 0.068794 0.0713459 0.0744661 0.0782545 0.0829192 0.0887468 0.0954952 0.1033 0.1119 0.121732 0.133331 0.147539 0.165164 0.187099 0.214143 0.248604 0.294032 0.356478 0.445592 0.578628 0.785234 1.11061 1.60959 2.31529 3.14499 3.71394 3.20385 0.678831 -4.01922 -9.49311 -13.1752 -12.9483 -8.69967 -2.41582 3.20514 6.37387 6.87412 5.62039 3.78218 2.16576 1.07251 0.462987 0.174622 0.0572753 0.0160109 0.00355251 0.000433349 -0.000122919 -0.000123393 -6.14296e-05 -2.3026e-05 -6.63602e-06 -1.20295e-06 9.78583e-08 2.05295e-07 1.04629e-07 3.24502e-08 4.5835e-09 -1.49439e-09 -1.25296e-09 -4.16809e-10 -5.17402e-11 2.11485e-11 1.38556e-11 3.39499e-12 -1.11586e-14 -3.07191e-13 -1.05249e-13 -9.69674e-15 5.17381e-15 2.30335e-15 3.02773e-16 -7.23763e-17 -3.91334e-17 -5.59651e-18 9.2403e-19 5.32284e-19 7.15837e-20 -1.1344e-20 -5.79992e-21 -6.42018e-22 1.27541e-22 5.13132e-23 1.04994e-23 4.75455e-25 0 0 
0 0 -5.16575e-26 1.39095e-23 5.5472e-23 1.91958e-22 -4.67342e-22 -6.45265e-21 -1.75362e-20 5.90106e-20 5.942e-19 1.38619e-18 -4.7885e-18 -4.31448e-17 -9.98298e-17 2.53169e-16 2.47863e-15 6.47047e-15 -6.8741e-15 -1.09389e-13 -3.53773e-13 -1.45727e-13 3.3423e-12 1.49336e-11 2.58578e-11 -4.24192e-11 -4.18593e-10 -1.33605e-09 -1.8528e-09 3.70476e-09 3.16511e-08 1.08794e-07 2.30659e-07 1.7181e-07 -1.10426e-06 -6.83895e-06 -2.45703e-05 -6.50467e-05 -0.000119929 -6.04497e-05 0.000693303 0.00406745 0.0154397 0.0479741 0.130214 0.316389 0.693787 1.37208 2.43097 3.8106 5.17379 5.84582 4.98488 2.04907 -2.63337 -7.64573 -11.005 -11.2764 -8.50674 -4.18371 -0.215992 2.20905 3.01357 2.79865 2.20974 1.62245 1.16528 0.845085 0.630635 0.487715 0.389955 0.320582 0.269929 0.231894 0.202376 0.178505 0.158818 0.142819 0.129886 0.119406 0.110606 0.102823 0.0957094 0.0891984 0.08353 0.0786914 0.0747417 0.0716718 0.0692268 0.0672259 0.0655769 0.0641013 0.062729 0.0614513 0.0602731 0.0592862 0.0583802 0.0576411 0.0571337 0.0567967 0.0567262 0.0567967 0.0571337 0.0576411 0.0583802 0.0592862 0.0602731 0.0614513 0.062729 0.0641013 0.0655769 0.0672259 0.0692268 0.0716718 0.0747417 0.0786914 0.08353 0.0891984 0.0957094 0.102823 0.110606 0.119406 0.129886 0.142819 0.158818 0.178505 0.202376 0.231894 0.269929 0.320582 0.389955 0.487715 0.630635 0.845085 1.16528 1.62245 2.20974 2.79865 3.01357 2.20905 -0.215992 -4.18371 -8.50674 -11.2764 -11.005 -7.64573 -2.63337 2.04907 4.98488 5.84582 5.17379 3.8106 2.43097 1.37208 0.693787 0.316389 0.130214 0.0479741 0.0154397 0.00406745 0.000693303 -6.04497e-05 -0.000119929 -6.50467e-05 -2.45703e-05 -6.83895e-06 -1.10426e-06 1.71809e-07 2.30659e-07 1.08794e-07 3.1651e-08 3.70486e-09 -1.85189e-09 -1.33305e-09 -4.17468e-10 -4.23014e-11 2.57894e-11 1.48938e-11 3.33325e-12 -1.45449e-13 -3.52874e-13 -1.09105e-13 -6.85393e-15 6.4547e-15 2.47239e-15 2.5249e-16 -9.95951e-17 -4.3039e-17 -4.77614e-18 1.38301e-18 5.92776e-19 5.88615e-20 -1.74967e-20 -6.43772e-21 -4.6445e-22 2.05269e-22 8.89606e-23 1.52968e-23 0 0 
0 0 1.8452e-25 2.69349e-23 1.04304e-22 3.33056e-22 -9.99702e-22 -1.19641e-20 -2.93502e-20 1.22856e-19 1.09088e-18 2.25275e-18 -9.98907e-18 -7.87908e-17 -1.60922e-16 5.4804e-16 4.53546e-15 1.05811e-14 -1.75719e-14 -2.02915e-13 -5.9378e-13 -2.13995e-14 6.45086e-12 2.58728e-11 3.79148e-11 -9.98636e-11 -7.60446e-10 -2.2062e-09 -2.46694e-09 8.43607e-09 5.67651e-08 1.80009e-07 3.48302e-07 1.40236e-07 -2.21998e-06 -1.2019e-05 -4.08091e-05 -0.000102125 -0.000167944 1.02865e-05 0.0014435 0.00724693 0.0254434 0.0738821 0.187129 0.422744 0.859704 1.57632 2.59447 3.7916 4.81796 5.10074 4.02414 1.28904 -2.71609 -6.83543 -9.57166 -9.87083 -7.75246 -4.28553 -0.905811 1.39015 2.3929 2.46168 2.08887 1.61981 1.21101 0.901818 0.682782 0.531328 0.425521 0.349408 0.293193 0.251033 0.218704 0.193016 0.171835 0.154049 0.139271 0.127262 0.117649 0.109698 0.102829 0.096511 0.0906499 0.0851789 0.0803201 0.0761452 0.0727165 0.0699745 0.0678343 0.0662019 0.0648881 0.0638454 0.0630118 0.0622896 0.0617221 0.061236 0.0609084 0.0606913 0.0606408 0.0606913 0.0609084 0.061236 0.0617221 0.0622896 0.0630118 0.0638454 0.0648881 0.0662019 0.0678343 0.0699745 0.0727165 0.0761452 0.0803201 0.0851789 0.0906499 0.096511 0.102829 0.109698 0.117649 0.127262 0.139271 0.154049 0.171835 0.193016 0.218704 0.251033 0.293193 0.349408 0.425521 0.531328 0.682782 0.901818 1.21101 1.61981 2.08887 2.46168 2.3929 1.39015 -0.905811 -4.28553 -7.75246 -9.87083 -9.57166 -6.83543 -2.71609 1.28904 4.02414 5.10074 4.81796 3.7916 2.59447 1.57632 0.859704 0.422744 0.187129 0.0738821 0.0254434 0.00724693 0.0014435 1.02865e-05 -0.000167944 -0.000102125 -4.08091e-05 -1.2019e-05 -2.21998e-06 1.40235e-07 3.48303e-07 1.80009e-07 5.67651e-08 8.4363e-09 -2.46527e-09 -2.20124e-09 -7.58397e-10 -9.95738e-11 3.78203e-11 2.58047e-11 6.43343e-12 -2.15634e-14 -5.92284e-13 -2.02389e-13 -1.75223e-14 1.05555e-14 4.52406e-15 5.46591e-16 -1.60547e-16 -7.85981e-17 -9.96355e-18 2.24762e-18 1.08827e-18 1.22549e-19 -2.92845e-20 -1.19364e-20 -9.93878e-22 3.5741e-22 1.60648e-22 2.90019e-23 0 0 
0 0 9.97534e-26 3.64346e-23 1.42527e-22 4.65793e-22 -1.32357e-21 -1.6393e-20 -4.10928e-20 1.64747e-19 1.49469e-18 3.14218e-18 -1.34615e-17 -1.07782e-16 -2.22574e-16 7.39933e-16 6.18825e-15 1.44957e-14 -2.37591e-14 -2.76128e-13 -8.07231e-13 -2.34775e-14 8.76952e-12 3.49941e-11 5.06147e-11 -1.3729e-10 -1.02709e-09 -2.94573e-09 -3.18273e-09 1.16471e-08 7.60931e-08 2.37569e-07 4.49694e-07 1.44543e-07 -3.01453e-06 -1.58655e-05 -5.30051e-05 -0.000130193 -0.000205579 5.36112e-05 0.00195522 0.0094078 0.032122 0.090748 0.223037 0.487312 0.955504 1.68526 2.66466 3.73975 4.56446 4.63762 3.47926 0.920722 -2.63743 -6.2138 -8.60347 -8.96991 -7.30446 -4.41514 -1.4402 0.755543 1.89153 2.17072 1.97242 1.60837 1.24812 0.953663 0.733202 0.574891 0.461993 0.37982 0.318351 0.271617 0.235876 0.208104 0.185677 0.166803 0.150567 0.136797 0.125488 0.11638 0.109101 0.103 0.0975991 0.0925532 0.0877118 0.0832063 0.0790638 0.0753675 0.072248 0.0696945 0.0676083 0.0660103 0.0647619 0.0638771 0.0631734 0.0626884 0.0623204 0.0621582 0.062047 0.0621582 0.0623204 0.0626884 0.0631734 0.0638771 0.0647619 0.0660103 0.0676083 0.0696945 0.072248 0.0753675 0.0790638 0.0832063 0.0877118 0.0925532 0.0975991 0.103 0.109101 0.11638 0.125488 0.136797 0.150567 0.166803 0.185677 0.208104 0.235876 0.271617 0.318351 0.37982 0.461993 0.574891 0.733202 0.953663 1.24812 1.60837 1.97242 2.17072 1.89153 0.755543 -1.4402 -4.41514 -7.30446 -8.96991 -8.60347 -6.2138 -2.63743 0.920722 3.47926 4.63762 4.56446 3.73975 2.66466 1.68526 0.955504 0.487312 0.223037 0.090748 0.032122 0.0094078 0.00195522 5.36112e-05 -0.000205579 -0.000130193 -5.3005e-05 -1.58655e-05 -3.01453e-06 1.44542e-07 4.49694e-07 2.37569e-07 7.60931e-08 1.16474e-08 -3.18047e-09 -2.93907e-09 -1.02431e-09 -1.36885e-10 5.04911e-11 3.49023e-11 8.74579e-12 -2.37463e-14 -8.05201e-13 -2.75412e-13 -2.36916e-14 1.44607e-14 6.17269e-15 7.37972e-16 -2.22054e-16 -1.07518e-16 -1.3427e-17 3.13502e-18 1.49111e-18 1.64334e-19 -4.10005e-20 -1.63551e-20 -1.31578e-21 4.99313e-22 2.21941e-22 3.94464e-23 0 0 
0 0 -3.97859e-25 4.1315e-23 1.66639e-22 5.85298e-22 -1.37928e-21 -1.93732e-20 -5.25037e-20 1.78268e-19 1.77389e-18 4.04203e-18 -1.47006e-17 -1.27859e-16 -2.83676e-16 7.9933e-16 7.30367e-15 1.80885e-14 -2.42019e-14 -3.22629e-13 -9.83604e-13 -1.82865e-13 1.00645e-11 4.17003e-11 6.39176e-11 -1.49215e-10 -1.19637e-09 -3.51358e-09 -4.02106e-09 1.29113e-08 8.7994e-08 2.77765e-07 5.31467e-07 1.99555e-07 -3.39008e-06 -1.80351e-05 -6.03378e-05 -0.000148215 -0.000234704 5.26996e-05 0.00216693 0.010401 0.035252 0.0985647 0.239136 0.514577 0.99172 1.71669 2.66172 3.66291 4.38727 4.38265 3.24364 0.857278 -2.39829 -5.66667 -7.91658 -8.41888 -7.11749 -4.64002 -1.93445 0.212838 1.46793 1.92268 1.87236 1.60087 1.28596 1.00686 0.785935 0.620957 0.500683 0.41253 0.346133 0.294881 0.255007 0.224125 0.199912 0.180177 0.163329 0.14853 0.135638 0.124706 0.115851 0.108838 0.103192 0.0985027 0.0943299 0.0904475 0.0867233 0.0831039 0.079704 0.076641 0.0738938 0.071538 0.0695775 0.0680726 0.0668678 0.0660139 0.0653331 0.0649951 0.064902 0.0649951 0.0653331 0.0660139 0.0668678 0.0680726 0.0695775 0.071538 0.0738938 0.076641 0.079704 0.0831039 0.0867233 0.0904475 0.0943299 0.0985027 0.103192 0.108838 0.115851 0.124706 0.135638 0.14853 0.163329 0.180177 0.199912 0.224125 0.255007 0.294881 0.346133 0.41253 0.500683 0.620957 0.785935 1.00686 1.28596 1.60087 1.87236 1.92268 1.46793 0.212838 -1.93445 -4.64002 -7.11749 -8.41888 -7.91658 -5.66667 -2.39829 0.857278 3.24364 4.38265 4.38727 3.66291 2.66172 1.71669 0.99172 0.514577 0.239136 0.0985647 0.035252 0.010401 0.00216693 5.26996e-05 -0.000234704 -0.000148215 -6.03378e-05 -1.80351e-05 -3.39008e-06 1.99555e-07 5.31467e-07 2.77765e-07 8.79939e-08 1.29117e-08 -4.01841e-09 -3.50565e-09 -1.19312e-09 -1.48768e-10 6.37606e-11 4.15906e-11 1.00371e-11 -1.82798e-13 -9.81123e-13 -3.21789e-13 -2.41315e-14 1.80446e-14 7.28526e-15 7.97191e-16 -2.8301e-16 -1.27545e-16 -1.46626e-17 4.03276e-18 1.76963e-18 1.77817e-19 -5.23852e-20 -1.93283e-20 -1.37076e-21 6.25441e-22 2.68912e-22 4.55898e-23 0 0 
0 0 -1.26808e-24 4.12672e-23 1.7501e-22 6.83056e-22 -1.16491e-21 -2.07023e-20 -6.27698e-20 1.62673e-19 1.90961e-18 4.88847e-18 -1.36368e-17 -1.37684e-16 -3.39953e-16 7.23259e-16 7.80931e-15 2.11151e-14 -1.89271e-14 -3.39539e-13 -1.11147e-12 -4.87302e-13 1.02626e-11 4.55896e-11 7.69868e-11 -1.3518e-10 -1.2593e-09 -3.87943e-09 -4.93657e-09 1.21773e-08 9.19613e-08 2.99038e-07 5.90911e-07 3.03951e-07 -3.33878e-06 -1.85031e-05 -6.27939e-05 -0.000156348 -0.00025587 8.06195e-06 0.00209297 0.0103132 0.035187 0.0984605 0.238364 0.510845 0.979388 1.68551 2.59856 3.5596 4.25535 4.26837 3.22864 1.02986 -1.99917 -5.10471 -7.36205 -8.07972 -7.12902 -4.98838 -2.47142 -0.322517 1.06794 1.69641 1.78807 1.60439 1.33229 1.06773 0.846065 0.673406 0.544226 0.448776 0.377135 0.321593 0.277566 0.24268 0.215334 0.193809 0.176331 0.161409 0.148009 0.136004 0.12548 0.116578 0.109368 0.103679 0.0992138 0.0955911 0.0925178 0.0896739 0.0869767 0.0844203 0.0819805 0.0797664 0.0777558 0.076049 0.0745817 0.0734773 0.0726758 0.0721768 0.072024 0.0721768 0.0726758 0.0734773 0.0745817 0.076049 0.0777558 0.0797664 0.0819805 0.0844203 0.0869767 0.0896739 0.0925178 0.0955911 0.0992138 0.103679 0.109368 0.116578 0.12548 0.136004 0.148009 0.161409 0.176331 0.193809 0.215334 0.24268 0.277566 0.321593 0.377135 0.448776 0.544226 0.673406 0.846065 1.06773 1.33229 1.60439 1.78807 1.69641 1.06794 -0.322517 -2.47142 -4.98838 -7.12902 -8.07972 -7.36205 -5.10471 -1.99917 1.02986 3.22864 4.26837 4.25535 3.5596 2.59856 1.68551 0.979388 0.510845 0.238364 0.0984605 0.035187 0.0103132 0.00209297 8.06195e-06 -0.00025587 -0.000156348 -6.27939e-05 -1.85031e-05 -3.33878e-06 3.0395e-07 5.90911e-07 2.99037e-07 9.19611e-08 1.21777e-08 -4.93377e-09 -3.87074e-09 -1.25588e-09 -1.34768e-10 7.67944e-11 4.5469e-11 1.02344e-11 -4.86472e-13 -1.10865e-12 -3.3865e-13 -1.88689e-14 2.10635e-14 7.78954e-15 7.21286e-16 -3.39148e-16 -1.37345e-16 -1.36011e-17 4.87715e-18 1.905e-18 1.62255e-19 -6.26271e-20 -2.06542e-20 -1.15699e-21 7.26821e-22 2.98271e-22 4.7022e-23 0 0 
0 0 -2.36344e-24 3.67423e-23 1.67964e-22 7.48504e-22 -7.3159e-22 -2.03571e-20 -7.06935e-20 1.22494e-19 1.89743e-18 5.58019e-18 -1.06066e-17 -1.36945e-16 -3.84865e-16 5.3321e-16 7.6979e-15 2.32572e-14 -9.09449e-15 -3.27535e-13 -1.18003e-12 -8.87239e-13 9.44412e-12 4.64815e-11 8.83587e-11 -9.92984e-11 -1.21963e-09 -4.02488e-09 -5.8265e-09 9.73481e-09 8.85084e-08 3.0166e-07 6.2546e-07 4.41579e-07 -2.92791e-06 -1.74914e-05 -6.09381e-05 -0.000155462 -0.000268184 -6.6724e-05 0.00179933 0.00937907 0.0326158 0.0921597 0.224436 0.482961 0.928976 1.60409 2.48362 3.42423 4.13823 4.23617 3.36061 1.38088 -1.44543 -4.46305 -6.82284 -7.83176 -7.26544 -5.45599 -3.10112 -0.920258 0.63263 1.45692 1.70606 1.61821 1.39134 1.14137 0.918384 0.736844 0.596436 0.491115 0.412407 0.352189 0.304365 0.265534 0.23409 0.209203 0.189631 0.174008 0.160748 0.148896 0.137954 0.127921 0.119064 0.111491 0.105332 0.100468 0.0967186 0.093751 0.0913882 0.0893759 0.0876159 0.0860502 0.0846717 0.0834183 0.0823158 0.0814731 0.0808346 0.0804694 0.0803254 0.0804694 0.0808346 0.0814731 0.0823158 0.0834183 0.0846717 0.0860502 0.0876159 0.0893759 0.0913882 0.093751 0.0967186 0.100468 0.105332 0.111491 0.119064 0.127921 0.137954 0.148896 0.160748 0.174008 0.189631 0.209203 0.23409 0.265534 0.304365 0.352189 0.412407 0.491115 0.596436 0.736844 0.918384 1.14137 1.39134 1.61821 1.70606 1.45692 0.63263 -0.920258 -3.10112 -5.45599 -7.26544 -7.83176 -6.82284 -4.46305 -1.44543 1.38088 3.36061 4.23617 4.13823 3.42423 2.48362 1.60409 0.928976 0.482961 0.224436 0.0921597 0.0326158 0.00937907 0.00179933 -6.6724e-05 -0.000268184 -0.000155462 -6.09381e-05 -1.74914e-05 -2.92791e-06 4.41577e-07 6.25461e-07 3.0166e-07 8.85082e-08 9.73506e-09 -5.82381e-09 -4.01597e-09 -1.21632e-09 -9.89836e-11 8.81339e-11 4.63576e-11 9.41796e-12 -8.85349e-13 -1.17701e-12 -3.26671e-13 -9.06121e-15 2.31999e-14 7.6783e-15 5.317e-16 -3.83945e-16 -1.36606e-16 -1.05781e-17 5.56715e-18 1.89283e-18 1.2217e-19 -7.05312e-20 -2.03097e-20 -7.25359e-22 7.92696e-22 3.07805e-22 4.39822e-23 0 0 
0 0 -3.47254e-24 2.88453e-23 1.47766e-22 7.72259e-22 -1.69897e-22 -1.85091e-20 -7.5047e-20 6.63669e-20 1.74939e-18 6.00787e-18 -6.26612e-18 -1.26489e-16 -4.11489e-16 2.69553e-16 7.03157e-15 2.42142e-14 3.30957e-15 -2.90735e-13 -1.18224e-12 -1.30913e-12 7.82229e-12 4.44679e-11 9.63341e-11 -4.915e-11 -1.09265e-09 -3.94771e-09 -6.55732e-09 6.12859e-09 7.89733e-08 2.87479e-07 6.33212e-07 5.87138e-07 -2.27292e-06 -1.53796e-05 -5.57038e-05 -0.000146935 -0.000270249 -0.000151959 0.00137628 0.00790064 0.0283687 0.0816119 0.201303 0.437779 0.850403 1.48349 2.32387 3.25112 4.00888 4.23499 3.57458 1.85537 -0.752812 -3.70022 -6.2076 -7.56621 -7.44147 -6.0087 -3.84251 -1.63261 0.102689 1.15704 1.59868 1.63179 1.46243 1.23082 1.00686 0.815736 0.662249 0.543773 0.454573 0.38741 0.335327 0.293147 0.258102 0.229115 0.205759 0.187401 0.172897 0.161039 0.150647 0.141084 0.132082 0.123632 0.115984 0.109372 0.103835 0.0993121 0.0957883 0.0930225 0.0908873 0.0892527 0.0879722 0.086938 0.0861488 0.0855819 0.0851603 0.0849278 0.0848768 0.0849278 0.0851603 0.0855819 0.0861488 0.086938 0.0879722 0.0892527 0.0908873 0.0930225 0.0957883 0.0993121 0.103835 0.109372 0.115984 0.123632 0.132082 0.141084 0.150647 0.161039 0.172897 0.187401 0.205759 0.229115 0.258102 0.293147 0.335327 0.38741 0.454573 0.543773 0.662249 0.815736 1.00686 1.23082 1.46243 1.63179 1.59868 1.15704 0.102689 -1.63261 -3.84251 -6.0087 -7.44147 -7.56621 -6.2076 -3.70022 -0.752812 1.85537 3.57458 4.23499 4.00888 3.25112 2.32387 1.48349 0.850403 0.437779 0.201303 0.0816119 0.0283687 0.00790064 0.00137628 -0.000151959 -0.000270248 -0.000146934 -5.57038e-05 -1.53796e-05 -2.27292e-06 5.87138e-07 6.33212e-07 2.87479e-07 7.89731e-08 6.12874e-09 -6.55491e-09 -3.9391e-09 -1.0897e-09 -4.89755e-11 9.6085e-11 4.43485e-11 7.80034e-12 -1.30608e-12 -1.17919e-12 -2.89962e-13 3.3106e-15 2.41539e-14 7.01352e-15 2.68705e-16 -4.10494e-16 -1.26173e-16 -6.24821e-18 5.99367e-18 1.74512e-18 6.61771e-20 -7.4873e-20 -1.84659e-20 -1.66106e-22 8.13823e-22 2.97141e-22 3.73113e-23 0 0 
0 0 -4.3769e-24 1.91084e-23 1.18293e-22 7.49471e-22 4.11561e-22 -1.55096e-20 -7.49691e-20 5.07289e-21 1.49344e-18 6.08792e-18 -1.44454e-18 -1.08283e-16 -4.14663e-16 -1.75754e-17 5.93581e-15 2.38017e-14 1.59383e-14 -2.36078e-13 -1.1177e-12 -1.67384e-12 5.70225e-12 3.99363e-11 9.94613e-11 5.92327e-12 -9.0258e-10 -3.66534e-09 -7.00074e-09 2.03142e-09 6.5234e-08 2.59611e-07 6.13831e-07 7.1371e-07 -1.50616e-06 -1.2611e-05 -4.81991e-05 -0.000132519 -0.000261284 -0.000228564 0.000913954 0.00617912 0.0232656 0.0687164 0.172757 0.381805 0.753033 1.33432 2.12668 3.03716 3.84592 4.22169 3.81178 2.39679 0.0489366 -2.7995 -5.45032 -7.18631 -7.56184 -6.5834 -4.68017 -2.4879 -0.575411 0.740502 1.42319 1.62117 1.53701 1.33563 1.11382 0.913274 0.74588 0.611979 0.508436 0.430229 0.371075 0.324868 0.287027 0.254947 0.227661 0.205156 0.187184 0.173086 0.161963 0.152755 0.144628 0.137002 0.129688 0.122781 0.116302 0.110473 0.105441 0.101146 0.0975851 0.0947303 0.0925143 0.0907915 0.0895139 0.0886075 0.087984 0.0876318 0.0875326 0.0876318 0.087984 0.0886075 0.0895139 0.0907915 0.0925143 0.0947303 0.0975851 0.101146 0.105441 0.110473 0.116302 0.122781 0.129688 0.137002 0.144628 0.152755 0.161963 0.173086 0.187184 0.205156 0.227661 0.254947 0.287027 0.324868 0.371075 0.430229 0.508436 0.611979 0.74588 0.913274 1.11382 1.33563 1.53701 1.62117 1.42319 0.740502 -0.575411 -2.4879 -4.68017 -6.5834 -7.56184 -7.18631 -5.45032 -2.7995 0.0489366 2.39679 3.81178 4.22169 3.84592 3.03716 2.12668 1.33432 0.753033 0.381805 0.172757 0.0687164 0.0232656 0.00617912 0.000913954 -0.000228564 -0.000261284 -0.000132519 -4.81992e-05 -1.2611e-05 -1.50615e-06 7.13711e-07 6.13832e-07 2.59611e-07 6.52339e-08 2.03145e-09 -6.99875e-09 -3.6575e-09 -9.00146e-10 5.94123e-12 9.92001e-11 3.98281e-11 5.68592e-12 -1.66975e-12 -1.11479e-12 -2.35444e-13 1.59057e-14 2.37419e-14 5.92044e-15 -1.76893e-17 -4.1365e-16 -1.08011e-16 -1.43863e-18 6.07338e-18 1.48976e-18 5.03261e-21 -7.47936e-20 -1.54734e-20 4.12645e-22 7.85857e-22 2.68255e-22 2.83003e-23 0 0 
0 0 -4.90651e-24 9.18316e-24 8.43672e-23 6.82085e-22 9.10556e-22 -1.18373e-20 -7.02687e-20 -5.07916e-20 1.16971e-18 5.78982e-18 3.03167e-18 -8.51611e-17 -3.92701e-16 -2.7896e-16 4.58157e-15 2.20249e-14 2.65999e-14 -1.72193e-13 -9.9431e-13 -1.91532e-12 3.4253e-12 3.35408e-11 9.69602e-11 5.67493e-11 -6.78642e-10 -3.21552e-09 -7.06796e-09 -1.89256e-09 4.93881e-08 2.22063e-07 5.69308e-07 7.9944e-07 -7.49593e-07 -9.61171e-06 -3.95398e-05 -0.000114207 -0.000241841 -0.000282747 0.0004853 0.00446786 0.0180104 0.0551258 0.142142 0.32088 0.645535 1.16701 1.9008 2.78331 3.63519 4.16201 4.01983 2.94651 0.915069 -1.77064 -4.51392 -6.61302 -7.52731 -7.09104 -5.56155 -3.48165 -1.43869 0.148518 1.12177 1.54491 1.59357 1.44898 1.2393 1.03146 0.850138 0.700114 0.579844 0.486265 0.415256 0.361533 0.319697 0.285283 0.255707 0.2299 0.20784 0.189644 0.175157 0.163879 0.155065 0.147847 0.141571 0.135756 0.130202 0.124856 0.119768 0.115051 0.11074 0.106976 0.103781 0.101162 0.0990956 0.0975174 0.0964169 0.0957839 0.0955763 0.0957839 0.0964169 0.0975174 0.0990956 0.101162 0.103781 0.106976 0.11074 0.115051 0.119768 0.124856 0.130202 0.135756 0.141571 0.147847 0.155065 0.163879 0.175157 0.189644 0.20784 0.2299 0.255707 0.285283 0.319697 0.361533 0.415256 0.486265 0.579844 0.700114 0.850138 1.03146 1.2393 1.44898 1.59357 1.54491 1.12177 0.148518 -1.43869 -3.48165 -5.56155 -7.09104 -7.52731 -6.61302 -4.51392 -1.77064 0.915069 2.94651 4.01983 4.16201 3.63519 2.78331 1.9008 1.16701 0.645535 0.32088 0.142142 0.0551258 0.0180104 0.00446786 0.0004853 -0.000282747 -0.000241841 -0.000114207 -3.95398e-05 -9.61171e-06 -7.49591e-07 7.99442e-07 5.69308e-07 2.22063e-07 4.93879e-08 -1.89266e-09 -7.06647e-09 -3.20879e-09 -6.76826e-10 5.662e-11 9.67019e-11 3.34491e-11 3.41512e-12 -1.91051e-12 -9.91699e-13 -1.71723e-13 2.65382e-14 2.1969e-14 4.56956e-15 -2.78391e-16 -3.91731e-16 -8.49445e-17 3.02622e-18 5.77586e-18 1.1668e-18 -5.06934e-20 -7.01026e-20 -1.18096e-20 9.09131e-22 7.11552e-22 2.25474e-22 1.84506e-23 0 0 
0 0 -4.97908e-24 5.20144e-25 5.08858e-23 5.79176e-22 1.25247e-21 -8.01619e-21 -6.15375e-20 -9.29508e-20 8.23915e-19 5.14815e-18 6.50265e-18 -6.03579e-17 -3.4813e-16 -4.76044e-16 3.15728e-15 1.91001e-14 3.37011e-14 -1.07956e-13 -8.27787e-13 -1.99497e-12 1.30929e-12 2.61169e-11 8.89646e-11 9.60402e-11 -4.50542e-10 -2.65284e-09 -6.73214e-09 -5.10416e-09 3.34439e-08 1.79274e-07 5.04147e-07 8.31761e-07 -9.63858e-08 -6.73453e-06 -3.07158e-05 -9.40315e-05 -0.000213918 -0.00030802 0.000137604 0.00294729 0.0131312 0.0421305 0.112168 0.259933 0.535626 0.99166 1.65645 2.49512 3.37084 4.0323 4.15502 3.44644 1.78797 -0.650054 -3.39448 -5.79397 -7.24598 -7.42489 -6.39711 -4.56762 -2.49353 -0.667291 0.62769 1.34226 1.59159 1.55165 1.37805 1.17065 0.976641 0.810519 0.673113 0.562114 0.474847 0.408184 0.357786 0.318893 0.287282 0.260014 0.235766 0.214274 0.195696 0.18028 0.167998 0.158481 0.151104 0.145252 0.140429 0.136189 0.132355 0.128661 0.125182 0.121962 0.119058 0.116496 0.114329 0.11263 0.111407 0.110672 0.110405 0.110672 0.111407 0.11263 0.114329 0.116496 0.119058 0.121962 0.125182 0.128661 0.132355 0.136189 0.140429 0.145252 0.151104 0.158481 0.167998 0.18028 0.195696 0.214274 0.235766 0.260014 0.287282 0.318893 0.357786 0.408184 0.474847 0.562114 0.673113 0.810519 0.976641 1.17065 1.37805 1.55165 1.59159 1.34226 0.62769 -0.667291 -2.49353 -4.56762 -6.39711 -7.42489 -7.24598 -5.79397 -3.39448 -0.650054 1.78797 3.44644 4.15502 4.0323 3.37084 2.49512 1.65645 0.99166 0.535626 0.259933 0.112168 0.0421305 0.0131312 0.00294729 0.000137604 -0.00030802 -0.000213918 -9.40315e-05 -3.07158e-05 -6.73453e-06 -9.6385e-08 8.31762e-07 5.04147e-07 1.79274e-07 3.34437e-08 -5.10436e-09 -6.73117e-09 -2.64745e-09 -4.49356e-10 9.57943e-11 8.87243e-11 2.60447e-11 1.30489e-12 -1.98985e-12 -8.25591e-13 -1.07654e-13 3.3619e-14 1.90511e-14 3.14887e-15 -4.74945e-16 -3.47262e-16 -6.02023e-17 6.48819e-18 5.13561e-18 8.21842e-19 -9.27449e-20 -6.13906e-20 -7.99739e-21 1.24911e-21 6.00972e-22 1.74847e-22 9.19211e-24 0 0 
0 0 -4.61266e-24 -5.8863e-24 2.19486e-23 4.55247e-22 1.40317e-21 -4.52264e-21 -5.00376e-20 -1.16878e-19 4.99295e-19 4.25614e-18 8.58856e-18 -3.69536e-17 -2.87243e-16 -5.8749e-16 1.83694e-15 1.54186e-14 3.65139e-14 -5.10158e-14 -6.39149e-13 -1.90802e-12 -4.0268e-13 1.85512e-11 7.65143e-11 1.19541e-10 -2.44035e-10 -2.04129e-09 -6.03414e-09 -7.26552e-09 1.90642e-08 1.35605e-07 4.24921e-07 8.0865e-07 3.97489e-07 -4.22774e-06 -2.25022e-05 -7.38566e-05 -0.000180572 -0.000304842 -0.00010838 0.00171916 0.00896185 0.0306118 0.0848113 0.202804 0.429785 0.81766 1.40482 2.18232 3.05539 3.82069 4.1853 3.84387 2.60255 0.50253 -2.12362 -4.71316 -6.64813 -7.47497 -7.06718 -5.65299 -3.70058 -1.72641 -0.120957 0.937162 1.46651 1.60347 1.51286 1.32727 1.1262 0.94424 0.789823 0.661634 0.556806 0.473145 0.408401 0.359327 0.321952 0.292283 0.267227 0.244887 0.224502 0.20604 0.189873 0.176246 0.165179 0.156402 0.149658 0.144465 0.140435 0.137204 0.134534 0.132248 0.130247 0.128539 0.127039 0.125862 0.125002 0.124459 0.12423 0.124459 0.125002 0.125862 0.127039 0.128539 0.130247 0.132248 0.134534 0.137204 0.140435 0.144465 0.149658 0.156402 0.165179 0.176246 0.189873 0.20604 0.224502 0.244887 0.267227 0.292283 0.321952 0.359327 0.408401 0.473145 0.556806 0.661634 0.789823 0.94424 1.1262 1.32727 1.51286 1.60347 1.46651 0.937162 -0.120957 -1.72641 -3.70058 -5.65299 -7.06718 -7.47497 -6.64813 -4.71316 -2.12362 0.50253 2.60255 3.84387 4.1853 3.82069 3.05539 2.18232 1.40482 0.81766 0.429785 0.202804 0.0848113 0.0306118 0.00896185 0.00171916 -0.00010838 -0.000304842 -0.000180572 -7.38566e-05 -2.25022e-05 -4.22774e-06 3.9749e-07 8.08651e-07 4.24922e-07 1.35605e-07 1.90641e-08 -7.26577e-09 -6.03363e-09 -2.03729e-09 -2.43419e-10 1.19222e-10 7.63052e-11 1.84991e-11 -4.02304e-13 -1.90304e-12 -6.37434e-13 -5.08649e-14 3.64224e-14 1.53786e-14 1.83192e-15 -5.86075e-16 -2.86519e-16 -3.68564e-17 8.56844e-18 4.24567e-18 4.98014e-19 -1.16608e-19 -4.9917e-20 -4.51203e-21 1.39865e-21 4.69601e-22 1.2303e-22 1.62991e-24 0 0 
0 0 -3.91059e-24 -9.62628e-24 2.02862e-25 3.27006e-22 1.37077e-21 -1.70515e-21 -3.74058e-20 -1.22209e-19 2.29244e-19 3.24331e-18 9.22761e-18 -1.73528e-17 -2.18637e-16 -6.11155e-16 7.51859e-16 1.14637e-14 3.52157e-14 -6.64482e-15 -4.50764e-13 -1.68126e-12 -1.57432e-12 1.16372e-11 6.13163e-11 1.26408e-10 -7.74884e-11 -1.4444e-09 -5.07129e-09 -8.26686e-09 7.39338e-09 9.48451e-08 3.39332e-07 7.37366e-07 7.12777e-07 -2.22882e-06 -1.54164e-05 -5.51852e-05 -0.00014526 -0.000278727 -0.000253913 0.000815447 0.00565555 0.021055 0.0613061 0.15216 0.333004 0.653125 1.1572 1.8577 2.69888 3.52746 4.09291 4.09706 3.29408 1.61103 -0.766352 -3.39764 -5.7022 -7.14859 -7.43879 -6.60303 -4.96448 -2.9985 -1.15881 0.253141 1.13253 1.53561 1.60306 1.48528 1.29657 1.10269 0.93057 0.785213 0.663783 0.56299 0.481019 0.41621 0.366518 0.328896 0.299935 0.276482 0.256175 0.237611 0.220341 0.204398 0.190099 0.177645 0.167158 0.158591 0.151781 0.14648 0.142421 0.139299 0.136928 0.135113 0.133752 0.132742 0.132044 0.131652 0.13152 0.131652 0.132044 0.132742 0.133752 0.135113 0.136928 0.139299 0.142421 0.14648 0.151781 0.158591 0.167158 0.177645 0.190099 0.204398 0.220341 0.237611 0.256175 0.276482 0.299935 0.328896 0.366518 0.41621 0.481019 0.56299 0.663783 0.785213 0.93057 1.10269 1.29657 1.48528 1.60306 1.53561 1.13253 0.253141 -1.15881 -2.9985 -4.96448 -6.60303 -7.43879 -7.14859 -5.7022 -3.39764 -0.766352 1.61103 3.29408 4.09706 4.09291 3.52746 2.69888 1.8577 1.1572 0.653125 0.333004 0.15216 0.0613061 0.021055 0.00565555 0.000815447 -0.000253913 -0.000278727 -0.00014526 -5.51852e-05 -1.54163e-05 -2.22882e-06 7.12778e-07 7.37367e-07 3.39333e-07 9.48451e-08 7.39327e-09 -8.26712e-09 -5.07115e-09 -1.44172e-09 -7.733e-11 1.26063e-10 6.11466e-11 1.1604e-11 -1.57059e-12 -1.67681e-12 -4.49539e-13 -6.61387e-15 3.51258e-14 1.14336e-14 7.49667e-16 -6.09645e-16 -2.1808e-16 -1.73052e-17 9.2054e-18 3.23525e-18 2.28629e-19 -1.2192e-19 -3.73147e-20 -1.70117e-21 1.36591e-21 3.34947e-22 7.6015e-23 -3.61986e-24 0 0 
0 0 -3.02579e-24 -1.08533e-23 -1.34279e-23 2.09731e-22 1.19694e-21 2.61816e-22 -2.52752e-20 -1.12124e-19 3.25393e-20 2.24485e-18 8.63598e-18 -2.94156e-18 -1.51238e-16 -5.61398e-16 -2.6746e-17 7.70783e-15 3.07137e-14 2.28376e-14 -2.82158e-13 -1.36337e-12 -2.1831e-12 5.95483e-12 4.53538e-11 1.1882e-10 3.99198e-11 -9.15415e-10 -3.97388e-09 -8.20566e-09 -1.01244e-09 5.98266e-08 2.55029e-07 6.31526e-07 8.60253e-07 -7.76453e-07 -9.71948e-06 -3.90423e-05 -0.000111166 -0.000237755 -0.000315007 0.000215849 0.00321986 0.013605 0.0422076 0.109511 0.248643 0.504409 0.923932 1.53549 2.31698 3.16396 3.8758 4.18045 3.80726 2.5939 0.586712 -1.918 -4.42707 -6.39272 -7.3907 -7.25878 -6.13542 -4.38733 -2.46592 -0.760034 0.498301 1.2517 1.57437 1.60248 1.47241 1.28515 1.09785 0.933277 0.794703 0.678345 0.580487 0.498957 0.432732 0.380647 0.34087 0.310728 0.287457 0.268472 0.25194 0.236759 0.222444 0.209059 0.196641 0.185429 0.175581 0.167226 0.160284 0.154659 0.150169 0.146621 0.143974 0.142064 0.140817 0.140047 0.139828 0.140047 0.140817 0.142064 0.143974 0.146621 0.150169 0.154659 0.160284 0.167226 0.175581 0.185429 0.196641 0.209059 0.222444 0.236759 0.25194 0.268472 0.287457 0.310728 0.34087 0.380647 0.432732 0.498957 0.580487 0.678345 0.794703 0.933277 1.09785 1.28515 1.47241 1.60248 1.57437 1.2517 0.498301 -0.760034 -2.46592 -4.38733 -6.13542 -7.25878 -7.3907 -6.39272 -4.42707 -1.918 0.586712 2.5939 3.80726 4.18045 3.8758 3.16396 2.31698 1.53549 0.923932 0.504409 0.248643 0.109511 0.0422076 0.013605 0.00321986 0.000215849 -0.000315007 -0.000237755 -0.000111166 -3.90423e-05 -9.71949e-06 -7.76452e-07 8.60254e-07 6.31526e-07 2.55029e-07 5.98266e-08 -1.01253e-09 -8.20593e-09 -3.97401e-09 -9.13859e-10 3.97575e-11 1.1849e-10 4.52266e-11 5.93721e-12 -2.17753e-12 -1.35972e-12 -2.81378e-13 2.27869e-14 3.06341e-14 7.68734e-15 -2.68746e-17 -5.59987e-16 -1.50848e-16 -2.93099e-18 8.61481e-18 2.2392e-18 3.24188e-20 -1.11854e-19 -2.5213e-20 2.6114e-22 1.19241e-21 2.12787e-22 3.80618e-23 -6.46591e-24 0 0 
0 0 -2.11757e-24 -1.01356e-23 -1.95924e-23 1.1431e-22 9.41352e-22 1.37994e-21 -1.49335e-20 -9.19805e-20 -8.76822e-20 1.37258e-18 7.20907e-18 5.99845e-18 -9.24125e-17 -4.62994e-16 -4.90513e-16 4.51978e-15 2.43246e-14 3.79556e-14 -1.46744e-13 -1.01132e-12 -2.30293e-12 1.80095e-12 3.04645e-11 1.01e-10 1.08078e-10 -4.89973e-10 -2.87662e-09 -7.32931e-09 -6.15196e-09 3.21992e-08 1.7851e-07 5.07554e-07 8.70875e-07 1.66089e-07 -5.45349e-06 -2.59498e-05 -8.07212e-05 -0.000190274 -0.000314766 -0.000131832 0.00156171 0.00815014 0.0275158 0.0753378 0.178435 0.375777 0.713409 1.22949 1.92853 2.75028 3.54703 4.0879 4.10458 3.37686 1.83261 -0.380956 -2.89659 -5.21293 -6.84287 -7.46689 -7.02752 -5.72853 -3.94551 -2.09254 -0.501392 0.645517 1.31843 1.59663 1.60764 1.47558 1.29231 1.1103 0.950911 0.817079 0.70471 0.609184 0.527891 0.459706 0.404093 0.360317 0.326799 0.301405 0.281863 0.266209 0.252854 0.240859 0.229656 0.219045 0.209096 0.199905 0.191614 0.184357 0.178151 0.173002 0.168875 0.165725 0.163531 0.162253 0.161828 0.162253 0.163531 0.165725 0.168875 0.173002 0.178151 0.184357 0.191614 0.199905 0.209096 0.219045 0.229656 0.240859 0.252854 0.266209 0.281863 0.301405 0.326799 0.360317 0.404093 0.459706 0.527891 0.609184 0.70471 0.817079 0.950911 1.1103 1.29231 1.47558 1.60764 1.59663 1.31843 0.645517 -0.501392 -2.09254 -3.94551 -5.72853 -7.02752 -7.46689 -6.84287 -5.21293 -2.89659 -0.380956 1.83261 3.37686 4.10458 4.0879 3.54703 2.75028 1.92853 1.22949 0.713409 0.375777 0.178435 0.0753378 0.0275158 0.00815014 0.00156171 -0.000131832 -0.000314766 -0.000190274 -8.07212e-05 -2.59498e-05 -5.45349e-06 1.66089e-07 8.70875e-07 5.07554e-07 1.7851e-07 3.21992e-08 -6.15202e-09 -7.32953e-09 -2.87689e-09 -4.89287e-10 1.07733e-10 1.00715e-10 3.03778e-11 1.79499e-12 -2.29686e-12 -1.00858e-12 -1.46328e-13 3.78611e-14 2.42607e-14 4.50755e-15 -4.89378e-16 -4.61814e-16 -9.21704e-17 5.98554e-18 7.19116e-18 1.36908e-18 -8.74937e-20 -9.17567e-20 -1.48961e-20 1.3766e-21 9.37599e-22 1.14155e-22 1.11428e-23 -7.25336e-24 0 0 
0 0 -1.31444e-24 -8.2385e-24 -2.0027e-23 4.57754e-23 6.64669e-22 1.78906e-21 -7.11355e-21 -6.76844e-20 -1.41309e-19 6.9556e-19 5.39846e-18 1.012e-17 -4.67193e-17 -3.43681e-16 -6.82701e-16 2.10852e-15 1.74143e-14 4.1384e-14 -5.03027e-14 -6.76996e-13 -2.0694e-12 -8.12243e-13 1.80055e-11 7.79725e-11 1.34118e-10 -1.82954e-10 -1.89269e-09 -5.95909e-09 -8.46062e-09 1.24145e-08 1.14328e-07 3.81364e-07 7.85421e-07 6.83332e-07 -2.4988e-06 -1.59827e-05 -5.5375e-05 -0.00014326 -0.000277015 -0.000292856 0.000533064 0.0044139 0.0168292 0.0492927 0.122648 0.269298 0.531412 0.95146 1.55272 2.31181 3.13207 3.83311 4.17235 3.90524 2.8729 1.08624 -1.23291 -3.6825 -5.78279 -7.11668 -7.45368 -6.80892 -5.41822 -3.6455 -1.86451 -0.36143 0.714116 1.34546 1.60873 1.62063 1.495 1.31764 1.13956 0.982926 0.851754 0.742191 0.648919 0.568269 0.498654 0.439615 0.390986 0.35223 0.322257 0.299377 0.281921 0.268357 0.257355 0.248006 0.239712 0.23212 0.225093 0.218759 0.213104 0.208201 0.204077 0.2008 0.198438 0.197003 0.196509 0.197003 0.198438 0.2008 0.204077 0.208201 0.213104 0.218759 0.225093 0.23212 0.239712 0.248006 0.257355 0.268357 0.281921 0.299377 0.322257 0.35223 0.390986 0.439615 0.498654 0.568269 0.648919 0.742191 0.851754 0.982926 1.13956 1.31764 1.495 1.62063 1.60873 1.34546 0.714116 -0.36143 -1.86451 -3.6455 -5.41822 -6.80892 -7.45368 -7.11668 -5.78279 -3.6825 -1.23291 1.08624 2.8729 3.90524 4.17235 3.83311 3.13207 2.31181 1.55272 0.95146 0.531412 0.269298 0.122648 0.0492927 0.0168292 0.0044139 0.000533064 -0.000292856 -0.000277015 -0.00014326 -5.5375e-05 -1.59827e-05 -2.4988e-06 6.83332e-07 7.85421e-07 3.81364e-07 1.14328e-07 1.24145e-08 -8.46066e-09 -5.95925e-09 -1.89302e-09 -1.82862e-10 1.33708e-10 7.775e-11 1.79533e-11 -8.10707e-13 -2.06383e-12 -6.75131e-13 -5.01495e-14 4.12773e-14 1.7368e-14 2.10264e-15 -6.81009e-16 -3.42794e-16 -4.6594e-17 1.00957e-17 5.38487e-18 6.93746e-19 -1.40976e-19 -6.75177e-20 -7.0953e-21 1.78474e-21 6.61893e-22 4.39221e-23 -4.99794e-24 -6.59065e-24 0 0 
0 0 -6.92604e-25 -5.90833e-24 -1.69212e-23 3.51912e-24 4.14897e-22 1.70513e-21 -1.95756e-21 -4.42705e-20 -1.46191e-19 2.34585e-19 3.60156e-18 1.06632e-17 -1.55408e-17 -2.27572e-16 -6.77738e-16 5.1331e-16 1.10988e-14 3.69256e-14 8.60008e-15 -3.97502e-13 -1.63886e-12 -2.1001e-12 8.67809e-12 5.43896e-11 1.29504e-10 1.01451e-11 -1.09656e-09 -4.41485e-09 -8.64077e-09 -1.01965e-10 6.47373e-08 2.65855e-07 6.45532e-07 8.81537e-07 -6.38064e-07 -8.88188e-06 -3.56252e-05 -0.000101499 -0.000222028 -0.000331071 -3.03687e-05 0.0020414 0.00950658 0.0304473 0.0803748 0.185019 0.380798 0.709824 1.20649 1.87525 2.66441 3.44687 4.02245 4.15312 3.63032 2.35686 0.411221 -1.93731 -4.27994 -6.17477 -7.27138 -7.4076 -6.64312 -5.22222 -3.48589 -1.77023 -0.327212 0.713187 1.33678 1.61092 1.64038 1.52986 1.36125 1.18634 1.02996 0.898875 0.790342 0.698817 0.619705 0.550124 0.489052 0.436465 0.39226 0.356186 0.327516 0.305261 0.288179 0.275104 0.264965 0.256978 0.250467 0.245096 0.240634 0.236896 0.233795 0.231325 0.229556 0.228459 0.22807 0.228459 0.229556 0.231325 0.233795 0.236896 0.240634 0.245096 0.250467 0.256978 0.264965 0.275104 0.288179 0.305261 0.327516 0.356186 0.39226 0.436465 0.489052 0.550124 0.619705 0.698817 0.790342 0.898875 1.02996 1.18634 1.36125 1.52986 1.64038 1.61092 1.33678 0.713187 -0.327212 -1.77023 -3.48589 -5.22222 -6.64312 -7.4076 -7.27138 -6.17477 -4.27994 -1.93731 0.411221 2.35686 3.63032 4.15312 4.02245 3.44687 2.66441 1.87525 1.20649 0.709824 0.380798 0.185019 0.0803748 0.0304473 0.00950658 0.0020414 -3.03687e-05 -0.000331071 -0.000222028 -0.000101499 -3.56252e-05 -8.88188e-06 -6.38064e-07 8.81536e-07 6.45533e-07 2.65855e-07 6.47373e-08 -1.01944e-10 -8.64079e-09 -4.41498e-09 -1.09687e-09 9.89608e-12 1.29117e-10 5.42326e-11 8.65217e-12 -2.09472e-12 -1.63438e-12 -3.96389e-13 8.58919e-15 3.68282e-14 1.10688e-14 5.11698e-16 -6.7601e-16 -2.26976e-16 -1.54964e-17 1.06367e-17 3.59238e-18 2.33938e-19 -1.45836e-19 -4.41602e-20 -1.9521e-21 1.701e-21 4.13075e-22 1.12696e-24 -1.22731e-23 -5.15284e-24 0 0 
0 0 -2.73061e-25 -3.71646e-24 -1.23316e-23 -1.71529e-23 2.20273e-22 1.3551e-21 8.67203e-22 -2.50473e-20 -1.22399e-19 -3.0478e-20 2.09086e-18 9.05341e-18 2.44546e-18 -1.30977e-16 -5.58358e-16 -3.64511e-16 6.07205e-15 2.84685e-14 3.66578e-14 -1.91032e-13 -1.15222e-12 -2.4114e-12 2.53532e-12 3.3702e-11 1.06876e-10 1.08201e-10 -5.18147e-10 -2.95657e-09 -7.48099e-09 -6.64082e-09 2.97975e-08 1.69522e-07 4.87218e-07 8.6769e-07 3.85911e-07 -4.18531e-06 -2.12125e-05 -6.74938e-05 -0.000164509 -0.000299937 -0.000281181 0.000669186 0.00481298 0.0175493 0.0498964 0.121337 0.261623 0.509086 0.90252 1.46486 2.18029 2.97167 3.68984 4.1273 4.06232 3.32706 1.87868 -0.15539 -2.48223 -4.70527 -6.4261 -7.35118 -7.36599 -6.55225 -5.14685 -3.46271 -1.80279 -0.394122 0.642609 1.28839 1.59785 1.66238 1.57777 1.42317 1.25228 1.0943 0.960163 0.849785 0.758366 0.68067 0.612597 0.551969 0.497888 0.450273 0.40916 0.374485 0.345962 0.322969 0.304739 0.290525 0.279512 0.271 0.26455 0.259596 0.255859 0.253122 0.25129 0.250218 0.24987 0.250218 0.25129 0.253122 0.255859 0.259596 0.26455 0.271 0.279512 0.290525 0.304739 0.322969 0.345962 0.374485 0.40916 0.450273 0.497888 0.551969 0.612597 0.68067 0.758366 0.849785 0.960163 1.0943 1.25228 1.42317 1.57777 1.66238 1.59785 1.28839 0.642609 -0.394122 -1.80279 -3.46271 -5.14685 -6.55225 -7.36599 -7.35118 -6.4261 -4.70527 -2.48223 -0.15539 1.87868 3.32706 4.06232 4.1273 3.68984 2.97167 2.18029 1.46486 0.90252 0.509086 0.261623 0.121337 0.0498964 0.0175493 0.00481298 0.000669186 -0.000281181 -0.000299937 -0.000164509 -6.74938e-05 -2.12125e-05 -4.18531e-06 3.8591e-07 8.6769e-07 4.87218e-07 1.69522e-07 2.97975e-08 -6.6408e-09 -7.481e-09 -2.95665e-09 -5.18401e-10 1.07813e-10 1.0656e-10 3.36034e-11 2.52704e-12 -2.40491e-12 -1.14902e-12 -1.90484e-13 3.65658e-14 2.83922e-14 6.05537e-15 -3.63716e-16 -5.56908e-16 -1.30628e-16 2.44212e-18 9.03053e-18 2.08545e-18 -3.04411e-20 -1.22096e-19 -2.49839e-20 8.65501e-22 1.35182e-21 2.19237e-22 -1.93529e-23 -1.34187e-23 -3.51898e-24 0 0 
0 0 -3.35284e-26 -1.99152e-24 -7.79178e-24 -2.28714e-23 8.90461e-23 9.26799e-22 1.96545e-21 -1.13989e-20 -8.74818e-20 -1.45201e-19 9.92705e-19 6.56023e-18 1.0262e-17 -6.12199e-17 -3.9672e-16 -7.04987e-16 2.57966e-15 1.91932e-14 4.31353e-14 -5.8168e-14 -7.11517e-13 -2.12744e-12 -8.67035e-13 1.78016e-11 7.74063e-11 1.37587e-10 -1.47819e-10 -1.75214e-09 -5.70222e-09 -8.84072e-09 7.83616e-09 9.61662e-08 3.37174e-07 7.35176e-07 8.25555e-07 -1.34985e-06 -1.13915e-05 -4.18449e-05 -0.00011337 -0.000238677 -0.000344174 -2.70617e-05 0.00203337 0.00924962 0.0290642 0.075515 0.171624 0.349869 0.648237 1.09952 1.71339 2.4547 3.22595 3.86499 4.16717 3.93379 3.03624 1.47473 -0.592688 -2.86802 -4.97807 -6.56694 -7.3857 -7.34946 -6.54503 -5.19155 -3.57189 -1.96001 -0.565306 0.493911 1.18865 1.5576 1.67704 1.63311 1.5018 1.33914 1.17959 1.03964 0.923519 0.828733 0.750352 0.683615 0.62503 0.572471 0.525002 0.482309 0.444516 0.411605 0.383453 0.359891 0.340441 0.324668 0.312118 0.302336 0.294924 0.289432 0.285742 0.283594 0.282924 0.283594 0.285742 0.289432 0.294924 0.302336 0.312118 0.324668 0.340441 0.359891 0.383453 0.411605 0.444516 0.482309 0.525002 0.572471 0.62503 0.683615 0.750352 0.828733 0.923519 1.03964 1.17959 1.33914 1.5018 1.63311 1.67704 1.5576 1.18865 0.493911 -0.565306 -1.96001 -3.57189 -5.19155 -6.54503 -7.34946 -7.3857 -6.56694 -4.97807 -2.86802 -0.592688 1.47473 3.03624 3.93379 4.16717 3.86499 3.22595 2.4547 1.71339 1.09952 0.648237 0.349869 0.171624 0.075515 0.0290642 0.00924962 0.00203337 -2.70617e-05 -0.000344174 -0.000238677 -0.00011337 -4.18448e-05 -1.13915e-05 -1.34985e-06 8.25554e-07 7.35176e-07 3.37174e-07 9.61662e-08 7.83616e-09 -8.8407e-09 -5.70221e-09 -1.75218e-09 -1.48002e-10 1.37195e-10 7.71789e-11 1.77487e-11 -8.653e-13 -2.12157e-12 -7.09511e-13 -5.79894e-14 4.30214e-14 1.91411e-14 2.57236e-15 -7.03208e-16 -3.95674e-16 -6.10534e-17 1.02371e-17 6.5434e-18 9.90083e-19 -1.44857e-19 -8.72625e-20 -1.13695e-20 1.96084e-21 9.24543e-22 8.85697e-23 -2.45372e-23 -1.11843e-23 -2.07962e-24 0 0 
0 0 7.21904e-26 -8.33711e-25 -4.17163e-24 -2.02007e-23 1.43833e-23 5.43365e-22 2.00218e-21 -3.12768e-21 -5.37243e-20 -1.6327e-19 3.08332e-19 4.09224e-18 1.14951e-17 -1.79825e-17 -2.43408e-16 -7.09121e-16 5.07271e-16 1.11681e-14 3.73085e-14 1.30009e-14 -3.71907e-13 -1.58078e-12 -2.24501e-12 7.11443e-12 4.91815e-11 1.25427e-10 5.13777e-11 -8.72913e-10 -3.85634e-09 -8.34343e-09 -3.87741e-09 4.5513e-08 2.11686e-07 5.56083e-07 8.99609e-07 1.55245e-07 -5.19523e-06 -2.38582e-05 -7.26705e-05 -0.000172374 -0.000310612 -0.000307124 0.000547613 0.00427754 0.0156389 0.0442288 0.106914 0.229489 0.445656 0.791033 1.29066 1.94081 2.68981 3.42594 3.98227 4.1642 3.79826 2.78962 1.16892 -0.891132 -3.10068 -5.11528 -6.61719 -7.39021 -7.36444 -6.61964 -5.35059 -3.80926 -2.24358 -0.849999 0.251238 1.0179 1.47027 1.66745 1.68404 1.59128 1.44671 1.28988 1.14375 1.01833 0.915161 0.831387 0.762701 0.704805 0.654566 0.609856 0.569485 0.532952 0.500136 0.470939 0.445441 0.423534 0.405136 0.390044 0.378002 0.368975 0.362626 0.358931 0.357731 0.358931 0.362626 0.368975 0.378002 0.390044 0.405136 0.423534 0.445441 0.470939 0.500136 0.532952 0.569485 0.609856 0.654566 0.704805 0.762701 0.831387 0.915161 1.01833 1.14375 1.28988 1.44671 1.59128 1.68404 1.66745 1.47027 1.0179 0.251238 -0.849999 -2.24358 -3.80926 -5.35059 -6.61964 -7.36444 -7.39021 -6.61719 -5.11528 -3.10068 -0.891132 1.16892 2.78962 3.79826 4.1642 3.98227 3.42594 2.68981 1.94081 1.29066 0.791033 0.445656 0.229489 0.106914 0.0442288 0.0156389 0.00427754 0.000547613 -0.000307124 -0.000310612 -0.000172374 -7.26705e-05 -2.38582e-05 -5.19522e-06 1.55245e-07 8.9961e-07 5.56083e-07 2.11686e-07 4.5513e-08 -3.8774e-09 -8.34341e-09 -3.85633e-09 -8.72929e-10 5.12621e-11 1.25107e-10 4.90383e-11 7.09271e-12 -2.23901e-12 -1.57634e-12 -3.70839e-13 1.29767e-14 3.72077e-14 1.11372e-14 5.0564e-16 -7.07272e-16 -2.42757e-16 -1.79305e-17 1.1466e-17 4.08159e-18 3.07474e-19 -1.62866e-19 -5.35878e-20 -3.11908e-21 1.99733e-21 5.42038e-22 1.42463e-23 -2.12742e-23 -7.76403e-24 -1.0202e-24 0 0 
0 0 9.52437e-26 -1.81802e-25 -1.74858e-24 -1.42998e-23 -1.85491e-23 2.62037e-22 1.54345e-21 9.21255e-22 -2.7572e-20 -1.32591e-19 -4.09573e-20 2.14395e-18 9.37199e-18 3.90989e-18 -1.25007e-16 -5.51739e-16 -4.71277e-16 5.32979e-15 2.66617e-14 4.03343e-14 -1.46973e-13 -1.00876e-12 -2.36338e-12 9.9878e-13 2.67288e-11 9.45384e-11 1.28844e-10 -3.10861e-10 -2.28625e-09 -6.53692e-09 -8.42977e-09 1.44016e-08 1.17553e-07 3.79075e-07 7.78782e-07 7.89416e-07 -1.64147e-06 -1.2154e-05 -4.30597e-05 -0.000114435 -0.000240011 -0.000359571 -0.000133006 0.00155176 0.0075504 0.0240618 0.0627681 0.142929 0.292141 0.543872 0.929865 1.46674 2.13865 2.88126 3.57489 4.05443 4.13946 3.68058 2.60931 0.974755 -1.04842 -3.18738 -5.12816 -6.58578 -7.36662 -7.40489 -6.76488 -5.61268 -4.16868 -2.65628 -1.26113 -0.107121 0.748697 1.30655 1.60642 1.7085 1.67689 1.56817 1.42583 1.27902 1.14428 1.02885 0.93376 0.856638 0.794096 0.742523 0.698984 0.661378 0.628297 0.598984 0.572952 0.550053 0.530201 0.5134 0.499723 0.489065 0.481476 0.476959 0.475472 0.476959 0.481476 0.489065 0.499723 0.5134 0.530201 0.550053 0.572952 0.598984 0.628297 0.661378 0.698984 0.742523 0.794096 0.856638 0.93376 1.02885 1.14428 1.27902 1.42583 1.56817 1.67689 1.7085 1.60642 1.30655 0.748697 -0.107121 -1.26113 -2.65628 -4.16868 -5.61268 -6.76488 -7.40489 -7.36662 -6.58578 -5.12816 -3.18738 -1.04842 0.974755 2.60931 3.68058 4.13946 4.05443 3.57489 2.88126 2.13865 1.46674 0.929865 0.543872 0.292141 0.142929 0.0627681 0.0240618 0.0075504 0.00155176 -0.000133006 -0.000359571 -0.000240011 -0.000114435 -4.30597e-05 -1.2154e-05 -1.64147e-06 7.89416e-07 7.78781e-07 3.79075e-07 1.17553e-07 1.44016e-08 -8.42977e-09 -6.53692e-09 -2.28624e-09 -3.10863e-10 1.28781e-10 9.43142e-11 2.66521e-11 9.95209e-13 -2.35679e-12 -1.00589e-12 -1.46537e-13 4.02284e-14 2.65884e-14 5.31477e-15 -4.7016e-16 -5.50271e-16 -1.24667e-16 3.90248e-18 9.34774e-18 2.13828e-18 -4.0894e-20 -1.32257e-19 -2.75008e-20 9.1941e-22 1.53964e-21 2.61395e-22 -1.85199e-23 -1.48836e-23 -4.55197e-24 -3.61551e-25 0 0 
0 0 7.8461e-26 1.04064e-25 -4.00272e-25 -8.40912e-24 -2.60348e-23 8.95565e-23 9.77245e-22 2.21806e-21 -1.06794e-20 -8.76016e-20 -1.64731e-19 8.60765e-19 6.23706e-18 1.14746e-17 -4.82103e-17 -3.56244e-16 -7.44718e-16 1.73745e-15 1.60905e-14 4.18264e-14 -2.18967e-14 -5.4352e-13 -1.87126e-12 -1.73951e-12 1.14732e-11 6.08308e-11 1.33251e-10 -7.50955e-12 -1.13971e-09 -4.41818e-09 -8.68002e-09 -1.83435e-09 5.42927e-08 2.31379e-07 5.82907e-07 9.1313e-07 1.35619e-07 -5.15143e-06 -2.32107e-05 -6.99842e-05 -0.000166198 -0.00030816 -0.000360574 0.00023013 0.00305759 0.0118821 0.0343286 0.0839223 0.181704 0.356058 0.638998 1.05754 1.62021 2.30128 3.02814 3.67862 4.09419 4.11027 3.59833 2.5085 0.89793 -1.06635 -3.134 -5.02141 -6.47133 -7.3051 -7.45346 -6.95995 -5.9592 -4.63895 -3.19824 -1.8115 -0.605865 0.347152 1.02734 1.45379 1.6698 1.72874 1.68297 1.57711 1.44494 1.30937 1.18378 1.07445 0.983 0.908259 0.84776 0.798823 0.758852 0.725873 0.698313 0.67514 0.655682 0.639491 0.626392 0.616251 0.609045 0.604729 0.603275 0.604729 0.609045 0.616251 0.626392 0.639491 0.655682 0.67514 0.698313 0.725873 0.758852 0.798823 0.84776 0.908259 0.983 1.07445 1.18378 1.30937 1.44494 1.57711 1.68297 1.72874 1.6698 1.45379 1.02734 0.347152 -0.605865 -1.8115 -3.19824 -4.63895 -5.9592 -6.95995 -7.45346 -7.3051 -6.47133 -5.02141 -3.134 -1.06635 0.89793 2.5085 3.59833 4.11027 4.09419 3.67862 3.02814 2.30128 1.62021 1.05754 0.638998 0.356058 0.181704 0.0839223 0.0343286 0.0118821 0.00305759 0.00023013 -0.000360574 -0.00030816 -0.000166198 -6.99842e-05 -2.32107e-05 -5.15143e-06 1.35619e-07 9.1313e-07 5.82907e-07 2.31379e-07 5.42927e-08 -1.83435e-09 -8.68001e-09 -4.41818e-09 -1.13971e-09 -7.50554e-12 1.33225e-10 6.06963e-11 1.14413e-11 -1.73474e-12 -1.86591e-12 -5.41942e-13 -2.18196e-14 4.17122e-14 1.60455e-14 1.73234e-15 -7.42769e-16 -3.5528e-16 -4.80751e-17 1.14457e-17 6.22066e-18 8.5843e-19 -1.64327e-19 -8.7377e-20 -1.06511e-20 2.21271e-21 9.74795e-22 8.93364e-23 -2.59515e-23 -8.66168e-24 -2.18464e-24 -2.64668e-26 0 0 
0 0 5.05118e-26 1.7329e-25 1.80324e-25 -4.01283e-24 -2.14697e-23 3.97082e-24 5.08713e-22 2.07748e-21 -1.72367e-21 -4.7776e-20 -1.65516e-19 1.63597e-19 3.43645e-18 1.12425e-17 -7.14682e-18 -1.90834e-16 -6.54852e-16 -6.07456e-17 7.99252e-15 3.18331e-14 3.14979e-14 -2.29342e-13 -1.22047e-12 -2.38477e-12 2.72247e-12 3.30545e-11 1.03785e-10 1.15825e-10 -4.18274e-10 -2.57292e-09 -6.88742e-09 -8.11504e-09 1.68757e-08 1.23245e-07 3.85916e-07 7.84002e-07 8.23307e-07 -1.3838e-06 -1.09673e-05 -3.91369e-05 -0.000104819 -0.0002252 -0.000366373 -0.000290122 0.000815522 0.00507302 0.017149 0.0459618 0.106501 0.220897 0.417385 0.725676 1.16785 1.74544 2.42564 3.13172 3.74354 4.1122 4.08877 3.5617 2.49246 0.937934 -0.949222 -2.94443 -4.79368 -6.26366 -7.18554 -7.48229 -7.17365 -6.36129 -5.19948 -3.86129 -2.50794 -1.26716 -0.222699 0.585998 1.1567 1.51368 1.69603 1.74794 1.71145 1.62201 1.50692 1.38522 1.26883 1.16432 1.07426 0.998799 0.936784 0.88639 0.845793 0.813181 0.787203 0.766691 0.750772 0.738953 0.730713 0.725895 0.724308 0.725895 0.730713 0.738953 0.750772 0.766691 0.787203 0.813181 0.845793 0.88639 0.936784 0.998799 1.07426 1.16432 1.26883 1.38522 1.50692 1.62201 1.71145 1.74794 1.69603 1.51368 1.1567 0.585998 -0.222699 -1.26716 -2.50794 -3.86129 -5.19948 -6.36129 -7.17365 -7.48229 -7.18554 -6.26366 -4.79368 -2.94443 -0.949222 0.937934 2.49246 3.5617 4.08877 4.1122 3.74354 3.13172 2.42564 1.74544 1.16785 0.725676 0.417385 0.220897 0.106501 0.0459618 0.017149 0.00507302 0.000815522 -0.000290122 -0.000366373 -0.0002252 -0.000104819 -3.91369e-05 -1.09673e-05 -1.3838e-06 8.23308e-07 7.84002e-07 3.85916e-07 1.23245e-07 1.68757e-08 -8.11504e-09 -6.88742e-09 -2.57292e-09 -4.18271e-10 1.1583e-10 1.03779e-10 3.29877e-11 2.71597e-12 -2.37787e-12 -1.21692e-12 -2.28659e-13 3.14171e-14 3.17444e-14 7.96979e-15 -6.07903e-17 -6.53091e-16 -1.9031e-16 -7.12355e-18 1.12131e-17 3.42728e-18 1.63108e-19 -1.65095e-19 -4.76516e-20 -1.71852e-21 2.0723e-21 5.07418e-22 3.96129e-24 -2.13908e-23 -4.08063e-24 -7.53327e-25 9.6168e-26 0 0 
0 0 2.62368e-26 1.43801e-25 3.17243e-25 -1.37053e-24 -1.36184e-23 -2.57833e-23 2.02757e-22 1.42635e-21 1.81612e-21 -2.04397e-20 -1.18459e-19 -1.23661e-19 1.4924e-18 8.00152e-18 9.26942e-18 -7.94427e-17 -4.42333e-16 -6.86532e-16 2.9089e-15 1.96295e-14 4.24902e-14 -5.34653e-14 -6.5979e-13 -2.00338e-12 -1.24675e-12 1.4197e-11 6.65585e-11 1.34229e-10 -3.89462e-11 -1.24216e-09 -4.57077e-09 -8.71415e-09 -1.67618e-09 5.34066e-08 2.25155e-07 5.67959e-07 9.19196e-07 3.43135e-07 -4.09818e-06 -1.95802e-05 -6.03051e-05 -0.000146802 -0.000287303 -0.000404374 -0.000133264 0.00162395 0.00752372 0.0230661 0.0582311 0.129011 0.257936 0.47234 0.799177 1.25593 1.83872 2.51053 3.19427 3.77519 4.11567 4.08138 3.57368 2.55949 1.08923 -0.70336 -2.62126 -4.43943 -5.94604 -6.97973 -7.45379 -7.36359 -6.77746 -5.81544 -4.62259 -3.3435 -2.10232 -0.990762 -0.0644469 0.654289 1.16992 1.50471 1.69088 1.76362 1.75621 1.69722 1.6092 1.50872 1.40715 1.3114 1.22538 1.15056 1.08718 1.03462 0.991867 0.957823 0.931468 0.911879 0.898316 0.890425 0.887824 0.890425 0.898316 0.911879 0.931468 0.957823 0.991867 1.03462 1.08718 1.15056 1.22538 1.3114 1.40715 1.50872 1.6092 1.69722 1.75621 1.76362 1.69088 1.50471 1.16992 0.654289 -0.0644469 -0.990762 -2.10232 -3.3435 -4.62259 -5.81544 -6.77746 -7.36359 -7.45379 -6.97973 -5.94604 -4.43943 -2.62126 -0.70336 1.08923 2.55949 3.57368 4.08138 4.11567 3.77519 3.19427 2.51053 1.83872 1.25593 0.799177 0.47234 0.257936 0.129011 0.0582311 0.0230661 0.00752372 0.00162395 -0.000133264 -0.000404374 -0.000287303 -0.000146802 -6.03051e-05 -1.95802e-05 -4.09818e-06 3.43135e-07 9.19196e-07 5.67959e-07 2.25155e-07 5.34065e-08 -1.6762e-09 -8.71415e-09 -4.57077e-09 -1.24216e-09 -3.89444e-11 1.34234e-10 6.65622e-11 1.41729e-11 -1.242e-12 -1.99746e-12 -6.57837e-13 -5.32931e-14 4.23731e-14 1.95738e-14 2.90037e-15 -6.84736e-16 -4.41121e-16 -7.92193e-17 9.24656e-18 7.98023e-18 1.48834e-18 -1.23369e-19 -1.18152e-19 -2.03854e-20 1.81186e-21 1.42273e-21 2.02229e-22 -2.57192e-23 -1.35643e-23 -1.35806e-24 -6.02336e-26 1.07054e-25 0 0 
0 0 1.04195e-26 8.88889e-26 2.59292e-25 -1.13284e-25 -6.88139e-24 -2.7142e-23 4.25631e-23 7.77666e-22 2.39652e-21 -5.35075e-21 -6.71416e-20 -1.80292e-19 4.03835e-19 4.53713e-18 1.19845e-17 -1.86602e-17 -2.40938e-16 -6.98803e-16 3.32072e-16 9.80075e-15 3.4186e-14 2.28543e-14 -2.78583e-13 -1.31329e-12 -2.31554e-12 3.59257e-12 3.52924e-11 1.05447e-10 1.10246e-10 -4.32395e-10 -2.55899e-09 -6.79121e-09 -8.2715e-09 1.43513e-08 1.12259e-07 3.58031e-07 7.51332e-07 9.08035e-07 -6.9883e-07 -8.28439e-06 -3.12709e-05 -8.65656e-05 -0.000194306 -0.000347967 -0.000415155 0.000110032 0.00261536 0.0102508 0.02921 0.0702341 0.149828 0.290307 0.517573 0.855714 1.31834 1.89793 2.55598 3.21807 3.77723 4.10783 4.08872 3.63076 2.70173 1.34153 -0.337791 -2.16778 -3.95182 -5.49877 -6.65429 -7.32275 -7.47645 -7.15152 -6.43361 -5.4379 -4.28847 -3.10052 -1.96808 -0.958185 -0.109715 0.562899 1.06432 1.41217 1.63116 1.74824 1.78945 1.77768 1.73185 1.66669 1.59291 1.51799 1.44687 1.38245 1.3263 1.27911 1.24099 1.21175 1.19115 1.17894 1.1749 1.17894 1.19115 1.21175 1.24099 1.27911 1.3263 1.38245 1.44687 1.51799 1.59291 1.66669 1.73185 1.77768 1.78945 1.74824 1.63116 1.41217 1.06432 0.562899 -0.109715 -0.958185 -1.96808 -3.10052 -4.28847 -5.4379 -6.43361 -7.15152 -7.47645 -7.32275 -6.65429 -5.49877 -3.95182 -2.16778 -0.337791 1.34153 2.70173 3.63076 4.08872 4.10783 3.77723 3.21807 2.55598 1.89793 1.31834 0.855714 0.517573 0.290307 0.149828 0.0702341 0.02921 0.0102508 0.00261536 0.000110032 -0.000415155 -0.000347967 -0.000194306 -8.65656e-05 -3.12709e-05 -8.28439e-06 -6.9883e-07 9.08035e-07 7.51332e-07 3.58032e-07 1.12259e-07 1.43513e-08 -8.27151e-09 -6.79121e-09 -2.55899e-09 -4.32394e-10 1.10247e-10 1.05451e-10 3.52983e-11 3.59037e-12 -2.30804e-12 -1.30935e-12 -2.77738e-13 2.27985e-14 3.40893e-14 9.77247e-15 3.3089e-16 -6.96896e-16 -2.40267e-16 -1.86043e-17 1.19529e-17 4.52486e-18 4.02682e-19 -1.7983e-19 -6.69647e-20 -5.33585e-21 2.39052e-21 7.75664e-22 4.24444e-23 -2.70742e-23 -6.85214e-24 -8.01451e-26 1.73144e-25 7.62103e-26 0 0 
0 0 2.32349e-27 4.29352e-26 1.55377e-25 2.96172e-25 -2.59368e-24 -1.85845e-23 -1.96537e-23 3.26911e-22 1.7939e-21 1.0075e-21 -2.96995e-20 -1.40161e-19 -6.47248e-20 2.01234e-18 9.07257e-18 6.51945e-18 -1.01567e-16 -4.8705e-16 -6.05838e-16 3.60761e-15 2.11308e-14 4.12824e-14 -6.87136e-14 -6.9507e-13 -2.00297e-12 -1.06033e-12 1.44924e-11 6.58357e-11 1.31869e-10 -2.89493e-11 -1.15778e-09 -4.31589e-09 -8.52125e-09 -3.44644e-09 4.34658e-08 1.95266e-07 5.12978e-07 8.99803e-07 6.66009e-07 -2.44638e-06 -1.41043e-05 -4.6024e-05 -0.000117222 -0.000245168 -0.000403487 -0.000397707 0.000421315 0.00370883 0.0130258 0.0350694 0.0810068 0.167386 0.315806 0.550416 0.892612 1.35304 1.92227 2.56268 3.20479 3.75099 4.0879 4.10612 3.7234 2.90554 1.67944 0.134196 -1.59055 -3.32641 -4.90325 -6.17515 -7.04016 -7.45062 -7.4132 -6.98044 -6.23661 -5.28175 -4.21662 -3.13131 -2.09775 -1.16649 -0.367262 0.288142 0.802053 1.1864 1.45872 1.63887 1.74652 1.79983 1.81433 1.80286 1.7755 1.73985 1.70159 1.6647 1.63189 1.60499 1.58515 1.573 1.56887 1.573 1.58515 1.60499 1.63189 1.6647 1.70159 1.73985 1.7755 1.80286 1.81433 1.79983 1.74652 1.63887 1.45872 1.1864 0.802053 0.288142 -0.367262 -1.16649 -2.09775 -3.13131 -4.21662 -5.28175 -6.23661 -6.98044 -7.4132 -7.45062 -7.04016 -6.17515 -4.90325 -3.32641 -1.59055 0.134196 1.67944 2.90554 3.7234 4.10612 4.0879 3.75099 3.20479 2.56268 1.92227 1.35304 0.892612 0.550416 0.315806 0.167386 0.0810068 0.0350694 0.0130258 0.00370883 0.000421315 -0.000397707 -0.000403487 -0.000245168 -0.000117222 -4.6024e-05 -1.41043e-05 -2.44638e-06 6.66009e-07 8.99803e-07 5.12978e-07 1.95266e-07 4.34657e-08 -3.44645e-09 -8.52125e-09 -4.31589e-09 -1.15778e-09 -2.89494e-11 1.31869e-10 6.58374e-11 1.44975e-11 -1.05433e-12 -1.99669e-12 -6.92958e-13 -6.84914e-14 4.11669e-14 2.10699e-14 3.59691e-15 -6.04252e-16 -4.85693e-16 -1.01278e-16 6.50421e-18 9.04808e-18 2.00679e-18 -6.45953e-20 -1.39793e-19 -2.96198e-20 1.00543e-21 1.7893e-21 3.26053e-22 -1.96094e-23 -1.85378e-23 -2.58154e-24 3.24159e-25 1.83268e-25 4.15195e-26 0 0 
0 0 -7.16396e-28 1.50144e-26 7.15663e-26 3.06641e-25 -4.77531e-25 -9.68369e-24 -3.05971e-23 8.46954e-23 1.00414e-21 2.51325e-21 -8.65195e-21 -8.09964e-20 -1.81949e-19 5.8655e-19 5.18501e-18 1.19832e-17 -2.58171e-17 -2.63415e-16 -6.99201e-16 5.23358e-16 1.03036e-14 3.40269e-14 1.95118e-14 -2.81023e-13 -1.28519e-12 -2.25033e-12 3.30369e-12 3.31365e-11 1.00357e-10 1.15238e-10 -3.52316e-10 -2.26116e-09 -6.27126e-09 -8.71288e-09 7.99443e-09 8.80774e-08 3.00671e-07 6.75111e-07 9.73577e-07 1.2211e-07 -4.98099e-06 -2.15521e-05 -6.34866e-05 -0.000151114 -0.000297132 -0.000452076 -0.000358407 0.000764294 0.00479178 0.0155807 0.0401126 0.0896434 0.180348 0.332733 0.569063 0.90836 1.35926 1.91198 2.53158 3.15525 3.69568 4.05164 4.12444 3.83708 3.1519 2.08201 0.693436 -0.902473 -2.56552 -4.14751 -5.51349 -6.55919 -7.22177 -7.48292 -7.36486 -6.92148 -6.22653 -5.36196 -4.4076 -3.43347 -2.49537 -1.63338 -0.87218 -0.223303 0.312302 0.741138 1.0743 1.32532 1.50842 1.63719 1.72399 1.77941 1.81228 1.82979 1.83748 1.83956 1.83906 1.83797 1.83744 1.83797 1.83906 1.83956 1.83748 1.82979 1.81228 1.77941 1.72399 1.63719 1.50842 1.32532 1.0743 0.741138 0.312302 -0.223303 -0.87218 -1.63338 -2.49537 -3.43347 -4.4076 -5.36196 -6.22653 -6.92148 -7.36486 -7.48292 -7.22177 -6.55919 -5.51349 -4.14751 -2.56552 -0.902473 0.693436 2.08201 3.1519 3.83708 4.12444 4.05164 3.69568 3.15525 2.53158 1.91198 1.35926 0.90836 0.569063 0.332733 0.180348 0.0896434 0.0401126 0.0155807 0.00479178 0.000764294 -0.000358407 -0.000452076 -0.000297132 -0.000151114 -6.34866e-05 -2.15521e-05 -4.98099e-06 1.2211e-07 9.73577e-07 6.75111e-07 3.00672e-07 8.80774e-08 7.99441e-09 -8.71289e-09 -6.27126e-09 -2.26116e-09 -3.52316e-10 1.15238e-10 1.00357e-10 3.31371e-11 3.30688e-12 -2.24345e-12 -1.28124e-12 -2.80153e-13 1.94649e-14 3.39288e-14 1.02734e-14 5.21596e-16 -6.97264e-16 -2.62668e-16 -2.57398e-17 1.19513e-17 5.17076e-18 5.84869e-19 -1.81478e-19 -8.07799e-20 -8.62789e-21 2.5069e-21 1.00152e-21 8.44639e-23 -3.05211e-23 -9.65928e-24 -4.74449e-25 3.23284e-25 1.21189e-25 1.72089e-26 0 0 
0 0 -1.23241e-27 2.12058e-27 2.28924e-26 1.96031e-25 2.63567e-25 -3.74331e-24 -2.24083e-23 -1.20304e-23 4.25141e-22 2.02686e-21 2.89756e-22 -3.56634e-20 -1.50697e-19 -2.40318e-20 2.26327e-18 9.39326e-18 5.03216e-18 -1.07848e-16 -4.88411e-16 -5.66279e-16 3.61558e-15 2.05066e-14 3.97633e-14 -6.2613e-14 -6.47146e-13 -1.89608e-12 -1.24724e-12 1.24019e-11 5.91846e-11 1.26342e-10 1.52011e-11 -9.18444e-10 -3.70443e-09 -7.98556e-09 -6.13848e-09 2.79207e-08 1.48813e-07 4.23152e-07 8.26403e-07 9.38162e-07 -7.62887e-07 -8.29267e-06 -3.04238e-05 -8.29766e-05 -0.000186763 -0.000348267 -0.000494388 -0.000310449 0.00109001 0.00573681 0.0176467 0.0438592 0.0954066 0.187746 0.340034 0.572634 0.902595 1.3374 1.86813 2.46391 3.06963 3.6088 3.99218 4.13111 3.95321 3.41705 2.52241 1.31353 -0.125576 -1.68238 -3.23174 -4.65274 -5.84359 -6.7322 -7.28101 -7.48667 -7.37503 -6.99352 -6.4024 -5.66626 -4.84713 -3.99954 -3.16768 -2.38435 -1.67127 -1.04051 -0.496262 -0.036906 0.343176 0.652027 0.898744 1.09256 1.24223 1.35561 1.43932 1.4989 1.53851 1.56107 1.56844 1.56107 1.53851 1.4989 1.43932 1.35561 1.24223 1.09256 0.898744 0.652027 0.343176 -0.036906 -0.496262 -1.04051 -1.67127 -2.38435 -3.16768 -3.99954 -4.84713 -5.66626 -6.4024 -6.99352 -7.37503 -7.48667 -7.28101 -6.7322 -5.84359 -4.65274 -3.23174 -1.68238 -0.125576 1.31353 2.52241 3.41705 3.95321 4.13111 3.99218 3.6088 3.06963 2.46391 1.86813 1.3374 0.902595 0.572634 0.340034 0.187746 0.0954066 0.0438592 0.0176467 0.00573681 0.00109001 -0.000310449 -0.000494388 -0.000348267 -0.000186763 -8.29766e-05 -3.04238e-05 -8.29267e-06 -7.62887e-07 9.38162e-07 8.26403e-07 4.23152e-07 1.48813e-07 2.79207e-08 -6.13848e-09 -7.98555e-09 -3.70443e-09 -9.18444e-10 1.52011e-11 1.26342e-10 5.91845e-11 1.2402e-11 -1.24566e-12 -1.89113e-12 -6.45192e-13 -6.24096e-14 3.96496e-14 2.04463e-14 3.60466e-15 -5.64778e-16 -4.87026e-16 -1.07536e-16 5.02097e-18 9.36749e-18 2.25692e-18 -2.40165e-20 -1.50296e-19 -3.55663e-20 2.89658e-22 2.02159e-21 4.24011e-22 -1.20063e-23 -2.23512e-23 -3.73381e-24 2.63104e-25 2.03516e-25 5.98028e-26 4.44594e-27 0 0 
0 0 -8.73274e-28 -1.89822e-27 1.81456e-27 9.22066e-26 3.49752e-25 -7.89985e-25 -1.17422e-23 -3.24858e-23 1.13437e-22 1.1363e-21 2.54358e-21 -1.03174e-20 -8.64858e-20 -1.79909e-19 6.4005e-19 5.26245e-18 1.17133e-17 -2.58418e-17 -2.54819e-16 -6.72275e-16 4.41265e-16 9.45974e-15 3.17999e-14 2.24823e-14 -2.39138e-13 -1.15046e-12 -2.18896e-12 2.05191e-12 2.73232e-11 8.902e-11 1.24363e-10 -2.10678e-10 -1.7544e-09 -5.34629e-09 -8.87491e-09 3.63563e-10 5.73766e-08 2.24229e-07 5.54826e-07 9.49825e-07 7.73537e-07 -1.98139e-06 -1.22626e-05 -4.03134e-05 -0.000103536 -0.000222543 -0.000397176 -0.000533218 -0.000271273 0.00134551 0.00642263 0.0189952 0.0459458 0.0978122 0.189067 0.337351 0.561194 0.876038 1.2889 1.79263 2.36122 2.94784 3.487 3.90125 4.11165 4.05048 3.6734 2.96844 1.96004 0.707068 -0.704691 -2.17381 -3.59627 -4.87763 -5.94281 -6.74194 -7.25203 -7.47544 -7.43529 -7.16963 -6.72507 -6.15108 -5.49528 -4.80012 -4.1009 -3.42501 -2.79205 -2.21481 -1.70014 -1.25045 -0.864805 -0.540031 -0.271801 -0.0552854 0.114332 0.241318 0.329351 0.381079 0.39815 0.381079 0.329351 0.241318 0.114332 -0.0552854 -0.271801 -0.540031 -0.864805 -1.25045 -1.70014 -2.21481 -2.79205 -3.42501 -4.1009 -4.80012 -5.49528 -6.15108 -6.72507 -7.16963 -7.43529 -7.47544 -7.25203 -6.74194 -5.94281 -4.87763 -3.59627 -2.17381 -0.704691 0.707068 1.96004 2.96844 3.6734 4.05048 4.11165 3.90125 3.487 2.94784 2.36122 1.79263 1.2889 0.876038 0.561194 0.337351 0.189067 0.0978122 0.0459458 0.0189952 0.00642263 0.00134551 -0.000271273 -0.000533218 -0.000397176 -0.000222543 -0.000103536 -4.03134e-05 -1.22626e-05 -1.98139e-06 7.73537e-07 9.49825e-07 5.54826e-07 2.24229e-07 5.73766e-08 3.63573e-10 -8.8749e-09 -5.34628e-09 -1.7544e-09 -2.10679e-10 1.24363e-10 8.902e-11 2.73232e-11 2.05186e-12 -2.18839e-12 -1.14775e-12 -2.3844e-13 2.24201e-14 3.17059e-14 9.43136e-15 4.39724e-16 -6.70376e-16 -2.54083e-16 -2.57631e-17 1.16815e-17 5.24773e-18 6.38189e-19 -1.79437e-19 -8.62508e-20 -1.02884e-20 2.53708e-21 1.13329e-21 1.13124e-22 -3.24041e-23 -1.17118e-23 -7.87961e-25 3.48577e-25 9.4507e-26 2.12053e-26 -4.44178e-28 0 0 
0 0 -4.30387e-28 -2.06416e-27 -3.92327e-27 3.0038e-26 2.29456e-25 2.42948e-25 -4.4479e-24 -2.46008e-23 -8.6228e-24 4.66913e-22 2.11358e-21 1.15412e-22 -3.6602e-20 -1.50575e-19 -2.5088e-20 2.18042e-18 9.02861e-18 5.57896e-18 -9.72062e-17 -4.50824e-16 -5.81009e-16 2.97778e-15 1.80429e-14 3.79881e-14 -3.93913e-14 -5.32198e-13 -1.6895e-12 -1.639e-12 8.68995e-12 4.79077e-11 1.15177e-10 7.06954e-11 -5.96213e-10 -2.83961e-09 -6.95254e-09 -8.32155e-09 1.16181e-08 9.62795e-08 3.1103e-07 6.87008e-07 1.03371e-06 4.81421e-07 -3.4708e-06 -1.66614e-05 -5.06376e-05 -0.000124012 -0.0002568 -0.00044294 -0.000572435 -0.000258568 0.00148411 0.00675486 0.0194719 0.0461722 0.0966798 0.184288 0.325034 0.535696 0.830411 1.2162 1.68819 2.22564 2.79017 3.32713 3.77056 4.05127 4.10683 3.89139 3.38374 2.59149 1.55114 0.323768 -1.01284 -2.37348 -3.6754 -4.8465 -5.83147 -6.59466 -7.12079 -7.41276 -7.48837 -7.37598 -7.11016 -6.72776 -6.26477 -5.75399 -5.22369 -4.6969 -4.19144 -3.72031 -3.29236 -2.91295 -2.58498 -2.30939 -2.08594 -1.91387 -1.79197 -1.71931 -1.69513 -1.71931 -1.79197 -1.91387 -2.08594 -2.30939 -2.58498 -2.91295 -3.29236 -3.72031 -4.19144 -4.6969 -5.22369 -5.75399 -6.26477 -6.72776 -7.11016 -7.37598 -7.48837 -7.41276 -7.12079 -6.59466 -5.83147 -4.8465 -3.6754 -2.37348 -1.01284 0.323768 1.55114 2.59149 3.38374 3.89139 4.10683 4.05127 3.77056 3.32713 2.79017 2.22564 1.68819 1.2162 0.830411 0.535696 0.325034 0.184288 0.0966798 0.0461722 0.0194719 0.00675486 0.00148411 -0.000258568 -0.000572435 -0.00044294 -0.0002568 -0.000124012 -5.06376e-05 -1.66614e-05 -3.4708e-06 4.81421e-07 1.03371e-06 6.87008e-07 3.1103e-07 9.62795e-08 1.16181e-08 -8.32154e-09 -6.95254e-09 -2.83961e-09 -5.96213e-10 7.06951e-11 1.15177e-10 4.79076e-11 8.68991e-12 -1.63909e-12 -1.68941e-12 -5.31086e-13 -3.92975e-14 3.78736e-14 1.79884e-14 2.96855e-15 -5.79418e-16 -4.49519e-16 -9.69188e-17 5.56579e-18 9.00335e-18 2.1742e-18 -2.50691e-20 -1.50166e-19 -3.65006e-20 1.15823e-22 2.10799e-21 4.65652e-22 -8.60824e-24 -2.45372e-23 -4.43613e-24 2.42337e-25 2.28587e-25 3.01851e-26 3.44646e-27 -1.40599e-27 0 0 
0 0 -1.48076e-28 -1.22043e-27 -3.55113e-27 3.23529e-27 1.05461e-25 3.792e-25 -9.02316e-25 -1.25576e-23 -3.38072e-23 1.16401e-22 1.14728e-21 2.58042e-21 -9.69996e-21 -8.28378e-20 -1.78854e-19 5.48201e-19 4.78627e-18 1.13047e-17 -1.91864e-17 -2.19104e-16 -6.20913e-16 1.5017e-16 7.57414e-15 2.77723e-14 2.87184e-14 -1.68227e-13 -9.33375e-13 -2.05836e-12 3.92913e-13 1.93641e-11 7.22113e-11 1.26905e-10 -5.79344e-11 -1.1562e-09 -4.10182e-09 -8.23787e-09 -5.81456e-09 2.78918e-08 1.43356e-07 4.04701e-07 8.12163e-07 1.07513e-06 8.87507e-08 -5.11441e-06 -2.11655e-05 -6.06846e-05 -0.000143144 -0.000287908 -0.000484796 -0.000615439 -0.000285887 0.0014748 0.00668228 0.0190197 0.0445247 0.0921445 0.173865 0.304074 0.49788 0.768317 1.12266 1.55849 2.06036 2.59805 3.12734 3.59343 3.93697 4.10162 4.04205 3.7306 3.16174 2.35328 1.3443 0.190381 -1.04289 -2.28732 -3.4788 -4.56275 -5.49784 -6.25759 -6.83022 -7.21707 -7.4302 -7.48931 -7.41894 -7.24571 -6.99628 -6.69561 -6.3661 -6.02683 -5.69358 -5.37894 -5.0925 -4.84136 -4.63068 -4.46397 -4.34352 -4.27076 -4.24641 -4.27076 -4.34352 -4.46397 -4.63068 -4.84136 -5.0925 -5.37894 -5.69358 -6.02683 -6.3661 -6.69561 -6.99628 -7.24571 -7.41894 -7.48931 -7.4302 -7.21707 -6.83022 -6.25759 -5.49784 -4.56275 -3.4788 -2.28732 -1.04289 0.190381 1.3443 2.35328 3.16174 3.7306 4.04205 4.10162 3.93697 3.59343 3.12734 2.59805 2.06036 1.55849 1.12266 0.768317 0.49788 0.304074 0.173865 0.0921445 0.0445247 0.0190197 0.00668228 0.0014748 -0.000285887 -0.000615439 -0.000484796 -0.000287908 -0.000143144 -6.06846e-05 -2.11655e-05 -5.11441e-06 8.87507e-08 1.07513e-06 8.12163e-07 4.04701e-07 1.43356e-07 2.78918e-08 -5.81456e-09 -8.23788e-09 -4.10182e-09 -1.1562e-09 -5.79346e-11 1.26905e-10 7.22113e-11 1.93641e-11 3.92893e-13 -2.05843e-12 -9.33457e-13 -1.67961e-13 2.86139e-14 2.76868e-14 7.55076e-15 1.49495e-16 -6.19117e-16 -2.18457e-16 -1.91259e-17 1.12733e-17 4.77262e-18 5.46569e-19 -1.78375e-19 -8.26084e-20 -9.67207e-21 2.5737e-21 1.14418e-21 1.16074e-22 -3.37209e-23 -1.25245e-23 -8.99802e-25 3.78231e-25 1.05029e-25 2.84093e-27 -2.00208e-27 -1.01903e-27 0 0 
0 0 -2.28717e-29 -5.00264e-28 -1.90413e-27 -3.97085e-27 3.23656e-26 2.43911e-25 2.71359e-25 -4.46139e-24 -2.49328e-23 -1.24792e-23 4.39555e-22 2.05365e-21 5.98388e-22 -3.23766e-20 -1.40432e-19 -6.48977e-20 1.80349e-18 8.0513e-18 7.5239e-18 -7.3884e-17 -3.81259e-16 -6.12255e-16 1.94984e-15 1.42704e-14 3.49012e-14 -9.41336e-15 -3.79089e-13 -1.38767e-12 -1.95709e-12 4.52021e-12 3.40889e-11 9.64154e-11 1.11946e-10 -2.78704e-10 -1.88e-09 -5.42809e-09 -8.9294e-09 -1.08281e-09 4.87782e-08 1.96315e-07 5.00339e-07 9.2548e-07 1.08135e-06 -3.53877e-07 -6.7523e-06 -2.53882e-05 -6.96793e-05 -0.000159654 -0.00031427 -0.000521725 -0.00066363 -0.000359011 0.00130876 0.00620553 0.0176853 0.0411738 0.0846327 0.158666 0.276005 0.450149 0.693118 1.0125 1.40822 1.86978 2.37458 2.88812 3.36625 3.75943 4.01834 4.10009 3.97373 3.62448 3.05557 2.28784 1.35716 0.310202 -0.800656 -1.92253 -3.00661 -4.0117 -4.90643 -5.67015 -6.29272 -6.77333 -7.1189 -7.34204 -7.45919 -7.48872 -7.44965 -7.36035 -7.23782 -7.09718 -6.95143 -6.81138 -6.68583 -6.58158 -6.50368 -6.45557 -6.43933 -6.45557 -6.50368 -6.58158 -6.68583 -6.81138 -6.95143 -7.09718 -7.23782 -7.36035 -7.44965 -7.48872 -7.45919 -7.34204 -7.1189 -6.77333 -6.29272 -5.67015 -4.90643 -4.0117 -3.00661 -1.92253 -0.800656 0.310202 1.35716 2.28784 3.05557 3.62448 3.97373 4.10009 4.01834 3.75943 3.36625 2.88812 2.37458 1.86978 1.40822 1.0125 0.693118 0.450149 0.276005 0.158666 0.0846327 0.0411738 0.0176853 0.00620553 0.00130876 -0.000359011 -0.00066363 -0.000521725 -0.00031427 -0.000159654 -6.96793e-05 -2.53882e-05 -6.7523e-06 -3.53877e-07 1.08135e-06 9.2548e-07 5.00339e-07 1.96315e-07 4.87782e-08 -1.08281e-09 -8.9294e-09 -5.42809e-09 -1.88e-09 -2.78704e-10 1.11946e-10 9.64155e-11 3.40889e-11 4.52021e-12 -1.95709e-12 -1.3877e-12 -3.79181e-13 -9.4702e-15 3.47861e-14 1.42258e-14 1.94354e-15 -6.10517e-16 -3.8013e-16 -7.36602e-17 7.50432e-18 8.02828e-18 1.79822e-18 -6.47596e-20 -1.40043e-19 -3.2285e-20 5.97432e-22 2.04812e-21 4.38345e-22 -1.2454e-23 -2.48672e-23 -4.44939e-24 2.70727e-25 2.43284e-25 3.22179e-26 -4.30508e-27 -2.27946e-27 -4.84691e-28 0 0 
0 0 1.26541e-29 -1.24904e-28 -6.96418e-28 -3.63896e-27 2.54562e-27 1.05429e-25 3.95769e-25 -7.48672e-25 -1.1921e-23 -3.46501e-23 9.20484e-23 1.03596e-21 2.60367e-21 -7.09308e-21 -7.10578e-20 -1.75204e-19 3.53361e-19 3.87862e-18 1.05139e-17 -8.9643e-18 -1.65614e-16 -5.38986e-16 -1.99718e-16 5.17171e-15 2.22424e-14 3.34699e-14 -9.00239e-14 -6.70704e-13 -1.78771e-12 -1.03778e-12 1.11582e-11 5.19954e-11 1.1532e-10 5.91573e-11 -5.97884e-10 -2.73159e-09 -6.68893e-09 -8.83496e-09 5.81502e-09 7.321e-08 2.52179e-07 5.93402e-07 1.02558e-06 1.06878e-06 -7.78845e-07 -8.20098e-06 -2.8924e-05 -7.68599e-05 -0.000172332 -0.000334315 -0.000552103 -0.000715367 -0.000474045 0.00100147 0.00537676 0.015611 0.0364472 0.074804 0.139879 0.242761 0.395377 0.608747 0.890645 1.24304 1.65978 2.12502 2.61308 3.08969 3.51489 3.84701 4.0474 4.08476 3.93886 3.60271 3.08315 2.39976 1.58245 0.668184 -0.302823 -1.29055 -2.25832 -3.17499 -4.01639 -4.76582 -5.41397 -5.95805 -6.40076 -6.74903 -7.01279 -7.20375 -7.33434 -7.41696 -7.46333 -7.48403 -7.48826 -7.48364 -7.47609 -7.46986 -7.4675 -7.46986 -7.47609 -7.48364 -7.48826 -7.48403 -7.46333 -7.41696 -7.33434 -7.20375 -7.01279 -6.74903 -6.40076 -5.95805 -5.41397 -4.76582 -4.01639 -3.17499 -2.25832 -1.29055 -0.302823 0.668184 1.58245 2.39976 3.08315 3.60271 3.93886 4.08476 4.0474 3.84701 3.51489 3.08969 2.61308 2.12502 1.65978 1.24304 0.890645 0.608747 0.395377 0.242761 0.139879 0.074804 0.0364472 0.015611 0.00537676 0.00100147 -0.000474045 -0.000715367 -0.000552103 -0.000334315 -0.000172332 -7.68599e-05 -2.8924e-05 -8.20098e-06 -7.78845e-07 1.06878e-06 1.02558e-06 5.93402e-07 2.52179e-07 7.321e-08 5.81502e-09 -8.83495e-09 -6.68892e-09 -2.73159e-09 -5.97884e-10 5.91572e-11 1.1532e-10 5.19954e-11 1.11582e-11 -1.03778e-12 -1.78771e-12 -6.70717e-13 -9.00814e-14 3.33557e-14 2.21712e-14 5.15522e-15 -1.99299e-16 -5.37387e-16 -1.65113e-16 -8.93372e-18 1.0484e-17 3.8673e-18 3.52269e-19 -1.74722e-19 -7.08569e-20 -7.07207e-21 2.59672e-21 1.03311e-21 9.17824e-23 -3.45597e-23 -1.1889e-23 -7.46525e-25 3.94755e-25 1.05156e-25 2.52368e-27 -3.80756e-27 -1.29052e-27 -1.5403e-28 0 0 
0 0 1.33201e-29 6.58977e-30 -1.31835e-28 -1.85438e-27 -4.52547e-27 2.85474e-26 2.36066e-25 3.47614e-25 -3.76644e-24 -2.32514e-23 -2.18645e-23 3.52032e-22 1.84391e-21 1.4566e-21 -2.43651e-20 -1.20707e-19 -1.18073e-19 1.25329e-18 6.55796e-18 9.39395e-18 -4.53852e-17 -2.90185e-16 -6.05656e-16 8.75102e-16 9.91533e-15 2.95604e-14 1.60146e-14 -2.2286e-13 -1.01889e-12 -1.98366e-12 1.02148e-12 2.03748e-11 7.13686e-11 1.23357e-10 -3.87465e-11 -1.00837e-09 -3.65624e-09 -7.76834e-09 -7.89717e-09 1.4464e-08 9.95823e-08 3.07659e-07 6.8016e-07 1.11413e-06 1.05955e-06 -1.11238e-06 -9.27912e-06 -3.13991e-05 -8.1558e-05 -0.000180129 -0.000346535 -0.000573613 -0.000765796 -0.00061773 0.000590023 0.00429056 0.0130117 0.030784 0.0634716 0.118883 0.206502 0.336711 0.519471 0.762533 1.06943 1.43756 1.85686 2.30927 2.76939 3.2063 3.5863 3.87618 4.04678 4.07584 3.95029 3.66728 3.23411 2.66707 1.98947 1.22927 0.416507 -0.419174 -1.25039 -2.05354 -2.80976 -3.50522 -4.131 -4.68271 -5.15975 -5.56456 -5.9018 -6.17748 -6.39839 -6.5714 -6.70297 -6.79888 -6.86389 -6.90148 -6.91376 -6.90148 -6.86389 -6.79888 -6.70297 -6.5714 -6.39839 -6.17748 -5.9018 -5.56456 -5.15975 -4.68271 -4.131 -3.50522 -2.80976 -2.05354 -1.25039 -0.419174 0.416507 1.22927 1.98947 2.66707 3.23411 3.66728 3.95029 4.07584 4.04678 3.87618 3.5863 3.2063 2.76939 2.30927 1.85686 1.43756 1.06943 0.762533 0.519471 0.336711 0.206502 0.118883 0.0634716 0.030784 0.0130117 0.00429056 0.000590023 -0.00061773 -0.000765796 -0.000573613 -0.000346535 -0.000180129 -8.1558e-05 -3.13991e-05 -9.27912e-06 -1.11238e-06 1.05955e-06 1.11413e-06 6.8016e-07 3.07659e-07 9.95823e-08 1.4464e-08 -7.89717e-09 -7.76833e-09 -3.65624e-09 -1.00837e-09 -3.87466e-11 1.23357e-10 7.13686e-11 2.03749e-11 1.02148e-12 -1.98366e-12 -1.01889e-12 -2.22862e-13 1.59894e-14 2.94801e-14 9.88439e-15 8.72151e-16 -6.03867e-16 -2.89304e-16 -4.52433e-17 9.36784e-18 6.53878e-18 1.24954e-18 -1.17769e-19 -1.20365e-19 -2.42945e-20 1.45311e-21 1.83884e-21 3.51041e-22 -2.18125e-23 -2.3189e-23 -3.75608e-24 3.46762e-25 2.35446e-25 2.84727e-26 -4.51245e-27 -1.91108e-27 -4.86661e-28 -1.73471e-29 0 0 
0 0 6.83926e-30 2.73376e-29 3.7092e-29 -6.15888e-28 -3.65015e-27 1.72027e-28 9.17256e-26 3.91363e-25 -3.85393e-25 -9.95728e-24 -3.39391e-23 5.0232e-23 8.26497e-22 2.50232e-21 -3.53973e-21 -5.37267e-20 -1.61395e-19 1.3198e-19 2.743e-18 9.04974e-18 7.86799e-19 -1.06802e-16 -4.25763e-16 -4.57848e-16 2.83549e-15 1.58579e-14 3.32242e-14 -2.49338e-14 -4.09759e-13 -1.37564e-12 -1.80902e-12 4.43505e-12 3.18201e-11 8.9945e-11 1.15878e-10 -1.83107e-10 -1.49026e-09 -4.59175e-09 -8.59136e-09 -6.2188e-09 2.41337e-08 1.25945e-07 3.59477e-07 7.5775e-07 1.19452e-06 1.07638e-06 -1.28776e-06 -9.83567e-06 -3.25222e-05 -8.32783e-05 -0.000182264 -0.000349626 -0.000583493 -0.000807612 -0.000769885 0.000126441 0.00306824 0.0101437 0.0246768 0.051508 0.097111 0.169427 0.277322 0.429618 0.633773 0.894331 1.21141 1.57953 1.98697 2.41599 2.84381 3.24442 3.59087 3.85775 4.02355 4.07268 3.99661 3.79433 3.47203 3.04223 2.52225 1.93255 1.295 0.631369 -0.0380326 -0.69525 -1.32533 -1.91653 -2.46034 -2.95112 -3.38584 -3.76353 -4.08471 -4.35099 -4.56452 -4.72755 -4.84226 -4.91037 -4.93293 -4.91037 -4.84226 -4.72755 -4.56452 -4.35099 -4.08471 -3.76353 -3.38584 -2.95112 -2.46034 -1.91653 -1.32533 -0.69525 -0.0380326 0.631369 1.295 1.93255 2.52225 3.04223 3.47203 3.79433 3.99661 4.07268 4.02355 3.85775 3.59087 3.24442 2.84381 2.41599 1.98697 1.57953 1.21141 0.894331 0.633773 0.429618 0.277322 0.169427 0.097111 0.051508 0.0246768 0.0101437 0.00306824 0.000126441 -0.000769885 -0.000807612 -0.000583493 -0.000349626 -0.000182264 -8.32783e-05 -3.25222e-05 -9.83567e-06 -1.28776e-06 1.07638e-06 1.19452e-06 7.5775e-07 3.59477e-07 1.25945e-07 2.41337e-08 -6.2188e-09 -8.59136e-09 -4.59175e-09 -1.49026e-09 -1.83107e-10 1.15878e-10 8.99451e-11 3.18201e-11 4.43505e-12 -1.80902e-12 -1.37564e-12 -4.09758e-13 -2.49327e-14 3.32173e-14 1.58201e-14 2.82708e-15 -4.5649e-16 -4.24462e-16 -1.0647e-16 7.87572e-19 9.02323e-18 2.7348e-18 1.3153e-19 -1.60939e-19 -5.35714e-20 -3.52861e-21 2.49547e-21 8.24175e-22 5.00787e-23 -3.38485e-23 -9.93003e-24 -3.84202e-25 3.90338e-25 9.14799e-26 1.7123e-28 -3.63698e-27 -6.24311e-28 -9.9852e-29 1.60728e-29 0 0 
0 0 2.22714e-30 1.70357e-29 4.80345e-29 -8.53382e-29 -1.65967e-27 -5.03239e-27 1.97828e-26 2.0526e-25 4.29891e-25 -2.58423e-24 -1.95979e-23 -3.1427e-23 2.31353e-22 1.49643e-21 2.20729e-21 -1.49312e-20 -9.32627e-20 -1.54079e-19 6.85824e-19 4.75017e-18 9.88376e-18 -1.95529e-17 -1.92866e-16 -5.3028e-16 4.4743e-17 5.78792e-15 2.21613e-14 2.95778e-14 -9.49491e-14 -6.42139e-13 -1.67545e-12 -1.11657e-12 9.24575e-12 4.47638e-11 1.05403e-10 9.03464e-11 -3.68452e-10 -2.01406e-09 -5.48059e-09 -9.14065e-09 -4.05364e-09 3.38726e-08 1.5022e-07 4.04576e-07 8.23879e-07 1.26985e-06 1.13685e-06 -1.25832e-06 -9.7753e-06 -3.21291e-05 -8.17676e-05 -0.000178329 -0.000342692 -0.000579085 -0.000832605 -0.000907441 -0.000331676 0.00183858 0.00726775 0.0186113 0.0397504 0.0759122 0.133587 0.220164 0.343264 0.509776 0.724715 0.990047 1.3037 1.65894 2.04426 2.44389 2.83885 3.20841 3.53193 3.79054 3.96874 4.0556 4.04538 3.93774 3.73741 3.45345 3.09821 2.68632 2.23348 1.75549 1.26743 0.783013 0.314161 -0.129181 -0.539003 -0.909182 -1.23524 -1.51411 -1.74384 -1.92319 -2.05154 -2.12863 -2.15434 -2.12863 -2.05154 -1.92319 -1.74384 -1.51411 -1.23524 -0.909182 -0.539003 -0.129181 0.314161 0.783013 1.26743 1.75549 2.23348 2.68632 3.09821 3.45345 3.73741 3.93774 4.04538 4.0556 3.96874 3.79054 3.53193 3.20841 2.83885 2.44389 2.04426 1.65894 1.3037 0.990047 0.724715 0.509776 0.343264 0.220164 0.133587 0.0759122 0.0397504 0.0186113 0.00726775 0.00183858 -0.000331676 -0.000907441 -0.000832605 -0.000579085 -0.000342692 -0.000178329 -8.17676e-05 -3.21291e-05 -9.7753e-06 -1.25832e-06 1.13685e-06 1.26985e-06 8.23879e-07 4.04576e-07 1.5022e-07 3.38726e-08 -4.05364e-09 -9.14065e-09 -5.48059e-09 -2.01406e-09 -3.68452e-10 9.03466e-11 1.05403e-10 4.47638e-11 9.24575e-12 -1.11657e-12 -1.67545e-12 -6.42139e-13 -9.49486e-14 2.95791e-14 2.21614e-14 5.77627e-15 4.4971e-17 -5.2862e-16 -1.92262e-16 -1.94883e-17 9.85499e-18 4.73592e-18 6.83697e-19 -1.53652e-19 -9.29923e-20 -1.48866e-20 2.20145e-21 1.49222e-21 2.30684e-22 -3.13457e-23 -1.95442e-23 -2.57693e-24 4.28788e-25 2.04711e-25 1.97277e-26 -5.01935e-27 -1.65313e-27 -8.1102e-29 1.85696e-29 1.36791e-29 0 0 
0 0 2.97146e-31 6.39411e-30 2.47986e-29 4.88919e-29 -4.60373e-28 -3.33301e-27 -2.86327e-27 6.77226e-26 3.54844e-25 3.78403e-26 -7.13283e-24 -3.04126e-23 7.03219e-24 5.66381e-22 2.18086e-21 -3.05169e-22 -3.4651e-20 -1.33442e-19 -4.26789e-20 1.62341e-18 6.92451e-18 7.02873e-18 -5.49572e-17 -2.95234e-16 -5.44713e-16 1.02831e-15 9.64995e-15 2.75232e-14 1.50234e-14 -1.95981e-13 -9.0115e-13 -1.84798e-12 1.85279e-13 1.52987e-11 5.82368e-11 1.15907e-10 4.71299e-11 -5.83e-10 -2.54549e-09 -6.27928e-09 -9.45795e-09 -1.76491e-09 4.26362e-08 1.70404e-07 4.40231e-07 8.76357e-07 1.34105e-06 1.2485e-06 -1.00755e-06 -9.07669e-06 -3.02127e-05 -7.70646e-05 -0.000168389 -0.0003255 -0.000558545 -0.000833554 -0.001009 -0.000731011 0.000718599 0.00461615 0.0130103 0.0289159 0.0564303 0.10071 0.167745 0.263917 0.395326 0.566969 0.781867 1.04026 1.33906 1.67154 2.02759 2.39421 2.75646 3.09861 3.40538 3.66313 3.86087 3.99093 4.04938 4.03603 3.95416 3.81002 3.61223 3.37099 3.09735 2.8027 2.49806 2.19368 1.8989 1.62186 1.36944 1.14731 0.960003 0.810973 0.702816 0.637247 0.615288 0.637247 0.702816 0.810973 0.960003 1.14731 1.36944 1.62186 1.8989 2.19368 2.49806 2.8027 3.09735 3.37099 3.61223 3.81002 3.95416 4.03603 4.04938 3.99093 3.86087 3.66313 3.40538 3.09861 2.75646 2.39421 2.02759 1.67154 1.33906 1.04026 0.781867 0.566969 0.395326 0.263917 0.167745 0.10071 0.0564303 0.0289159 0.0130103 0.00461615 0.000718599 -0.000731011 -0.001009 -0.000833554 -0.000558545 -0.0003255 -0.000168389 -7.70646e-05 -3.02127e-05 -9.07669e-06 -1.00755e-06 1.2485e-06 1.34105e-06 8.76357e-07 4.40231e-07 1.70404e-07 4.26362e-08 -1.76491e-09 -9.45795e-09 -6.27928e-09 -2.54549e-09 -5.83e-10 4.71297e-11 1.15907e-10 5.82368e-11 1.52987e-11 1.85277e-13 -1.84798e-12 -9.01151e-13 -1.95982e-13 1.50234e-14 2.75239e-14 9.65146e-15 1.02749e-15 -5.42812e-16 -2.94292e-16 -5.47794e-17 7.00933e-18 6.90365e-18 1.61842e-18 -4.25986e-20 -1.33054e-19 -3.45482e-20 -3.03455e-22 2.17472e-21 5.64752e-22 7.00073e-24 -3.03293e-23 -7.11284e-24 3.78674e-26 3.53894e-25 6.75371e-26 -2.8568e-27 -3.32427e-27 -4.58354e-28 5.3009e-29 2.86798e-29 6.10453e-30 0 0 
0 0 -1.66187e-31 1.25894e-30 7.75407e-30 4.44439e-29 -1.94721e-29 -1.28448e-27 -5.1037e-27 9.07887e-27 1.56165e-25 4.63812e-25 -1.28845e-24 -1.44997e-23 -3.57126e-23 1.12347e-22 1.06318e-21 2.46845e-21 -6.55193e-21 -6.25878e-20 -1.55341e-19 2.35368e-19 2.94483e-18 8.60201e-18 -1.74639e-18 -1.06489e-16 -3.96829e-16 -4.01986e-16 2.56916e-15 1.41198e-14 3.03799e-14 -1.31383e-14 -3.25382e-13 -1.1608e-12 -1.83387e-12 2.1061e-12 2.22607e-11 7.12323e-11 1.20557e-10 -1.03217e-11 -8.10283e-10 -3.05026e-09 -6.9624e-09 -9.6302e-09 2.38247e-10 4.94262e-08 1.84752e-07 4.6411e-07 9.12711e-07 1.40552e-06 1.4059e-06 -5.54153e-07 -7.79977e-06 -2.69323e-05 -6.95174e-05 -0.000153039 -0.000298687 -0.000521493 -0.000805994 -0.00105896 -0.00103096 -0.000202069 0.00236531 0.00819205 0.0195384 0.0395114 0.0720772 0.121939 0.194254 0.294186 0.42634 0.594125 0.799146 1.04071 1.31554 1.61777 1.93916 2.26964 2.59801 2.91277 3.203 3.45903 3.67314 3.84002 3.95683 4.02332 4.04159 4.01577 3.95157 3.85579 3.73607 3.60014 3.4557 3.31009 3.16997 3.04129 2.92909 2.83754 2.76984 2.72831 2.71432 2.72831 2.76984 2.83754 2.92909 3.04129 3.16997 3.31009 3.4557 3.60014 3.73607 3.85579 3.95157 4.01577 4.04159 4.02332 3.95683 3.84002 3.67314 3.45903 3.203 2.91277 2.59801 2.26964 1.93916 1.61777 1.31554 1.04071 0.799146 0.594125 0.42634 0.294186 0.194254 0.121939 0.0720772 0.0395114 0.0195384 0.00819205 0.00236531 -0.000202069 -0.00103096 -0.00105896 -0.000805994 -0.000521493 -0.000298687 -0.000153039 -6.95174e-05 -2.69323e-05 -7.79977e-06 -5.54153e-07 1.4059e-06 1.40552e-06 9.12711e-07 4.6411e-07 1.84752e-07 4.94262e-08 2.38247e-10 -9.6302e-09 -6.9624e-09 -3.05026e-09 -8.10283e-10 -1.03217e-11 1.20557e-10 7.12323e-11 2.22606e-11 2.1061e-12 -1.83387e-12 -1.1608e-12 -3.25382e-13 -1.31384e-14 3.03798e-14 1.41201e-14 2.57022e-15 -4.00254e-16 -3.95512e-16 -1.06143e-16 -1.73726e-18 8.57607e-18 2.93575e-18 2.34586e-19 -1.54892e-19 -6.24016e-20 -6.53146e-21 2.46157e-21 1.06011e-21 1.12009e-22 -3.56158e-23 -1.44591e-23 -1.28466e-24 4.6258e-25 1.55737e-25 9.05213e-27 -5.09037e-27 -1.28108e-27 -1.92665e-29 4.63264e-29 1.48843e-29 1.61295e-30 0 0 
0 0 -1.4304e-31 -2.16317e-31 8.63385e-31 1.93231e-29 5.99071e-29 -2.6185e-28 -2.68555e-27 -5.20538e-27 3.99793e-26 2.84099e-25 3.58186e-25 -4.15255e-24 -2.39204e-23 -2.32981e-23 3.15283e-22 1.65359e-21 1.71083e-21 -1.78471e-20 -9.5204e-20 -1.31748e-19 7.31392e-19 4.53111e-18 8.86405e-18 -1.83463e-17 -1.71969e-16 -4.73274e-16 -4.04439e-17 4.66462e-15 1.87053e-14 2.92217e-14 -5.59863e-14 -4.76049e-13 -1.39335e-12 -1.59956e-12 4.56418e-12 2.96774e-11 8.29085e-11 1.19615e-10 -7.59171e-11 -1.03141e-09 -3.49775e-09 -7.52085e-09 -9.76425e-09 1.57485e-09 5.3424e-08 1.91936e-07 4.74356e-07 9.30085e-07 1.45684e-06 1.59066e-06 4.95363e-08 -6.07962e-06 -2.2599e-05 -5.97582e-05 -0.000133389 -0.000263839 -0.000469415 -0.000749365 -0.00105018 -0.00120908 -0.000870874 0.000620381 0.00434585 0.011934 0.0256539 0.0484476 0.0838736 0.135939 0.208815 0.306461 0.432182 0.588179 0.775167 0.992095 1.23603 1.50224 1.78444 2.07518 2.36641 2.64998 2.9182 3.1644 3.38316 3.57071 3.72494 3.84541 3.93323 3.99079 4.02158 4.0298 4.02015 3.99748 3.9666 3.93201 3.89779 3.8674 3.84364 3.82855 3.82337 3.82855 3.84364 3.8674 3.89779 3.93201 3.9666 3.99748 4.02015 4.0298 4.02158 3.99079 3.93323 3.84541 3.72494 3.57071 3.38316 3.1644 2.9182 2.64998 2.36641 2.07518 1.78444 1.50224 1.23603 0.992095 0.775167 0.588179 0.432182 0.306461 0.208815 0.135939 0.0838736 0.0484476 0.0256539 0.011934 0.00434585 0.000620381 -0.000870874 -0.00120908 -0.00105018 -0.000749365 -0.000469415 -0.000263839 -0.000133389 -5.97582e-05 -2.2599e-05 -6.07962e-06 4.95363e-08 1.59066e-06 1.45684e-06 9.30085e-07 4.74356e-07 1.91936e-07 5.3424e-08 1.57485e-09 -9.76425e-09 -7.52085e-09 -3.49775e-09 -1.03141e-09 -7.59171e-11 1.19615e-10 8.29084e-11 2.96774e-11 4.56418e-12 -1.59956e-12 -1.39335e-12 -4.76049e-13 -5.59863e-14 2.92217e-14 1.87053e-14 4.66467e-15 -3.99952e-17 -4.7191e-16 -1.71415e-16 -1.82837e-17 8.83749e-18 4.51708e-18 7.29058e-19 -1.31377e-19 -9.49196e-20 -1.77925e-20 1.70634e-21 1.64881e-21 3.1435e-22 -2.32396e-23 -2.38532e-23 -4.14058e-24 3.57285e-25 2.83321e-25 3.98666e-26 -5.19212e-27 -2.67835e-27 -2.61146e-28 5.97192e-29 1.98269e-29 4.56183e-30 4.07489e-32 0 0 
0 0 -5.80651e-32 -3.07089e-31 -6.35485e-31 4.70833e-30 3.80744e-29 3.84882e-29 -8.21204e-28 -4.49739e-27 -5.55344e-29 9.95917e-26 4.19879e-25 -2.46121e-25 -9.02179e-24 -3.25162e-23 2.37403e-23 6.32253e-22 2.16338e-21 -8.88124e-22 -3.46982e-20 -1.24839e-19 -3.16487e-20 1.46585e-18 6.13307e-18 6.6888e-18 -4.38216e-17 -2.45667e-16 -4.96611e-16 5.81205e-16 7.22223e-15 2.28103e-14 2.29346e-14 -1.1261e-13 -6.3772e-13 -1.57541e-12 -1.14636e-12 7.39704e-12 3.70523e-11 9.27297e-11 1.1443e-10 -1.41923e-10 -1.22754e-09 -3.86282e-09 -7.95468e-09 -9.95477e-09 1.96613e-09 5.41091e-08 1.91179e-07 4.69736e-07 9.25487e-07 1.48561e-06 1.77413e-06 7.25314e-07 -4.10761e-06 -1.76358e-05 -4.86336e-05 -0.000110963 -0.000223385 -0.000405638 -0.000667269 -0.000984769 -0.00126254 -0.00127466 -0.000587796 0.00152928 0.00619788 0.0150059 0.0300475 0.0539053 0.0895597 0.140218 0.209072 0.299005 0.412279 0.550243 0.713099 0.899769 1.10787 1.3338 1.57296 1.82006 2.06943 2.3154 2.55267 2.77655 2.98325 3.16996 3.33494 3.47747 3.59781 3.697 3.77673 3.83913 3.88658 3.92157 3.94644 3.96334 3.97406 3.97995 3.98181 3.97995 3.97406 3.96334 3.94644 3.92157 3.88658 3.83913 3.77673 3.697 3.59781 3.47747 3.33494 3.16996 2.98325 2.77655 2.55267 2.3154 2.06943 1.82006 1.57296 1.3338 1.10787 0.899769 0.713099 0.550243 0.412279 0.299005 0.209072 0.140218 0.0895597 0.0539053 0.0300475 0.0150059 0.00619788 0.00152928 -0.000587796 -0.00127466 -0.00126254 -0.000984769 -0.000667269 -0.000405638 -0.000223385 -0.000110963 -4.86336e-05 -1.76358e-05 -4.10761e-06 7.25314e-07 1.77413e-06 1.48561e-06 9.25487e-07 4.69736e-07 1.91179e-07 5.41091e-08 1.96613e-09 -9.95477e-09 -7.95468e-09 -3.86282e-09 -1.22754e-09 -1.41923e-10 1.1443e-10 9.27297e-11 3.70523e-11 7.39704e-12 -1.14636e-12 -1.57541e-12 -6.3772e-13 -1.1261e-13 2.29345e-14 2.28103e-14 7.22221e-15 5.81188e-16 -4.965e-16 -2.45062e-16 -4.36879e-17 6.6686e-18 6.1139e-18 1.46118e-18 -3.15965e-20 -1.24464e-19 -3.4592e-20 -8.84594e-22 2.15712e-21 6.30382e-22 2.36579e-23 -3.24249e-23 -8.99584e-24 -2.45254e-25 4.18729e-25 9.93124e-26 -5.71366e-29 -4.48533e-27 -8.18949e-28 3.83914e-29 3.79342e-29 4.727e-30 4.70916e-31 -2.09345e-31 0 0 
0 0 -1.24665e-32 -1.40844e-31 -4.77037e-31 -8.13588e-32 1.30286e-29 5.96017e-29 -8.1254e-29 -1.83221e-27 -5.9303e-27 1.58535e-26 1.92795e-25 4.8327e-25 -1.70991e-24 -1.58617e-23 -3.47243e-23 1.2367e-22 1.04849e-21 2.30635e-21 -6.09074e-21 -5.62354e-20 -1.40062e-19 1.72984e-19 2.413e-18 7.39182e-18 1.1455e-18 -7.79672e-17 -3.18667e-16 -4.40429e-16 1.47288e-15 1.00675e-14 2.584e-14 1.10397e-14 -1.80148e-13 -7.9858e-13 -1.6918e-12 -5.1033e-13 1.03843e-11 4.38981e-11 1.00446e-10 1.07011e-10 -2.00218e-10 -1.38137e-09 -4.12409e-09 -8.25989e-09 -1.02497e-08 1.29239e-09 5.13185e-08 1.82297e-07 4.49675e-07 8.96118e-07 1.48097e-06 1.92241e-06 1.38235e-06 -2.10086e-06 -1.25148e-05 -3.70859e-05 -8.74958e-05 -0.00018028 -0.000334843 -0.000566686 -0.000872765 -0.00120579 -0.00143511 -0.00129405 -0.000316469 0.00222998 0.00740328 0.0166252 0.0316845 0.0546927 0.0879878 0.133987 0.194999 0.273015 0.369502 0.48522 0.6201 0.773177 0.942603 1.12574 1.31931 1.5196 1.72267 1.9246 2.12166 2.31055 2.48845 2.65317 2.80313 2.93732 3.05534 3.15722 3.24333 3.3143 3.37091 3.41392 3.44407 3.46192 3.46783 3.46192 3.44407 3.41392 3.37091 3.3143 3.24333 3.15722 3.05534 2.93732 2.80313 2.65317 2.48845 2.31055 2.12166 1.9246 1.72267 1.5196 1.31931 1.12574 0.942603 0.773177 0.6201 0.48522 0.369502 0.273015 0.194999 0.133987 0.0879878 0.0546927 0.0316845 0.0166252 0.00740328 0.00222998 -0.000316469 -0.00129405 -0.00143511 -0.00120579 -0.000872765 -0.000566686 -0.000334843 -0.00018028 -8.74958e-05 -3.70859e-05 -1.25148e-05 -2.10086e-06 1.38235e-06 1.92241e-06 1.48097e-06 8.96118e-07 4.49675e-07 1.82297e-07 5.13185e-08 1.29239e-09 -1.02497e-08 -8.25989e-09 -4.12409e-09 -1.38137e-09 -2.00218e-10 1.07011e-10 1.00446e-10 4.38981e-11 1.03843e-11 -5.10331e-13 -1.6918e-12 -7.9858e-13 -1.80148e-13 1.10398e-14 2.584e-14 1.00675e-14 1.47287e-15 -4.40448e-16 -3.18672e-16 -7.78103e-17 1.13644e-18 7.3681e-18 2.40525e-18 1.72378e-19 -1.39642e-19 -5.60625e-20 -6.07107e-21 2.29973e-21 1.04538e-21 1.23287e-22 -3.46279e-23 -1.5816e-23 -1.70477e-24 4.81961e-25 1.92253e-25 1.58066e-26 -5.9145e-27 -1.82718e-27 -8.10081e-29 5.94444e-29 1.29762e-29 -1.40663e-31 -3.7398e-31 -1.21873e-31 0 0 
0 0 9.75444e-34 -3.46969e-32 -1.71917e-31 -6.80472e-31 1.91538e-30 2.74037e-29 6.89663e-29 -3.88608e-28 -3.30458e-27 -5.25051e-27 4.88049e-26 3.10617e-25 3.37676e-25 -4.35306e-24 -2.36713e-23 -2.25999e-23 2.8891e-22 1.50057e-21 1.72107e-21 -1.43104e-20 -7.96729e-20 -1.27392e-19 4.96527e-19 3.48476e-18 7.8872e-18 -8.30802e-18 -1.18683e-16 -3.7957e-16 -2.87174e-16 2.59454e-15 1.29366e-14 2.7303e-14 -5.9306e-15 -2.53163e-13 -9.45147e-13 -1.73789e-12 2.2917e-13 1.32243e-11 4.96762e-11 1.05966e-10 9.99204e-11 -2.41798e-10 -1.47453e-09 -4.25699e-09 -8.41826e-09 -1.06495e-08 -4.4958e-10 4.51122e-08 1.65448e-07 4.14075e-07 8.39835e-07 1.43325e-06 2.00451e-06 1.93748e-06 -2.57338e-07 -7.66639e-06 -2.59824e-05 -6.4627e-05 -0.000137474 -0.000262165 -0.000456435 -0.000729388 -0.00106551 -0.00139972 -0.00158286 -0.00133928 -0.000220518 0.00243825 0.00755047 0.0162898 0.030073 0.0505096 0.0793164 0.118204 0.168741 0.232219 0.309516 0.401 0.506452 0.625053 0.755401 0.895579 1.04327 1.19585 1.35059 1.50472 1.65559 1.80076 1.9381 2.06579 2.18237 2.28672 2.37802 2.45573 2.51951 2.56919 2.60468 2.62598 2.63307 2.62598 2.60468 2.56919 2.51951 2.45573 2.37802 2.28672 2.18237 2.06579 1.9381 1.80076 1.65559 1.50472 1.35059 1.19585 1.04327 0.895579 0.755401 0.625053 0.506452 0.401 0.309516 0.232219 0.168741 0.118204 0.0793164 0.0505096 0.030073 0.0162898 0.00755047 0.00243825 -0.000220518 -0.00133928 -0.00158286 -0.00139972 -0.00106551 -0.000729388 -0.000456435 -0.000262165 -0.000137474 -6.4627e-05 -2.59824e-05 -7.66639e-06 -2.57338e-07 1.93748e-06 2.00451e-06 1.43325e-06 8.39835e-07 4.14075e-07 1.65448e-07 4.51122e-08 -4.4958e-10 -1.06495e-08 -8.41826e-09 -4.25699e-09 -1.47453e-09 -2.41798e-10 9.99204e-11 1.05966e-10 4.96762e-11 1.32243e-11 2.2917e-13 -1.73789e-12 -9.45148e-13 -2.53164e-13 -5.93051e-15 2.7303e-14 1.29366e-14 2.59454e-15 -2.87176e-16 -3.79579e-16 -1.18705e-16 -8.31023e-18 7.85941e-18 3.47333e-18 4.94856e-19 -1.27017e-19 -7.94266e-20 -1.4265e-20 1.71634e-21 1.4961e-21 2.88026e-22 -2.25417e-23 -2.36028e-23 -4.34014e-24 3.3682e-25 3.09742e-25 4.86637e-26 -5.23702e-27 -3.29549e-27 -3.87504e-28 6.87881e-29 2.73304e-29 1.90596e-30 -7.14712e-31 -2.63945e-31 -3.74681e-32 0 0 
0 0 2.0656e-33 -1.00554e-34 -2.84038e-32 -3.46537e-31 -6.90929e-31 6.7012e-30 4.76375e-29 3.65541e-29 -9.85988e-28 -5.01743e-27 2.26569e-28 1.04166e-25 4.2645e-25 -1.91434e-25 -8.3556e-24 -3.05529e-23 1.2468e-23 5.22762e-22 1.89352e-21 6.75963e-23 -2.55648e-20 -1.01469e-19 -7.55711e-20 9.40169e-19 4.5826e-18 7.3033e-18 -2.17752e-17 -1.63617e-16 -4.20897e-16 -3.48178e-17 3.89291e-15 1.56685e-14 2.71798e-14 -2.67027e-14 -3.27516e-13 -1.07408e-12 -1.73399e-12 9.7919e-13 1.57346e-11 5.43328e-11 1.1009e-10 9.58664e-11 -2.62268e-10 -1.50548e-09 -4.27207e-09 -8.45232e-09 -1.11344e-08 -3.00796e-09 3.63832e-08 1.42777e-07 3.66785e-07 7.61456e-07 1.34386e-06 2.0053e-06 2.32752e-06 1.24434e-06 -3.51625e-06 -1.62377e-05 -4.41849e-05 -9.84398e-05 -0.000193983 -0.000348026 -0.000575251 -0.000878496 -0.00123364 -0.00156811 -0.00173375 -0.00147613 -0.000404348 0.00203361 0.00656414 0.0140844 0.025638 0.0423687 0.065454 0.0960229 0.135067 0.183352 0.241338 0.309128 0.386425 0.472535 0.566387 0.66658 0.771451 0.879153 0.98774 1.09525 1.19976 1.29948 1.39278 1.47821 1.55452 1.62068 1.67585 1.7194 1.75083 1.76982 1.77617 1.76982 1.75083 1.7194 1.67585 1.62068 1.55452 1.47821 1.39278 1.29948 1.19976 1.09525 0.98774 0.879153 0.771451 0.66658 0.566387 0.472535 0.386425 0.309128 0.241338 0.183352 0.135067 0.0960229 0.065454 0.0423687 0.025638 0.0140844 0.00656414 0.00203361 -0.000404348 -0.00147613 -0.00173375 -0.00156811 -0.00123364 -0.000878496 -0.000575251 -0.000348026 -0.000193983 -9.84398e-05 -4.41849e-05 -1.62377e-05 -3.51625e-06 1.24434e-06 2.32752e-06 2.0053e-06 1.34386e-06 7.61456e-07 3.66785e-07 1.42777e-07 3.63832e-08 -3.00796e-09 -1.11344e-08 -8.45232e-09 -4.27207e-09 -1.50548e-09 -2.62268e-10 9.58664e-11 1.1009e-10 5.43328e-11 1.57346e-11 9.7919e-13 -1.73399e-12 -1.07408e-12 -3.27516e-13 -2.67026e-14 2.71799e-14 1.56685e-14 3.89291e-15 -3.48174e-17 -4.20897e-16 -1.6362e-16 -2.17876e-17 7.27684e-18 4.56718e-18 9.37006e-19 -7.53697e-20 -1.01154e-19 -2.54837e-20 6.81397e-23 1.88785e-21 5.21161e-22 1.24176e-23 -3.04644e-23 -8.33082e-24 -1.90696e-25 4.25249e-25 1.03865e-25 2.23875e-28 -5.00363e-27 -9.83208e-28 3.64719e-29 4.75091e-29 6.68301e-30 -6.89083e-31 -3.568e-31 -8.97648e-32 -3.97011e-33 0 0 
0 0 9.08184e-34 4.19403e-33 6.94804e-33 -9.08095e-32 -5.93316e-31 -3.63312e-32 1.57767e-29 6.90994e-29 -8.56837e-29 -1.95071e-27 -6.3364e-27 1.40488e-26 1.83228e-25 4.8787e-25 -1.29652e-24 -1.35889e-23 -3.34486e-23 7.85955e-23 8.12944e-22 2.09194e-21 -2.9415e-21 -3.92896e-20 -1.16874e-19 2.47331e-20 1.48828e-18 5.57111e-18 5.35956e-18 -3.89002e-17 -2.09299e-16 -4.35362e-16 3.09441e-16 5.28656e-15 1.80728e-14 2.55272e-14 -4.95944e-14 -3.98036e-13 -1.17998e-12 -1.69648e-12 1.65015e-12 1.77053e-11 5.76239e-11 1.12944e-10 9.60443e-11 -2.58846e-10 -1.46974e-09 -4.15983e-09 -8.32707e-09 -1.15758e-08 -6.00362e-09 2.60278e-08 1.16002e-07 3.10429e-07 6.63715e-07 1.21263e-06 1.9139e-06 2.51358e-06 2.30245e-06 -2.95549e-07 -8.33673e-06 -2.71439e-05 -6.51055e-05 -0.000134129 -0.000249145 -0.000425833 -0.000675622 -0.000997103 -0.00136339 -0.00170558 -0.00189357 -0.00171618 -0.000863818 0.00108298 0.00465552 0.0104868 0.0192879 0.0318109 0.0488014 0.0709436 0.0988039 0.132778 0.173046 0.219545 0.271951 0.329683 0.391925 0.457651 0.525676 0.5947 0.663364 0.730298 0.794159 0.853684 0.907714 0.955216 0.995304 1.02724 1.05047 1.06457 1.0693 1.06457 1.05047 1.02724 0.995304 0.955216 0.907714 0.853684 0.794159 0.730298 0.663364 0.5947 0.525676 0.457651 0.391925 0.329683 0.271951 0.219545 0.173046 0.132778 0.0988039 0.0709436 0.0488014 0.0318109 0.0192879 0.0104868 0.00465552 0.00108298 -0.000863818 -0.00171618 -0.00189357 -0.00170558 -0.00136339 -0.000997103 -0.000675622 -0.000425833 -0.000249145 -0.000134129 -6.51055e-05 -2.71439e-05 -8.33673e-06 -2.95549e-07 2.30245e-06 2.51358e-06 1.9139e-06 1.21263e-06 6.63715e-07 3.10429e-07 1.16002e-07 2.60278e-08 -6.00362e-09 -1.15758e-08 -8.32707e-09 -4.15983e-09 -1.46974e-09 -2.58846e-10 9.60443e-11 1.12944e-10 5.76239e-11 1.77053e-11 1.65015e-12 -1.69648e-12 -1.17998e-12 -3.98036e-13 -4.95943e-14 2.55273e-14 1.80728e-14 5.28656e-15 3.09442e-16 -4.35362e-16 -2.09299e-16 -3.89002e-17 5.35562e-18 5.55582e-18 1.48346e-18 2.46113e-20 -1.16509e-19 -3.91642e-20 -2.93129e-21 2.08568e-21 8.10443e-22 7.83394e-23 -3.33522e-23 -1.35484e-23 -1.29245e-24 4.86504e-25 1.82698e-25 1.40055e-26 -6.31904e-27 -1.94521e-27 -8.54138e-29 6.89133e-29 1.57331e-29 -3.63515e-32 -5.91203e-31 -9.17753e-32 -1.26457e-32 2.58154e-33 0 0 
0 0 1.9539e-34 2.03782e-33 6.75748e-33 -2.89551e-33 -2.08668e-31 -8.34787e-31 2.01136e-30 3.01366e-29 7.99626e-29 -3.58729e-28 -3.2689e-27 -6.12592e-27 3.97637e-26 2.79411e-25 4.19366e-25 -3.12447e-24 -1.94757e-23 -2.86017e-23 1.80282e-22 1.12829e-21 1.94732e-21 -7.42351e-21 -5.42836e-20 -1.20988e-19 1.77046e-19 2.10542e-18 6.30552e-18 1.94401e-18 -5.87154e-17 -2.51791e-16 -4.19342e-16 7.22945e-16 6.67231e-15 1.99987e-14 2.26632e-14 -7.23776e-14 -4.59351e-13 -1.25923e-12 -1.64598e-12 2.15285e-12 1.89456e-11 5.93222e-11 1.1448e-10 1.00753e-10 -2.31225e-10 -1.3673e-09 -3.91562e-09 -8.00638e-09 -1.18244e-08 -8.99059e-09 1.51129e-08 8.72711e-08 2.48717e-07 5.52073e-07 1.04601e-06 1.73479e-06 2.49063e-06 2.88594e-06 1.90459e-06 -2.50155e-06 -1.40105e-05 -3.8607e-05 -8.51441e-05 -0.000165443 -0.00029344 -0.000482791 -0.000742379 -0.00106934 -0.0014396 -0.00179649 -0.00203849 -0.00200785 -0.00148207 -0.00017041 0.00228286 0.00628726 0.0122868 0.0207338 0.0320567 0.0466263 0.0647224 0.0865037 0.111985 0.141024 0.173314 0.208394 0.245662 0.284394 0.323779 0.362945 0.400995 0.437042 0.470228 0.499766 0.524952 0.545187 0.559991 0.569016 0.572049 0.569016 0.559991 0.545187 0.524952 0.499766 0.470228 0.437042 0.400995 0.362945 0.323779 0.284394 0.245662 0.208394 0.173314 0.141024 0.111985 0.0865037 0.0647224 0.0466263 0.0320567 0.0207338 0.0122868 0.00628726 0.00228286 -0.00017041 -0.00148207 -0.00200785 -0.00203849 -0.00179649 -0.0014396 -0.00106934 -0.000742379 -0.000482791 -0.00029344 -0.000165443 -8.51441e-05 -3.8607e-05 -1.40105e-05 -2.50155e-06 1.90459e-06 2.88594e-06 2.49063e-06 1.73479e-06 1.04601e-06 5.52073e-07 2.48717e-07 8.72711e-08 1.51129e-08 -8.99059e-09 -1.18244e-08 -8.00638e-09 -3.91562e-09 -1.3673e-09 -2.31225e-10 1.00753e-10 1.1448e-10 5.93222e-11 1.89456e-11 2.15285e-12 -1.64598e-12 -1.25923e-12 -4.59351e-13 -7.23776e-14 2.26632e-14 1.99987e-14 6.67231e-15 7.22945e-16 -4.19342e-16 -2.51792e-16 -5.87153e-17 1.94432e-18 6.30509e-18 2.10057e-18 1.76564e-19 -1.20599e-19 -5.41085e-20 -7.39867e-21 1.94156e-21 1.1248e-21 1.79706e-22 -2.85215e-23 -1.94174e-23 -3.11484e-24 4.18227e-25 2.786e-25 3.96445e-26 -6.10951e-27 -3.25965e-27 -3.57672e-28 7.97496e-29 3.00531e-29 2.00543e-30 -8.32566e-31 -2.07855e-31 -2.15898e-33 4.48755e-33 1.70984e-33 0 0 
0 0 -1.08045e-35 4.76673e-34 2.37771e-33 9.07015e-33 -3.03365e-32 -3.94568e-31 -8.91081e-31 6.37342e-30 4.91901e-29 5.98079e-29 -8.40354e-28 -4.76696e-27 -2.83622e-27 7.95739e-26 3.75953e-25 1.35937e-25 -5.70679e-24 -2.49818e-23 -1.24308e-23 3.15885e-22 1.42194e-21 1.33499e-21 -1.32558e-20 -6.8889e-20 -1.09973e-19 3.77105e-19 2.74005e-18 6.66729e-18 -2.82341e-18 -7.97433e-17 -2.87491e-16 -3.74354e-16 1.16942e-15 7.94098e-15 2.13643e-14 1.9133e-14 -9.2593e-14 -5.06606e-13 -1.31013e-12 -1.60274e-12 2.4151e-12 1.9317e-11 5.92503e-11 1.14448e-10 1.09169e-10 -1.82311e-10 -1.20477e-09 -3.54509e-09 -7.46632e-09 -1.17393e-08 -1.15138e-08 4.77565e-09 5.89957e-08 1.86185e-07 4.34317e-07 8.56414e-07 1.48656e-06 2.28505e-06 3.03011e-06 3.12648e-06 1.30279e-06 -4.81463e-06 -1.92223e-05 -4.8058e-05 -9.99308e-05 -0.000185783 -0.000317941 -0.000507997 -0.000763265 -0.00108173 -0.00144568 -0.00181464 -0.00211838 -0.00225121 -0.00206876 -0.00138832 6.48171e-06 0.00235627 0.00591222 0.0109188 0.0175946 0.0261122 0.0365806 0.0490296 0.0633994 0.0795361 0.0971919 0.116032 0.135648 0.15557 0.175291 0.194283 0.212022 0.228004 0.241771 0.252921 0.261129 0.266153 0.267844 0.266153 0.261129 0.252921 0.241771 0.228004 0.212022 0.194283 0.175291 0.15557 0.135648 0.116032 0.0971919 0.0795361 0.0633994 0.0490296 0.0365806 0.0261122 0.0175946 0.0109188 0.00591222 0.00235627 6.48171e-06 -0.00138832 -0.00206876 -0.00225121 -0.00211838 -0.00181464 -0.00144568 -0.00108173 -0.000763265 -0.000507997 -0.000317941 -0.000185783 -9.99308e-05 -4.8058e-05 -1.92223e-05 -4.81463e-06 1.30279e-06 3.12648e-06 3.03011e-06 2.28505e-06 1.48656e-06 8.56414e-07 4.34317e-07 1.86185e-07 5.89957e-08 4.77565e-09 -1.15138e-08 -1.17393e-08 -7.46632e-09 -3.54509e-09 -1.20477e-09 -1.82311e-10 1.09169e-10 1.14448e-10 5.92503e-11 1.9317e-11 2.4151e-12 -1.60274e-12 -1.31013e-12 -5.06607e-13 -9.2593e-14 1.9133e-14 2.13643e-14 7.94098e-15 1.16942e-15 -3.74355e-16 -2.87492e-16 -7.97433e-17 -2.82338e-18 6.66746e-18 2.74037e-18 3.76596e-19 -1.09562e-19 -6.86607e-20 -1.32114e-20 1.33128e-21 1.41752e-21 3.14878e-22 -1.24025e-23 -2.49067e-23 -5.68921e-24 1.35686e-25 3.74857e-25 7.93361e-26 -2.82993e-27 -4.75343e-27 -8.37902e-28 5.96582e-29 4.90535e-29 6.35515e-30 -8.88773e-31 -3.935e-31 -3.01957e-32 9.52234e-33 3.53662e-33 5.05057e-34 0 0 
0 0 -2.55641e-35 -5.51059e-36 3.37592e-34 4.43772e-33 9.23501e-33 -8.82852e-32 -6.38687e-31 -4.51025e-31 1.39076e-29 6.96057e-29 -1.86608e-29 -1.5597e-27 -6.07277e-27 5.18228e-27 1.32876e-25 4.46669e-25 -4.33936e-25 -8.90722e-24 -2.87708e-23 1.73976e-23 4.76495e-22 1.64028e-21 1.90931e-22 -2.00655e-20 -8.1323e-20 -8.20335e-20 6.12291e-19 3.33366e-18 6.5942e-18 -8.58008e-18 -1.00212e-16 -3.13804e-16 -3.07178e-16 1.60398e-15 8.99225e-15 2.21603e-14 1.56028e-14 -1.07923e-13 -5.35956e-13 -1.33207e-12 -1.58109e-12 2.39646e-12 1.87568e-11 5.73055e-11 1.12422e-10 1.19379e-10 -1.18198e-10 -9.95742e-10 -3.06724e-09 -6.70705e-09 -1.12226e-08 -1.31913e-08 -3.95231e-09 3.35055e-08 1.2755e-07 3.19351e-07 6.59972e-07 1.19784e-06 1.94728e-06 2.82342e-06 3.52333e-06 3.33213e-06 8.39279e-07 -6.42892e-06 -2.24177e-05 -5.28995e-05 -0.000105628 -0.000190097 -0.00031669 -0.000495057 -0.000731617 -0.00102626 -0.0013685 -0.00173347 -0.00207842 -0.00234031 -0.00243516 -0.00225967 -0.00169532 -0.000615016 0.00110827 0.00359132 0.00693004 0.0111892 0.0163935 0.0225214 0.0295011 0.0372103 0.0454797 0.0540983 0.0628229 0.071389 0.0795228 0.0869537 0.093428 0.0987194 0.102641 0.105051 0.105865 0.105051 0.102641 0.0987194 0.093428 0.0869537 0.0795228 0.071389 0.0628229 0.0540983 0.0454797 0.0372103 0.0295011 0.0225214 0.0163935 0.0111892 0.00693004 0.00359132 0.00110827 -0.000615016 -0.00169532 -0.00225967 -0.00243516 -0.00234031 -0.00207842 -0.00173347 -0.0013685 -0.00102626 -0.000731617 -0.000495057 -0.00031669 -0.000190097 -0.000105628 -5.28995e-05 -2.24177e-05 -6.42892e-06 8.39279e-07 3.33213e-06 3.52333e-06 2.82342e-06 1.94728e-06 1.19784e-06 6.59972e-07 3.19351e-07 1.2755e-07 3.35055e-08 -3.95231e-09 -1.31913e-08 -1.12226e-08 -6.70705e-09 -3.06724e-09 -9.95742e-10 -1.18198e-10 1.19379e-10 1.12422e-10 5.73055e-11 1.87568e-11 2.39646e-12 -1.58109e-12 -1.33207e-12 -5.35956e-13 -1.07923e-13 1.56028e-14 2.21603e-14 8.99225e-15 1.60398e-15 -3.07178e-16 -3.13804e-16 -1.00212e-16 -8.5801e-18 6.59418e-18 3.33371e-18 6.12516e-19 -8.16494e-20 -8.10412e-20 -1.99973e-20 1.91096e-22 1.63515e-21 4.74969e-22 1.73299e-23 -2.86841e-23 -8.87967e-24 -4.32406e-25 4.45367e-25 1.32478e-25 5.16417e-27 -6.05552e-27 -1.55515e-27 -1.85761e-29 6.94123e-29 1.38679e-29 -4.50031e-31 -6.36945e-31 -8.80417e-32 9.20957e-33 4.56178e-33 1.10794e-33 4.27218e-35 0 0 
0 0 -9.82236e-36 -5.11813e-35 -1.00241e-34 9.87972e-34 7.25625e-33 2.93993e-33 -1.88546e-31 -8.90974e-31 9.03535e-31 2.49927e-29 8.46648e-29 -1.83696e-28 -2.49006e-27 -6.64183e-27 1.91724e-26 1.95288e-25 4.60657e-25 -1.32204e-24 -1.2412e-23 -2.9506e-23 6.10301e-23 6.46801e-22 1.73549e-21 -1.46282e-21 -2.72815e-20 -9.00151e-20 -3.81089e-20 8.62945e-19 3.83148e-18 6.09858e-18 -1.47627e-17 -1.18327e-16 -3.29542e-16 -2.28706e-16 1.97984e-15 9.7461e-15 2.24331e-14 1.27191e-14 -1.16549e-13 -5.44883e-13 -1.32464e-12 -1.58509e-12 2.09786e-12 1.72947e-11 5.34947e-11 1.07907e-10 1.28728e-10 -4.7384e-11 -7.5984e-10 -2.51497e-09 -5.76043e-09 -1.02478e-08 -1.37915e-08 -1.03242e-08 1.2662e-08 7.6911e-08 2.15614e-07 4.7343e-07 9.0124e-07 1.54011e-06 2.38542e-06 3.31851e-06 3.99098e-06 3.64894e-06 8.94332e-07 -6.60123e-06 -2.23869e-05 -5.14521e-05 -0.000100272 -0.000176562 -0.00028863 -0.000444258 -0.000649121 -0.000904825 -0.00120678 -0.00154216 -0.00188836 -0.00221216 -0.00247005 -0.00260977 -0.00257317 -0.00230017 -0.00173369 -0.000824862 0.00046168 0.00214322 0.00421541 0.00665015 0.00939518 0.0123755 0.0154963 0.0186479 0.0217109 0.0245634 0.0270871 0.0291748 0.0307355 0.0317006 0.0320272 0.0317006 0.0307355 0.0291748 0.0270871 0.0245634 0.0217109 0.0186479 0.0154963 0.0123755 0.00939518 0.00665015 0.00421541 0.00214322 0.00046168 -0.000824862 -0.00173369 -0.00230017 -0.00257317 -0.00260977 -0.00247005 -0.00221216 -0.00188836 -0.00154216 -0.00120678 -0.000904825 -0.000649121 -0.000444258 -0.00028863 -0.000176562 -0.000100272 -5.14521e-05 -2.23869e-05 -6.60123e-06 8.94332e-07 3.64894e-06 3.99098e-06 3.31851e-06 2.38542e-06 1.54011e-06 9.0124e-07 4.7343e-07 2.15614e-07 7.6911e-08 1.2662e-08 -1.03242e-08 -1.37915e-08 -1.02478e-08 -5.76043e-09 -2.51497e-09 -7.5984e-10 -4.7384e-11 1.28728e-10 1.07907e-10 5.34947e-11 1.72947e-11 2.09786e-12 -1.58509e-12 -1.32464e-12 -5.44882e-13 -1.16549e-13 1.27191e-14 2.24331e-14 9.74609e-15 1.97983e-15 -2.28706e-16 -3.29542e-16 -1.18327e-16 -1.47627e-17 6.09858e-18 3.83146e-18 8.62948e-19 -3.80347e-20 -8.97525e-20 -2.71906e-20 -1.4572e-21 1.73004e-21 6.44715e-22 6.08203e-23 -2.94171e-23 -1.23734e-23 -1.31771e-24 4.59321e-25 1.947e-25 1.91114e-26 -6.62307e-27 -2.48277e-27 -1.8312e-28 8.443e-29 2.49213e-29 9.00573e-31 -8.88542e-31 -1.88017e-31 2.93368e-33 7.23038e-33 9.95318e-34 1.14934e-34 -3.31501e-35 0 0 
0 0 -1.56659e-36 -2.06071e-35 -7.50267e-35 -2.75613e-35 2.13271e-33 1.01724e-32 -1.53958e-32 -3.36502e-31 -1.05062e-30 3.60629e-30 3.9076e-29 8.4773e-29 -4.5503e-28 -3.5321e-27 -5.86601e-27 3.94178e-26 2.58751e-25 3.90289e-25 -2.50028e-24 -1.57768e-23 -2.62196e-23 1.15976e-22 8.07948e-22 1.67807e-21 -3.51172e-21 -3.42205e-20 -9.39262e-20 1.78996e-20 1.10534e-18 4.19241e-18 5.26828e-18 -2.06944e-17 -1.32532e-16 -3.34949e-16 -1.51783e-16 2.25549e-15 1.01495e-14 2.22554e-14 1.0967e-14 -1.17445e-13 -5.32415e-13 -1.28717e-12 -1.60683e-12 1.56422e-12 1.50594e-11 4.79753e-11 1.00526e-10 1.34413e-10 2.06276e-11 -5.20209e-10 -1.9322e-09 -4.69026e-09 -8.87179e-09 -1.3279e-08 -1.40054e-08 -2.44921e-09 3.70539e-08 1.29558e-07 3.10936e-07 6.26746e-07 1.12546e-06 1.84088e-06 2.7563e-06 3.74082e-06 4.4489e-06 4.17767e-06 1.68587e-06 -5.00786e-06 -1.88124e-05 -4.3685e-05 -8.46233e-05 -0.000147464 -0.000238444 -0.000363499 -0.000527343 -0.000732394 -0.000977677 -0.00125788 -0.00156272 -0.00187677 -0.00217987 -0.0024482 -0.00265586 -0.00277701 -0.00278819 -0.00267076 -0.00241308 -0.0020122 -0.00147505 -0.000818537 -6.91519e-05 0.000738526 0.00156388 0.00236298 0.00309149 0.00370787 0.0041762 0.00446886 0.00456839 0.00446886 0.0041762 0.00370787 0.00309149 0.00236298 0.00156388 0.000738526 -6.91519e-05 -0.000818537 -0.00147505 -0.0020122 -0.00241308 -0.00267076 -0.00278819 -0.00277701 -0.00265586 -0.0024482 -0.00217987 -0.00187677 -0.00156272 -0.00125788 -0.000977677 -0.000732394 -0.000527343 -0.000363499 -0.000238444 -0.000147464 -8.46233e-05 -4.3685e-05 -1.88124e-05 -5.00786e-06 1.68587e-06 4.17767e-06 4.4489e-06 3.74082e-06 2.7563e-06 1.84088e-06 1.12546e-06 6.26746e-07 3.10936e-07 1.29558e-07 3.70539e-08 -2.44921e-09 -1.40054e-08 -1.3279e-08 -8.87179e-09 -4.69026e-09 -1.9322e-09 -5.20209e-10 2.06276e-11 1.34413e-10 1.00526e-10 4.79753e-11 1.50594e-11 1.56422e-12 -1.60683e-12 -1.28717e-12 -5.32415e-13 -1.17445e-13 1.0967e-14 2.22554e-14 1.01495e-14 2.25549e-15 -1.51783e-16 -3.34949e-16 -1.32532e-16 -2.06944e-17 5.26827e-18 4.19241e-18 1.10533e-18 1.78952e-20 -9.39172e-20 -3.41382e-20 -3.50146e-21 1.67261e-21 8.05306e-22 1.15583e-22 -2.61414e-23 -1.57274e-23 -2.49219e-24 3.8918e-25 2.57967e-25 3.92943e-26 -5.84982e-27 -3.52171e-27 -4.5364e-28 8.45414e-29 3.89639e-29 3.59542e-30 -1.04777e-30 -3.35557e-31 -1.53481e-32 1.0145e-32 2.1244e-33 -3.65676e-35 -6.08616e-35 -1.78012e-35 0 0 
0 0 2.79968e-37 -3.43743e-36 -2.05591e-35 -1.04285e-34 1.71521e-34 3.85451e-33 1.19294e-32 -5.17521e-32 -5.24482e-31 -9.72643e-31 7.95532e-30 5.43965e-29 5.94712e-29 -8.33697e-28 -4.51961e-27 -3.24774e-27 6.48634e-26 3.12981e-25 2.20153e-25 -3.87558e-24 -1.85231e-23 -1.86269e-23 1.77353e-22 9.41609e-22 1.46556e-21 -5.7628e-21 -4.01965e-20 -9.28239e-20 7.96573e-20 1.31558e-18 4.39544e-18 4.24869e-18 -2.56975e-17 -1.41707e-16 -3.31374e-16 -8.85287e-17 2.40103e-15 1.01786e-14 2.16949e-14 1.05598e-14 -1.10558e-13 -4.99293e-13 -1.21897e-12 -1.62818e-12 8.78596e-13 1.22718e-11 4.10837e-11 9.02232e-11 1.34177e-10 7.70973e-11 -2.99883e-10 -1.36762e-09 -3.58346e-09 -7.22654e-09 -1.18152e-08 -1.51091e-08 -1.16584e-08 9.04336e-09 6.46117e-08 1.81613e-07 3.96362e-07 7.5309e-07 1.29676e-06 2.05633e-06 3.0131e-06 4.04804e-06 4.86387e-06 4.88104e-06 3.11391e-06 -1.95781e-06 -1.24978e-05 -3.13705e-05 -6.21126e-05 -0.000108789 -0.000175715 -0.000267053 -0.000386304 -0.000535751 -0.00071593 -0.00092519 -0.00115947 -0.00141225 -0.00167489 -0.00193713 -0.0021879 -0.00241626 -0.00261236 -0.00276845 -0.00287962 -0.0029443 -0.00296451 -0.00294567 -0.00289611 -0.00282627 -0.00274769 -0.00267192 -0.00260938 -0.00256831 -0.00255401 -0.00256831 -0.00260938 -0.00267192 -0.00274769 -0.00282627 -0.00289611 -0.00294567 -0.00296451 -0.0029443 -0.00287962 -0.00276845 -0.00261236 -0.00241626 -0.0021879 -0.00193713 -0.00167489 -0.00141225 -0.00115947 -0.00092519 -0.00071593 -0.000535751 -0.000386304 -0.000267053 -0.000175715 -0.000108789 -6.21126e-05 -3.13705e-05 -1.24978e-05 -1.95781e-06 3.11391e-06 4.88104e-06 4.86387e-06 4.04804e-06 3.0131e-06 2.05633e-06 1.29676e-06 7.5309e-07 3.96362e-07 1.81613e-07 6.46117e-08 9.04336e-09 -1.16584e-08 -1.51091e-08 -1.18152e-08 -7.22654e-09 -3.58346e-09 -1.36762e-09 -2.99883e-10 7.70973e-11 1.34177e-10 9.02232e-11 4.10837e-11 1.22718e-11 8.78596e-13 -1.62818e-12 -1.21897e-12 -4.99293e-13 -1.10558e-13 1.05598e-14 2.16949e-14 1.01786e-14 2.40102e-15 -8.85281e-17 -3.31374e-16 -1.41707e-16 -2.56976e-17 4.24869e-18 4.39544e-18 1.31558e-18 7.96567e-20 -9.28264e-20 -4.02009e-20 -5.75446e-21 1.4599e-21 9.38432e-22 1.76749e-22 -1.85739e-23 -1.84646e-23 -3.86303e-24 2.19592e-25 3.12026e-25 6.46604e-26 -3.2398e-27 -4.50625e-27 -8.31162e-28 5.93189e-29 5.42398e-29 7.93166e-30 -9.70073e-31 -5.23004e-31 -5.16e-32 1.18977e-32 3.84394e-33 1.70625e-34 -1.08541e-34 -3.49285e-35 -3.98644e-36 0 0 
0 0 2.40213e-37 4.95911e-37 -1.20887e-36 -3.76231e-35 -1.25697e-34 5.77103e-34 6.08394e-33 1.06479e-32 -1.10457e-31 -7.27326e-31 -4.9793e-31 1.39473e-29 6.80962e-29 6.25866e-31 -1.29542e-27 -5.25236e-27 1.41472e-27 9.31009e-26 3.47956e-25 -4.62694e-26 -5.30377e-24 -2.02541e-23 -7.27218e-24 2.388e-22 1.03399e-21 1.12334e-21 -7.97446e-21 -4.46526e-20 -8.73222e-20 1.39526e-19 1.47349e-18 4.44066e-18 3.21077e-18 -2.92077e-17 -1.45269e-16 -3.20699e-16 -4.77998e-17 2.40253e-15 9.8382e-15 2.07922e-14 1.13912e-14 -9.68535e-14 -4.48042e-13 -1.12031e-12 -1.62559e-12 1.47686e-13 9.2196e-12 3.33304e-11 7.73962e-11 1.269e-10 1.1576e-10 -1.17777e-10 -8.6635e-10 -2.53388e-09 -5.48969e-09 -9.71026e-09 -1.41288e-08 -1.56431e-08 -7.78149e-09 2.09013e-08 8.85217e-08 2.21275e-07 4.53809e-07 8.2722e-07 1.38256e-06 2.14687e-06 3.10845e-06 4.17818e-06 5.13535e-06 5.5597e-06 4.75538e-06 1.6774e-06 -5.12383e-06 -1.75231e-05 -3.77884e-05 -6.84856e-05 -0.000112314 -0.00017188 -0.000249435 -0.000346588 -0.000464057 -0.000601467 -0.000757248 -0.000928647 -0.00111186 -0.00130227 -0.00149477 -0.00168417 -0.00186553 -0.00203455 -0.00218779 -0.00232284 -0.00243835 -0.00253395 -0.00261002 -0.00266746 -0.00270739 -0.00273086 -0.0027386 -0.00273086 -0.00270739 -0.00266746 -0.00261002 -0.00253395 -0.00243835 -0.00232284 -0.00218779 -0.00203455 -0.00186553 -0.00168417 -0.00149477 -0.00130227 -0.00111186 -0.000928647 -0.000757248 -0.000601467 -0.000464057 -0.000346588 -0.000249435 -0.00017188 -0.000112314 -6.84856e-05 -3.77884e-05 -1.75231e-05 -5.12383e-06 1.6774e-06 4.75538e-06 5.5597e-06 5.13535e-06 4.17818e-06 3.10845e-06 2.14687e-06 1.38256e-06 8.2722e-07 4.53809e-07 2.21275e-07 8.85217e-08 2.09013e-08 -7.78149e-09 -1.56431e-08 -1.41288e-08 -9.71026e-09 -5.48969e-09 -2.53388e-09 -8.6635e-10 -1.17777e-10 1.1576e-10 1.269e-10 7.73962e-11 3.33304e-11 9.2196e-12 1.47686e-13 -1.62559e-12 -1.12031e-12 -4.48042e-13 -9.68536e-14 1.13912e-14 2.07921e-14 9.8382e-15 2.40253e-15 -4.77995e-17 -3.20699e-16 -1.45269e-16 -2.92077e-17 3.21076e-18 4.44066e-18 1.47349e-18 1.39526e-19 -8.73222e-20 -4.46533e-20 -7.97739e-21 1.11805e-21 1.03033e-21 2.37971e-22 -7.25776e-24 -2.01895e-23 -5.28649e-24 -4.5968e-26 3.46889e-25 9.28083e-26 1.40794e-27 -5.23676e-27 -1.29147e-27 6.5526e-31 6.78993e-29 1.39058e-29 -4.96811e-31 -7.2527e-31 -1.10135e-31 1.06204e-32 6.06708e-33 5.75473e-34 -1.253e-34 -3.84581e-35 -7.96559e-36 3.95107e-38 0 0 
0 0 6.34935e-38 4.63113e-37 1.27902e-36 -5.02666e-36 -6.10964e-35 -1.15847e-34 1.24806e-33 8.53181e-33 4.19089e-33 -1.91804e-31 -9.0354e-31 4.97111e-31 2.11679e-29 7.68083e-29 -9.42062e-29 -1.7913e-27 -5.54902e-27 7.90212e-27 1.20788e-25 3.56672e-25 -3.84949e-25 -6.6193e-24 -2.07534e-23 6.54879e-24 2.93731e-22 1.07786e-21 6.9964e-22 -9.89962e-21 -4.72487e-20 -7.87066e-20 1.90004e-19 1.56546e-18 4.34545e-18 2.31306e-18 -3.08631e-17 -1.43171e-16 -3.04752e-16 -3.3414e-17 2.26396e-15 9.15934e-15 1.9556e-14 1.30636e-14 -7.81814e-14 -3.82916e-13 -9.93707e-13 -1.57706e-12 -5.1872e-13 6.21585e-12 2.53496e-11 6.29167e-11 1.12919e-10 1.33987e-10 1.46024e-11 -4.61725e-10 -1.62343e-09 -3.84391e-09 -7.34175e-09 -1.17882e-08 -1.56755e-08 -1.54258e-08 -4.25429e-09 2.91484e-08 1.01958e-07 2.38267e-07 4.69232e-07 8.31334e-07 1.36129e-06 2.08585e-06 3.00465e-06 4.06488e-06 5.12777e-06 5.92874e-06 6.03573e-06 4.81225e-06 1.39338e-06 -5.31633e-06 -1.66159e-05 -3.39477e-05 -5.88043e-05 -9.26081e-05 -0.000136575 -0.000191577 -0.00025802 -0.000335751 -0.000424013 -0.000521445 -0.000626141 -0.000735743 -0.000847581 -0.000958817 -0.0010666 -0.00116822 -0.00126118 -0.00134333 -0.00141285 -0.00146832 -0.00150867 -0.00153317 -0.00154137 -0.00153317 -0.00150867 -0.00146832 -0.00141285 -0.00134333 -0.00126118 -0.00116822 -0.0010666 -0.000958817 -0.000847581 -0.000735743 -0.000626141 -0.000521445 -0.000424013 -0.000335751 -0.00025802 -0.000191577 -0.000136575 -9.26081e-05 -5.88043e-05 -3.39477e-05 -1.66159e-05 -5.31633e-06 1.39338e-06 4.81225e-06 6.03573e-06 5.92874e-06 5.12777e-06 4.06488e-06 3.00465e-06 2.08585e-06 1.36129e-06 8.31334e-07 4.69232e-07 2.38267e-07 1.01958e-07 2.91484e-08 -4.25429e-09 -1.54258e-08 -1.56755e-08 -1.17882e-08 -7.34175e-09 -3.84391e-09 -1.62343e-09 -4.61725e-10 1.46024e-11 1.33987e-10 1.12919e-10 6.29167e-11 2.53496e-11 6.21585e-12 -5.1872e-13 -1.57706e-12 -9.93707e-13 -3.82916e-13 -7.81814e-14 1.30636e-14 1.9556e-14 9.15933e-15 2.26396e-15 -3.34145e-17 -3.04753e-16 -1.43171e-16 -3.08631e-17 2.31306e-18 4.34545e-18 1.56546e-18 1.90004e-19 -7.87066e-20 -4.72486e-20 -9.89964e-21 6.98825e-22 1.0747e-21 2.92738e-22 6.5186e-24 -2.06865e-23 -6.59752e-24 -3.83535e-25 3.55572e-25 1.20406e-25 7.87467e-27 -5.53249e-27 -1.78581e-27 -9.38829e-29 7.65858e-29 2.11048e-29 4.95216e-31 -9.00981e-31 -1.91245e-31 4.18283e-33 8.50809e-33 1.24448e-33 -1.15545e-34 -6.08743e-35 -4.98022e-36 -2.25099e-39 3.41356e-37 0 0 
0 0 3.34497e-39 1.21759e-37 5.41803e-37 1.23145e-36 -1.14997e-35 -8.79353e-35 -4.97733e-35 2.19887e-33 1.06906e-32 -9.1846e-33 -2.90349e-31 -1.0037e-30 2.04683e-30 2.88041e-29 7.75979e-29 -2.19609e-28 -2.25699e-27 -5.30243e-27 1.55669e-26 1.44393e-25 3.37144e-25 -7.55586e-25 -7.67136e-24 -2.00324e-23 2.1054e-23 3.36416e-22 1.07306e-21 2.56424e-22 -1.13293e-20 -4.78931e-20 -6.85965e-20 2.25115e-19 1.58589e-18 4.13718e-18 1.66838e-18 -3.0555e-17 -1.35842e-16 -2.84871e-16 -4.35645e-17 2.00628e-15 8.19701e-15 1.79783e-14 1.49902e-14 -5.69896e-14 -3.0958e-13 -8.44996e-13 -1.46898e-12 -1.0299e-12 3.54715e-12 1.78041e-11 4.79963e-11 9.39311e-11 1.33049e-10 9.47496e-11 -1.69711e-10 -9.06096e-10 -2.437e-09 -5.0647e-09 -8.85562e-09 -1.32698e-08 -1.6611e-08 -1.52913e-08 -2.92616e-09 3.06858e-08 1.00574e-07 2.27351e-07 4.37285e-07 7.61031e-07 1.23018e-06 1.87063e-06 2.69209e-06 3.67327e-06 4.7433e-06 5.76104e-06 6.49473e-06 6.60598e-06 5.64196e-06 3.03973e-06 -1.85428e-06 -9.74908e-06 -2.13591e-05 -3.73432e-05 -5.82384e-05 -8.43959e-05 -0.000115925 -0.000152656 -0.000194117 -0.000239542 -0.000287896 -0.000337919 -0.000388193 -0.000437209 -0.000483438 -0.000525412 -0.000561778 -0.000591359 -0.000613199 -0.000626591 -0.000631104 -0.000626591 -0.000613199 -0.000591359 -0.000561778 -0.000525412 -0.000483438 -0.000437209 -0.000388193 -0.000337919 -0.000287896 -0.000239542 -0.000194117 -0.000152656 -0.000115925 -8.43959e-05 -5.82384e-05 -3.73432e-05 -2.13591e-05 -9.74908e-06 -1.85428e-06 3.03973e-06 5.64196e-06 6.60598e-06 6.49473e-06 5.76104e-06 4.7433e-06 3.67327e-06 2.69209e-06 1.87063e-06 1.23018e-06 7.61031e-07 4.37285e-07 2.27351e-07 1.00574e-07 3.06858e-08 -2.92616e-09 -1.52913e-08 -1.6611e-08 -1.32698e-08 -8.85562e-09 -5.0647e-09 -2.437e-09 -9.06096e-10 -1.69711e-10 9.47496e-11 1.33049e-10 9.39311e-11 4.79963e-11 1.78041e-11 3.54715e-12 -1.0299e-12 -1.46898e-12 -8.44996e-13 -3.0958e-13 -5.69896e-14 1.49902e-14 1.79783e-14 8.19701e-15 2.00628e-15 -4.35648e-17 -2.84871e-16 -1.35842e-16 -3.0555e-17 1.66838e-18 4.13718e-18 1.58589e-18 2.25115e-19 -6.85965e-20 -4.78932e-20 -1.13293e-20 2.56476e-22 1.07301e-21 3.35624e-22 2.1001e-23 -1.99651e-23 -7.64568e-24 -7.52923e-25 3.36098e-25 1.43931e-25 1.55146e-26 -5.28663e-27 -2.25002e-27 -2.18892e-28 7.73734e-29 2.87177e-29 2.04022e-30 -1.00086e-30 -2.89501e-31 -9.15285e-33 1.06609e-32 2.19258e-33 -4.96742e-35 -8.76949e-35 -1.14534e-35 1.31248e-36 6.23529e-37 1.14791e-37 0 0 
0 0 -3.49455e-39 6.31042e-39 8.52949e-38 7.90019e-37 7.43602e-37 -2.10207e-35 -1.13027e-34 9.47577e-35 3.37564e-33 1.19293e-32 -3.00764e-32 -3.94875e-31 -9.84595e-31 4.06066e-30 3.57996e-29 6.89345e-29 -3.62403e-28 -2.62788e-27 -4.51614e-27 2.34565e-26 1.61016e-25 2.92952e-25 -1.11054e-24 -8.35504e-24 -1.83156e-23 3.43495e-23 3.62825e-22 1.02627e-21 -1.43877e-22 -1.21266e-20 -4.67199e-20 -5.8554e-20 2.41419e-19 1.53707e-18 3.84554e-18 1.32327e-18 -2.84317e-17 -1.24085e-16 -2.61773e-16 -7.15599e-17 1.664e-15 7.02726e-15 1.60617e-14 1.65442e-14 -3.591e-14 -2.34494e-13 -6.83551e-13 -1.30079e-12 -1.33207e-12 1.42415e-12 1.12684e-11 3.394e-11 7.25298e-11 1.174e-10 1.28548e-10 1.22722e-11 -3.99966e-10 -1.35485e-09 -3.13999e-09 -5.97946e-09 -9.83629e-09 -1.41019e-08 -1.71606e-08 -1.58294e-08 -4.68696e-09 2.46639e-08 8.43106e-08 1.9055e-07 3.63944e-07 6.28531e-07 1.00974e-06 1.53062e-06 2.20602e-06 3.03488e-06 3.99099e-06 5.01338e-06 5.9975e-06 6.78942e-06 7.1845e-06 6.9321e-06 5.74736e-06 3.32984e-06 -6.12052e-07 -6.33301e-06 -1.40216e-05 -2.37737e-05 -3.55706e-05 -4.92661e-05 -6.45824e-05 -8.11167e-05 -9.83583e-05 -0.000115714 -0.000132539 -0.000148175 -0.000161986 -0.000173395 -0.000181916 -0.000187181 -0.000188962 -0.000187181 -0.000181916 -0.000173395 -0.000161986 -0.000148175 -0.000132539 -0.000115714 -9.83583e-05 -8.11167e-05 -6.45824e-05 -4.92661e-05 -3.55706e-05 -2.37737e-05 -1.40216e-05 -6.33301e-06 -6.12052e-07 3.32984e-06 5.74736e-06 6.9321e-06 7.1845e-06 6.78942e-06 5.9975e-06 5.01338e-06 3.99099e-06 3.03488e-06 2.20602e-06 1.53062e-06 1.00974e-06 6.28531e-07 3.63944e-07 1.9055e-07 8.43106e-08 2.46639e-08 -4.68696e-09 -1.58294e-08 -1.71606e-08 -1.41019e-08 -9.83629e-09 -5.97946e-09 -3.13999e-09 -1.35485e-09 -3.99966e-10 1.22722e-11 1.28548e-10 1.174e-10 7.25298e-11 3.394e-11 1.12684e-11 1.42415e-12 -1.33207e-12 -1.30079e-12 -6.83551e-13 -2.34494e-13 -3.591e-14 1.65442e-14 1.60617e-14 7.02726e-15 1.664e-15 -7.15599e-17 -2.61773e-16 -1.24085e-16 -2.84317e-17 1.32327e-18 3.84554e-18 1.53707e-18 2.41419e-19 -5.8554e-20 -4.67199e-20 -1.21266e-20 -1.43875e-22 1.02629e-21 3.6288e-22 3.43284e-23 -1.82455e-23 -8.32608e-24 -1.10661e-24 2.92042e-25 1.60495e-25 2.33782e-26 -4.50277e-27 -2.61969e-27 -3.61232e-28 6.8737e-29 3.56916e-29 4.04786e-30 -9.8182e-31 -3.93714e-31 -2.99823e-32 1.18961e-32 3.36595e-33 9.44334e-35 -1.12717e-34 -2.09621e-35 7.42481e-37 8.13551e-37 2.07489e-37 1.29477e-38 0 0 
0 0 -1.31838e-39 -6.40144e-39 -1.08482e-38 1.65539e-37 1.0582e-36 -4.9287e-37 -3.32418e-35 -1.29455e-34 3.28171e-34 4.65072e-33 1.16701e-32 -5.73927e-32 -4.90471e-31 -8.24215e-31 6.32395e-30 4.11143e-29 5.131e-29 -5.04235e-28 -2.85507e-27 -3.30782e-27 3.05301e-26 1.69013e-25 2.32166e-25 -1.40539e-24 -8.62758e-24 -1.59566e-23 4.47925e-23 3.7126e-22 9.48554e-22 -4.51202e-22 -1.22435e-20 -4.40225e-20 -4.97469e-20 2.38449e-19 1.42794e-18 3.49656e-18 1.25492e-18 -2.48599e-17 -1.08978e-16 -2.35727e-16 -1.07669e-16 1.27966e-15 5.74209e-15 1.38473e-14 1.72176e-14 -1.72977e-14 -1.64016e-13 -5.21273e-13 -1.08566e-12 -1.41675e-12 -5.17024e-14 6.12508e-12 2.18606e-11 5.15131e-11 9.32188e-11 1.27716e-10 1.0196e-10 -8.90422e-11 -6.14179e-10 -1.69932e-09 -3.58563e-09 -6.43655e-09 -1.01791e-08 -1.42693e-08 -1.73774e-08 -1.69949e-08 -8.97638e-09 1.29523e-08 5.76567e-08 1.36925e-07 2.65507e-07 4.60684e-07 7.41131e-07 1.12495e-06 1.6268e-06 2.25417e-06 3.00326e-06 3.85481e-06 4.7708e-06 5.69251e-06 6.54091e-06 7.21969e-06 7.62115e-06 7.63467e-06 7.15708e-06 6.10396e-06 4.4205e-06 2.09075e-06 -8.55932e-07 -4.34222e-06 -8.24461e-06 -1.2399e-05 -1.66109e-05 -2.06676e-05 -2.43533e-05 -2.74646e-05 -2.98253e-05 -3.12992e-05 -3.18003e-05 -3.12992e-05 -2.98253e-05 -2.74646e-05 -2.43533e-05 -2.06676e-05 -1.66109e-05 -1.2399e-05 -8.24461e-06 -4.34222e-06 -8.55932e-07 2.09075e-06 4.4205e-06 6.10396e-06 7.15708e-06 7.63467e-06 7.62115e-06 7.21969e-06 6.54091e-06 5.69251e-06 4.7708e-06 3.85481e-06 3.00326e-06 2.25417e-06 1.6268e-06 1.12495e-06 7.41131e-07 4.60684e-07 2.65507e-07 1.36925e-07 5.76567e-08 1.29523e-08 -8.97638e-09 -1.69949e-08 -1.73774e-08 -1.42693e-08 -1.01791e-08 -6.43655e-09 -3.58563e-09 -1.69932e-09 -6.14179e-10 -8.90422e-11 1.0196e-10 1.27716e-10 9.32188e-11 5.15131e-11 2.18606e-11 6.12508e-12 -5.17024e-14 -1.41675e-12 -1.08566e-12 -5.21273e-13 -1.64016e-13 -1.72977e-14 1.72176e-14 1.38473e-14 5.74209e-15 1.27966e-15 -1.0767e-16 -2.35727e-16 -1.08978e-16 -2.48599e-17 1.25492e-18 3.49655e-18 1.42794e-18 2.38449e-19 -4.9747e-20 -4.40225e-20 -1.22435e-20 -4.51202e-22 9.48554e-22 3.71264e-22 4.48174e-23 -1.58956e-23 -8.59669e-24 -1.40036e-24 2.31451e-25 1.68459e-25 3.04276e-26 -3.29822e-27 -2.84607e-27 -5.02603e-28 5.11671e-29 4.09891e-29 6.30409e-30 -8.21934e-31 -4.8902e-31 -5.7216e-32 1.16379e-32 4.63729e-33 3.2716e-34 -1.291e-34 -3.31477e-35 -4.9115e-37 1.05456e-36 1.67422e-37 2.24857e-38 -3.79989e-39 0 0 
0 0 -1.68881e-40 -2.33062e-39 -8.89922e-39 -2.04515e-39 2.74624e-37 1.26712e-36 -2.632e-36 -4.6993e-35 -1.30368e-34 6.41635e-34 5.84383e-33 9.59187e-33 -8.82919e-32 -5.6224e-31 -5.31648e-31 8.53983e-30 4.39947e-29 2.72337e-29 -6.25848e-28 -2.91658e-27 -1.87785e-27 3.58945e-26 1.68239e-25 1.65122e-25 -1.60754e-24 -8.50207e-24 -1.33434e-23 5.12822e-23 3.62343e-22 8.52406e-22 -6.36797e-22 -1.17199e-20 -4.01761e-20 -4.27625e-20 2.18529e-19 1.27214e-18 3.11023e-18 1.38501e-18 -2.0354e-17 -9.17735e-17 -2.06926e-16 -1.4159e-16 8.97032e-16 4.44147e-15 1.14315e-14 1.67429e-14 -2.82862e-15 -1.03409e-13 -3.70538e-13 -8.47037e-13 -1.31727e-12 -8.94841e-13 2.50699e-12 1.2451e-11 3.32022e-11 6.67216e-11 1.0621e-10 1.25678e-10 6.66676e-11 -1.74242e-10 -7.50683e-10 -1.85577e-09 -3.68555e-09 -6.36759e-09 -9.84727e-09 -1.37278e-08 -1.70627e-08 -1.81048e-08 -1.40209e-08 -5.96262e-10 2.80354e-08 7.95756e-08 1.63581e-07 2.91227e-07 4.74737e-07 7.26422e-07 1.05732e-06 1.47558e-06 1.9846e-06 2.58146e-06 3.25556e-06 3.98805e-06 4.75222e-06 5.5148e-06 6.23842e-06 6.88474e-06 7.41826e-06 7.81011e-06 8.04133e-06 8.10557e-06 8.0102e-06 7.77634e-06 7.43716e-06 7.03484e-06 6.61667e-06 6.23033e-06 5.91911e-06 5.71749e-06 5.64772e-06 5.71749e-06 5.91911e-06 6.23033e-06 6.61667e-06 7.03484e-06 7.43716e-06 7.77634e-06 8.0102e-06 8.10557e-06 8.04133e-06 7.81011e-06 7.41826e-06 6.88474e-06 6.23842e-06 5.5148e-06 4.75222e-06 3.98805e-06 3.25556e-06 2.58146e-06 1.9846e-06 1.47558e-06 1.05732e-06 7.26422e-07 4.74737e-07 2.91227e-07 1.63581e-07 7.95756e-08 2.80354e-08 -5.96262e-10 -1.40209e-08 -1.81048e-08 -1.70627e-08 -1.37278e-08 -9.84727e-09 -6.36759e-09 -3.68555e-09 -1.85577e-09 -7.50683e-10 -1.74242e-10 6.66676e-11 1.25678e-10 1.0621e-10 6.67216e-11 3.32022e-11 1.2451e-11 2.50699e-12 -8.94841e-13 -1.31727e-12 -8.47037e-13 -3.70538e-13 -1.03409e-13 -2.82862e-15 1.67429e-14 1.14315e-14 4.44147e-15 8.97032e-16 -1.4159e-16 -2.06926e-16 -9.17735e-17 -2.0354e-17 1.38501e-18 3.11023e-18 1.27214e-18 2.18529e-19 -4.27625e-20 -4.01761e-20 -1.17199e-20 -6.36795e-22 8.52407e-22 3.62343e-22 5.12818e-23 -1.33389e-23 -8.47835e-24 -1.60218e-24 1.64588e-25 1.67676e-25 3.57728e-26 -1.8728e-27 -2.90727e-27 -6.23808e-28 2.71662e-29 4.38595e-29 8.5129e-30 -5.3027e-31 -5.60565e-31 -8.80206e-32 9.56601e-33 5.82686e-33 6.39694e-34 -1.30013e-34 -4.68594e-35 -2.62389e-36 1.26367e-36 2.73589e-37 -2.99907e-39 -6.74994e-39 -1.97124e-39 0 0 
0 0 3.1272e-41 -2.77033e-40 -1.89393e-39 -1.09204e-38 1.36086e-38 4.03615e-37 1.34735e-36 -5.647e-36 -6.04364e-35 -1.11302e-34 1.00486e-33 6.76605e-33 5.77482e-33 -1.1871e-31 -5.99316e-31 -1.47238e-31 1.03995e-29 4.41585e-29 5.90711e-31 -7.11584e-28 -2.82012e-27 -4.55599e-28 3.89864e-26 1.59874e-25 1.01905e-25 -1.70028e-24 -8.034e-24 -1.08243e-23 5.34106e-23 3.38575e-22 7.48995e-22 -6.96392e-22 -1.06664e-20 -3.55677e-20 -3.75955e-20 1.86098e-19 1.08595e-18 2.7013e-18 1.6055e-18 -1.54867e-17 -7.37985e-17 -1.7588e-16 -1.64869e-16 5.54166e-16 3.22166e-15 8.96145e-15 1.51416e-14 6.7423e-15 -5.60115e-14 -2.41735e-13 -6.12185e-13 -1.09486e-12 -1.21422e-12 3.04898e-13 5.88806e-12 1.8986e-11 4.27658e-11 7.67756e-11 1.10959e-10 1.17137e-10 3.93355e-11 -2.14077e-10 -7.72027e-10 -1.79082e-09 -3.42732e-09 -5.79064e-09 -8.86938e-09 -1.24329e-08 -1.59078e-08 -1.82327e-08 -1.77001e-08 -1.17972e-08 2.92934e-09 3.09583e-08 7.77883e-08 1.49806e-07 2.53998e-07 3.97491e-07 5.86935e-07 8.27785e-07 1.12353e-06 1.47501e-06 1.87991e-06 2.33248e-06 2.8237e-06 3.34168e-06 3.87248e-06 4.40118e-06 4.913e-06 5.39445e-06 5.83431e-06 6.22427e-06 6.55923e-06 6.83714e-06 7.05852e-06 7.22569e-06 7.34182e-06 7.41002e-06 7.43248e-06 7.41002e-06 7.34182e-06 7.22569e-06 7.05852e-06 6.83714e-06 6.55923e-06 6.22427e-06 5.83431e-06 5.39445e-06 4.913e-06 4.40118e-06 3.87248e-06 3.34168e-06 2.8237e-06 2.33248e-06 1.87991e-06 1.47501e-06 1.12353e-06 8.27785e-07 5.86935e-07 3.97491e-07 2.53998e-07 1.49806e-07 7.77883e-08 3.09583e-08 2.92934e-09 -1.17972e-08 -1.77001e-08 -1.82327e-08 -1.59078e-08 -1.24329e-08 -8.86938e-09 -5.79064e-09 -3.42732e-09 -1.79082e-09 -7.72027e-10 -2.14077e-10 3.93355e-11 1.17137e-10 1.10959e-10 7.67756e-11 4.27658e-11 1.8986e-11 5.88806e-12 3.04898e-13 -1.21422e-12 -1.09486e-12 -6.12185e-13 -2.41735e-13 -5.60115e-14 6.7423e-15 1.51416e-14 8.96145e-15 3.22166e-15 5.54166e-16 -1.64869e-16 -1.7588e-16 -7.37985e-17 -1.54867e-17 1.6055e-18 2.7013e-18 1.08595e-18 1.86098e-19 -3.75955e-20 -3.55677e-20 -1.06664e-20 -6.96391e-22 7.48995e-22 3.38575e-22 5.34105e-23 -1.08247e-23 -8.03436e-24 -1.69683e-24 1.01382e-25 1.59315e-25 3.88514e-26 -4.55176e-28 -2.81098e-27 -7.09239e-28 6.07824e-31 4.40213e-29 1.03664e-29 -1.47053e-31 -5.97516e-31 -1.18344e-31 5.76057e-33 6.74627e-33 1.00183e-33 -1.11005e-34 -6.02637e-35 -5.63012e-36 1.34371e-36 4.02491e-37 1.35351e-38 -1.13096e-38 -3.32047e-39 -3.32032e-40 0 0 
0 0 1.79407e-41 5.76213e-41 -2.76676e-42 -2.89406e-39 -1.2435e-38 3.74241e-38 5.3731e-37 1.24448e-36 -9.2873e-36 -7.14865e-35 -7.20929e-35 1.37102e-33 7.27143e-33 7.22124e-34 -1.44323e-31 -5.97685e-31 2.67439e-31 1.16563e-29 4.18283e-29 -2.43925e-29 -7.52601e-28 -2.59747e-27 7.57339e-28 3.96489e-26 1.45954e-25 5.01055e-26 -1.68344e-24 -7.30816e-24 -8.64372e-24 5.14547e-23 3.03653e-22 6.46476e-22 -6.47555e-22 -9.23977e-21 -3.05521e-20 -3.37964e-20 1.46706e-19 8.86297e-19 2.28203e-18 1.80843e-18 -1.07971e-17 -5.63385e-17 -1.43653e-16 -1.72649e-16 2.77826e-16 2.16209e-15 6.60963e-15 1.26901e-14 1.15971e-14 -2.28362e-14 -1.4123e-13 -4.05105e-13 -8.19387e-13 -1.17195e-12 -7.66415e-13 1.88564e-12 9.20456e-12 2.41292e-11 4.86316e-11 8.06639e-11 1.09323e-10 1.08602e-10 3.09037e-11 -1.97673e-10 -6.7761e-10 -1.52893e-09 -2.87421e-09 -4.80965e-09 -7.36327e-09 -1.04402e-08 -1.37563e-08 -1.67637e-08 -1.85724e-08 -1.78767e-08 -1.28979e-08 -1.3567e-09 1.95087e-08 5.28642e-08 1.02132e-07 1.70775e-07 2.62012e-07 3.78511e-07 5.22056e-07 6.93265e-07 8.91368e-07 1.1141e-06 1.35769e-06 1.61704e-06 1.88592e-06 2.15738e-06 2.42406e-06 2.67865e-06 2.91417e-06 3.12434e-06 3.30368e-06 3.44774e-06 3.55305e-06 3.61721e-06 3.63875e-06 3.61721e-06 3.55305e-06 3.44774e-06 3.30368e-06 3.12434e-06 2.91417e-06 2.67865e-06 2.42406e-06 2.15738e-06 1.88592e-06 1.61704e-06 1.35769e-06 1.1141e-06 8.91368e-07 6.93265e-07 5.22056e-07 3.78511e-07 2.62012e-07 1.70775e-07 1.02132e-07 5.28642e-08 1.95087e-08 -1.3567e-09 -1.28979e-08 -1.78767e-08 -1.85724e-08 -1.67637e-08 -1.37563e-08 -1.04402e-08 -7.36327e-09 -4.80965e-09 -2.87421e-09 -1.52893e-09 -6.7761e-10 -1.97673e-10 3.09037e-11 1.08602e-10 1.09323e-10 8.06639e-11 4.86316e-11 2.41292e-11 9.20456e-12 1.88564e-12 -7.66415e-13 -1.17195e-12 -8.19387e-13 -4.05105e-13 -1.4123e-13 -2.28362e-14 1.15971e-14 1.26901e-14 6.60963e-15 2.16209e-15 2.77826e-16 -1.72649e-16 -1.43653e-16 -5.63385e-17 -1.07971e-17 1.80843e-18 2.28203e-18 8.86297e-19 1.46706e-19 -3.37963e-20 -3.05521e-20 -9.23977e-21 -6.47554e-22 6.46476e-22 3.03653e-22 5.14547e-23 -8.64373e-24 -7.30827e-24 -1.68388e-24 4.95229e-26 1.45402e-25 3.95069e-26 7.53593e-28 -2.58892e-27 -7.50088e-28 -2.42948e-29 4.16967e-29 1.16188e-29 2.66318e-31 -5.95874e-31 -1.43875e-31 7.23358e-34 7.25002e-33 1.36687e-33 -7.19138e-35 -7.1281e-35 -9.25969e-36 1.24116e-36 5.35796e-37 3.73149e-38 -1.23946e-38 -2.94638e-39 -5.20877e-40 2.17968e-41 0 0 
0 0 2.96413e-42 2.97471e-41 1.02462e-40 -1.59562e-40 -4.0389e-39 -1.25923e-38 6.7962e-38 6.56173e-37 9.41006e-37 -1.31069e-35 -7.83724e-35 -1.74922e-35 1.68764e-33 7.29656e-33 -4.75965e-33 -1.61613e-31 -5.60793e-31 6.46039e-31 1.21784e-29 3.76186e-29 -4.41982e-29 -7.47992e-28 -2.29351e-27 1.62797e-27 3.80955e-26 1.28696e-25 1.37029e-26 -1.57167e-24 -6.41929e-24 -6.91537e-24 4.62315e-23 2.61752e-22 5.49554e-22 -5.227e-22 -7.61417e-21 -2.54341e-20 -3.07088e-20 1.05961e-19 6.89034e-19 1.8652e-18 1.91182e-18 -6.71288e-18 -4.05089e-17 -1.11836e-16 -1.64323e-16 8.04069e-17 1.31408e-15 4.53699e-15 9.81661e-15 1.26501e-14 -2.71644e-15 -7.04603e-14 -2.41216e-13 -5.5134e-13 -9.36548e-13 -1.07e-12 -1.40105e-13 3.34449e-12 1.15344e-11 2.6718e-11 4.99766e-11 7.8774e-11 1.03474e-10 1.03156e-10 4.15351e-11 -1.3581e-10 -5.01468e-10 -1.14209e-09 -2.14895e-09 -3.60255e-09 -5.55098e-09 -7.98265e-09 -1.07945e-08 -1.37575e-08 -1.64833e-08 -1.83943e-08 -1.87053e-08 -1.64193e-08 -1.03464e-08 8.51917e-10 1.85901e-08 4.42588e-08 7.91042e-08 1.24097e-07 1.79805e-07 2.46278e-07 3.22971e-07 4.08702e-07 5.01665e-07 5.99486e-07 6.99327e-07 7.9803e-07 8.9228e-07 9.78772e-07 1.05439e-06 1.11634e-06 1.16234e-06 1.19064e-06 1.2002e-06 1.19064e-06 1.16234e-06 1.11634e-06 1.05439e-06 9.78772e-07 8.9228e-07 7.9803e-07 6.99327e-07 5.99486e-07 5.01665e-07 4.08702e-07 3.22971e-07 2.46278e-07 1.79805e-07 1.24097e-07 7.91042e-08 4.42588e-08 1.85901e-08 8.51917e-10 -1.03464e-08 -1.64193e-08 -1.87053e-08 -1.83943e-08 -1.64833e-08 -1.37575e-08 -1.07945e-08 -7.98265e-09 -5.55098e-09 -3.60255e-09 -2.14895e-09 -1.14209e-09 -5.01468e-10 -1.3581e-10 4.15351e-11 1.03156e-10 1.03474e-10 7.8774e-11 4.99766e-11 2.6718e-11 1.15344e-11 3.34449e-12 -1.40105e-13 -1.07e-12 -9.36548e-13 -5.5134e-13 -2.41216e-13 -7.04603e-14 -2.71644e-15 1.26501e-14 9.81661e-15 4.53699e-15 1.31408e-15 8.04069e-17 -1.64323e-16 -1.11836e-16 -4.05089e-17 -6.71288e-18 1.91182e-18 1.8652e-18 6.89034e-19 1.05961e-19 -3.07088e-20 -2.54341e-20 -7.61417e-21 -5.22699e-22 5.49554e-22 2.61752e-22 4.62315e-23 -6.91537e-24 -6.41929e-24 -1.57168e-24 1.35919e-26 1.28282e-25 3.79602e-26 1.62153e-27 -2.28581e-27 -7.45453e-28 -4.40356e-29 3.74985e-29 1.21387e-29 6.4371e-31 -5.59075e-31 -1.61106e-31 -4.74145e-33 7.2749e-33 1.6825e-33 -1.74777e-35 -7.81456e-35 -1.30678e-35 9.38584e-37 6.54313e-37 6.77616e-38 -1.25584e-38 -4.02424e-39 -1.52373e-40 4.35086e-41 2.3285e-41 0 0 
0 0 -1.63029e-43 4.41748e-42 2.5532e-41 1.09315e-40 -3.6813e-40 -5.14318e-39 -1.1086e-38 1.01825e-37 7.41546e-37 4.67298e-37 -1.65626e-35 -8.01264e-35 4.38577e-35 1.90967e-33 6.87323e-33 -9.77792e-33 -1.68651e-31 -4.97887e-31 9.34294e-31 1.19655e-29 3.23322e-29 -5.67422e-29 -7.03775e-28 -1.95441e-27 2.10667e-27 3.47796e-26 1.10058e-25 -6.87581e-27 -1.38958e-24 -5.4562e-24 -5.63281e-24 3.88725e-23 2.16924e-22 4.60106e-22 -3.60105e-22 -5.95622e-21 -2.04676e-20 -2.77129e-20 6.86027e-20 5.07497e-19 1.46554e-18 1.87487e-18 -3.4994e-18 -2.71316e-17 -8.22738e-17 -1.42979e-16 -3.99109e-17 6.94943e-16 2.85706e-15 6.96924e-15 1.1199e-14 7.05398e-15 -2.64069e-14 -1.25343e-13 -3.30352e-13 -6.45684e-13 -9.51641e-13 -8.66371e-13 4.14069e-13 4.21661e-12 1.22934e-11 2.63445e-11 4.69872e-11 7.20775e-11 9.44445e-11 9.93086e-11 6.18662e-11 -5.43171e-11 -2.97406e-10 -7.25253e-10 -1.40076e-09 -2.38447e-09 -3.72442e-09 -5.44383e-09 -7.52723e-09 -9.90624e-09 -1.24466e-08 -1.49382e-08 -1.70905e-08 -1.85347e-08 -1.8836e-08 -1.75153e-08 -1.40812e-08 -8.07112e-09 9.03e-10 1.31066e-08 2.86395e-08 4.74005e-08 6.90678e-08 9.30947e-08 1.18726e-07 1.45031e-07 1.70955e-07 1.95382e-07 2.17204e-07 2.35393e-07 2.4907e-07 2.57558e-07 2.60436e-07 2.57558e-07 2.4907e-07 2.35393e-07 2.17204e-07 1.95382e-07 1.70955e-07 1.45031e-07 1.18726e-07 9.30947e-08 6.90678e-08 4.74005e-08 2.86395e-08 1.31066e-08 9.03e-10 -8.07112e-09 -1.40812e-08 -1.75153e-08 -1.8836e-08 -1.85347e-08 -1.70905e-08 -1.49382e-08 -1.24466e-08 -9.90624e-09 -7.52723e-09 -5.44383e-09 -3.72442e-09 -2.38447e-09 -1.40076e-09 -7.25253e-10 -2.97406e-10 -5.43171e-11 6.18662e-11 9.93086e-11 9.44445e-11 7.20775e-11 4.69872e-11 2.63445e-11 1.22934e-11 4.21661e-12 4.14069e-13 -8.66371e-13 -9.51641e-13 -6.45684e-13 -3.30352e-13 -1.25343e-13 -2.64069e-14 7.05398e-15 1.1199e-14 6.96924e-15 2.85706e-15 6.94943e-16 -3.99109e-17 -1.42979e-16 -8.22738e-17 -2.71316e-17 -3.4994e-18 1.87487e-18 1.46554e-18 5.07497e-19 6.86027e-20 -2.77128e-20 -2.04676e-20 -5.95622e-21 -3.60106e-22 4.60106e-22 2.16923e-22 3.88725e-23 -5.63282e-24 -5.4562e-24 -1.38958e-24 -6.87043e-27 1.10053e-25 3.46942e-26 2.10165e-27 -1.94748e-27 -7.01327e-28 -5.65363e-29 3.22271e-29 1.1926e-29 9.31021e-31 -4.96343e-31 -1.68115e-31 -9.74392e-33 6.85265e-33 1.9038e-33 4.36855e-35 -7.98929e-35 -1.6513e-35 4.66284e-37 7.3943e-37 1.01526e-37 -1.10569e-38 -5.12884e-39 -3.66557e-40 1.13739e-40 3.71219e-41 4.61477e-42 0 0 
0 0 -1.80041e-43 -3.69289e-43 1.10747e-42 3.35928e-41 1.08884e-40 -6.16601e-40 -6.04509e-39 -7.97999e-39 1.34342e-37 7.80753e-37 -1.03254e-37 -1.91497e-35 -7.68134e-35 1.01758e-34 2.01011e-33 6.11117e-33 -1.35868e-32 -1.6538e-31 -4.20938e-31 1.10151e-30 1.11297e-29 2.67477e-29 -6.15974e-29 -6.30482e-28 -1.61851e-27 2.21986e-27 3.02737e-26 9.15888e-26 -1.40355e-26 -1.1661e-24 -4.49236e-24 -4.70769e-24 3.05802e-23 1.72682e-22 3.78358e-22 -1.95382e-22 -4.40515e-21 -1.58603e-20 -2.44039e-20 3.78861e-20 3.51388e-19 1.099e-18 1.70023e-18 -1.24451e-18 -1.66475e-17 -5.6642e-17 -1.13973e-16 -9.59868e-17 2.89667e-16 1.615e-15 4.50159e-15 8.55132e-15 9.82832e-15 -3.14563e-15 -5.3112e-14 -1.72459e-13 -3.87255e-13 -6.75708e-13 -8.93201e-13 -6.68918e-13 6.97127e-13 4.27674e-12 1.14074e-11 2.33371e-11 4.05378e-11 6.16624e-11 8.22066e-11 9.30414e-11 7.90762e-11 1.83634e-11 -1.18033e-10 -3.65146e-10 -7.62022e-10 -1.34843e-09 -2.16048e-09 -3.22536e-09 -4.55577e-09 -6.14432e-09 -7.95894e-09 -9.93959e-09 -1.19974e-08 -1.40168e-08 -1.58607e-08 -1.73795e-08 -1.84226e-08 -1.88527e-08 -1.85605e-08 -1.74786e-08 -1.55936e-08 -1.29527e-08 -9.66619e-09 -5.90371e-09 -1.88343e-09 2.14289e-09 5.90953e-09 9.15873e-09 1.1662e-08 1.32403e-08 1.37795e-08 1.32403e-08 1.1662e-08 9.15873e-09 5.90953e-09 2.14289e-09 -1.88343e-09 -5.90371e-09 -9.66619e-09 -1.29527e-08 -1.55936e-08 -1.74786e-08 -1.85605e-08 -1.88527e-08 -1.84226e-08 -1.73795e-08 -1.58607e-08 -1.40168e-08 -1.19974e-08 -9.93959e-09 -7.95894e-09 -6.14432e-09 -4.55577e-09 -3.22536e-09 -2.16048e-09 -1.34843e-09 -7.62022e-10 -3.65146e-10 -1.18033e-10 1.83634e-11 7.90762e-11 9.30414e-11 8.22066e-11 6.16624e-11 4.05378e-11 2.33371e-11 1.14074e-11 4.27674e-12 6.97127e-13 -6.68918e-13 -8.93201e-13 -6.75708e-13 -3.87255e-13 -1.72459e-13 -5.3112e-14 -3.14563e-15 9.82832e-15 8.55132e-15 4.50159e-15 1.615e-15 2.89667e-16 -9.59868e-17 -1.13973e-16 -5.6642e-17 -1.66475e-17 -1.24451e-18 1.70023e-18 1.099e-18 3.51388e-19 3.78861e-20 -2.44039e-20 -1.58603e-20 -4.40515e-21 -1.95382e-22 3.78358e-22 1.72682e-22 3.05802e-23 -4.70769e-24 -4.49236e-24 -1.1661e-24 -1.40353e-26 9.15906e-26 3.02788e-26 2.22046e-27 -1.61197e-27 -6.28194e-28 -6.13704e-29 2.66591e-29 1.10923e-29 1.09767e-30 -4.19614e-31 -1.64848e-31 -1.35405e-32 6.0927e-33 2.00386e-33 1.01407e-34 -7.65878e-35 -1.90918e-35 -1.02562e-37 7.7851e-37 1.33945e-37 -7.9599e-39 -6.02805e-39 -6.14838e-40 1.08542e-40 3.43145e-41 6.66701e-42 -1.20355e-44 0 0 
0 0 -1.99622e-44 -2.80713e-43 -9.05772e-43 2.59397e-42 4.14711e-41 9.61132e-41 -8.73108e-40 -6.60912e-39 -3.73017e-39 1.60703e-37 7.70284e-37 -6.74092e-37 -2.05249e-35 -6.94181e-35 1.47213e-34 1.98462e-33 5.15963e-33 -1.57559e-32 -1.53365e-31 -3.41371e-31 1.14401e-30 9.85243e-30 2.14641e-29 -5.97514e-29 -5.40207e-28 -1.31021e-27 2.04814e-27 2.51763e-26 7.4327e-26 -1.18549e-26 -9.29292e-25 -3.58214e-24 -4.01653e-24 2.24231e-23 1.31761e-22 3.04008e-22 -5.53563e-23 -3.06037e-21 -1.17737e-20 -2.0663e-20 1.53491e-20 2.2613e-19 7.80127e-19 1.42406e-18 1.1991e-19 -9.09466e-18 -3.60583e-17 -8.31222e-17 -1.06627e-16 5.95429e-17 7.87259e-16 2.6079e-15 5.73832e-15 8.76085e-15 6.19572e-15 -1.45336e-14 -7.46344e-14 -1.99602e-13 -4.02632e-13 -6.4943e-13 -8.02185e-13 -5.49998e-13 6.52469e-13 3.60053e-12 9.26006e-12 1.85437e-11 3.19091e-11 4.87781e-11 6.682e-11 8.11888e-11 8.38403e-11 6.30739e-11 3.43508e-12 -1.13917e-10 -3.10322e-10 -6.0822e-10 -1.02932e-09 -1.59243e-09 -2.31126e-09 -3.19221e-09 -4.23261e-09 -5.41958e-09 -6.72973e-09 -8.12987e-09 -9.5788e-09 -1.103e-08 -1.24354e-08 -1.37491e-08 -1.49317e-08 -1.59534e-08 -1.67969e-08 -1.74582e-08 -1.79464e-08 -1.82819e-08 -1.84931e-08 -1.86121e-08 -1.86702e-08 -1.86934e-08 -1.86992e-08 -1.86934e-08 -1.86702e-08 -1.86121e-08 -1.84931e-08 -1.82819e-08 -1.79464e-08 -1.74582e-08 -1.67969e-08 -1.59534e-08 -1.49317e-08 -1.37491e-08 -1.24354e-08 -1.103e-08 -9.5788e-09 -8.12987e-09 -6.72973e-09 -5.41958e-09 -4.23261e-09 -3.19221e-09 -2.31126e-09 -1.59243e-09 -1.02932e-09 -6.0822e-10 -3.10322e-10 -1.13917e-10 3.43508e-12 6.30739e-11 8.38403e-11 8.11888e-11 6.682e-11 4.87781e-11 3.19091e-11 1.85437e-11 9.26006e-12 3.60053e-12 6.52469e-13 -5.49998e-13 -8.02185e-13 -6.4943e-13 -4.02632e-13 -1.99602e-13 -7.46344e-14 -1.45336e-14 6.19572e-15 8.76085e-15 5.73832e-15 2.6079e-15 7.87259e-16 5.95429e-17 -1.06627e-16 -8.31222e-17 -3.60583e-17 -9.09466e-18 1.1991e-19 1.42406e-18 7.80127e-19 2.2613e-19 1.53491e-20 -2.0663e-20 -1.17736e-20 -3.06037e-21 -5.53564e-23 3.04007e-22 1.31761e-22 2.24231e-23 -4.01653e-24 -3.58214e-24 -9.29291e-25 -1.18549e-26 7.43269e-26 2.51765e-26 2.04977e-27 -1.30531e-27 -5.382e-28 -5.95287e-29 2.13914e-29 9.81867e-30 1.14e-30 -3.40277e-31 -1.52863e-31 -1.57024e-32 5.14384e-33 1.97837e-33 1.46719e-34 -6.92124e-35 -2.04623e-35 -6.71674e-37 7.68054e-37 1.60225e-37 -3.72253e-39 -6.59039e-39 -8.70547e-40 9.58626e-41 4.13205e-41 2.58189e-42 -1.63687e-43 -2.0417e-43 0 0 
0 0 -0 -4.99545e-44 -2.56306e-43 -8.88594e-43 4.21872e-42 4.73556e-41 7.28882e-41 -1.0981e-39 -6.76233e-39 8.91315e-40 1.76942e-37 7.16092e-37 -1.14635e-36 -2.05544e-35 -5.95166e-35 1.73967e-34 1.84789e-33 4.17009e-33 -1.61739e-32 -1.35064e-31 -2.6815e-31 1.07717e-30 8.32852e-30 1.68633e-29 -5.2842e-29 -4.43412e-28 -1.04167e-27 1.68707e-27 1.99913e-26 5.88704e-26 -4.36701e-27 -7.01015e-25 -2.7609e-24 -3.45732e-24 1.5133e-23 9.59128e-23 2.37203e-22 4.68581e-23 -1.97086e-21 -8.31177e-21 -1.66563e-20 7.79448e-22 1.32418e-19 5.18726e-19 1.10098e-18 7.78506e-19 -4.14075e-18 -2.08312e-17 -5.51924e-17 -9.15213e-17 -4.62069e-17 2.97814e-16 1.31713e-15 3.38344e-15 6.25996e-15 7.80943e-15 2.02981e-15 -2.28738e-14 -8.45354e-14 -2.0147e-13 -3.79266e-13 -5.84887e-13 -7.09276e-13 -5.24238e-13 3.52889e-13 2.4662e-12 6.47557e-12 1.30364e-11 2.25927e-11 3.50878e-11 4.96166e-11 6.40642e-11 7.4787e-11 7.64001e-11 6.17242e-11 2.19379e-11 -5.30518e-11 -1.74025e-10 -3.5169e-10 -5.95798e-10 -9.14226e-10 -1.31209e-09 -1.79103e-09 -2.34868e-09 -2.97846e-09 -3.66967e-09 -4.408e-09 -5.17622e-09 -5.95522e-09 -6.72509e-09 -7.4662e-09 -8.16025e-09 -8.791e-09 -9.34478e-09 -9.81066e-09 -1.01804e-08 -1.04482e-08 -1.06103e-08 -1.06645e-08 -1.06103e-08 -1.04482e-08 -1.01804e-08 -9.81066e-09 -9.34478e-09 -8.791e-09 -8.16025e-09 -7.4662e-09 -6.72509e-09 -5.95522e-09 -5.17622e-09 -4.408e-09 -3.66967e-09 -2.97846e-09 -2.34868e-09 -1.79103e-09 -1.31209e-09 -9.14226e-10 -5.95798e-10 -3.5169e-10 -1.74025e-10 -5.30518e-11 2.19379e-11 6.17242e-11 7.64001e-11 7.4787e-11 6.40642e-11 4.96166e-11 3.50878e-11 2.25927e-11 1.30364e-11 6.47557e-12 2.4662e-12 3.52889e-13 -5.24238e-13 -7.09276e-13 -5.84887e-13 -3.79266e-13 -2.0147e-13 -8.45354e-14 -2.28738e-14 2.02981e-15 7.80943e-15 6.25996e-15 3.38344e-15 1.31713e-15 2.97814e-16 -4.62069e-17 -9.15213e-17 -5.51924e-17 -2.08312e-17 -4.14075e-18 7.78506e-19 1.10098e-18 5.18726e-19 1.32418e-19 7.79448e-22 -1.66563e-20 -8.31177e-21 -1.97086e-21 4.68581e-23 2.37203e-22 9.59128e-23 1.5133e-23 -3.45732e-24 -2.7609e-24 -7.01015e-25 -4.367e-27 5.88704e-26 1.99913e-26 1.68703e-27 -1.04152e-27 -4.42206e-28 -5.26761e-29 1.68022e-29 8.29921e-30 1.07335e-30 -2.67272e-31 -1.34614e-31 -1.61185e-32 4.15714e-33 1.84199e-33 1.73386e-34 -5.93383e-35 -2.04909e-35 -1.14248e-36 7.14004e-37 1.76411e-37 8.85253e-40 -6.74306e-39 -1.09487e-39 7.26929e-41 4.7244e-41 4.23214e-42 -9.04653e-43 -3.14509e-43 -3.4618e-44 0 0 
0 0 0 -6.23541e-46 -1.33178e-44 -3.01731e-43 -8.45771e-43 5.93903e-42 5.22191e-41 4.68408e-41 -1.29134e-39 -6.75535e-39 4.92097e-39 1.86642e-37 6.57537e-37 -1.46601e-36 -1.99867e-35 -5.10811e-35 1.83626e-34 1.68683e-33 3.42816e-33 -1.53967e-32 -1.1748e-31 -2.17493e-31 9.52715e-31 6.99106e-30 1.37831e-29 -4.37518e-29 -3.61562e-28 -8.55957e-28 1.24736e-27 1.56713e-26 4.75543e-26 6.5462e-27 -5.14236e-25 -2.1377e-24 -3.12692e-24 9.38319e-24 6.87774e-23 1.86963e-22 1.17625e-22 -1.18739e-21 -5.76504e-21 -1.33147e-20 -7.67667e-21 7.00861e-20 3.32611e-19 8.22249e-19 1.00978e-18 -1.28327e-18 -1.10238e-17 -3.4602e-17 -7.00234e-17 -8.04575e-17 5.15296e-17 5.68043e-16 1.80769e-15 3.96803e-15 6.47962e-15 6.87584e-15 -6.91098e-16 -2.66125e-14 -8.52739e-14 -1.90755e-13 -3.4659e-13 -5.28221e-13 -6.58866e-13 -5.82795e-13 -4.36525e-14 1.32144e-12 3.96038e-12 8.34744e-12 1.48833e-11 2.37572e-11 3.47844e-11 4.72391e-11 5.97094e-11 7.00017e-11 7.51179e-11 7.13223e-11 5.43059e-11 1.9439e-11 -3.78994e-11 -1.21943e-10 -2.36144e-10 -3.82803e-10 -5.62746e-10 -7.751e-10 -1.01718e-09 -1.28449e-09 -1.57089e-09 -1.86881e-09 -2.16965e-09 -2.46418e-09 -2.74298e-09 -2.99689e-09 -3.21745e-09 -3.39723e-09 -3.53017e-09 -3.61178e-09 -3.63929e-09 -3.61178e-09 -3.53017e-09 -3.39723e-09 -3.21745e-09 -2.99689e-09 -2.74298e-09 -2.46418e-09 -2.16965e-09 -1.86881e-09 -1.57089e-09 -1.28449e-09 -1.01718e-09 -7.751e-10 -5.62746e-10 -3.82803e-10 -2.36144e-10 -1.21943e-10 -3.78994e-11 1.9439e-11 5.43059e-11 7.13223e-11 7.51179e-11 7.00017e-11 5.97094e-11 4.72391e-11 3.47844e-11 2.37572e-11 1.48833e-11 8.34744e-12 3.96038e-12 1.32144e-12 -4.36525e-14 -5.82795e-13 -6.58866e-13 -5.28221e-13 -3.4659e-13 -1.90755e-13 -8.52739e-14 -2.66125e-14 -6.91098e-16 6.87584e-15 6.47962e-15 3.96803e-15 1.80769e-15 5.68043e-16 5.15296e-17 -8.04575e-17 -7.00234e-17 -3.4602e-17 -1.10238e-17 -1.28327e-18 1.00978e-18 8.22249e-19 3.32611e-19 7.00861e-20 -7.67667e-21 -1.33147e-20 -5.76504e-21 -1.18739e-21 1.17625e-22 1.86963e-22 6.87774e-23 9.38319e-24 -3.12692e-24 -2.1377e-24 -5.14236e-25 6.54625e-27 4.75542e-26 1.56713e-26 1.24736e-27 -8.55978e-28 -3.61609e-28 -4.37054e-29 1.37225e-29 6.9652e-30 9.49246e-31 -2.16762e-31 -1.1708e-31 -1.53434e-32 3.41732e-33 1.68135e-33 1.83009e-34 -5.09262e-35 -1.99242e-35 -1.46113e-36 6.55599e-37 1.86076e-37 4.90284e-39 -6.73592e-39 -1.28755e-39 4.67088e-41 5.20511e-41 5.94305e-42 -8.21682e-43 -3.01731e-43 -6.03499e-44 -0 0 0 
0 0 0 -1.52451e-47 -6.23634e-46 -6.03499e-44 -3.36273e-43 4.72393e-43 1.26688e-41 4.0996e-41 -1.91088e-40 -1.95367e-39 -3.29046e-39 3.49797e-38 2.24597e-37 1.37445e-37 -4.2962e-36 -2.0379e-35 2.29133e-36 3.94804e-34 1.54e-33 -7.36836e-34 -2.87275e-32 -1.0188e-31 4.49815e-32 1.71436e-30 6.12565e-30 -6.70941e-32 -8.49017e-29 -3.37671e-28 -2.43194e-28 3.29695e-27 1.62205e-26 2.60434e-26 -8.188e-26 -6.2064e-25 -1.62379e-24 -9.59748e-26 1.59504e-23 6.54176e-23 1.15058e-22 -1.25233e-22 -1.50271e-21 -4.99877e-21 -8.01192e-21 6.38511e-21 8.43577e-20 2.88709e-19 5.66598e-19 3.53252e-19 -2.11252e-18 -1.01705e-17 -2.68227e-17 -4.66589e-17 -3.74094e-17 8.76748e-17 4.88726e-16 1.36137e-15 2.75896e-15 4.17927e-15 3.87452e-15 -1.98726e-15 -1.9882e-14 -5.8409e-14 -1.25585e-13 -2.22848e-13 -3.35162e-13 -4.17773e-13 -3.81798e-13 -8.26366e-14 6.83457e-13 2.16897e-12 4.64639e-12 8.35932e-12 1.34555e-11 1.99083e-11 2.74361e-11 3.54336e-11 4.29259e-11 4.85591e-11 5.06332e-11 4.71814e-11 3.60917e-11 1.52651e-11 -1.72049e-11 -6.28457e-11 -1.22631e-10 -1.96834e-10 -2.84924e-10 -3.8552e-10 -4.96403e-10 -6.14591e-10 -7.3647e-10 -8.57976e-10 -9.74798e-10 -1.08261e-09 -1.17729e-09 -1.25514e-09 -1.31309e-09 -1.34882e-09 -1.36089e-09 -1.34882e-09 -1.31309e-09 -1.25514e-09 -1.17729e-09 -1.08261e-09 -9.74798e-10 -8.57976e-10 -7.3647e-10 -6.14591e-10 -4.96403e-10 -3.8552e-10 -2.84924e-10 -1.96834e-10 -1.22631e-10 -6.28457e-11 -1.72049e-11 1.52651e-11 3.60917e-11 4.71814e-11 5.06332e-11 4.85591e-11 4.29259e-11 3.54336e-11 2.74361e-11 1.99083e-11 1.34555e-11 8.35932e-12 4.64639e-12 2.16897e-12 6.83457e-13 -8.26366e-14 -3.81798e-13 -4.17773e-13 -3.35162e-13 -2.22848e-13 -1.25585e-13 -5.8409e-14 -1.9882e-14 -1.98726e-15 3.87452e-15 4.17927e-15 2.75896e-15 1.36137e-15 4.88726e-16 8.76748e-17 -3.74094e-17 -4.66589e-17 -2.68227e-17 -1.01705e-17 -2.11252e-18 3.53252e-19 5.66598e-19 2.88709e-19 8.43577e-20 6.38511e-21 -8.01192e-21 -4.99877e-21 -1.50271e-21 -1.25233e-22 1.15058e-22 6.54176e-23 1.59504e-23 -9.59739e-26 -1.62379e-24 -6.2064e-25 -8.188e-26 2.60434e-26 1.62205e-26 3.29696e-27 -2.43194e-28 -3.37676e-28 -8.49213e-29 -9.82149e-32 6.09963e-30 1.70802e-30 4.47899e-32 -1.01533e-31 -2.8629e-32 -7.33813e-34 1.53502e-33 3.93507e-34 2.27505e-36 -2.03158e-35 -4.28258e-36 1.37127e-37 2.23923e-37 3.48717e-38 -3.28158e-39 -1.94799e-39 -1.90523e-40 4.08653e-41 1.26329e-41 4.76318e-43 -3.24882e-43 -6.03499e-44 -1.00471e-44 0 0 0 
0 0 0 0 0 -0 -5.85843e-44 -2.09508e-43 1.08988e-42 1.17406e-41 1.8824e-41 -2.47289e-40 -1.55529e-39 -3.09229e-40 3.62035e-38 1.57481e-37 -1.44401e-37 -3.88509e-36 -1.28866e-35 2.23873e-35 3.26297e-34 9.08183e-34 -1.91785e-33 -2.24336e-32 -5.8572e-32 1.10441e-31 1.30445e-30 3.59414e-30 -3.92321e-30 -6.45144e-29 -2.06572e-28 -2.67272e-30 2.55642e-27 1.03356e-26 1.18893e-26 -6.87224e-26 -4.08156e-25 -9.27291e-25 4.08082e-25 1.07906e-23 3.98488e-23 6.25601e-23 -9.81799e-23 -9.26202e-22 -2.92795e-21 -4.50769e-21 3.92079e-21 4.78905e-20 1.62221e-19 3.22297e-19 2.39016e-19 -1.0015e-18 -5.18259e-18 -1.41478e-17 -2.60841e-17 -2.67167e-17 2.46564e-17 2.07378e-16 6.29841e-16 1.36175e-15 2.26278e-15 2.67806e-15 1.03139e-15 -5.53791e-15 -2.11963e-14 -5.06569e-14 -9.71561e-14 -1.58816e-13 -2.23414e-13 -2.62149e-13 -2.23697e-13 -3.03832e-14 4.21394e-13 1.25462e-12 2.59794e-12 4.56486e-12 7.22772e-12 1.05893e-11 1.45564e-11 1.89199e-11 2.33457e-11 2.73789e-11 3.04636e-11 3.19779e-11 3.12814e-11 2.77714e-11 2.09422e-11 1.04427e-11 -3.87503e-12 -2.19203e-11 -4.33459e-11 -6.75507e-11 -9.37024e-11 -1.20779e-10 -1.47629e-10 -1.73037e-10 -1.95803e-10 -2.14817e-10 -2.29133e-10 -2.38026e-10 -2.41042e-10 -2.38026e-10 -2.29133e-10 -2.14817e-10 -1.95803e-10 -1.73037e-10 -1.47629e-10 -1.20779e-10 -9.37024e-11 -6.75507e-11 -4.33459e-11 -2.19203e-11 -3.87503e-12 1.04427e-11 2.09422e-11 2.77714e-11 3.12814e-11 3.19779e-11 3.04636e-11 2.73789e-11 2.33457e-11 1.89199e-11 1.45564e-11 1.05893e-11 7.22772e-12 4.56486e-12 2.59794e-12 1.25462e-12 4.21394e-13 -3.03832e-14 -2.23697e-13 -2.62149e-13 -2.23414e-13 -1.58816e-13 -9.71561e-14 -5.06569e-14 -2.11963e-14 -5.53791e-15 1.03139e-15 2.67806e-15 2.26278e-15 1.36175e-15 6.29841e-16 2.07378e-16 2.46564e-17 -2.67167e-17 -2.60841e-17 -1.41478e-17 -5.18259e-18 -1.0015e-18 2.39016e-19 3.22297e-19 1.62221e-19 4.78905e-20 3.92079e-21 -4.50769e-21 -2.92795e-21 -9.26202e-22 -9.81799e-23 6.256e-23 3.98488e-23 1.07907e-23 4.08084e-25 -9.2729e-25 -4.08156e-25 -6.87223e-26 1.18893e-26 1.03356e-26 2.55642e-27 -2.67207e-30 -2.06572e-28 -6.45147e-29 -3.92755e-30 3.57835e-30 1.29907e-30 1.10017e-31 -5.83625e-32 -2.23552e-32 -1.91107e-33 9.05192e-34 3.25215e-34 2.23088e-35 -1.28463e-35 -3.87272e-36 -1.43874e-37 1.57007e-37 3.60919e-38 -3.09082e-40 -1.55073e-39 -2.46558e-40 1.87663e-41 1.17125e-41 1.08854e-42 -2.09508e-43 -5.59214e-44 -0 0 0 0 0 
0 0 0 0 0 0 0 0 0 0 0 0 0 0 0 0 0 0 0 0 0 0 0 0 0 0 0 0 0 0 0 0 0 0 0 0 0 0 0 0 0 0 0 0 0 0 0 0 0 0 0 0 0 0 0 0 0 0 0 0 0 0 0 0 0 0 0 0 0 0 0 0 0 0 0 0 0 0 0 0 0 0 0 0 0 0 0 0 0 0 0 0 0 0 0 0 0 0 0 0 0 0 0 0 0 0 0 0 0 0 0 0 0 0 0 0 0 0 0 0 0 0 0 0 0 0 0 0 0 0 0 0 0 0 0 0 0 0 0 0 0 0 0 0 0 0 0 0 0 0 0 0 0 0 0 0 0 0 0 0 0 0 0 0 0 0 0 0 0 0 0 0 0 0 0 0 0 0 0 0 0 0 0 0 0 0 0 0 0 0 0 0 0 0 0 0 0 0 0 0 
0 0 0 0 0 0 0 0 0 0 0 0 0 0 0 0 0 0 0 0 0 0 0 0 0 0 0 0 0 0 0 0 0 0 0 0 0 0 0 0 0 0 0 0 0 0 0 0 0 0 0 0 0 0 0 0 0 0 0 0 0 0 0 0 0 0 0 0 0 0 0 0 0 0 0 0 0 0 0 0 0 0 0 0 0 0 0 0 0 0 0 0 0 0 0 0 0 0 0 0 0 0 0 0 0 0 0 0 0 0 0 0 0 0 0 0 0 0 0 0 0 0 0 0 0 0 0 0 0 0 0 0 0 0 0 0 0 0 0 0 0 0 0 0 0 0 0 0 0 0 0 0 0 0 0 0 0 0 0 0 0 0 0 0 0 0 0 0 0 0 0 0 0 0 0 0 0 0 0 0 0 0 0 0 0 0 0 0 0 0 0 0 0 0 0 0 0 0 0 0 
</DataArray>
</PointData>
</Piece>
</ImageData>
</VTKFile>
